%
(Header)
(Generated by gcodetools from Inkscape.)
(Using default header. To add your own header create file "header" in the output dir.)
M3
(Header end.)
G21 (All units in mm)

(Start cutting path id: path11)
(Change tool to Default tool)

G00 Z0.000000
G00 X52.479059 Y129.645403

G01 Z2 F100.0(Penetrate)
G01 X53.624913 Y129.900037 Z2 F75
G00 Z0.000000

(End cutting path id: path11)


(Start cutting path id: path11)
(Change tool to Default tool)

G00 Z0.000000
G00 X52.351742 Y129.645403

G01 Z2 F100.0(Penetrate)
G01 X52.479059 Y129.645403 Z2 F75
G00 Z0.000000

(End cutting path id: path11)


(Start cutting path id: path11)
(Change tool to Default tool)

G00 Z0.000000
G00 X64.574181 Y129.263452

G01 Z2 F100.0(Penetrate)
G02 X62.740559 Y128.146272 Z2 I-3.913951 J4.360599 F75
G03 X60.881986 Y127.044539 Z2 I2.239045 J-5.895700
G03 X60.003361 Y126.278603 Z2 I38.877940 J-45.484790
G02 X59.099547 Y125.595325 Z2 I-4.745777 J5.338130
G03 X58.315602 Y125.035903 Z2 I4.996239 J-7.830465
G03 X57.571840 Y124.403790 Z2 I9.270025 J-11.661004
G03 X56.941616 Y123.700416 Z2 I3.087232 J-3.400192
G02 X56.271949 Y122.978251 Z2 I-3.326974 J2.413543
G02 X55.583042 Y122.467367 Z2 I-4.274461 J5.044016
G03 X54.934432 Y121.951856 Z2 I2.287508 J-3.543910
G03 X53.321070 Y120.361126 Z2 I93.787164 J-96.735025
G02 X52.479059 Y119.714671 Z2 I-2.855881 J2.848210
G00 Z0.000000

(End cutting path id: path11)


(Start cutting path id: path11)
(Change tool to Default tool)

G00 Z0.000000
G00 X67.120522 Y129.263452

G01 Z2 F100.0(Penetrate)
G02 X66.981359 Y125.322479 Z2 I-55.871893 J0.000000 F75
G02 X66.536004 Y121.497110 Z2 I-42.411637 J2.999012
G02 X65.870450 Y119.754515 Z2 I-4.552295 J0.740276
G03 X65.338083 Y117.932232 Z2 I2.852643 J-1.822283
G01 X68.011742 Y117.677696 Z2
G01 X69.426377 Y118.004044 Z2
G01 X69.831609 Y119.841988 Z2
G01 X70.143025 Y120.860525 Z2
G01 X70.176135 Y122.006378 Z2
G01 X70.176135 Y124.934671 Z2
G01 X70.311116 Y127.099061 Z2
G01 X70.176135 Y129.263452 Z2
G00 Z0.000000

(End cutting path id: path11)


(Start cutting path id: path11)
(Change tool to Default tool)

G00 Z0.000000
G00 X71.958574 Y129.263452

G01 Z2 F100.0(Penetrate)
G01 X71.939314 Y126.971744 Z2 F75
G03 X71.949070 Y126.323506 Z2 I21.541684 J-0.000011
G02 X71.958574 Y125.698573 Z2 I-20.979471 J-0.631595
G03 X72.021117 Y124.075916 Z2 I21.258240 J0.006834
G02 X72.085891 Y122.388329 Z2 I-21.951360 J-1.687586
G01 X71.674862 Y120.682713 Z2
G01 X70.940628 Y120.605983 Z2
G02 X70.537601 Y120.605263 Z2 I-0.270374 J38.553841
G03 X70.176135 Y120.605885 Z2 I-0.361467 J-105.057806
G00 Z0.000000

(End cutting path id: path11)


(Start cutting path id: path11)
(Change tool to Default tool)

G00 Z0.000000
G00 X76.669306 Y129.263447

G01 Z2 F100.0(Penetrate)
G02 X76.603755 Y126.829673 Z2 I-45.213327 J-0.000001 F75
G03 X76.541989 Y124.552715 Z2 I42.543110 J-2.293364
G02 X76.512533 Y123.290969 Z2 I-27.491387 J0.010586
G02 X76.013859 Y122.378502 Z2 I-1.184570 J0.054882
G02 X75.405040 Y122.040089 Z2 I-1.844189 J2.600921
G03 X74.840794 Y121.611062 Z2 I0.550263 J-1.309247
G03 X74.364048 Y120.177229 Z2 I1.741085 J-1.375082
G02 X73.727162 Y118.917952 Z2 I-1.485578 J-0.039354
G02 X72.892970 Y118.702133 Z2 I-0.708490 J1.018397
G03 X72.085891 Y118.673535 Z2 I-0.299758 J-2.943218
G03 X71.647188 Y118.545608 Z2 I0.352441 J-2.024832
G02 X71.194672 Y118.370370 Z2 I-3.639428 J8.726163
G02 X70.317245 Y118.140574 Z2 I-1.746076 J4.876977
G02 X69.666867 Y118.059544 Z2 I-1.234312 J7.256494
G00 Z0.000000

(End cutting path id: path11)


(Start cutting path id: path11)
(Change tool to Default tool)

G00 Z0.000000
G00 X70.430769 Y126.971739

G01 Z2 F100.0(Penetrate)
G01 X71.831257 Y126.971739 Z2 F75
G00 Z0.000000

(End cutting path id: path11)


(Start cutting path id: path11)
(Change tool to Default tool)

G00 Z0.000000
G00 X76.160038 Y122.388324

G01 Z2 F100.0(Penetrate)
G01 X76.429506 Y121.985940 Z2 F75
G02 X76.556438 Y120.690187 Z2 I-2.774503 J-0.925885
G03 X76.548474 Y118.696129 Z2 I8.074302 J-1.029294
G03 X76.601468 Y118.317693 Z2 I9.324837 J1.112875
G03 X76.788666 Y117.852654 Z2 I1.117906 J0.179807
G03 X77.784869 Y116.774383 Z2 I4.325504 J2.996960
G02 X78.316962 Y115.767837 Z2 I-0.925938 J-1.133395
G02 X78.348187 Y114.536868 Z2 I-9.991132 J-0.869315
G03 X78.324462 Y113.221495 Z2 I36.452334 J-1.315373
G01 X78.324462 Y108.256129 Z2
G03 X78.344069 Y107.139973 Z2 I31.779051 J-0.000000
G02 X78.316962 Y106.091739 Z2 I-8.597295 J-0.302144
G02 X78.057397 Y105.415553 Z2 I-1.306715 J0.113691
G03 X77.690790 Y104.819157 Z2 I2.943099 J-2.220013
G01 X77.560526 Y104.054666 Z2
G00 Z0.000000

(End cutting path id: path11)


(Start cutting path id: path11)
(Change tool to Default tool)

G00 Z0.000000
G00 X72.085888 Y120.478573

G01 Z2 F100.0(Penetrate)
G01 X72.085888 Y118.823451 Z2 F75
G00 Z0.000000

(End cutting path id: path11)


(Start cutting path id: path11)
(Change tool to Default tool)

G00 Z0.000000
G00 X52.351742 Y119.714671

G01 Z2 F100.0(Penetrate)
G01 X52.479059 Y119.714671 Z2 F75
G00 Z0.000000

(End cutting path id: path11)


(Start cutting path id: path11)
(Change tool to Default tool)

G00 Z0.000000
G00 X65.210766 Y117.804915

G01 Z2 F100.0(Penetrate)
G02 X64.827385 Y117.170554 Z2 I-1.732406 J0.613963 F75
G03 X64.545299 Y116.654051 Z2 I0.884165 J-0.818164
G01 X64.628799 Y115.895159 Z2
G03 X64.833863 Y115.194254 Z2 I19.735591 J5.393603
G02 X65.027550 Y114.367354 Z2 I-5.604536 J-1.748898
G02 X65.239136 Y111.333425 Z2 I-17.074847 J-2.715143
G03 X65.210764 Y108.256134 Z2 I166.868559 J-3.077291
G03 X65.320247 Y106.742480 Z2 I10.518276 J-0.000000
G03 X65.536719 Y105.327841 Z2 I95.217741 J13.846634
G02 X65.597720 Y104.303683 Z2 I-5.083991 J-0.816711
G03 X65.592719 Y104.054671 Z2 I6.155326 J-0.248185
G00 Z0.000000

(End cutting path id: path11)


(Start cutting path id: path11)
(Change tool to Default tool)

G00 Z0.000000
G00 X75.268816 Y104.054671

G01 Z2 F100.0(Penetrate)
G01 X75.268816 Y104.819162 Z2 F75
G02 X75.273372 Y105.599615 Z2 I66.852009 J0.000000
G03 X75.266916 Y106.601012 Z2 I-27.630582 J0.322591
G03 X75.224807 Y107.104757 Z2 I-4.298032 J-0.105648
G02 X75.163079 Y107.619549 Z2 I11.216269 J1.606025
G02 X75.070832 Y108.942276 Z2 I24.584050 J2.379071
G03 X75.002753 Y110.165890 Z2 I-47.834661 J-2.047709
G03 X74.858041 Y111.604990 Z2 I-22.660276 J-1.551836
G02 X74.759515 Y113.094183 Z2 I11.215903 J1.489905
G03 X74.686460 Y115.026923 Z2 I-25.645580 J-0.001624
G02 X75.072209 Y116.773017 Z2 I3.087559 J0.233550
G02 X75.770552 Y117.389673 Z2 I1.228958 J-0.688001
G02 X76.541954 Y117.677598 Z2 I5.341438 J-13.133341
G00 Z0.000000

(End cutting path id: path11)


(Start cutting path id: path11)
(Change tool to Default tool)

G00 Z0.000000
G00 X69.412230 Y104.054671

G01 Z2 F100.0(Penetrate)
G03 X69.409607 Y104.233426 Z2 I-6.047189 J0.000665 F75
G02 X69.423630 Y104.946086 Z2 I7.254209 J0.213728
G02 X69.490171 Y105.694762 Z2 I18.900218 J-1.302528
G03 X69.539551 Y106.601012 Z2 I-8.350631 J0.909480
G03 X69.539726 Y108.776515 Z2 I-3561.736145 J1.468778
G02 X69.539551 Y110.929793 Z2 I7478.610992 J1.260224
G01 X70.558088 Y112.445514 Z2
G02 X71.149543 Y112.364565 Z2 I-0.202937 J-3.683963
G02 X71.663958 Y112.110324 Z2 I-0.257755 J-1.169063
G01 X72.080882 Y110.802476 Z2
G02 X72.045727 Y108.965930 Z2 I-14.492453 J-0.641197
G03 X71.958084 Y107.110280 Z2 I26.230392 J-2.168766
G02 X71.886610 Y105.945047 Z2 I-11.824296 J0.140477
G03 X71.831258 Y104.946086 Z2 I8.996852 J-0.999528
G01 X71.831258 Y104.054671 Z2
G00 Z0.000000

(End cutting path id: path11)


(Footer)
M5
G00 X0.0000 Y0.0000
M2
(Using default footer. To add your own footer create file "footer" in the output dir.)
(end)
%