%
(Header)
(Generated by gcodetools from Inkscape.)
(Using default header. To add your own header create file "header" in the output dir.)
M3
(Header end.)
G21 (All units in mm)

(Start cutting path id: path12)
(Change tool to Default tool)

G00 Z0.000000
G00 X93.163145 Y129.280487

G01 Z2 F100.0(Penetrate)
G02 X94.579751 Y127.214087 Z2 I-18.273776 J-14.046231 F75
G02 X95.931604 Y124.824390 Z2 I-36.928842 J-22.467888
G02 X98.366757 Y119.514713 Z2 I-48.779833 J-25.584926
G02 X99.959970 Y113.875121 Z2 I-26.855157 J-10.631556
G02 X99.882307 Y111.468077 Z2 I-5.799494 J-1.017654
G03 X99.661425 Y109.164389 Z2 I7.910887 J-1.920943
G03 X99.942238 Y107.902977 Z2 I3.770743 J0.177474
G03 X100.378760 Y106.873174 Z2 I52.400470 J21.604525
G03 X100.843388 Y106.176644 Z2 I2.173906 J0.946896
G03 X101.184120 Y105.854145 Z2 I3.589717 J3.451418
G03 X101.540931 Y106.247069 Z2 I-8.981857 J8.514831
G03 X101.960200 Y106.872682 Z2 I-2.271772 J1.975777
G03 X102.722994 Y108.875518 Z2 I-9.485406 J4.759257
G02 X103.524850 Y110.547292 Z2 I4.880395 J-1.312662
G02 X103.824003 Y110.833355 Z2 I0.953551 J-0.697731
G03 X103.985100 Y110.946828 Z2 I-2.045185 J3.074641
G00 Z0.000000

(End cutting path id: path12)


(Start cutting path id: path12)
(Change tool to Default tool)

G00 Z0.000000
G00 X103.348510 Y129.280487

G01 Z2 F100.0(Penetrate)
G01 X103.945110 Y128.250555 Z2 F75
G01 X103.985110 Y125.842926 Z2
G00 Z0.000000

(End cutting path id: path12)


(Start cutting path id: path12)
(Change tool to Default tool)

G00 Z0.000000
G00 X101.184130 Y105.854145

G01 Z2 F100.0(Penetrate)
G01 X101.184130 Y105.090243 Z2 F75
G00 Z0.000000

(End cutting path id: path12)


(Footer)
M5
;G00 X0.0000 Y0.0000
M2
(Using default footer. To add your own footer create file "footer" in the output dir.)
(end)
%