%
(Header)
(Generated by gcodetools from Inkscape.)
(Using default header. To add your own header create file "header" in the output dir.)
M3
(Header end.)
G21 (All units in mm)

(Start cutting path id: path14)
(Change tool to Default tool)

G00 Z0.000000
G00 X130.046550 Y129.390769

G01 Z2 F100.0(Penetrate)
G03 X130.319287 Y129.393781 Z2 I0.089159 J4.275900 F75
G02 X131.447040 Y129.138099 Z2 I0.094450 J-2.198371
G02 X132.265694 Y128.540005 Z2 I-1.680588 J-3.159665
G03 X132.974850 Y127.882709 Z2 I13.180374 J13.509082
G02 X134.926748 Y125.863071 Z2 I-11.524532 J-13.091026
G02 X136.725590 Y123.661500 Z2 I-411.103338 J-337.736668
G03 X137.337701 Y122.910279 Z2 I286.893872 J233.142157
G03 X137.945220 Y122.314355 Z2 I3.001340 J2.452107
G01 X139.183130 Y121.960993 Z2
G01 X139.340800 Y123.916134 Z2
G02 X139.569257 Y126.687534 Z2 I16.004456 J0.075806
G02 X140.486550 Y129.390769 Z2 I8.946982 J-1.528742
G00 Z0.000000

(End cutting path id: path14)


(Start cutting path id: path14)
(Change tool to Default tool)

G00 Z0.000000
G00 X139.595340 Y122.133695

G01 Z2 F100.0(Penetrate)
G02 X140.403214 Y121.509725 Z2 I-5.592140 J-8.075301 F75
G02 X141.637420 Y120.353123 Z2 I-12.728101 J-14.818920
G01 X142.740050 Y118.823353 Z2
G02 X142.554516 Y117.182909 Z2 I-25.437367 J2.046244
G03 X142.323030 Y115.513207 Z2 I115.649480 J-16.884460
G03 X142.047822 Y111.818404 Z2 I32.694187 J-4.292879
G03 X142.014360 Y108.128817 Z2 I203.391224 J-3.689587
G02 X141.986683 Y106.550980 Z2 I-44.988623 J0.000000
G03 X142.036060 Y105.073207 Z2 I10.797616 J-0.378926
G01 X142.778250 Y104.054671 Z2
G00 Z0.000000

(End cutting path id: path14)


(Start cutting path id: path14)
(Change tool to Default tool)

G00 Z0.000000
G00 X142.905570 Y118.823451

G01 Z2 F100.0(Penetrate)
G02 X145.297302 Y117.969781 Z2 I-0.387549 J-4.863096 F75
G03 X148.125570 Y116.463468 Z2 I7.835328 J11.303343
G03 X149.307687 Y116.229145 Z2 I1.246314 J3.188479
G02 X150.288090 Y115.967266 Z2 I-0.039661 J-2.114603
G02 X150.810700 Y115.544524 Z2 I-0.921285 J-1.673334
G02 X151.219490 Y115.003448 Z2 I-3.841940 J-3.327598
G02 X152.333390 Y113.103450 Z2 I-18.424338 J-12.078041
G02 X153.005560 Y111.057110 Z2 I-5.890021 J-3.068285
G02 X152.833895 Y110.058209 Z2 I-1.569641 J-0.244452
G03 X152.417020 Y109.147354 Z2 I6.717517 J-3.625259
G02 X151.831130 Y107.766038 Z2 I-18.654375 J7.097404
G03 X151.266550 Y106.346378 Z2 I11.486927 J-5.390294
G03 X151.043593 Y105.609288 Z2 I14.896522 J-4.908214
G03 X150.884010 Y104.946086 Z2 I9.950933 J-2.745238
G03 X150.803124 Y104.233528 Z2 I3.904585 J-0.804100
G03 X150.799210 Y104.054671 Z2 I82.274312 J-1.889768
G00 Z0.000000

(End cutting path id: path14)


(Start cutting path id: path14)
(Change tool to Default tool)

G00 Z0.000000
G00 X134.884570 Y104.054671

G01 Z2 F100.0(Penetrate)
G02 X136.249116 Y104.000252 Z2 I-0.000000 J-17.135171 F75
G03 X137.020380 Y104.131491 Z2 I0.126773 J1.586885
G01 X137.913460 Y105.163584 Z2
G03 X138.225400 Y105.946882 Z2 I-0.990517 J0.848226
G02 X138.300520 Y106.982961 Z2 I22.988218 J-1.145967
G03 X138.419082 Y108.777922 Z2 I-30.895873 J2.942144
G03 X138.449450 Y110.420522 Z2 I-44.408169 J1.642600
G01 X138.449450 Y111.439059 Z2
G02 X138.457618 Y112.322306 Z2 I47.761818 J-0.000000
G03 X138.413150 Y113.221498 Z2 I-6.632881 J0.122681
G02 X138.304105 Y115.044548 Z2 I15.726446 J1.855453
G02 X138.324050 Y116.786376 Z2 I64.536860 J0.132058
G01 X138.742740 Y117.982725 Z2
G02 X139.299071 Y118.091376 Z2 I0.489351 J-1.027015
G02 X139.977310 Y118.048155 Z2 I-4.230412 J-71.727910
G03 X141.228518 Y117.965396 Z2 I18.420805 J268.999289
G03 X142.269010 Y117.932234 Z2 I1.040492 J16.306603
G00 Z0.000000

(End cutting path id: path14)


(Start cutting path id: path14)
(Change tool to Default tool)

G00 Z0.000000
G00 X130.046570 Y117.550283

G01 Z2 F100.0(Penetrate)
G02 X130.244194 Y117.478733 Z2 I-1.219820 J-3.677923 F75
G02 X130.811070 Y117.177468 Z2 I-1.032193 J-2.626187
G02 X131.778614 Y116.457852 Z2 I-9.236337 J-13.428766
G02 X132.847550 Y115.511342 Z2 I-9.269140 J-11.544911
G02 X135.015429 Y113.009392 Z2 I-13.800285 J-14.147795
G02 X136.794380 Y110.547844 Z2 I-283.001267 J-206.397478
G00 Z0.000000

(End cutting path id: path14)


(Start cutting path id: path14)
(Change tool to Default tool)

G00 Z0.000000
G00 X144.178770 Y114.749307

G01 Z2 F100.0(Penetrate)
G02 X146.023518 Y111.452888 Z2 I-14.201394 J-10.111801 F75
G02 X147.288800 Y107.874185 Z2 I-28.281692 J-12.012267
G03 X147.772834 Y106.299107 Z2 I39.388675 J11.242541
G02 X148.157530 Y104.946088 Z2 I-16.199074 J-5.336987
G02 X148.248532 Y104.249180 Z2 I-3.232137 J-0.776444
G02 X148.252930 Y104.054673 Z2 I-73.687480 J-1.763640
G00 Z0.000000

(End cutting path id: path14)


(Start cutting path id: path14)
(Change tool to Default tool)

G00 Z0.000000
G00 X140.104630 Y109.656624

G01 Z2 F100.0(Penetrate)
G01 X140.231950 Y109.529307 Z2 F75
G00 Z0.000000

(End cutting path id: path14)


(Start cutting path id: path14)
(Change tool to Default tool)

G00 Z0.000000
G00 X139.213410 Y104.054673

G01 Z2 F100.0(Penetrate)
G01 X139.850000 Y104.054673 Z2 F75
G00 Z0.000000

(End cutting path id: path14)


(Start cutting path id: path14)
(Change tool to Default tool)

G00 Z0.000000
G00 X152.072440 Y104.054673

G01 Z2 F100.0(Penetrate)
G01 X152.327070 Y104.054673 Z2 F75
G00 Z0.000000

(End cutting path id: path14)


(Footer)
M5
;G00 X0.0000 Y0.0000
M2
(Using default footer. To add your own footer create file "footer" in the output dir.)
(end)
%