%
(Header)
(Generated by gcodetools from Inkscape.)
(Using default header. To add your own header create file "header" in the output dir.)
M3
(Header end.)
G21 (All units in mm)

(Start cutting path id: path6)
(Change tool to Default tool)

G00 Z0.000000
G00 X67.138413 Y129.274346

G01 Z2 F100.0(Penetrate)
G02 X67.138440 Y129.425985 Z2 I425.646704 J-0.006136 F75
G03 X67.138413 Y129.676731 Z2 I-270.212493 J0.097760
G03 X67.056486 Y131.078025 Z2 I-12.143681 J-0.006944
G02 X66.778075 Y133.730444 Z2 I113.748913 J13.280454
G02 X66.913676 Y134.445709 Z2 I1.310109 J0.122114
G02 X67.479988 Y135.157554 Z2 I2.000410 J-1.010249
G01 X67.535098 Y136.786053 Z2
G01 X67.098429 Y137.759597 Z2
G01 X65.610607 Y137.322141 Z2
G01 X64.619184 Y137.568818 Z2
G01 X64.912131 Y138.441175 Z2
G02 X65.485361 Y139.417059 Z2 I16.159949 J-8.835981
G03 X66.043740 Y140.605566 Z2 I-4.542798 J2.859699
G03 X66.400752 Y142.129154 Z2 I-8.614479 J2.822196
G02 X66.671779 Y143.661175 Z2 I24.564354 J-3.555647
G03 X66.786200 Y144.305371 Z2 I-10.444740 J2.187443
G03 X66.862165 Y144.934346 Z2 I-12.573312 J1.837619
G03 X66.876719 Y145.628851 Z2 I-4.657626 J0.445007
G02 X66.924255 Y146.072833 Z2 I1.399248 J0.074721
G01 X68.284268 Y146.742033 Z2
G03 X70.860723 Y147.650154 Z2 I-1.474066 J8.291038
G02 X73.376951 Y148.873218 Z2 I13.639260 J-24.860388
G02 X73.899127 Y149.063677 Z2 I2.044658 J-4.794721
G02 X74.395488 Y149.119600 Z2 I0.398248 J-1.304012
G02 X75.978851 Y148.327873 Z2 I-0.166866 J-2.312849
G03 X77.323780 Y147.273698 Z2 I3.405403 J2.959629
G03 X78.147297 Y146.916809 Z2 I3.139546 J6.115882
G02 X78.342317 Y146.844102 Z2 I-2.648609 J-7.402255
G00 Z0.000000

(End cutting path id: path6)


(Start cutting path id: path6)
(Change tool to Default tool)

G00 Z0.000000
G00 X72.231097 Y145.825566

G01 Z2 F100.0(Penetrate)
G02 X72.189639 Y145.249885 Z2 I-4.017643 J0.000000 F75
G03 X72.307827 Y144.324384 Z2 I1.725964 J-0.249889
G01 X72.707361 Y143.840166 Z2
G01 X73.102575 Y142.388005 Z2
G03 X73.236076 Y141.614646 Z2 I7.764033 J0.942069
G03 X73.430986 Y140.860200 Z2 I11.998796 J2.697461
G03 X74.118947 Y138.853238 Z2 I22.271550 J6.513007
G03 X75.009777 Y136.913370 Z2 I18.214854 J7.190185
G03 X75.897398 Y135.969688 Z2 I2.150241 J1.133215
G02 X76.631989 Y135.001747 Z2 I-0.860868 J-1.416051
G02 X76.758543 Y133.740558 Z2 I-3.528338 J-0.990994
G02 X76.613909 Y132.329956 Z2 I-24.914430 J1.841844
G03 X76.580458 Y131.177323 Z2 I5.639790 J-0.740477
G03 X76.665579 Y130.165762 Z2 I44.296206 J3.218086
G02 X76.689681 Y129.467227 Z2 I-5.708423 J-0.546641
G03 X76.687189 Y129.274346 Z2 I7.103375 J-0.188217
G00 Z0.000000

(End cutting path id: path6)


(Start cutting path id: path6)
(Change tool to Default tool)

G00 Z0.000000
G00 X72.231096 Y144.170444

G01 Z2 F100.0(Penetrate)
G03 X71.831302 Y143.699829 Z2 I3.353827 J-3.254248 F75
G03 X71.217079 Y142.006053 Z2 I2.528710 J-1.875256
G02 X71.090511 Y141.258397 Z2 I-3.447489 J0.199071
G02 X70.894071 Y140.605566 Z2 I-22.493390 J6.412407
G03 X70.849646 Y140.065781 Z2 I1.158372 J-0.367056
G03 X70.994765 Y139.587029 Z2 I1.638555 J0.235307
G03 X71.358061 Y138.990571 Z2 I3.122005 J1.492707
G02 X71.721828 Y138.441175 Z2 I-4.151569 J-3.143975
G00 Z0.000000

(End cutting path id: path6)


(Start cutting path id: path6)
(Change tool to Default tool)

G00 Z0.000000
G00 X75.414023 Y141.751419

G01 Z2 F100.0(Penetrate)
G01 X77.577823 Y142.128262 Z2 F75
G01 X78.342316 Y142.260688 Z2
G00 Z0.000000

(End cutting path id: path6)


(Start cutting path id: path6)
(Change tool to Default tool)

G00 Z0.000000
G00 X69.048170 Y141.369468

G01 Z2 F100.0(Penetrate)
G01 X69.812464 Y140.743296 Z2 F75
G02 X70.362657 Y140.544379 Z2 I-0.694770 J-2.782059
G02 X70.703292 Y140.350931 Z2 I-1.263070 J-2.620713
G00 Z0.000000

(End cutting path id: path6)


(Start cutting path id: path6)
(Change tool to Default tool)

G00 Z0.000000
G00 X69.048170 Y140.987517

G01 Z2 F100.0(Penetrate)
G03 X68.123408 Y139.334926 Z2 I4.173979 J-3.420725 F75
G02 X67.265730 Y137.804590 Z2 I-4.705863 J1.631893
G00 Z0.000000

(End cutting path id: path6)


(Start cutting path id: path6)
(Change tool to Default tool)

G00 Z0.000000
G00 X64.464755 Y137.422639

G01 Z2 F100.0(Penetrate)
G02 X63.899470 Y136.875332 Z2 I-23.187071 J23.383179 F75
G02 X63.318901 Y136.431216 Z2 I-2.411981 J2.551517
G02 X62.296718 Y135.843087 Z2 I-11.554413 J18.899496
G02 X61.154511 Y135.327605 Z2 I-4.167196 J7.710499
G02 X60.410412 Y135.125849 Z2 I-1.520533 J4.134865
G03 X59.781137 Y134.877869 Z2 I0.302658 J-1.690440
G03 X59.252610 Y134.315079 Z2 I0.870004 J-1.346608
G02 X58.606204 Y133.575719 Z2 I-2.078429 J1.164873
G03 X56.320006 Y131.830663 Z2 I120.629458 J-160.406758
G02 X54.027112 Y130.121260 Z2 I-47.352974 J61.124055
G03 X53.338996 Y129.592123 Z2 I7.575553 J-10.563622
G02 X52.496950 Y129.274346 Z2 I-0.887848 J1.078104
G00 Z0.000000

(End cutting path id: path6)


(Start cutting path id: path6)
(Change tool to Default tool)

G00 Z0.000000
G00 X52.369633 Y136.404102

G01 Z2 F100.0(Penetrate)
G03 X52.576571 Y136.314108 Z2 I8.949269 J20.295672 F75
G02 X53.009362 Y136.104083 Z2 I-2.031660 J-4.737494
G03 X54.262117 Y135.613588 Z2 I2.573381 J4.727520
G03 X56.189145 Y135.280057 Z2 I3.139140 J12.403262
G03 X58.329344 Y135.269539 Z2 I1.128398 J11.857313
G02 X59.626706 Y134.876297 Z2 I0.155485 J-1.823746
G00 Z0.000000

(End cutting path id: path6)


(Start cutting path id: path6)
(Change tool to Default tool)

G00 Z0.000000
G00 X70.194023 Y129.274346

G01 Z2 F100.0(Penetrate)
G01 X70.194023 Y129.676731 Z2 F75
G02 X70.195791 Y131.047113 Z2 I531.096468 J0.000000
G02 X70.335192 Y133.475712 Z2 I22.223858 J-0.057344
G02 X70.786555 Y134.290529 Z2 I1.206213 J-0.135751
G02 X71.702966 Y134.488943 Z2 I0.659497 J-0.830491
G01 X72.067431 Y133.093858 Z2
G03 X71.976668 Y131.553194 Z2 I13.097445 J-1.544598
G03 X71.976461 Y130.165762 Z2 I4651.486972 J-1.387432
G01 X71.976461 Y129.274346 Z2
G00 Z0.000000

(End cutting path id: path6)


(Start cutting path id: path6)
(Change tool to Default tool)

G00 Z0.000000
G00 X78.342315 Y134.239712

G01 Z2 F100.0(Penetrate)
G01 X78.342315 Y133.857761 Z2 F75
G00 Z0.000000

(End cutting path id: path6)


(Start cutting path id: path6)
(Change tool to Default tool)

G00 Z0.000000
G00 X52.369632 Y129.274346

G01 Z2 F100.0(Penetrate)
G01 X52.496949 Y129.274346 Z2 F75
G00 Z0.000000

(End cutting path id: path6)


(Footer)
M5
;G00 X0.0000 Y0.0000
M2
(Using default footer. To add your own footer create file "footer" in the output dir.)
(end)
%