%
(Header)
(Generated by gcodetools from Inkscape.)
(Using default header. To add your own header create file "header" in the output dir.)
M3
(Header end.)
G21 (All units in mm)

(Start cutting path id: path17)
(Change tool to Default tool)

G00 Z0.000000
G00 X77.774818 Y101.130304

G01 Z2 F100.0(Penetrate)
G02 X78.015706 Y100.940092 Z2 I-34.991672 J-44.561773 F75
G02 X78.503944 Y100.364338 Z2 I-1.202960 J-1.514997
G03 X79.306194 Y98.929963 Z2 I239.504149 J133.013772
G02 X79.911997 Y97.183475 Z2 I-4.521316 J-2.546618
G02 X79.849956 Y94.614363 Z2 I-7.132446 J-1.113064
G03 X79.855707 Y92.473823 Z2 I5.130211 J-1.056493
G01 X81.771063 Y93.231045 Z2
G01 X82.854142 Y93.863800 Z2
G01 X83.449565 Y93.109328 Z2
G03 X84.080238 Y91.954504 Z2 I12.353977 J5.997137
G03 X84.803292 Y90.817621 Z2 I30.785798 J18.781296
G02 X85.632460 Y89.275892 Z2 I-7.967601 J-5.278944
G02 X86.070175 Y87.634694 Z2 I-5.558358 J-2.361410
G03 X86.393492 Y85.527736 Z2 I32.343529 J3.884889
G03 X86.861584 Y83.433230 Z2 I30.241898 J5.659076
G03 X87.496300 Y81.596848 Z2 I12.061793 J3.141083
G02 X88.125816 Y79.995670 Z2 I-21.786595 J-9.489917
G02 X88.319434 Y79.184990 Z2 I-3.788800 J-1.333355
G02 X88.342137 Y78.977130 Z2 I-4.775691 J-0.626788
G00 Z0.000000

(End cutting path id: path17)


(Start cutting path id: path17)
(Change tool to Default tool)

G00 Z0.000000
G00 X99.291404 Y96.674206

G01 Z2 F100.0(Penetrate)
G03 X99.394434 Y95.917683 Z2 I3.467794 J0.086997 F75
G02 X99.415185 Y94.764450 Z2 I-2.478762 J-0.621406
G02 X99.100711 Y94.070115 Z2 I-1.742214 J0.370691
G03 X98.772508 Y93.363962 Z2 I1.526965 J-1.139043
G02 X97.985796 Y91.535942 Z2 I-5.498454 J1.283035
G02 X96.631008 Y89.969037 Z2 I-6.700009 J4.423861
G03 X95.792864 Y88.603795 Z2 I1.854373 J-2.078326
G03 X95.599209 Y87.125426 Z2 I5.617384 J-1.487702
G03 X95.601922 Y85.794727 Z2 I182.827493 J-0.292595
G02 X95.525919 Y84.579084 Z2 I-8.947306 J-0.050804
G03 X95.456358 Y83.533229 Z2 I8.106232 J-1.064395
G02 X95.347323 Y82.669820 Z2 I-3.536536 J0.008020
G02 X94.830460 Y82.022559 Z2 I-0.973723 J0.247557
G02 X93.949684 Y81.585860 Z2 I-18.990111 J37.194522
G03 X93.549319 Y81.265678 Z2 I0.495962 J-1.030571
G03 X93.402004 Y81.011750 Z2 I0.798904 J-0.633175
G03 X93.269563 Y80.395393 Z2 I1.734060 J-0.695017
G02 X93.216529 Y79.741620 Z2 I-8.441844 J0.355766
G03 X93.181875 Y79.196401 Z2 I4.819714 J-0.580054
G02 X93.180179 Y78.977130 Z2 I-196.806845 J1.412296
G00 Z0.000000

(End cutting path id: path17)


(Start cutting path id: path17)
(Change tool to Default tool)

G00 Z0.000000
G00 X82.867501 Y94.637133

G01 Z2 F100.0(Penetrate)
G01 X82.740184 Y94.127865 Z2 F75
G00 Z0.000000

(End cutting path id: path17)


(Start cutting path id: path17)
(Change tool to Default tool)

G00 Z0.000000
G00 X99.673355 Y94.382499

G01 Z2 F100.0(Penetrate)
G02 X100.042529 Y94.133167 Z2 I-2.010043 J-3.374147 F75
G02 X100.455920 Y93.613488 Z2 I-0.819186 J-1.075902
G03 X101.337978 Y91.782439 Z2 I37.044257 J16.717076
G03 X102.728970 Y90.144000 Z2 I4.194726 J2.151537
G03 X103.546557 Y89.729026 Z2 I1.637774 J2.213866
G03 X103.747500 Y89.671767 Z2 I1.253190 J4.016686
G00 Z0.000000

(End cutting path id: path17)


(Start cutting path id: path17)
(Change tool to Default tool)

G00 Z0.000000
G00 X80.193843 Y91.708840

G01 Z2 F100.0(Penetrate)
G01 X80.182543 Y90.435670 Z2 F75
G01 X80.205233 Y89.035182 Z2
G01 X80.318010 Y88.016645 Z2
G01 X80.682868 Y86.488840 Z2
G01 X81.467008 Y83.560547 Z2
G02 X81.702705 Y83.674308 Z2 I1.520101 J-2.848404
G02 X82.231401 Y83.808895 Z2 I0.681698 J-1.572170
G01 X82.990785 Y84.019321 Z2
G01 X83.048255 Y84.833718 Z2
G03 X82.644675 Y86.111701 Z2 I-3.958469 J-0.547348
G03 X81.976277 Y87.125426 Z2 I-4.985104 J-2.559704
G02 X81.369579 Y86.766685 Z2 I-2.143691 J2.932995
G03 X80.830423 Y86.488840 Z2 I3.290673 J-7.047548
G00 Z0.000000

(End cutting path id: path17)


(Start cutting path id: path17)
(Change tool to Default tool)

G00 Z0.000000
G00 X82.358228 Y89.544450

G01 Z2 F100.0(Penetrate)
G03 X82.124567 Y88.223583 Z2 I4.861595 J-1.541115 F75
G03 X82.103594 Y87.252743 Z2 I22.459523 J-0.970840
G00 Z0.000000

(End cutting path id: path17)


(Start cutting path id: path17)
(Change tool to Default tool)

G00 Z0.000000
G00 X83.122131 Y83.687865

G01 Z2 F100.0(Penetrate)
G01 X83.227835 Y82.287380 Z2 F75
G01 X83.176165 Y79.741620 Z2
G01 X83.122135 Y78.977130 Z2
G00 Z0.000000

(End cutting path id: path17)


(Start cutting path id: path17)
(Change tool to Default tool)

G00 Z0.000000
G00 X81.467013 Y83.560547

G01 Z2 F100.0(Penetrate)
G01 X81.467013 Y79.741620 Z2 F75
G01 X81.467013 Y78.977130 Z2
G00 Z0.000000

(End cutting path id: path17)


(Start cutting path id: path17)
(Change tool to Default tool)

G00 Z0.000000
G00 X93.562135 Y82.287380

G01 Z2 F100.0(Penetrate)
G01 X93.689452 Y81.778110 Z2 F75
G00 Z0.000000

(End cutting path id: path17)


(Footer)
M5
G00 X0.0000 Y0.0000
M2
(Using default footer. To add your own footer create file "footer" in the output dir.)
(end)
%