%
(Header)
(Generated by gcodetools from Inkscape.)
(Using default header. To add your own header create file "header" in the output dir.)
M3
(Header end.)
G21 (All units in mm)

(Start cutting path id: path22)
(Change tool to Default tool)

G00 Z0.000000
G00 X81.339697 Y78.579210

G01 Z2 F100.0(Penetrate)
G01 X81.339697 Y77.051410 Z2 F75
G00 Z0.000000

(End cutting path id: path22)


(Start cutting path id: path22)
(Change tool to Default tool)

G00 Z0.000000
G00 X83.122136 Y78.579210

G01 Z2 F100.0(Penetrate)
G01 X83.122136 Y78.324580 Z2 F75
G00 Z0.000000

(End cutting path id: path22)


(Start cutting path id: path22)
(Change tool to Default tool)

G00 Z0.000000
G00 X88.978721 Y78.579210

G01 Z2 F100.0(Penetrate)
G03 X89.445062 Y77.308834 Z2 I5.314262 J1.230023 F75
G02 X89.969161 Y76.032870 Z2 I-7.099803 J-3.661846
G02 X90.286503 Y74.630222 Z2 I-8.502670 J-2.660908
G03 X90.738860 Y73.231890 Z2 I4.270865 J0.609280
G01 X92.032366 Y72.137910 Z2
G01 X92.810611 Y72.977260 Z2
G03 X93.105292 Y75.816483 Z2 I-5.825300 J2.039509
G02 X92.925550 Y78.579210 Z2 I21.142344 J2.762727
G00 Z0.000000

(End cutting path id: path22)


(Start cutting path id: path22)
(Change tool to Default tool)

G00 Z0.000000
G00 X77.902135 Y73.486530

G01 Z2 F100.0(Penetrate)
G03 X78.111863 Y73.690891 Z2 I-3.796730 J4.106222 F75
G02 X78.666627 Y74.046880 Z2 I1.044100 J-1.016842
G02 X79.022424 Y74.115279 Z2 I0.400229 J-1.122310
G02 X79.429940 Y74.122880 Z2 I0.407516 J-10.920796
G01 X80.371655 Y73.918930 Z2
G01 X80.575794 Y72.849900 Z2
G03 X80.631967 Y72.078038 Z2 I5.610973 J0.020372
G03 X81.098914 Y71.249990 Z2 I1.295262 J0.184732
G03 X82.971721 Y70.710764 Z2 I1.564975 J1.913500
G02 X85.031892 Y70.814700 Z2 I1.726863 J-13.759183
G01 X86.139138 Y70.943680 Z2
G01 X86.548203 Y71.958680 Z2
G03 X86.569276 Y72.754297 Z2 I-8.138466 J0.613647
G02 X86.559693 Y73.613810 Z2 I38.540438 J0.859513
G00 Z0.000000

(End cutting path id: path22)


(Start cutting path id: path22)
(Change tool to Default tool)

G00 Z0.000000
G00 X93.052863 Y69.285030

G01 Z2 F100.0(Penetrate)
G03 X94.782146 Y67.994461 Z2 I4.712624 J4.510775 F75
G03 X97.108247 Y68.052230 Z2 I1.110155 J2.158784
G01 X97.601306 Y69.030390 Z2
G01 X98.047308 Y70.057280 Z2
G02 X99.647809 Y70.585524 Z2 I1.659008 J-2.337785
G03 X101.278280 Y71.339090 Z2 I-0.045719 J2.239610
G03 X101.922063 Y72.504023 Z2 I-2.277104 J2.018764
G02 X102.602240 Y73.318790 Z2 I1.274292 J-0.372500
G02 X103.518739 Y73.576257 Z2 I1.127147 J-2.252323
G03 X103.747500 Y73.613810 Z2 I-0.122887 J1.464149
G00 Z0.000000

(End cutting path id: path22)


(Start cutting path id: path22)
(Change tool to Default tool)

G00 Z0.000000
G00 X77.902131 Y63.683070

G01 Z2 F100.0(Penetrate)
G03 X78.121282 Y63.703488 Z2 I-0.773601 J9.489593 F75
G03 X78.793547 Y63.837010 Z2 I-0.390621 J3.725861
G03 X79.532768 Y64.092142 Z2 I-2.480903 J8.386668
G03 X80.321156 Y64.479790 Z2 I-2.025679 J5.115294
G02 X81.704920 Y65.272968 Z2 I24.845499 J-41.741384
G02 X83.249449 Y65.791080 Z2 I2.192576 J-3.974995
G02 X84.574275 Y65.565219 Z2 I0.312396 J-2.166021
G03 X85.795790 Y65.131900 Z2 I2.147464 J4.115270
G03 X87.724081 Y65.175566 Z2 I0.868078 J4.264118
G03 X89.360668 Y65.592830 Z2 I-58.360095 J232.317525
G00 Z0.000000

(End cutting path id: path22)


(Start cutting path id: path22)
(Change tool to Default tool)

G00 Z0.000000
G00 X101.328480 Y56.807950

G01 Z2 F100.0(Penetrate)
G03 X100.064876 Y57.989940 Z2 I-5.344229 J-4.446818 F75
G03 X98.272864 Y59.101720 Z2 I-8.604791 J-11.869435
G03 X95.865086 Y60.234820 Z2 I-14.232519 J-27.118604
G02 X93.592389 Y61.640200 Z2 I3.290312 J7.861223
G02 X93.249512 Y62.287114 Z2 I0.657168 J0.762635
G02 X93.511639 Y63.108380 Z2 I1.040412 J0.120392
G02 X94.355496 Y63.489037 Z2 I0.855184 J-0.770130
G03 X95.599207 Y63.597120 Z2 I-0.080033 J8.130710
G03 X97.724645 Y64.094749 Z2 I-2.675280 J16.214297
G02 X99.927987 Y64.424190 Z2 I2.206256 J-7.222877
G02 X101.440117 Y64.370240 Z2 I0.007933 J-20.995693
G03 X102.728970 Y64.319560 Z2 I1.426163 J19.855337
G01 X103.670680 Y64.024550 Z2
G01 X103.747480 Y62.791850 Z2
G00 Z0.000000

(End cutting path id: path22)


(Start cutting path id: path22)
(Change tool to Default tool)

G00 Z0.000000
G00 X77.774796 Y63.683070

G01 Z2 F100.0(Penetrate)
G01 X77.902113 Y63.683070 Z2 F75
G00 Z0.000000

(End cutting path id: path22)


(Start cutting path id: path22)
(Change tool to Default tool)

G00 Z0.000000
G00 X88.978699 Y62.282590

G01 Z2 F100.0(Penetrate)
G02 X89.932542 Y61.914563 Z2 I-0.711645 J-3.264513 F75
G02 X90.747385 Y61.325940 Z2 I-2.419140 J-4.207177
G02 X91.136539 Y60.736408 Z2 I-0.922452 J-1.032126
G03 X91.516690 Y60.098150 Z2 I1.674684 J0.565112
G03 X92.005815 Y59.769732 Z2 I0.944117 J0.877662
G02 X92.521965 Y59.453120 Z2 I-0.567370 J-1.503971
G02 X93.401999 Y58.588178 Z2 I-11.228075 J-12.304150
G02 X94.347629 Y57.572350 Z2 I-68.402565 J-64.623734
G03 X95.618760 Y56.288109 Z2 I17.515681 J16.065677
G03 X96.999675 Y55.280150 Z2 I4.801588 J5.128314
G00 Z0.000000

(End cutting path id: path22)


(Start cutting path id: path22)
(Change tool to Default tool)

G00 Z0.000000
G00 X91.397723 Y59.990880

G01 Z2 F100.0(Penetrate)
G02 X90.001526 Y59.137803 Z2 I-3.944698 J4.887042 F75
G02 X87.578211 Y58.208440 Z2 I-10.204393 J22.983879
G00 Z0.000000

(End cutting path id: path22)


(Start cutting path id: path22)
(Change tool to Default tool)

G00 Z0.000000
G00 X77.774796 Y58.717710

G01 Z2 F100.0(Penetrate)
G02 X77.991750 Y58.705441 Z2 I-0.549683 J-11.644052 F75
G02 X78.793333 Y58.530860 Z2 I-0.182168 J-2.763933
G02 X79.664662 Y58.130897 Z2 I-2.535015 J-6.671677
G02 X80.703089 Y57.515960 Z2 I-7.764905 J-14.296631
G03 X82.819541 Y56.381267 Z2 I8.167999 J12.693941
G02 X84.904553 Y55.198220 Z2 I-4.646447 J-10.617784
G03 X85.643540 Y54.682796 Z2 I24.485116 J34.317979
G02 X86.303174 Y54.232040 Z2 I-201.445432 J-295.502053
G02 X86.932418 Y53.710214 Z2 I-2.520558 J-3.679711
G03 X87.455904 Y53.410870 Z2 I0.813979 J0.816067
G03 X88.204566 Y53.336934 Z2 I0.608974 J2.338991
G02 X89.360650 Y53.370370 Z2 I1.156084 J-19.969858
G00 Z0.000000

(End cutting path id: path22)


(Start cutting path id: path22)
(Change tool to Default tool)

G00 Z0.000000
G00 X103.492850 Y55.152810

G01 Z2 F100.0(Penetrate)
G01 X103.731670 Y54.636080 Z2 F75
G01 X103.452370 Y53.501220 Z2
G01 X102.346990 Y53.370370 Z2
G00 Z0.000000

(End cutting path id: path22)


(Start cutting path id: path22)
(Change tool to Default tool)

G00 Z0.000000
G00 X81.212357 Y53.370370

G01 Z2 F100.0(Penetrate)
G01 X81.466992 Y53.370370 Z2 F75
G00 Z0.000000

(End cutting path id: path22)


(Footer)
M5
G00 X0.0000 Y0.0000
M2
(Using default footer. To add your own footer create file "footer" in the output dir.)
(end)
%