%
(Header)
(Generated by gcodetools from Inkscape.)
(Using default header. To add your own header create file "header" in the output dir.)
M3
(Header end.)
G21 (All units in mm)

(Start cutting path id: path8)
(Change tool to Default tool)

G00 Z0.000000
G00 X116.549150 Y148.122353

G01 Z2 F100.0(Penetrate)
G01 X116.931100 Y148.122353 Z2 F75
G00 Z0.000000

(End cutting path id: path8)


(Start cutting path id: path8)
(Change tool to Default tool)

G00 Z0.000000
G00 X103.562810 Y136.281865

G01 Z2 F100.0(Penetrate)
G03 X103.804646 Y136.306781 Z2 I-0.679029 J7.776877 F75
G03 X104.327300 Y136.414684 Z2 I-0.369222 J3.108159
G02 X105.859969 Y136.751012 Z2 I3.068213 J-10.321647
G02 X107.515530 Y136.152582 Z2 I0.266733 J-1.851356
G02 X108.682899 Y134.340814 Z2 I-4.972176 J-4.485670
G03 X109.564300 Y132.335036 Z2 I306.043881 J133.288564
G02 X109.895069 Y131.561180 Z2 I-28.762762 J-12.751661
G02 X109.994480 Y130.807231 Z2 I-1.370498 J-0.564234
G02 X109.754309 Y129.929602 Z2 I-3.262408 J0.421112
G03 X109.674030 Y129.661377 Z2 I1.120316 J-0.481432
G00 Z0.000000

(End cutting path id: path8)


(Start cutting path id: path8)
(Change tool to Default tool)

G00 Z0.000000
G00 X103.435490 Y136.281865

G01 Z2 F100.0(Penetrate)
G01 X103.562810 Y136.281865 Z2 F75
G00 Z0.000000

(End cutting path id: path8)


(Start cutting path id: path8)
(Change tool to Default tool)

G00 Z0.000000
G00 X129.408180 Y130.552597

G01 Z2 F100.0(Penetrate)
G03 X128.743463 Y130.226193 Z2 I0.838999 J-2.548652 F75
G03 X128.262320 Y129.661377 Z2 I0.778527 J-1.150536
G00 Z0.000000

(End cutting path id: path8)


(Footer)
M5
;G00 X0.0000 Y0.0000
M2
(Using default footer. To add your own footer create file "footer" in the output dir.)
(end)
%