%
(Header)
(Generated by gcodetools from Inkscape.)
(Using default header. To add your own header create file "header" in the output dir.)
M3
(Header end.)
G21 (All units in mm)

(Start cutting path id: path20)
(Change tool to Default tool)

G00 Z0.000000
G00 X31.744474 Y79.527270

G01 Z2 F100.0(Penetrate)
G03 X31.848611 Y78.346697 Z2 I8.803677 J0.181685 F75
G02 X31.987713 Y77.108250 Z2 I-14.163859 J-2.217913
G02 X32.000479 Y76.385734 Z2 I-7.112067 J-0.487032
G03 X32.004123 Y75.707760 Z2 I8.822015 J-0.291579
G02 X32.025778 Y73.353924 Z2 I-34.030804 J-1.490098
G03 X31.999123 Y71.251860 Z2 I82.872805 J-2.102064
G01 X31.999123 Y70.360440 Z2
G01 X33.272294 Y70.360440 Z2
G02 X34.737984 Y70.348332 Z2 I-0.000000 J-88.716139
G02 X36.200587 Y70.040970 Z2 I-0.065164 J-3.943717
G02 X37.260888 Y69.466904 Z2 I-2.374803 J-5.652492
G02 X38.142762 Y68.698940 Z2 I-2.697420 J-3.987841
G03 X38.530321 Y68.305491 Z2 I4.535257 J4.079770
G03 X39.003430 Y68.022760 Z2 I0.903065 J0.973940
G03 X39.746036 Y67.911712 Z2 I0.674355 J1.971062
G02 X40.529367 Y67.936860 Z2 I19.001210 J-579.658532
G02 X41.222820 Y67.923035 Z2 I0.212610 J-6.734003
G02 X41.929855 Y67.814060 Z2 I-0.313596 J-4.382757
G00 Z0.000000

(End cutting path id: path20)


(Start cutting path id: path20)
(Change tool to Default tool)

G00 Z0.000000
G00 X36.200587 Y79.399920

G01 Z2 F100.0(Penetrate)
G03 X37.489156 Y78.158881 Z2 I1.664045 J0.438296 F75
G02 X38.830431 Y76.975780 Z2 I-0.404884 J-1.810864
G02 X38.956006 Y74.082833 Z2 I-4.584506 J-1.648199
G03 X39.128880 Y71.633580 Z2 I3.675397 J-0.971309
G00 Z0.000000

(End cutting path id: path20)


(Start cutting path id: path20)
(Change tool to Default tool)

G00 Z0.000000
G00 X42.311807 Y79.399920

G01 Z2 F100.0(Penetrate)
G01 X42.311807 Y77.490160 Z2 F75
G01 X42.311807 Y76.471620 Z2
G01 X42.311807 Y75.325770 Z2
G01 X42.316807 Y74.052600 Z2
G01 X42.422707 Y73.034060 Z2
G01 X42.311797 Y71.633580 Z2
G00 Z0.000000

(End cutting path id: path20)


(Start cutting path id: path20)
(Change tool to Default tool)

G00 Z0.000000
G00 X46.640577 Y79.399920

G01 Z2 F100.0(Penetrate)
G01 X46.640577 Y72.524800 Z2 F75
G00 Z0.000000

(End cutting path id: path20)


(Start cutting path id: path20)
(Change tool to Default tool)

G00 Z0.000000
G00 X49.059601 Y79.399920

G01 Z2 F100.0(Penetrate)
G03 X49.284831 Y78.236459 Z2 I3.258149 J0.027202 F75
G03 X49.707680 Y77.257140 Z2 I14.820574 J5.818257
G03 X50.094140 Y76.721914 Z2 I1.629065 J0.769131
G03 X50.335228 Y76.508070 Z2 I3.124850 J3.280141
G02 X51.200943 Y75.789909 Z2 I-142.311360 J-172.431618
G02 X51.868338 Y75.070650 Z2 I-2.465832 J-2.957293
G02 X52.059095 Y74.730850 Z2 I-1.461517 J-1.043909
G02 X52.223667 Y73.416010 Z2 I-2.218481 J-0.945396
G02 X51.849999 Y72.571156 Z2 I-1.758223 J0.272578
G03 X51.478626 Y71.633580 Z2 I1.319657 J-1.065054
G00 Z0.000000

(End cutting path id: path20)


(Start cutting path id: path20)
(Change tool to Default tool)

G00 Z0.000000
G00 X49.696187 Y76.980890

G01 Z2 F100.0(Penetrate)
G03 X49.365494 Y76.271634 Z2 I1.137764 J-0.962208 F75
G03 X49.175523 Y74.689190 Z2 I15.373589 J-2.648209
G02 X49.105678 Y73.849332 Z2 I-28.779828 J1.970576
G03 X49.059601 Y72.906750 Z2 I9.639892 J-0.943653
G00 Z0.000000

(End cutting path id: path20)


(Start cutting path id: path20)
(Change tool to Default tool)

G00 Z0.000000
G00 X31.999113 Y70.360400

G01 Z2 F100.0(Penetrate)
G01 X31.235211 Y69.978450 Z2 F75
G00 Z0.000000

(End cutting path id: path20)


(Start cutting path id: path20)
(Change tool to Default tool)

G00 Z0.000000
G00 X44.985455 Y69.978450

G01 Z2 F100.0(Penetrate)
G03 X45.238704 Y69.217483 Z2 I4.441093 J1.055368 F75
G03 X45.762718 Y68.479240 Z2 I2.010521 J0.871995
G03 X46.441987 Y68.057359 Z2 I1.438243 J1.557925
G02 X47.122731 Y67.636640 Z2 I-0.768412 J-2.004426
G02 X47.775428 Y66.728430 Z2 I-1.840291 J-2.011187
G03 X48.434902 Y65.793990 Z2 I2.658182 J1.176064
G03 X49.166686 Y65.349574 Z2 I1.396086 J1.474130
G03 X49.950821 Y65.126160 Z2 I2.393011 J6.911168
G03 X50.511886 Y65.035152 Z2 I1.024895 J4.543505
G03 X51.096675 Y65.024580 Z2 I0.356974 J3.566823
G03 X52.014924 Y65.119300 Z2 I-0.747520 J11.745000
G02 X52.242528 Y65.140400 Z2 I0.326425 J-2.282994
G00 Z0.000000

(End cutting path id: path20)


(Start cutting path id: path20)
(Change tool to Default tool)

G00 Z0.000000
G00 X34.163504 Y67.304800

G01 Z2 F100.0(Penetrate)
G01 X30.980577 Y65.776990 Z2 F75
G00 Z0.000000

(End cutting path id: path20)


(Start cutting path id: path20)
(Change tool to Default tool)

G00 Z0.000000
G00 X34.672772 Y64.758450

G01 Z2 F100.0(Penetrate)
G01 X35.054723 Y63.357970 Z2 F75
G02 X35.726556 Y63.214775 Z2 I-0.247032 J-2.806637
G02 X36.381925 Y62.821980 Z2 I-0.604101 J-1.751060
G02 X38.162135 Y60.317240 Z2 I-5.126749 J-5.528769
G03 X39.583616 Y57.501380 Z2 I26.373421 J11.546904
G02 X40.346067 Y56.162237 Z2 I-141.693846 J-81.561049
G03 X41.018781 Y55.082550 Z2 I12.504728 J7.041831
G02 X41.427964 Y54.414204 Z2 I-6.193775 J-4.251456
G02 X41.547894 Y54.191140 Z2 I-28.740987 J-15.596362
G00 Z0.000000

(End cutting path id: path20)


(Start cutting path id: path20)
(Change tool to Default tool)

G00 Z0.000000
G00 X46.258626 Y64.249190

G01 Z2 F100.0(Penetrate)
G02 X43.248244 Y62.821358 Z2 I-11.069106 J19.450251 F75
G02 X40.020089 Y61.830160 Z2 I-8.636173 J22.374105
G00 Z0.000000

(End cutting path id: path20)


(Start cutting path id: path20)
(Change tool to Default tool)

G00 Z0.000000
G00 X35.054723 Y63.357970

G01 Z2 F100.0(Penetrate)
G02 X33.271700 Y61.304788 Z2 I-33.301536 J27.118901 F75
G03 X30.853260 Y58.519920 Z2 I42.752603 J-39.569839
G00 Z0.000000

(End cutting path id: path20)


(Start cutting path id: path20)
(Change tool to Default tool)

G00 Z0.000000
G00 X42.057162 Y59.411140

G01 Z2 F100.0(Penetrate)
G03 X43.330443 Y59.515104 Z2 I-0.000000 J7.849086 F75
G03 X44.858138 Y59.876980 Z2 I-1.829784 J11.130225
G02 X47.126413 Y60.561330 Z2 I38.239686 J-122.643977
G03 X49.314236 Y61.497130 Z2 I-2.774067 J9.510917
G02 X50.307375 Y61.987273 Z2 I4.198165 J-7.255180
G02 X51.223992 Y62.328030 Z2 I5.133772 J-12.406367
G02 X52.009626 Y62.539508 Z2 I2.260096 J-6.831135
G03 X52.242528 Y62.594060 Z2 I-1.034380 J4.940606
G00 Z0.000000

(End cutting path id: path20)


(Start cutting path id: path20)
(Change tool to Default tool)

G00 Z0.000000
G00 X45.240089 Y56.228210

G01 Z2 F100.0(Penetrate)
G02 X47.305526 Y56.816854 Z2 I3.134301 J-7.079724 F75
G03 X49.696187 Y57.171590 Z2 I-18.924167 J135.767978
G02 X50.622100 Y57.308485 Z2 I7.795614 J-49.527126
G03 X51.351113 Y57.423080 Z2 I-2.738268 J19.796115
G02 X52.018729 Y57.494688 Z2 I0.863142 J-4.899267
G02 X52.242528 Y57.501380 Z2 I0.467003 J-11.872684
G00 Z0.000000

(End cutting path id: path20)


(Start cutting path id: path20)
(Change tool to Default tool)

G00 Z0.000000
G00 X49.568870 Y54.191140

G01 Z2 F100.0(Penetrate)
G01 X50.969358 Y54.209940 Z2 F75
G01 X51.840144 Y54.576860 Z2
G01 X52.242528 Y54.700440 Z2
G00 Z0.000000

(End cutting path id: path20)


(Footer)
M5
;G00 X0.0000 Y0.0000
M2
(Using default footer. To add your own footer create file "footer" in the output dir.)
(end)
%