%
(Header)
(Generated by gcodetools from Inkscape.)
(Using default header. To add your own header create file "header" in the output dir.)
M3
(Header end.)
G21 (All units in mm)

(Start cutting path id: path13)
(Change tool to Default tool)

G00 Z0.000000
G00 X109.622930 Y129.518086

G01 Z2 F100.0(Penetrate)
G02 X108.943147 Y128.174848 Z2 I-9.343492 J3.884900 F75
G03 X108.359090 Y127.204766 Z2 I478.076231 J-288.496358
G03 X108.111748 Y126.600449 Z2 I1.842992 J-1.107096
G02 X107.983920 Y126.080525 Z2 I-51.681986 J12.430850
G03 X107.768143 Y124.680168 Z2 I7.378977 J-1.853809
G03 X107.713070 Y123.024915 Z2 I31.343492 J-1.871391
G02 X107.503572 Y122.086513 Z2 I-2.276997 J0.015752
G03 X107.315500 Y121.242476 Z2 I1.855951 J-0.856524
G03 X107.376007 Y120.628385 Z2 I2.964762 J-0.017904
G02 X107.509420 Y119.969305 Z2 I-120.042180 J-24.642306
G02 X107.692440 Y118.905628 Z2 I-19.885710 J-3.969188
G02 X107.710320 Y117.932232 Z2 I-3.851477 J-0.557609
G02 X107.355192 Y116.913901 Z2 I-2.366368 J0.254148
G02 X106.567220 Y116.085643 Z2 I-2.475714 J1.566344
G02 X105.758880 Y115.528755 Z2 I-26.444154 J37.519415
G03 X105.170370 Y114.871612 Z2 I1.004027 J-1.491258
G03 X105.021253 Y114.076676 Z2 I1.223823 J-0.641024
G03 X105.156570 Y113.094183 Z2 I19.534470 J2.189890
G01 X105.162570 Y111.861487 Z2
G01 X104.275380 Y111.566378 Z2
G00 Z0.000000

(End cutting path id: path13)


(Start cutting path id: path13)
(Change tool to Default tool)

G00 Z0.000000
G00 X130.120980 Y118.186866

G01 Z2 F100.0(Penetrate)
G02 X129.924388 Y118.252703 Z2 I2.237894 J7.008910 F75
G02 X129.356480 Y118.543865 Z2 I0.775867 J2.212749
G02 X128.214961 Y119.439710 Z2 I7.546196 J10.790848
G02 X127.447020 Y120.987350 Z2 I1.500313 J1.708804
G01 X128.209260 Y122.069940 Z2
G01 X128.807230 Y122.898186 Z2
G03 X128.308219 Y124.791901 Z2 I-3.164619 J0.178699
G02 X127.853240 Y126.716619 Z2 I2.496648 J1.606310
G01 X128.706730 Y127.801073 Z2
G03 X129.123071 Y128.460818 Z2 I-0.976422 J1.077426
G02 X129.411600 Y129.095660 Z2 I2.477353 J-0.742943
G01 X130.120980 Y129.390769 Z2
G00 Z0.000000

(End cutting path id: path13)


(Start cutting path id: path13)
(Change tool to Default tool)

G00 Z0.000000
G00 X104.148290 Y126.717110

G01 Z2 F100.0(Penetrate)
G03 X104.302791 Y126.578972 Z2 I3.117473 J3.331285 F75
G02 X104.515700 Y126.368855 Z2 I-1.350727 J-1.581602
G02 X105.315453 Y124.957939 Z2 I-3.003501 J-2.634602
G03 X106.179470 Y122.643455 Z2 I25.571581 J8.227583
G03 X106.742238 Y121.869139 Z2 I1.971448 J0.841169
G03 X107.203900 Y121.497110 Z2 I5.019625 J5.756545
G00 Z0.000000

(End cutting path id: path13)


(Start cutting path id: path13)
(Change tool to Default tool)

G00 Z0.000000
G00 X105.548780 Y119.078086

G01 Z2 F100.0(Penetrate)
G01 X105.548780 Y118.950768 Z2 F75
G00 Z0.000000

(End cutting path id: path13)


(Start cutting path id: path13)
(Change tool to Default tool)

G00 Z0.000000
G00 X112.041950 Y118.568817

G01 Z2 F100.0(Penetrate)
G03 X112.042103 Y118.371331 Z2 I127.680425 J0.000004 F75
G02 X112.041950 Y118.166433 Z2 I-44.696628 J-0.069134
G02 X111.723540 Y117.159613 Z2 I-1.770076 J0.006033
G02 X111.096700 Y116.283496 Z2 I-37.295529 J26.021738
G02 X110.782468 Y115.933511 Z2 I-1.923501 J1.410948
G02 X110.386830 Y115.633059 Z2 I-1.845382 J2.019299
G03 X109.605311 Y114.919585 Z2 I1.554755 J-2.487799
G03 X109.053730 Y113.858085 Z2 I2.810401 J-2.134409
G02 X108.650540 Y112.909088 Z2 I-5.297554 J1.690565
G03 X108.225390 Y112.075646 Z2 I17.989418 J-9.701808
G03 X108.109662 Y111.566506 Z2 I1.052658 J-0.506992
G02 X108.087660 Y111.057601 Z2 I-5.656011 J-0.010395
G02 X107.924916 Y110.551312 Z2 I-1.199103 J0.106144
G02 X107.651280 Y110.129542 Z2 I-5.181180 J3.061799
G03 X107.385994 Y109.494934 Z2 I1.277318 J-0.906712
G03 X107.331320 Y108.892720 Z2 I3.546391 J-0.625558
G03 X107.404746 Y106.365033 Z2 I35.787062 J-0.225347
G02 X107.458540 Y104.694399 Z2 I-25.914691 J-1.670634
G01 X107.458540 Y104.054671 Z2
G00 Z0.000000

(End cutting path id: path13)


(Start cutting path id: path13)
(Change tool to Default tool)

G00 Z0.000000
G00 X112.041950 Y117.041012

G01 Z2 F100.0(Penetrate)
G02 X112.319082 Y116.733733 Z2 I-4.989922 J-4.778974 F75
G03 X112.842400 Y116.176711 Z2 I5.793874 J4.918963
G03 X113.646834 Y115.482805 Z2 I6.759422 J7.022857
G02 X114.316960 Y114.367354 Z2 I-1.091987 J-1.415049
G03 X114.469026 Y113.731573 Z2 I4.866325 J0.827851
G02 X114.653330 Y113.094183 Z2 I-16.201800 J-5.030159
G02 X114.795565 Y112.352851 Z2 I-5.043978 J-1.352066
G02 X114.842830 Y111.566378 Z2 I-6.844168 J-0.805978
G02 X114.787814 Y110.880040 Z2 I-4.190141 J-0.009497
G03 X114.700280 Y110.165890 Z2 I8.816289 J-1.443059
G03 X114.694913 Y109.525491 Z2 I4.358471 J-0.356746
G02 X114.715580 Y108.892720 Z2 I-9.793434 J-0.636581
G02 X114.638175 Y106.333947 Z2 I-41.797510 J-0.016146
G03 X114.588260 Y104.694399 Z2 I26.902121 J-1.639547
G01 X114.588260 Y104.054671 Z2
G00 Z0.000000

(End cutting path id: path13)


(Start cutting path id: path13)
(Change tool to Default tool)

G00 Z0.000000
G00 X111.532650 Y112.202963

G01 Z2 F100.0(Penetrate)
G01 X112.041920 Y112.330281 Z2 F75
G00 Z0.000000

(End cutting path id: path13)


(Start cutting path id: path13)
(Change tool to Default tool)

G00 Z0.000000
G00 X104.148260 Y111.566378

G01 Z2 F100.0(Penetrate)
G01 X104.275580 Y111.566378 Z2 F75
G00 Z0.000000

(End cutting path id: path13)


(Start cutting path id: path13)
(Change tool to Default tool)

G00 Z0.000000
G00 X110.641430 Y110.038573

G01 Z2 F100.0(Penetrate)
G03 X112.785273 Y109.989119 Z2 I1.515467 J19.202924 F75
G03 X114.460950 Y110.293207 Z2 I-0.189788 J5.814773
G00 Z0.000000

(End cutting path id: path13)


(Start cutting path id: path13)
(Change tool to Default tool)

G00 Z0.000000
G00 X111.023380 Y104.054671

G01 Z2 F100.0(Penetrate)
G03 X110.999847 Y104.264783 Z2 I-3.192993 J-0.251246 F75
G02 X110.917680 Y104.946086 Z2 I13.846029 J2.015478
G02 X110.860330 Y105.725595 Z2 I17.670492 J1.691909
G02 X110.936580 Y106.471337 Z2 I2.451110 J0.126151
G01 X111.660500 Y107.114504 Z2
G01 X112.474410 Y106.587652 Z2
G02 X112.630225 Y105.840142 Z2 I-1.914798 J-0.789124
G03 X112.678550 Y104.946086 Z2 I13.203869 J0.265361
G03 X112.770127 Y104.252254 Z2 I8.058051 J0.710597
G03 X112.805860 Y104.054671 Z2 I22.374922 J3.944530
G00 Z0.000000

(End cutting path id: path13)


(Footer)
M5
G00 X0.0000 Y0.0000
M2
(Using default footer. To add your own footer create file "footer" in the output dir.)
(end)
%