%
(Header)
(Generated by gcodetools from Inkscape.)
(Using default header. To add your own header create file "header" in the output dir.)
M3
(Header end.)
G21 (All units in mm)

(Start cutting path id: path10)
(Change tool to Default tool)

G00 Z0.000000
G00 X51.713356 Y129.552157

G01 Z2 F100.0(Penetrate)
G01 X51.713356 Y128.278986 Z2 F75
G00 Z0.000000

(End cutting path id: path10)


(Start cutting path id: path10)
(Change tool to Default tool)

G00 Z0.000000
G00 X34.652868 Y109.054108

G01 Z2 F100.0(Penetrate)
G02 X35.844751 Y112.054695 Z2 I144.678555 J-55.731684 F75
G02 X37.550314 Y114.771489 Z2 I8.668553 J-3.548231
G01 X39.286778 Y115.541777 Z2
G01 X39.490917 Y113.510206 Z2
G01 X39.490917 Y106.253132 Z2
G03 X39.497620 Y105.388297 Z2 I55.798450 J0.000000
G03 X39.618234 Y104.598010 Z2 I2.948859 J0.045711
G02 X38.786006 Y104.360037 Z2 I-1.395697 J3.306758
G03 X38.250755 Y104.141792 Z2 I0.199428 J-1.254584
G02 X37.566411 Y103.794341 Z2 I-1.516319 J2.138890
G02 X35.800687 Y103.586940 Z2 I-1.379165 J4.121608
G02 X35.074547 Y103.919137 Z2 I0.106486 J1.192488
G03 X34.398726 Y104.536120 Z2 I-10.921259 J-11.284130
G02 X33.816584 Y105.298191 Z2 I1.517145 J1.762323
G02 X33.546506 Y106.125815 Z2 I3.049629 J1.453062
G02 X33.411485 Y106.958086 Z2 I16.321797 J3.075007
G03 X33.191080 Y107.780937 Z2 I-3.351272 J-0.456712
G03 X32.053949 Y109.817572 Z2 I-8.926245 J-3.648095
G02 X31.040246 Y111.982401 Z2 I5.045498 J3.682357
G03 X30.620603 Y113.042264 Z2 I-4.213381 J-1.055243
G02 X30.194708 Y113.892157 Z2 I9.424866 J5.254604
G02 X30.044233 Y114.457968 Z2 I1.671718 J0.747502
G03 X29.977994 Y115.038011 Z2 I-20.282361 J-2.022360
G02 X30.009612 Y116.272674 Z2 I4.002478 J0.515237
G02 X30.440500 Y117.457035 Z2 I3.671539 J-0.665196
G03 X30.764044 Y118.027038 Z2 I-121.031512 J69.076477
G02 X31.119132 Y118.602889 Z2 I7.624925 J-4.304367
G02 X31.873833 Y119.619369 Z2 I11.078017 J-7.436632
G03 X32.587994 Y120.639373 Z2 I-6.403797 J5.243665
G01 X33.381663 Y121.351994 Z2
G02 X34.448427 Y121.231851 Z2 I0.337391 J-1.800304
G03 X35.544088 Y120.921316 Z2 I1.705012 J3.927612
G03 X38.020863 Y120.816858 Z2 I1.755562 J12.210402
G03 X40.127503 Y121.053350 Z2 I-1.163306 J19.863690
G02 X41.126200 Y121.183820 Z2 I2.352838 J-14.122474
G02 X41.527990 Y121.181747 Z2 I0.190551 J-2.005639
G01 X42.270280 Y121.269867 Z2
G03 X42.619409 Y121.563920 Z2 I-0.774283 J1.273594
G02 X42.939874 Y121.914999 Z2 I7.874630 J-6.866158
G03 X44.317310 Y123.634547 Z2 I-9.143882 J8.736134
G02 X45.573255 Y125.350596 Z2 I20.274516 J-13.520920
G02 X45.951223 Y125.791402 Z2 I6.794925 J-5.443846
G02 X46.367906 Y126.152515 Z2 I1.777412 J-1.629971
G02 X47.185714 Y126.515852 Z2 I1.399278 J-2.047489
G03 X48.021161 Y126.856689 Z2 I-0.704649 J2.921539
G03 X49.997728 Y128.302109 Z2 I-6.729696 J11.276807
G02 X51.310972 Y128.902211 Z2 I1.639998 J-1.851937
G02 X51.554384 Y128.915539 Z2 I0.207206 J-1.554800
G03 X51.713356 Y128.915571 Z2 I0.078806 J3.413191
G00 Z0.000000

(End cutting path id: path10)


(Start cutting path id: path10)
(Change tool to Default tool)

G00 Z0.000000
G00 X46.366039 Y128.788254

G01 Z2 F100.0(Penetrate)
G03 X46.194041 Y126.904713 Z2 I6.470432 J-1.540481 F75
G03 X46.366039 Y126.241912 Z2 I1.701744 J0.087890
G00 Z0.000000

(End cutting path id: path10)


(Start cutting path id: path10)
(Change tool to Default tool)

G00 Z0.000000
G00 X44.328966 Y126.241912

G01 Z2 F100.0(Penetrate)
G01 X45.220186 Y125.096059 Z2 F75
G00 Z0.000000

(End cutting path id: path10)


(Start cutting path id: path10)
(Change tool to Default tool)

G00 Z0.000000
G00 X47.002625 Y114.910693

G01 Z2 F100.0(Penetrate)
G03 X47.771363 Y115.360571 Z2 I-1.126262 J2.806262 F75
G03 X48.390341 Y115.934239 Z2 I-3.773845 J4.692679
G03 X48.822921 Y116.486868 Z2 I-2.876757 J2.697454
G02 X49.253562 Y117.048460 Z2 I3.756347 J-2.434538
G02 X51.194579 Y118.541081 Z2 I5.027100 J-4.528918
G02 X51.713356 Y118.730205 Z2 I1.017961 J-1.986238
G00 Z0.000000

(End cutting path id: path10)


(Start cutting path id: path10)
(Change tool to Default tool)

G00 Z0.000000
G00 X39.236283 Y115.674595

G01 Z2 F100.0(Penetrate)
G03 X39.443755 Y116.074884 Z2 I-1.791412 J1.182410 F75
G03 X39.617842 Y116.947766 Z2 I-2.365525 J0.925579
G01 X39.913343 Y117.884470 Z2
G01 X40.764088 Y117.833480 Z2
G02 X41.912370 Y117.123709 Z2 I-0.525068 J-2.133208
G02 X42.818255 Y116.056542 Z2 I-515.208285 J-438.262398
G03 X43.268474 Y115.528854 Z2 I74.718334 J63.293228
G02 X43.638939 Y115.038595 Z2 I-3.714291 J-3.191806
G02 X43.807254 Y114.735583 Z2 I-1.872267 J-1.238251
G03 X44.053799 Y114.380889 Z2 I1.110918 J0.509156
G03 X44.712313 Y113.847790 Z2 I2.854527 J2.852806
G02 X45.602137 Y113.128249 Z2 I-2.981681 J-4.597283
G02 X46.463460 Y112.212237 Z2 I-14.073791 J-14.096492
G02 X46.869215 Y111.218493 Z2 I-1.222481 J-1.078860
G02 X46.863681 Y110.892128 Z2 I-2.358067 J-0.123242
G03 X46.845245 Y110.454591 Z2 I4.957477 J-0.428040
G03 X47.047204 Y109.580325 Z2 I2.010590 J0.003995
G02 X47.251659 Y108.799469 Z2 I-1.864476 J-0.905379
G02 X47.150025 Y106.592219 Z2 I-10.410429 J-0.626610
G03 X47.003311 Y104.470787 Z2 I12.662140 J-1.941476
G01 X48.657746 Y103.579469 Z2
G00 Z0.000000

(End cutting path id: path10)


(Start cutting path id: path10)
(Change tool to Default tool)

G00 Z0.000000
G00 X43.947015 Y114.274108

G01 Z2 F100.0(Penetrate)
G01 X43.055795 Y113.382889 Z2 F75
G02 X43.960621 Y112.116944 Z2 I-5.856632 J-5.142320
G03 X45.347600 Y110.777015 Z2 I3.005148 J1.722866
G03 X45.807577 Y110.570578 Z2 I1.835508 J3.474146
G03 X46.747990 Y110.327279 Z2 I1.630188 J4.361984
G00 Z0.000000

(End cutting path id: path10)


(Start cutting path id: path10)
(Change tool to Default tool)

G00 Z0.000000
G00 X41.782625 Y103.579474

G01 Z2 F100.0(Penetrate)
G01 X41.782625 Y104.343965 Z2 F75
G03 X41.773859 Y105.219557 Z2 I-43.735791 J0.000000
G02 X41.787625 Y106.380449 Z2 I18.208769 J0.364613
G03 X41.877138 Y109.192494 Z2 I-117.727369 J5.154924
G03 X41.910030 Y111.855084 Z2 I-176.774317 J3.515292
G02 X42.174831 Y112.850044 Z2 I2.038654 J-0.009855
G02 X43.055785 Y113.382889 Z2 I0.915186 J-0.518416
G00 Z0.000000

(End cutting path id: path10)


(Start cutting path id: path10)
(Change tool to Default tool)

G00 Z0.000000
G00 X39.618224 Y104.343376

G01 Z2 F100.0(Penetrate)
G01 X39.618224 Y103.579474 Z2 F75
G00 Z0.000000

(End cutting path id: path10)


(Footer)
M5
;G00 X0.0000 Y0.0000
M2
(Using default footer. To add your own footer create file "footer" in the output dir.)
(end)
%