%
(Header)
(Generated by gcodetools from Inkscape.)
(Using default header. To add your own header create file "header" in the output dir.)
M3
(Header end.)
G21 (All units in mm)

(Start cutting path id: path18)
(Change tool to Default tool)

G00 Z0.000000
G00 X107.203900 Y104.423516

G01 Z2 F100.0(Penetrate)
G02 X106.732722 Y103.301048 Z2 I-2.758498 J0.497805 F75
G03 X106.199120 Y102.259126 Z2 I3.351010 J-2.373761
G03 X105.991696 Y100.863310 Z2 I3.672196 J-1.259023
G02 X105.762150 Y99.458150 Z2 I-3.631724 J-0.128053
G03 X105.267842 Y98.013825 Z2 I24.341245 J-9.137334
G03 X105.039610 Y96.529857 Z2 I4.870077 J-1.508545
G03 X105.123777 Y94.126787 Z2 I30.068659 J-0.149855
G02 X105.161820 Y91.691808 Z2 I-20.459219 J-1.537429
G02 X105.106820 Y90.831643 Z2 I-21.396334 J0.936264
G02 X104.945300 Y90.177463 Z2 I-2.132570 J0.179511
G02 X104.447634 Y89.631147 Z2 I-1.024305 J0.433257
G03 X104.275610 Y89.527418 Z2 I0.964585 J-1.794175
G00 Z0.000000

(End cutting path id: path18)


(Start cutting path id: path18)
(Change tool to Default tool)

G00 Z0.000000
G00 X111.023410 Y104.423516

G01 Z2 F100.0(Penetrate)
G01 X112.805850 Y104.423516 Z2 F75
G00 Z0.000000

(End cutting path id: path18)


(Start cutting path id: path18)
(Change tool to Default tool)

G00 Z0.000000
G00 X114.715610 Y104.423516

G01 Z2 F100.0(Penetrate)
G03 X114.846244 Y101.899616 Z2 I24.446706 J0.000000 F75
G03 X115.133420 Y99.458150 Z2 I89.495395 J9.289225
G01 X115.751140 Y97.994299 Z2
G03 X116.327150 Y98.071487 Z2 I0.154080 J1.038006
G03 X116.752680 Y98.290487 Z2 I-1.564956 J3.563710
G03 X117.543386 Y98.905881 Z2 I-2.062199 J3.465349
G02 X118.280490 Y99.466991 Z2 I2.430040 J-2.427527
G01 X119.154710 Y99.697753 Z2
G01 X119.637260 Y99.075511 Z2
G02 X119.785969 Y98.026664 Z2 I-7.311154 J-1.571564
G03 X119.937870 Y96.784688 Z2 I12.066079 J0.845477
G03 X120.178827 Y96.118516 Z2 I2.020309 J0.354091
G03 X120.317560 Y95.893272 Z2 I3.652520 J2.094319
G01 X119.647380 Y95.124163 Z2
G03 X119.616210 Y94.606453 Z2 I1.317411 J-0.339112
G02 X119.692380 Y93.856199 Z2 I-12.262116 J-1.623918
G03 X119.769314 Y93.055025 Z2 I16.005762 J1.132693
G03 X119.990830 Y92.351970 Z2 I1.995277 J0.242240
G03 X120.279118 Y92.012158 Z2 I0.926217 J0.493584
G03 X120.574660 Y91.828066 Z2 I1.101266 J1.438703
G01 X121.391610 Y91.397191 Z2
G01 X121.724540 Y90.291321 Z2
G03 X122.268138 Y89.018890 Z2 I2.458568 J0.297998
G03 X122.609280 Y88.636199 Z2 I4.812844 J3.946917
G03 X122.945702 Y89.031110 Z2 I-2.499886 J2.470394
G03 X123.554530 Y90.545955 Z2 I-2.667196 J1.951734
G01 X123.496930 Y91.869620 Z2
G01 X122.736470 Y92.061284 Z2
G03 X121.964438 Y91.855939 Z2 I0.130905 J-2.046130
G03 X121.463390 Y91.564491 Z2 I1.804147 J-3.678048
G00 Z0.000000

(End cutting path id: path18)


(Start cutting path id: path18)
(Change tool to Default tool)

G00 Z0.000000
G00 X111.660000 Y99.840101

G01 Z2 F100.0(Penetrate)
G01 X111.787320 Y99.840101 Z2 F75
G00 Z0.000000

(End cutting path id: path18)


(Start cutting path id: path18)
(Change tool to Default tool)

G00 Z0.000000
G00 X123.755120 Y92.073760

G01 Z2 F100.0(Penetrate)
G01 X124.391710 Y93.856199 Z2 F75
G03 X124.320565 Y95.218639 Z2 I-13.081084 J-0.000000
G02 X124.304310 Y95.764088 Z2 I3.643368 J0.381544
G01 X124.499700 Y96.348510 Z2
G02 X124.907507 Y97.029006 Z2 I21.604536 J-12.484706
G02 X125.423540 Y97.586216 Z2 I1.696870 J-1.053919
G02 X127.411878 Y98.427333 Z2 I2.771960 J-3.782008
G02 X129.229590 Y98.672536 Z2 I4.532846 J-26.742362
G02 X129.893476 Y98.697148 Z2 I0.526341 J-5.231437
G03 X130.121010 Y98.694246 Z2 I0.221960 J8.481849
G00 Z0.000000

(End cutting path id: path18)


(Start cutting path id: path18)
(Change tool to Default tool)

G00 Z0.000000
G00 X115.479540 Y97.930343

G01 Z2 F100.0(Penetrate)
G02 X115.329563 Y97.431865 Z2 I-4.560128 J1.100205 F75
G02 X115.044250 Y97.009161 Z2 I-0.984545 J0.356899
G02 X114.485043 Y96.697795 Z2 I-0.966014 J1.077099
G03 X113.835320 Y96.239856 Z2 I0.345930 J-1.180686
G01 X113.739420 Y94.838385 Z2
G01 X114.203800 Y94.366742 Z2
G02 X114.714315 Y93.857528 Z2 I-165.546815 J-166.480453
G03 X114.842940 Y93.728880 Z2 I383.954935 J383.755385
G02 X113.678794 Y93.450302 Z2 I-1.409609 J3.318889
G03 X112.805860 Y93.360486 Z2 I0.868386 J-12.726950
G03 X111.927151 Y93.215667 Z2 I2.302999 J-16.712025
G03 X111.265390 Y92.888351 Z2 I0.261401 J-1.361120
G03 X110.857840 Y92.443633 Z2 I2.010760 J-2.251813
G02 X110.386840 Y91.946441 Z2 I-2.357699 J1.761803
G00 Z0.000000

(End cutting path id: path18)


(Start cutting path id: path18)
(Change tool to Default tool)

G00 Z0.000000
G00 X120.317570 Y95.893270

G01 Z2 F100.0(Penetrate)
G03 X121.462092 Y96.175634 Z2 I-0.737441 J5.449874 F75
G02 X122.736600 Y96.493507 Z2 I2.147699 J-5.897170
G02 X123.844875 Y96.497223 Z2 I0.567693 J-4.040526
G02 X124.264400 Y96.402537 Z2 I-0.320179 J-2.395348
G00 Z0.000000

(End cutting path id: path18)


(Start cutting path id: path18)
(Change tool to Default tool)

G00 Z0.000000
G00 X111.278060 Y93.092293

G01 Z2 F100.0(Penetrate)
G02 X111.020964 Y93.441723 Z2 I1.425763 J1.318313 F75
G02 X110.641570 Y94.874732 Z2 I2.465498 J1.419475
G02 X110.707177 Y95.677066 Z2 I5.298508 J-0.029410
G02 X111.073620 Y96.308032 Z2 I1.000168 J-0.158972
G01 X112.296600 Y96.529854 Z2
G02 X113.323516 Y96.445552 Z2 I0.009701 J-6.178634
G02 X113.824400 Y96.275220 Z2 I-0.269334 J-1.613635
G00 Z0.000000

(End cutting path id: path18)


(Start cutting path id: path18)
(Change tool to Default tool)

G00 Z0.000000
G00 X124.646350 Y96.402537

G01 Z2 F100.0(Penetrate)
G01 X127.192690 Y96.104186 Z2 F75
G02 X128.570375 Y95.626038 Z2 I-0.032200 J-2.316608
G03 X129.229570 Y95.258747 Z2 I1.579531 J2.059674
G02 X129.892870 Y94.985495 Z2 I-4.491399 J-11.844242
G02 X130.120990 Y94.874732 Z2 I-1.567328 J-3.518253
G00 Z0.000000

(End cutting path id: path18)


(Start cutting path id: path18)
(Change tool to Default tool)

G00 Z0.000000
G00 X114.842940 Y93.728879

G01 Z2 F100.0(Penetrate)
G01 X118.153180 Y94.844671 Z2 F75
G01 X119.426350 Y95.129366 Z2
G00 Z0.000000

(End cutting path id: path18)


(Start cutting path id: path18)
(Change tool to Default tool)

G00 Z0.000000
G00 X113.315130 Y94.874732

G01 Z2 F100.0(Penetrate)
G01 X112.933180 Y93.474244 Z2 F75
G00 Z0.000000

(End cutting path id: path18)


(Start cutting path id: path18)
(Change tool to Default tool)

G00 Z0.000000
G00 X119.171720 Y79.214737

G01 Z2 F100.0(Penetrate)
G03 X119.061762 Y79.857874 Z2 I-2.069060 J-0.022780 F75
G03 X118.535130 Y80.742537 Z2 I-2.345825 J-0.797369
G03 X118.822548 Y81.070148 Z2 I-6.126561 J5.664807
G03 X119.164740 Y81.888387 Z2 I-1.161287 J0.966329
G03 X119.253601 Y82.927371 Z2 I-40.465772 J3.984205
G03 X119.299030 Y84.180098 Z2 I-17.249604 J1.252727
G03 X119.234168 Y87.166040 Z2 I-68.761758 J0.000076
G02 X119.171720 Y90.036683 Z2 I66.140195 J2.874741
G01 X119.808300 Y92.073757 Z2
G00 Z0.000000

(End cutting path id: path18)


(Start cutting path id: path18)
(Change tool to Default tool)

G00 Z0.000000
G00 X124.519030 Y92.073757

G01 Z2 F100.0(Penetrate)
G02 X125.732170 Y92.045870 Z2 I0.000000 J-26.401203 F75
G02 X127.447330 Y91.924827 Z2 I-1.613265 J-35.071924
G03 X128.465418 Y91.841596 Z2 I3.623452 J38.053868
G02 X129.229570 Y91.765091 Z2 I-0.829007 J-12.134938
G03 X129.898174 Y91.700824 Z2 I1.238185 J9.371427
G03 X130.120990 Y91.691801 Z2 I0.339015 J5.616147
G00 Z0.000000

(End cutting path id: path18)


(Start cutting path id: path18)
(Change tool to Default tool)

G00 Z0.000000
G00 X116.625380 Y91.055216

G01 Z2 F100.0(Penetrate)
G01 X113.697080 Y89.984023 Z2 F75
G01 X110.386840 Y88.763509 Z2
G00 Z0.000000

(End cutting path id: path18)


(Start cutting path id: path18)
(Change tool to Default tool)

G00 Z0.000000
G00 X104.148300 Y89.527411

G01 Z2 F100.0(Penetrate)
G01 X104.275620 Y89.527411 Z2 F75
G00 Z0.000000

(End cutting path id: path18)


(Start cutting path id: path18)
(Change tool to Default tool)

G00 Z0.000000
G00 X122.481960 Y88.508875

G01 Z2 F100.0(Penetrate)
G03 X122.863357 Y87.772938 Z2 I8.419130 J3.896392 F75
G02 X123.245860 Y86.344484 Z2 I-2.480770 J-1.429725
G02 X123.246379 Y83.950228 Z2 I-5091.926631 J-2.313350
G02 X123.245860 Y81.379123 Z2 I-6992.286595 J0.147353
G02 X123.242291 Y80.695625 Z2 I-70.660257 J0.027187
G03 X123.267460 Y80.106143 Z2 I5.597194 J-0.056298
G03 X123.349616 Y79.424701 Z2 I13.982309 J1.340059
G02 X123.373160 Y79.214733 Z2 I-3.192479 J-0.464283
G00 Z0.000000

(End cutting path id: path18)


(Start cutting path id: path18)
(Change tool to Default tool)

G00 Z0.000000
G00 X122.481940 Y88.254240

G01 Z2 F100.0(Penetrate)
G03 X122.139694 Y87.891250 Z2 I12.490688 J-12.119718 F75
G03 X121.596320 Y86.981070 Z2 I1.934209 J-1.772001
G03 X121.234966 Y85.501041 Z2 I7.562490 J-2.630535
G03 X121.086460 Y83.925460 Z2 I15.602244 J-2.265375
G03 X121.074299 Y83.067796 Z2 I14.445740 J-0.633745
G02 X121.081460 Y82.143023 Z2 I-59.710390 J-0.924773
G02 X121.038002 Y81.071410 Z2 I-13.234043 J0.000000
G03 X120.965540 Y80.106143 Z2 I78.649891 J-6.389574
G03 X120.951308 Y79.423129 Z2 I7.100841 J-0.489613
G02 X120.954140 Y79.214733 Z2 I-7.666775 J-0.208396
G00 Z0.000000

(End cutting path id: path18)


(Start cutting path id: path18)
(Change tool to Default tool)

G00 Z0.000000
G00 X114.206330 Y87.490338

G01 Z2 F100.0(Penetrate)
G02 X113.783509 Y86.635171 Z2 I-5.513067 J2.193718 F75
G03 X113.331130 Y84.816679 Z2 I2.757038 J-1.651372
G01 X114.333650 Y83.812585 Z2
G03 X115.166245 Y83.875944 Z2 I0.294822 J1.627996
G03 X115.867540 Y84.446221 Z2 I-0.426464 J1.240787
G03 X116.123214 Y85.497700 Z2 I-1.584502 J0.942105
G02 X116.116090 Y86.089850 Z2 I6.246368 J0.371263
G00 Z0.000000

(End cutting path id: path18)


(Start cutting path id: path18)
(Change tool to Default tool)

G00 Z0.000000
G00 X106.312670 Y86.599118

G01 Z2 F100.0(Penetrate)
G01 X108.047560 Y84.052777 Z2 F75
G01 X108.582770 Y81.379123 Z2
G01 X108.604370 Y79.979223 Z2
G01 X108.604370 Y79.214733 Z2
G00 Z0.000000

(End cutting path id: path18)


(Start cutting path id: path18)
(Change tool to Default tool)

G00 Z0.000000
G00 X130.120960 Y86.344484

G01 Z2 F100.0(Penetrate)
G01 X130.120960 Y83.798143 Z2 F75
G00 Z0.000000

(End cutting path id: path18)


(Start cutting path id: path18)
(Change tool to Default tool)

G00 Z0.000000
G00 X125.282910 Y79.214733

G01 Z2 F100.0(Penetrate)
G01 X125.487050 Y80.161453 Z2 F75
G01 X126.679760 Y80.782513 Z2
G01 X126.756560 Y81.633753 Z2
G03 X126.537883 Y82.912547 Z2 I-14.261242 J-1.780619
G02 X126.632880 Y83.907090 Z2 I1.601249 J0.348860
G01 X127.701910 Y84.444945 Z2
G03 X128.403715 Y84.658713 Z2 I-0.535904 J3.018285
G03 X128.957400 Y85.078779 Z2 I-0.606599 J1.374489
G02 X129.911866 Y85.968140 Z2 I3.817629 J-3.140247
G02 X130.120940 Y86.089850 Z2 I0.774559 J-1.090112
G00 Z0.000000

(End cutting path id: path18)


(Start cutting path id: path18)
(Change tool to Default tool)

G00 Z0.000000
G00 X110.514110 Y79.214733

G01 Z2 F100.0(Penetrate)
G03 X110.512521 Y79.421307 Z2 I-9.920419 J0.027004 F75
G02 X110.535810 Y79.979223 Z2 I4.669369 J0.084534
G02 X110.832548 Y81.727317 Z2 I13.248475 J-1.349688
G02 X111.789130 Y83.657466 Z2 I4.688049 J-1.121282
G02 X112.469721 Y84.219596 Z2 I1.763623 J-1.442210
G02 X113.187750 Y84.562045 Z2 I3.754954 J-6.949195
G00 Z0.000000

(End cutting path id: path18)


(Start cutting path id: path18)
(Change tool to Default tool)

G00 Z0.000000
G00 X116.116050 Y84.180094

G01 Z2 F100.0(Penetrate)
G02 X116.647000 Y83.457674 Z2 I-1.054657 J-1.331454 F75
G03 X117.575580 Y81.634243 Z2 I9.174417 J3.523907
G03 X118.027376 Y81.078354 Z2 I2.809800 J1.822105
G03 X118.407750 Y80.742533 Z2 I3.086534 J3.112700
G00 Z0.000000

(End cutting path id: path18)


(Start cutting path id: path18)
(Change tool to Default tool)

G00 Z0.000000
G00 X113.442390 Y84.052777

G01 Z2 F100.0(Penetrate)
G01 X113.442390 Y82.652293 Z2 F75
G01 X113.442390 Y79.489603 Z2
G01 X113.442390 Y79.214733 Z2
G00 Z0.000000

(End cutting path id: path18)


(Start cutting path id: path18)
(Change tool to Default tool)

G00 Z0.000000
G00 X105.676050 Y83.798143

G01 Z2 F100.0(Penetrate)
G02 X105.808740 Y81.569569 Z2 I-16.731862 J-2.114461 F75
G03 X105.803360 Y79.979223 Z2 I235.034669 J-1.590346
G01 X105.803360 Y79.214733 Z2
G00 Z0.000000

(End cutting path id: path18)


(Footer)
M5
;G00 X0.0000 Y0.0000
M2
(Using default footer. To add your own footer create file "footer" in the output dir.)
(end)
%