%
(Header)
(Generated by gcodetools from Inkscape.)
(Using default header. To add your own header create file "header" in the output dir.)
M3
(Header end.)
G21 (All units in mm)

(Start cutting path id: path7)
(Change tool to Default tool)

G00 Z0.000000
G00 X78.066383 Y146.849183

G01 Z2 F100.0(Penetrate)
G02 X78.355441 Y146.703002 Z2 I-1.367646 J-3.063264 F75
G03 X79.212237 Y146.239220 Z2 I11.811693 J20.797732
G03 X80.386384 Y145.902905 Z2 I1.430444 J2.776229
G02 X81.612891 Y145.449383 Z2 I-0.199710 J-2.425341
G02 X82.121620 Y144.741073 Z2 I-0.808126 J-1.117268
G03 X82.539476 Y144.152340 Z2 I1.108861 J0.344364
G03 X83.018341 Y143.902163 Z2 I1.034821 J1.397370
G02 X83.541017 Y143.693566 Z2 I-1.658291 J-4.914259
G03 X85.383411 Y142.972136 Z2 I6.848164 J14.775628
G02 X86.310458 Y141.629084 Z2 I-0.412155 J-1.275966
G02 X85.717427 Y140.457932 Z2 I-1.612463 J0.080775
G03 X84.997206 Y139.337475 Z2 I1.352713 J-1.661218
G03 X85.039384 Y138.414089 Z2 I1.509263 J-0.393717
G02 X85.318446 Y137.555036 Z2 I-13.122143 J-4.737558
G01 X85.373456 Y135.843918 Z2
G02 X84.110829 Y135.120211 Z2 I-1.735561 J1.564689
G02 X82.522477 Y134.813200 Z2 I-12.727727 J61.585966
G02 X80.728069 Y134.667529 Z2 I-1.645218 J9.141340
G03 X79.085112 Y134.572713 Z2 I-0.179472 J-11.172050
G02 X78.430095 Y134.509195 Z2 I-1.242814 J9.407119
G02 X78.193696 Y134.499423 Z2 I-0.354503 J5.711780
G00 Z0.000000

(End cutting path id: path7)


(Start cutting path id: path7)
(Change tool to Default tool)

G00 Z0.000000
G00 X82.395160 Y144.175521

G01 Z2 F100.0(Penetrate)
G02 X81.816577 Y143.792175 Z2 I-1.769807 J2.042869 F75
G02 X80.867355 Y143.456121 Z2 I-1.914815 J3.899983
G03 X79.940165 Y143.237229 Z2 I13.713332 J-60.160530
G03 X79.085112 Y143.011788 Z2 I5.753479 J-23.556057
G02 X78.442017 Y142.836141 Z2 I-9.663411 J34.115519
G02 X78.193696 Y142.775033 Z2 I-2.041743 J7.761784
G00 Z0.000000

(End cutting path id: path7)


(Start cutting path id: path7)
(Change tool to Default tool)

G00 Z0.000000
G00 X78.066379 Y142.775033

G01 Z2 F100.0(Penetrate)
G01 X78.193696 Y142.775033 Z2 F75
G00 Z0.000000

(End cutting path id: path7)


(Start cutting path id: path7)
(Change tool to Default tool)

G00 Z0.000000
G00 X92.580526 Y129.661374

G01 Z2 F100.0(Penetrate)
G03 X92.448869 Y129.924019 Z2 I-35.638961 J-17.700614 F75
G03 X92.064680 Y130.552793 Z2 I-4.107732 J-2.078115
G03 X91.084298 Y131.789385 Z2 I-15.293003 J-11.117517
G03 X89.917776 Y133.098939 Z2 I-42.523634 J-36.704781
G02 X89.152643 Y133.977095 Z2 I16.132490 J14.828568
G02 X88.737931 Y135.008695 Z2 I1.414524 J1.167809
G02 X88.837823 Y135.810969 Z2 I2.047312 J0.152444
G03 X89.009364 Y136.536500 Z2 I-3.938678 J1.314289
G01 X89.426681 Y137.460531 Z2
G02 X90.073085 Y137.682875 Z2 I0.663399 J-0.877859
G02 X90.798091 Y137.646005 Z2 I0.084678 J-5.481569
G02 X91.746571 Y137.518283 Z2 I-3.329032 J-28.307495
G03 X92.705489 Y137.639305 Z2 I0.265964 J1.752143
G03 X93.706838 Y139.045335 Z2 I-0.645502 J1.519301
G02 X94.543532 Y140.479773 Z2 I1.868258 J-0.128500
G01 X95.508822 Y140.583414 Z2
G02 X96.206916 Y140.327110 Z2 I-0.290514 J-1.870122
G02 X96.776983 Y139.914509 Z2 I-2.393064 J-3.906471
G02 X97.478840 Y139.213356 Z2 I-3.940611 J-4.646421
G02 X98.106838 Y138.451247 Z2 I-24.803988 J-21.078959
G02 X98.639182 Y137.775977 Z2 I-52.000703 J-41.541781
G03 X99.333345 Y137.102629 Z2 I2.745070 J2.135445
G03 X100.228033 Y136.717274 Z2 I1.293114 J1.770967
G02 X100.856140 Y136.593654 Z2 I-5.005078 J-27.087997
G02 X101.975434 Y136.344089 Z2 I-8.731165 J-41.793934
G03 X103.147650 Y136.165925 Z2 I1.670401 J7.044928
G03 X103.786689 Y136.151535 Z2 I0.474624 J6.880784
G02 X104.039070 Y136.154525 Z2 I0.250833 J-10.519371
G00 Z0.000000

(End cutting path id: path7)


(Start cutting path id: path7)
(Change tool to Default tool)

G00 Z0.000000
G00 X99.582969 Y136.663794

G01 Z2 F100.0(Penetrate)
G02 X99.756595 Y136.182630 Z2 I-3.325587 J-1.471933 F75
G03 X100.041050 Y135.263306 Z2 I19.167709 J5.427154
G03 X100.797050 Y133.976926 Z2 I3.439492 J1.156035
G02 X101.722020 Y132.716964 Z2 I-5.507367 J-5.012602
G02 X102.607149 Y130.593372 Z2 I-7.480991 J-4.364391
G03 X102.893220 Y129.661354 Z2 I13.042742 J3.493396
G00 Z0.000000

(End cutting path id: path7)


(Start cutting path id: path7)
(Change tool to Default tool)

G00 Z0.000000
G00 X78.066383 Y134.499426

G01 Z2 F100.0(Penetrate)
G01 X78.193700 Y134.499426 Z2 F75
G00 Z0.000000

(End cutting path id: path7)


(Footer)
M5
;G00 X0.0000 Y0.0000
M2
(Using default footer. To add your own footer create file "footer" in the output dir.)
(end)
%