%
(Header)
(Generated by gcodetools from Inkscape.)
(Using default header. To add your own header create file "header" in the output dir.)
M3
(Header end.)
G21 (All units in mm)

(Start cutting path id: path5)
(Change tool to Default tool)

G00 Z0.000000
G00 X46.710894 Y128.869551

G01 Z2 F100.0(Penetrate)
G03 X46.710666 Y129.197371 Z2 I-5067.674889 J-3.367265 F75
G03 X46.656864 Y130.015405 Z2 I-6.315877 J-0.004605
G02 X46.598208 Y130.698429 Z2 I7.562464 J0.993470
G02 X46.583574 Y131.415893 Z2 I17.645842 J0.718804
G03 X46.578785 Y132.289052 Z2 I-80.549304 J-0.005165
G02 X46.893417 Y133.174755 Z2 I1.362148 J0.014854
G02 X47.847167 Y133.923881 Z2 I2.222015 J-1.847264
G03 X48.875281 Y134.518263 Z2 I-3.736820 J7.650010
G02 X49.356512 Y134.803764 Z2 I2.677020 J-3.963965
G03 X49.839787 Y135.143060 Z2 I-1.005660 J1.946234
G03 X50.358206 Y135.675269 Z2 I-4.931802 J5.322606
G02 X50.912354 Y136.013454 Z2 I0.820242 J-0.720940
G02 X51.794291 Y136.028485 Z2 I0.473197 J-1.883441
G03 X52.058208 Y135.999304 Z2 I0.274590 J1.275383
G00 Z0.000000

(End cutting path id: path5)


(Start cutting path id: path5)
(Change tool to Default tool)

G00 Z0.000000
G00 X52.058208 Y129.251499

G01 Z2 F100.0(Penetrate)
G01 X51.039671 Y128.869548 Z2 F75
G00 Z0.000000

(End cutting path id: path5)


(Footer)
M5
;G00 X0.0000 Y0.0000
M2
(Using default footer. To add your own footer create file "footer" in the output dir.)
(end)
%