%
(Header)
(Generated by gcodetools from Inkscape.)
(Using default header. To add your own header create file "header" in the output dir.)
M3
(Header end.)
G21 (All units in mm)

(Start cutting path id: path25)
(Change tool to Default tool)

G00 Z0.000000
G00 X49.280159 Y54.777710

G01 Z2 F100.0(Penetrate)
G03 X51.076042 Y54.698937 Z2 I1.177984 J6.345095 F75
G02 X52.717720 Y54.777710 Z2 I1.641678 J-17.067421
G00 Z0.000000

(End cutting path id: path25)


(Start cutting path id: path25)
(Change tool to Default tool)

G00 Z0.000000
G00 X43.168940 Y54.395760

G01 Z2 F100.0(Penetrate)
G01 X44.314793 Y53.504540 Z2 F75
G00 Z0.000000

(End cutting path id: path25)


(Start cutting path id: path25)
(Change tool to Default tool)

G00 Z0.000000
G00 X32.601622 Y50.830880

G01 Z2 F100.0(Penetrate)
G03 X34.095436 Y51.423129 Z2 I-38.964265 J100.458572 F75
G03 X35.657232 Y52.136870 Z2 I-7.371753 J18.196361
G02 X37.619838 Y52.705946 Z2 I2.459343 J-4.812869
G02 X39.731379 Y52.729240 Z2 I1.199240 J-12.993267
G02 X41.781591 Y52.378277 Z2 I-0.730834 J-10.433119
G02 X43.678208 Y51.496350 Z2 I-1.681843 J-6.097202
G03 X45.001103 Y50.667645 Z2 I10.581861 J15.422008
G03 X46.479184 Y50.194300 Z2 I1.860643 J3.265676
G00 Z0.000000

(End cutting path id: path25)


(Start cutting path id: path25)
(Change tool to Default tool)

G00 Z0.000000
G00 X32.219671 Y47.775270

G01 Z2 F100.0(Penetrate)
G03 X34.221986 Y47.925498 Z2 I-0.041695 J13.974776 F75
G03 X36.166500 Y48.299280 Z2 I-3.359545 J22.722094
G03 X37.683028 Y48.680000 Z2 I-13.941081 J58.742433
G02 X39.094793 Y48.921130 Z2 I2.045674 J-7.723641
G00 Z0.000000

(End cutting path id: path25)


(Start cutting path id: path25)
(Change tool to Default tool)

G00 Z0.000000
G00 X52.717720 Y47.266010

G01 Z2 F100.0(Penetrate)
G02 X52.487026 Y47.179470 Z2 I-2.273386 J5.709514 F75
G03 X51.826304 Y46.909990 Z2 I2.449925 J-6.951561
G03 X51.096584 Y46.520527 Z2 I3.203649 J-6.880886
G02 X50.044062 Y46.023880 Z2 I-2.908031 J4.799259
G02 X49.288805 Y45.842306 Z2 I-1.272760 J3.632521
G03 X48.516257 Y45.712760 Z2 I1.683601 J-12.408444
G03 X46.427697 Y45.060409 Z2 I2.041601 J-10.205894
G02 X44.314793 Y44.488510 Z2 I-3.032412 J7.014321
G02 X42.616804 Y44.644278 Z2 I-0.487315 J4.020469
G03 X40.877232 Y45.045620 Z2 I-3.476339 J-11.097135
G03 X39.241670 Y45.006997 Z2 I-0.707610 J-4.684735
G03 X37.694305 Y44.592350 Z2 I2.426916 J-12.151198
G00 Z0.000000

(End cutting path id: path25)


(Start cutting path id: path25)
(Change tool to Default tool)

G00 Z0.000000
G00 X52.717720 Y43.319180

G01 Z2 F100.0(Penetrate)
G01 X52.717720 Y42.300640 Z2 F75
G00 Z0.000000

(End cutting path id: path25)


(Start cutting path id: path25)
(Change tool to Default tool)

G00 Z0.000000
G00 X34.002110 Y38.863080

G01 Z2 F100.0(Penetrate)
G01 X39.094793 Y39.736320 Z2 F75
G01 X44.314793 Y40.767330 Z2
G01 X47.879671 Y40.523210 Z2
G01 X50.807867 Y40.514210 Z2
G01 X51.974842 Y39.535160 Z2
G01 X52.717720 Y39.117840 Z2
G00 Z0.000000

(End cutting path id: path25)


(Start cutting path id: path25)
(Change tool to Default tool)

G00 Z0.000000
G00 X35.657232 Y34.661740

G01 Z2 F100.0(Penetrate)
G03 X38.102992 Y34.705087 Z2 I0.998924 J12.657861 F75
G03 X40.495281 Y35.068650 Z2 I-3.765405 J32.829400
G02 X41.340391 Y35.207765 Z2 I3.284391 J-17.315767
G03 X42.148536 Y35.449720 Z2 I-0.385411 J2.757904
G03 X42.872624 Y36.051617 Z2 I-0.813805 J1.715506
G02 X43.556000 Y36.585060 Z2 I1.264824 J-0.915877
G02 X45.300213 Y36.934148 Z2 I1.809984 J-4.511548
G03 X47.243086 Y37.014750 Z2 I-0.471031 J34.810274
G02 X48.840020 Y36.683548 Z2 I0.208956 J-3.008008
G02 X50.298696 Y35.917330 Z2 I-71.351079 J-137.605116
G03 X51.024575 Y35.635093 Z2 I1.551800 J2.916483
G03 X51.699184 Y35.499420 Z2 I1.587235 J6.147227
G03 X52.494832 Y35.429923 Z2 I1.005712 J6.924766
G03 X52.717720 Y35.425620 Z2 I0.312114 J10.392102
G00 Z0.000000

(End cutting path id: path25)


(Footer)
M5
;G00 X0.0000 Y0.0000
M2
(Using default footer. To add your own footer create file "footer" in the output dir.)
(end)
%