%
(Header)
(Generated by gcodetools from Inkscape.)
(Using default header. To add your own header create file "header" in the output dir.)
M3
(Header end.)
G21 (All units in mm)

(Start cutting path id: path9)
(Change tool to Default tool)

G00 Z0.000000
G00 X130.886670 Y130.713984

G01 Z2 F100.0(Penetrate)
G03 X132.107541 Y131.196322 Z2 I-9.979991 J27.047151 F75
G03 X134.578870 Y132.510078 Z2 I-6.077372 J14.413556
G03 X135.534407 Y133.246937 Z2 I-4.193867 J6.426462
G02 X136.615940 Y133.559265 Z2 I0.860397 J-0.950657
G02 X138.234419 Y132.618003 Z2 I-0.466473 J-2.664191
G03 X139.544130 Y131.244865 Z2 I10.288202 J8.501797
G02 X140.231522 Y130.611888 Z2 I-49.623705 J-54.579415
G02 X140.809940 Y130.023564 Z2 I-6.493111 J-6.962286
G02 X141.141885 Y129.436930 Z2 I-1.154299 J-1.040388
G02 X141.199350 Y129.186179 Z2 I-1.733320 J-0.529187
G00 Z0.000000

(End cutting path id: path9)


(Start cutting path id: path9)
(Change tool to Default tool)

G00 Z0.000000
G00 X130.759350 Y129.186179

G01 Z2 F100.0(Penetrate)
G01 X132.032520 Y129.186179 Z2 F75
G00 Z0.000000

(End cutting path id: path9)


(Footer)
M5
;G00 X0.0000 Y0.0000
M2
(Using default footer. To add your own footer create file "footer" in the output dir.)
(end)
%