%
(Header)
(Generated by gcodetools from Inkscape.)
(Using default header. To add your own header create file "header" in the output dir.)
M3
(Header end.)
G21 (All units in mm)

(Start cutting path id: path26)
(Change tool to Default tool)

G00 Z0.000000
G00 X57.789964 Y54.794750

G01 Z2 F100.0(Penetrate)
G01 X55.625573 Y54.540120 Z2 F75
G01 X54.479720 Y54.594120 Z2
G01 X52.824598 Y54.667420 Z2
G00 Z0.000000

(End cutting path id: path26)


(Start cutting path id: path26)
(Change tool to Default tool)

G00 Z0.000000
G00 X52.697281 Y54.667420

G01 Z2 F100.0(Penetrate)
G01 X52.824598 Y54.667420 Z2 F75
G00 Z0.000000

(End cutting path id: path26)


(Start cutting path id: path26)
(Change tool to Default tool)

G00 Z0.000000
G00 X74.213866 Y54.030830

G01 Z2 F100.0(Penetrate)
G02 X73.498626 Y51.803843 Z2 I-5.084488 J0.404632 F75
G03 X72.304110 Y49.702050 Z2 I40.924769 J-24.649185
G00 Z0.000000

(End cutting path id: path26)


(Start cutting path id: path26)
(Change tool to Default tool)

G00 Z0.000000
G00 X59.699720 Y52.630340

G01 Z2 F100.0(Penetrate)
G01 X64.028500 Y52.906590 Z2 F75
G01 X68.484598 Y53.394240 Z2
G00 Z0.000000

(End cutting path id: path26)


(Start cutting path id: path26)
(Change tool to Default tool)

G00 Z0.000000
G00 X52.824598 Y47.410340

G01 Z2 F100.0(Penetrate)
G03 X53.039267 Y47.465957 Z2 I-0.952410 J4.118147 F75
G02 X53.716014 Y47.660060 Z2 I227.746563 J-792.771685
G02 X54.733564 Y47.910157 Z2 I3.801056 J-13.270002
G03 X56.007524 Y48.364240 Z2 I-0.981710 J4.768380
G03 X57.959791 Y49.525019 Z2 I-9.626132 J18.411910
G02 X60.208988 Y50.045200 Z2 I1.807635 J-2.693269
G02 X62.326834 Y48.624311 Z2 I-0.395513 J-2.878292
G03 X63.800980 Y47.010220 Z2 I4.439284 J2.574176
G03 X64.969792 Y46.564853 Z2 I1.449311 J2.047155
G03 X66.320208 Y46.413030 Z2 I703.186818 J6248.534452
G02 X66.960109 Y46.337283 Z2 I-6.121836 J-54.457561
G02 X67.540624 Y46.071840 Z2 I-0.131071 J-1.054152
G02 X68.209191 Y45.429109 Z2 I-9.820614 J-10.884464
G03 X68.866549 Y45.069710 Z2 I0.915828 J0.894223
G03 X70.073501 Y44.898676 Z2 I1.968743 J9.548919
G03 X71.412891 Y44.865970 Z2 I0.973364 J12.419487
G03 X73.871803 Y45.779596 Z2 I-0.120242 J4.089361
G03 X75.868988 Y47.444820 Z2 I-63.525793 J78.219865
G02 X76.772228 Y48.162171 Z2 I10.214845 J-11.934530
G02 X77.651427 Y48.731940 Z2 I5.224773 J-7.099013
G02 X78.456762 Y49.032485 Z2 I1.343643 J-2.371150
G02 X78.669964 Y49.065460 Z2 I0.469731 J-2.331334
G00 Z0.000000

(End cutting path id: path26)


(Start cutting path id: path26)
(Change tool to Default tool)

G00 Z0.000000
G00 X52.697281 Y47.410340

G01 Z2 F100.0(Penetrate)
G01 X52.824598 Y47.410340 Z2 F75
G00 Z0.000000

(End cutting path id: path26)


(Start cutting path id: path26)
(Change tool to Default tool)

G00 Z0.000000
G00 X52.824598 Y42.572290

G01 Z2 F100.0(Penetrate)
G03 X53.030835 Y42.614716 Z2 I-0.702196 J3.935951 F75
G03 X53.589089 Y42.799520 Z2 I-0.739479 J3.169392
G02 X55.101761 Y43.403867 Z2 I10.836803 J-24.929101
G02 X57.280695 Y43.840450 Z2 I2.510903 J-6.875923
G02 X58.715151 Y43.801427 Z2 I0.448736 J-9.888984
G02 X60.081671 Y43.560870 Z2 I-0.928026 J-9.273443
G03 X61.598494 Y43.230371 Z2 I5.580743 J21.966820
G03 X63.137281 Y43.082050 Z2 I1.648182 J9.043004
G03 X63.754497 Y43.080202 Z2 I0.422235 J37.952379
G02 X64.283134 Y43.081560 Z2 I0.528636 J-102.902254
G00 Z0.000000

(End cutting path id: path26)


(Start cutting path id: path26)
(Change tool to Default tool)

G00 Z0.000000
G00 X52.697281 Y42.572290

G01 Z2 F100.0(Penetrate)
G01 X52.824598 Y42.572290 Z2 F75
G00 Z0.000000

(End cutting path id: path26)


(Start cutting path id: path26)
(Change tool to Default tool)

G00 Z0.000000
G00 X64.919720 Y39.007420

G01 Z2 F100.0(Penetrate)
G03 X69.551799 Y40.114978 Z2 I-0.537561 J12.488231 F75
G02 X73.959232 Y41.553360 Z2 I8.660698 J-19.066041
G02 X75.961306 Y41.961009 Z2 I56.559837 J-272.660204
G02 X77.651427 Y42.261760 Z2 I7.972116 J-39.901353
G02 X78.461212 Y42.318860 Z2 I0.741489 J-4.745023
G03 X78.669964 Y42.317660 Z2 I0.175194 J12.318558
G00 Z0.000000

(End cutting path id: path26)


(Start cutting path id: path26)
(Change tool to Default tool)

G00 Z0.000000
G00 X52.697281 Y38.625460

G01 Z2 F100.0(Penetrate)
G03 X52.920524 Y38.627888 Z2 I-0.000000 J10.265791 F75
G02 X53.588697 Y38.620460 Z2 I0.221121 J-10.165808
G02 X54.961349 Y38.558106 Z2 I-24.424113 J-552.808624
G02 X57.026061 Y38.156380 Z2 I-0.338100 J-7.244464
G02 X58.544286 Y37.297826 Z2 I-1.641181 J-4.673840
G03 X60.081671 Y36.527980 Z2 I2.432212 J2.937129
G03 X61.281957 Y36.360040 Z2 I1.455686 J6.030697
G03 X62.500695 Y36.333770 Z2 I1.278506 J31.029747
G02 X63.151746 Y36.284775 Z2 I-0.008630 J-4.464785
G02 X63.773866 Y36.079130 Z2 I-0.284535 J-1.904623
G00 Z0.000000

(End cutting path id: path26)


(Start cutting path id: path26)
(Change tool to Default tool)

G00 Z0.000000
G00 X52.824598 Y35.187910

G01 Z2 F100.0(Penetrate)
G03 X53.018805 Y35.217200 Z2 I-0.507564 J4.023817 F75
G02 X53.716014 Y35.303930 Z2 I1.212601 J-6.902205
G03 X54.838334 Y35.501986 Z2 I-0.416976 J5.641801
G02 X56.260194 Y35.496870 Z2 I0.702006 J-2.482655
G02 X56.902269 Y35.031158 Z2 I-0.327396 J-1.126849
G03 X57.540831 Y34.464390 Z2 I1.446106 J0.986180
G03 X58.292578 Y34.241500 Z2 I0.951316 J1.829363
G02 X58.935817 Y34.169380 Z2 I-2.128916 J-21.892538
G00 Z0.000000

(End cutting path id: path26)


(Start cutting path id: path26)
(Change tool to Default tool)

G00 Z0.000000
G00 X52.697281 Y35.187910

G01 Z2 F100.0(Penetrate)
G01 X52.824598 Y35.187910 Z2 F75
G00 Z0.000000

(End cutting path id: path26)


(Start cutting path id: path26)
(Change tool to Default tool)

G00 Z0.000000
G00 X78.669964 Y34.551330

G01 Z2 F100.0(Penetrate)
G02 X78.444089 Y34.490045 Z2 I-0.840743 J2.651775 F75
G03 X77.651427 Y34.294930 Z2 I4.880759 J-21.535980
G02 X76.819966 Y34.080084 Z2 I-15.892090 J59.786511
G02 X75.868988 Y33.883400 Z2 I-2.816862 J11.222342
G02 X73.682348 Y33.681520 Z2 I-2.535227 J15.516922
G03 X71.540208 Y33.320100 Z2 I0.166699 J-7.516976
G02 X69.037288 Y32.573776 Z2 I-17.964791 J55.677760
G02 X66.702159 Y32.259620 Z2 I-2.335129 J8.521447
G00 Z0.000000

(End cutting path id: path26)


(Footer)
M5
G00 X0.0000 Y0.0000
M2
(Using default footer. To add your own footer create file "footer" in the output dir.)
(end)
%