%
(Header)
(Generated by gcodetools from Inkscape.)
(Using default header. To add your own header create file "header" in the output dir.)
M3
(Header end.)
G21 (All units in mm)

(Start cutting path id: path28)
(Change tool to Default tool)

G00 Z0.000000
G00 X114.478010 Y53.207240

G01 Z2 F100.0(Penetrate)
G02 X113.047795 Y52.920080 Z2 I-2.037754 J6.443921 F75
G03 X111.931670 Y52.715560 Z2 I0.559906 J-6.203346
G01 X111.113440 Y51.934070 Z2
G01 X111.576830 Y51.235600 Z2
G03 X112.152141 Y51.073678 Z2 I0.680701 J1.315539
G03 X112.822890 Y51.042850 Z2 I0.944923 J13.246879
G00 Z0.000000

(End cutting path id: path28)


(Start cutting path id: path28)
(Change tool to Default tool)

G00 Z0.000000
G00 X104.038010 Y52.825290

G01 Z2 F100.0(Penetrate)
G01 X105.438500 Y52.941020 Z2 F75
G01 X106.838980 Y52.673120 Z2
G01 X108.239470 Y52.464460 Z2
G01 X110.913130 Y52.061390 Z2
G00 Z0.000000

(End cutting path id: path28)


(Start cutting path id: path28)
(Change tool to Default tool)

G00 Z0.000000
G00 X104.038010 Y42.512610

G01 Z2 F100.0(Penetrate)
G03 X104.560628 Y42.555749 Z2 I-0.288168 J6.678381 F75
G03 X105.183860 Y42.670480 Z2 I-0.636026 J5.205052
G03 X105.405807 Y42.738719 Z2 I-0.501206 J2.025234
G03 X106.202400 Y43.149190 Z2 I-1.277825 J3.458051
G03 X106.635073 Y42.878881 Z2 I1.161939 J1.378436
G03 X107.602890 Y42.757620 Z2 I0.685758 J1.550380
G03 X109.247790 Y43.091745 Z2 I-4.198786 J24.886621
G03 X111.295080 Y43.736860 Z2 I-3.473812 J14.595368
G03 X111.839288 Y43.986631 Z2 I-2.063007 J5.212695
G03 X112.308510 Y44.285910 Z2 I-1.541497 J2.934292
G03 X112.884322 Y44.863049 Z2 I-1.841223 J2.412800
G03 X113.120840 Y45.186760 Z2 I-8.613975 J6.542041
G03 X113.205820 Y45.308537 Z2 I-19.374617 J13.610842
G02 X113.474300 Y45.695530 Z2 I498.262895 J-345.387416
G02 X114.065461 Y46.500377 Z2 I15.421447 J-10.707545
G02 X114.350690 Y46.841390 Z2 I4.818574 J-3.740542
G03 X114.500350 Y46.691734 Z2 I6813.833754 J6813.797979
G02 X115.113320 Y46.077490 Z2 I-289.565914 J-289.578618
G01 X116.026840 Y45.437170 Z2
G01 X116.797120 Y46.082890 Z2
G02 X117.109833 Y46.525350 Z2 I1.844891 J-0.972158
G02 X118.163230 Y47.316860 Z2 I2.690697 J-2.484247
G03 X118.925557 Y48.111819 Z2 I-0.732430 J1.465361
G02 X119.456730 Y48.849870 Z2 I2.065549 J-0.926403
G02 X120.164346 Y49.297619 Z2 I1.579895 J-1.713816
G02 X121.098500 Y49.666430 Z2 I24.948334 J-61.823646
G02 X123.389454 Y50.459665 Z2 I12.419149 J-32.163038
G02 X125.681910 Y51.042360 Z2 I7.056814 J-22.962264
G02 X126.414394 Y51.186571 Z2 I14.069461 J-69.530129
G02 X127.063540 Y51.202980 Z2 I0.374196 J-1.954855
G01 X127.595100 Y50.283270 Z2
G01 X128.228840 Y49.792470 Z2
G03 X128.739578 Y49.760649 Z2 I0.345342 J1.428179
G02 X128.864840 Y49.768470 Z2 I0.140089 J-1.236608
G01 X129.883370 Y51.042820 Z2
G00 Z0.000000

(End cutting path id: path28)


(Start cutting path id: path28)
(Change tool to Default tool)

G00 Z0.000000
G00 X128.100930 Y49.642330

G01 Z2 F100.0(Penetrate)
G02 X127.668306 Y49.115624 Z2 I-5.678553 J4.223205 F75
G02 X126.954590 Y48.590100 Z2 I-1.651171 J1.495047
G02 X126.064201 Y48.241474 Z2 I-3.289325 J7.089573
G03 X125.313320 Y47.863830 Z2 I0.840898 J-2.607309
G03 X124.769000 Y47.226679 Z2 I1.008651 J-1.412776
G02 X124.454910 Y46.719050 Z2 I-2.942200 J1.469470
G02 X123.056376 Y45.503874 Z2 I-3.543340 J2.665630
G03 X120.716540 Y44.167700 Z2 I46.639115 J-84.388660
G00 Z0.000000

(End cutting path id: path28)


(Start cutting path id: path28)
(Change tool to Default tool)

G00 Z0.000000
G00 X118.679470 Y47.477940

G01 Z2 F100.0(Penetrate)
G03 X119.047431 Y47.283314 Z2 I0.919411 J1.293097 F75
G03 X119.825320 Y47.188040 Z2 I0.589597 J1.590635
G03 X121.487199 Y47.485947 Z2 I-1.418981 J12.700181
G02 X123.390200 Y47.891630 Z2 I7.014023 J-28.235570
G02 X124.572603 Y47.916917 Z2 I0.672016 J-3.766221
G02 X125.045320 Y47.732580 Z2 I-0.143555 J-1.066428
G00 Z0.000000

(End cutting path id: path28)


(Start cutting path id: path28)
(Change tool to Default tool)

G00 Z0.000000
G00 X114.478010 Y46.968680

G01 Z2 F100.0(Penetrate)
G02 X116.632214 Y47.030881 Z2 I1.372246 J-10.190619 F75
G02 X117.151670 Y46.841360 Z2 I-0.077780 J-1.019833
G00 Z0.000000

(End cutting path id: path28)


(Start cutting path id: path28)
(Change tool to Default tool)

G00 Z0.000000
G00 X108.494110 Y43.021850

G01 Z2 F100.0(Penetrate)
G03 X108.371212 Y43.143840 Z2 I-16.505691 J-16.505691 F75
G02 X107.856730 Y43.660990 Z2 I25.586801 J25.969270
G02 X107.296596 Y44.317810 Z2 I4.637215 J4.521849
G02 X107.220930 Y44.422330 Z2 I4.040757 J3.004925
G02 X108.043379 Y44.919368 Z2 I3.714892 J-5.218058
G02 X109.003370 Y45.330840 Z2 I3.711135 J-7.332728
G02 X110.513388 Y45.791421 Z2 I5.835498 J-16.426141
G02 X111.804350 Y46.041500 Z2 I2.747698 J-10.727042
G02 X112.814836 Y45.964800 Z2 I0.323267 J-2.435803
G02 X113.332150 Y45.695500 Z2 I-0.417708 J-1.433919
G00 Z0.000000

(End cutting path id: path28)


(Start cutting path id: path28)
(Change tool to Default tool)

G00 Z0.000000
G00 X129.883370 Y45.822820

G01 Z2 F100.0(Penetrate)
G02 X129.639047 Y45.750781 Z2 I-1.032339 J3.050896 F75
G02 X128.864840 Y45.576540 Z2 I-3.762731 J14.911819
G03 X127.874347 Y45.251122 Z2 I0.833437 J-4.206893
G02 X126.827760 Y44.764990 Z2 I-55.219586 J117.511904
G02 X125.599507 Y44.234794 Z2 I-12.189033 J26.549324
G03 X124.408740 Y43.658430 Z2 I3.752615 J-9.271148
G00 Z0.000000

(End cutting path id: path28)


(Start cutting path id: path28)
(Change tool to Default tool)

G00 Z0.000000
G00 X113.586790 Y45.695500

G01 Z2 F100.0(Penetrate)
G03 X113.993363 Y45.458894 Z2 I0.800517 J0.907950 F75
G03 X115.623860 Y45.186240 Z2 I1.629937 J4.735592
G00 Z0.000000

(End cutting path id: path28)


(Start cutting path id: path28)
(Change tool to Default tool)

G00 Z0.000000
G00 X107.093620 Y44.422330

G01 Z2 F100.0(Penetrate)
G01 X106.329710 Y43.276480 Z2 F75
G00 Z0.000000

(End cutting path id: path28)


(Start cutting path id: path28)
(Change tool to Default tool)

G00 Z0.000000
G00 X103.910690 Y42.512580

G01 Z2 F100.0(Penetrate)
G01 X104.038010 Y42.512580 Z2 F75
G00 Z0.000000

(End cutting path id: path28)


(Start cutting path id: path28)
(Change tool to Default tool)

G00 Z0.000000
G00 X104.038010 Y36.783310

G01 Z2 F100.0(Penetrate)
G02 X104.236923 Y36.781337 Z2 I0.001164 J-9.908862 F75
G03 X104.802500 Y36.788310 Z2 I0.174836 J8.759026
G03 X105.468251 Y36.854225 Z2 I-0.276135 J6.184073
G02 X106.329710 Y36.984300 Z2 I22.950075 J-149.075571
G02 X108.301799 Y37.237954 Z2 I7.650304 J-51.686026
G02 X110.276540 Y37.441500 Z2 I17.459266 J-159.703141
G03 X113.596220 Y37.991868 Z2 I-2.395154 J24.733870
G02 X116.897030 Y38.656710 Z2 I11.630573 J-49.217172
G02 X118.954359 Y38.875413 Z2 I2.862655 J-17.142912
G03 X120.971180 Y39.182680 Z2 I-0.451663 J9.737181
G02 X123.446976 Y39.671779 Z2 I5.243471 J-20.031472
G02 X125.936540 Y39.838910 Z2 I2.489564 J-18.458556
G00 Z0.000000

(End cutting path id: path28)


(Start cutting path id: path28)
(Change tool to Default tool)

G00 Z0.000000
G00 X103.910690 Y36.783300

G01 Z2 F100.0(Penetrate)
G01 X104.038010 Y36.783300 Z2 F75
G00 Z0.000000

(End cutting path id: path28)


(Footer)
M5
G00 X0.0000 Y0.0000
M2
(Using default footer. To add your own footer create file "footer" in the output dir.)
(end)
%