%
(Header)
(Generated by gcodetools from Inkscape.)
(Using default header. To add your own header create file "header" in the output dir.)
M3
(Header end.)
G21 (All units in mm)

(Start cutting path id: path24)
(Change tool to Default tool)

G00 Z0.000000
G00 X132.957820 Y80.036540

G01 Z2 F100.0(Penetrate)
G02 X133.947757 Y79.745220 Z2 I-1.051502 J-5.400743 F75
G02 X134.570600 Y79.017510 Z2 I-0.382765 J-0.958006
G02 X134.619657 Y77.927485 Z2 I-2.967762 J-0.679683
G02 X133.947280 Y76.874540 Z2 I-1.474783 J0.200597
G02 X132.537327 Y76.541596 Z2 I-1.179354 J1.842426
G03 X131.302900 Y76.525690 Z2 I-0.550411 J-5.192360
G02 X130.605025 Y76.474076 Z2 I-0.797395 J6.037744
G02 X130.411480 Y76.471690 Z2 I-0.393707 J24.090028
G00 Z0.000000

(End cutting path id: path24)


(Start cutting path id: path24)
(Change tool to Default tool)

G00 Z0.000000
G00 X136.395380 Y79.399990

G01 Z2 F100.0(Penetrate)
G01 X136.395380 Y76.217060 Z2 F75
G00 Z0.000000

(End cutting path id: path24)


(Start cutting path id: path24)
(Change tool to Default tool)

G00 Z0.000000
G00 X142.379290 Y79.399990

G01 Z2 F100.0(Penetrate)
G01 X142.506600 Y77.872180 Z2 F75
G00 Z0.000000

(End cutting path id: path24)


(Start cutting path id: path24)
(Change tool to Default tool)

G00 Z0.000000
G00 X139.323680 Y78.890720

G01 Z2 F100.0(Penetrate)
G03 X139.325820 Y77.660414 Z2 I353.628860 J0.000000 F75
G03 X139.540390 Y76.853650 Z2 I1.645490 J0.005725
G03 X139.842651 Y76.390859 Z2 I3.863677 J2.193371
G02 X140.306360 Y75.453750 Z2 I-2.323953 J-1.733242
G01 X140.858950 Y74.731600 Z2
G03 X141.906360 Y74.812009 Z2 I0.401468 J1.632464
G02 X143.143190 Y75.213260 Z2 I3.099867 J-7.448291
G02 X144.986628 Y75.521917 Z2 I3.217282 J-13.555814
G03 X146.835380 Y75.763590 Z2 I-2.945245 J29.722653
G03 X148.028501 Y76.269979 Z2 I-0.437302 J2.689112
G02 X149.127090 Y76.847750 Z2 I2.369598 J-3.172290
G02 X150.204259 Y76.820917 Z2 I0.502021 J-1.481180
G03 X151.164160 Y76.471690 Z2 I6.790194 J17.170015
G00 Z0.000000

(End cutting path id: path24)


(Start cutting path id: path24)
(Change tool to Default tool)

G00 Z0.000000
G00 X130.284160 Y76.471690

G01 Z2 F100.0(Penetrate)
G01 X130.411480 Y76.471690 Z2 F75
G00 Z0.000000

(End cutting path id: path24)


(Start cutting path id: path24)
(Change tool to Default tool)

G00 Z0.000000
G00 X140.724160 Y74.689260

G01 Z2 F100.0(Penetrate)
G02 X137.829821 Y72.908156 Z2 I-4.711553 J4.414156 F75
G03 X133.976360 Y71.640420 Z2 I17.562211 J-59.873211
G02 X132.472485 Y71.107088 Z2 I-28.730051 J78.625290
G03 X131.302900 Y70.703720 Z2 I240.202439 J-698.375482
G02 X130.623125 Y70.523307 Z2 I-1.564606 J4.524394
G02 X130.411480 Y70.487790 Z2 I-1.010260 J5.371734
G00 Z0.000000

(End cutting path id: path24)


(Start cutting path id: path24)
(Change tool to Default tool)

G00 Z0.000000
G00 X134.358310 Y65.395110

G01 Z2 F100.0(Penetrate)
G02 X135.932353 Y66.264213 Z2 I19.017144 J-32.582264 F75
G02 X137.668550 Y66.917900 Z2 I3.565827 J-6.838337
G02 X138.202910 Y67.017524 Z2 I1.168250 J-4.783320
G03 X138.797410 Y67.217530 Z2 I-0.207907 J1.601539
G03 X139.347493 Y67.809014 Z2 I-0.675083 J1.179364
G02 X140.088170 Y68.646210 Z2 I1.843137 J-0.884404
G03 X143.358207 Y70.998437 Z2 I-20.122239 J31.422790
G02 X146.580750 Y73.257230 Z2 I18.638938 J-23.163391
G02 X147.268048 Y73.545860 Z2 I1.314631 J-2.167829
G02 X147.981240 Y73.659230 Z2 I0.968362 J-3.791836
G02 X148.715987 Y73.627931 Z2 I0.222854 J-3.408208
G03 X149.381730 Y73.554800 Z2 I1.223525 J8.071486
G03 X150.451839 Y73.501770 Z2 I1.937587 J28.275885
G02 X151.546120 Y73.416080 Z2 I-0.353502 J-11.544194
G00 Z0.000000

(End cutting path id: path24)


(Start cutting path id: path24)
(Change tool to Default tool)

G00 Z0.000000
G00 X130.284160 Y70.487790

G01 Z2 F100.0(Penetrate)
G01 X130.411480 Y70.487790 Z2 F75
G00 Z0.000000

(End cutting path id: path24)


(Start cutting path id: path24)
(Change tool to Default tool)

G00 Z0.000000
G00 X139.069040 Y67.177550

G01 Z2 F100.0(Penetrate)
G01 X140.596850 Y66.689890 Z2 F75
G03 X141.864414 Y67.034309 Z2 I-0.787893 J5.404395
G02 X143.270510 Y67.498590 Z2 I4.165975 J-10.255495
G02 X147.492234 Y67.735474 Z2 I2.707604 J-10.516646
G02 X151.546120 Y66.922910 Z2 I-4.977717 J-35.352568
G00 Z0.000000

(End cutting path id: path24)


(Start cutting path id: path24)
(Change tool to Default tool)

G00 Z0.000000
G00 X130.284160 Y67.304870

G01 Z2 F100.0(Penetrate)
G02 X130.506080 Y67.297433 Z2 I-0.185099 J-8.838037 F75
G02 X131.939290 Y66.922910 Z2 I-0.163945 J-3.556917
G00 Z0.000000

(End cutting path id: path24)


(Start cutting path id: path24)
(Change tool to Default tool)

G00 Z0.000000
G00 X146.198800 Y65.904380

G01 Z2 F100.0(Penetrate)
G02 X143.883112 Y64.530485 Z2 I-44.783645 J72.843981 F75
G03 X141.488070 Y62.848770 Z2 I7.872282 J-13.757763
G00 Z0.000000

(End cutting path id: path24)


(Start cutting path id: path24)
(Change tool to Default tool)

G00 Z0.000000
G00 X149.890990 Y65.267790

G01 Z2 F100.0(Penetrate)
G01 X145.944160 Y62.848770 Z2 F75
G00 Z0.000000

(End cutting path id: path24)


(Start cutting path id: path24)
(Change tool to Default tool)

G00 Z0.000000
G00 X130.284160 Y61.702910

G01 Z2 F100.0(Penetrate)
G02 X130.507397 Y61.687519 Z2 I-0.164115 J-4.007066 F75
G02 X131.175580 Y61.611410 Z2 I-1.947324 J-20.067225
G02 X131.727845 Y61.536503 Z2 I-7.542741 J-57.683110
G03 X132.448550 Y61.459540 Z2 I1.518318 J10.805131
G02 X134.230135 Y61.267265 Z2 I-1.907035 J-26.020330
G03 X136.013430 Y61.077680 Z2 I3.527943 J24.702979
G03 X140.633811 Y60.766279 Z2 I60.494289 J863.145583
G02 X145.307580 Y60.338730 Z2 I-5.696314 J-88.028962
G03 X147.458891 Y60.192389 Z2 I2.540599 J21.462457
G03 X149.381730 Y60.175070 Z2 I1.922839 J106.733878
G00 Z0.000000

(End cutting path id: path24)


(Start cutting path id: path24)
(Change tool to Default tool)

G00 Z0.000000
G00 X130.411480 Y55.973610

G01 Z2 F100.0(Penetrate)
G03 X130.623424 Y55.932968 Z2 I9.268429 J47.761207 F75
G02 X131.302900 Y55.792160 Z2 I-3.777389 J-19.937780
G02 X132.133316 Y55.575511 Z2 I-2.779070 J-12.351971
G03 X133.212460 Y55.530350 Z2 I0.629018 J2.114799
G03 X135.569753 Y56.332493 Z2 I-2.078188 J9.972078
G02 X138.050510 Y57.064840 Z2 I3.460484 J-7.154222
G02 X139.535329 Y57.056759 Z2 I0.711264 J-5.726702
G03 X140.851480 Y56.884470 Z2 I20.738788 J153.314565
G02 X141.712974 Y56.570353 Z2 I-0.259417 J-2.049896
G02 X142.251970 Y56.100920 Z2 I-1.359161 J-2.104718
G01 X141.000310 Y54.808590 Z2
G01 X140.209890 Y54.231640 Z2
G01 X137.795870 Y54.191140 Z2
G00 Z0.000000

(End cutting path id: path24)


(Start cutting path id: path24)
(Change tool to Default tool)

G00 Z0.000000
G00 X142.251970 Y56.100890

G01 Z2 F100.0(Penetrate)
G01 X144.289040 Y56.100890 Z2 F75
G01 X146.071480 Y56.027590 Z2
G01 X150.272950 Y55.718920 Z2
G00 Z0.000000

(End cutting path id: path24)


(Start cutting path id: path24)
(Change tool to Default tool)

G00 Z0.000000
G00 X130.284160 Y55.973560

G01 Z2 F100.0(Penetrate)
G01 X130.411480 Y55.973560 Z2 F75
G00 Z0.000000

(End cutting path id: path24)


(Start cutting path id: path24)
(Change tool to Default tool)

G00 Z0.000000
G00 X147.090020 Y54.191120

G01 Z2 F100.0(Penetrate)
G01 X148.872460 Y54.191120 Z2 F75
G00 Z0.000000

(End cutting path id: path24)


(Footer)
M5
G00 X0.0000 Y0.0000
M2
(Using default footer. To add your own footer create file "footer" in the output dir.)
(end)
%