%
(Header)
(Generated by gcodetools from Inkscape.)
(Using default header. To add your own header create file "header" in the output dir.)
M3
(Header end.)
G21 (All units in mm)

(Start cutting path id: path1338)
(Change tool to Default tool)

G00 Z0.000000
G00 X96.804496 Y60.997150

G01 Z2 F100.0(Penetrate)
G01 X95.787829 Y60.870060 Z2 F75
G00 Z0.000000

(End cutting path id: path1338)


(Start cutting path id: path1338)
(Change tool to Default tool)

G00 Z0.000000
G00 X98.964912 Y60.997150

G01 Z2 F100.0(Penetrate)
G03 X99.438465 Y60.761016 Z2 I1.681158 J2.778559 F75
G03 X100.744080 Y60.488810 Z2 I1.420541 J3.546271
G02 X101.251582 Y60.453302 Z2 I-0.193933 J-6.416307
G02 X101.760750 Y60.390010 Z2 I-1.976882 J-17.983258
G03 X102.187488 Y60.356374 Z2 I0.496308 J3.572854
G03 X102.650330 Y60.365310 Z2 I0.115706 J5.998160
G03 X103.166165 Y60.428963 Z2 I-0.231738 J3.999953
G02 X103.667000 Y60.488860 Z2 I0.685968 J-3.611925
G00 Z0.000000

(End cutting path id: path1338)


(Start cutting path id: path1338)
(Change tool to Default tool)

G00 Z0.000000
G00 X113.325330 Y60.488860

G01 Z2 F100.0(Penetrate)
G02 X114.041614 Y60.684419 Z2 I1.345857 J-3.519977 F75
G02 X114.469080 Y60.743030 Z2 I1.141228 J-6.735159
G00 Z0.000000

(End cutting path id: path1338)


(Start cutting path id: path1338)
(Change tool to Default tool)

G00 Z0.000000
G00 X116.375330 Y60.234700

G01 Z2 F100.0(Penetrate)
G01 X117.010750 Y60.361780 Z2 F75
G00 Z0.000000

(End cutting path id: path1338)


(Start cutting path id: path1338)
(Change tool to Default tool)

G00 Z0.000000
G00 X121.712830 Y60.361780

G01 Z2 F100.0(Penetrate)
G01 X120.569080 Y59.726360 Z2 F75
G00 Z0.000000

(End cutting path id: path1338)


(Start cutting path id: path1338)
(Change tool to Default tool)

G00 Z0.000000
G00 X107.225330 Y57.311780

G01 Z2 F100.0(Penetrate)
G02 X108.496168 Y57.288567 Z2 I0.000000 J-34.799234 F75
G02 X110.275330 Y57.082330 Z2 I-0.415060 J-11.357950
G01 X111.150790 Y56.842280 Z2
G01 X111.408490 Y55.913860 Z2
G01 X110.907220 Y55.165480 Z2
G02 X109.966901 Y54.918783 Z2 I-1.029748 J2.009598
G02 X108.877410 Y54.897200 Z2 I-1.089491 J27.487823
G00 Z0.000000

(End cutting path id: path1338)


(Start cutting path id: path1338)
(Change tool to Default tool)

G00 Z0.000000
G00 X130.608660 Y57.057610

G01 Z2 F100.0(Penetrate)
G01 X134.548250 Y57.057610 Z2 F75
G00 Z0.000000

(End cutting path id: path1338)


(Start cutting path id: path1338)
(Change tool to Default tool)

G00 Z0.000000
G00 X98.964912 Y55.786780

G01 Z2 F100.0(Penetrate)
G01 X99.473246 Y55.786780 Z2 F75
G00 Z0.000000

(End cutting path id: path1338)


(Start cutting path id: path1338)
(Change tool to Default tool)

G00 Z0.000000
G00 X123.237830 Y55.278450

G01 Z2 F100.0(Penetrate)
G03 X123.963650 Y55.211369 Z2 I3.035700 J28.886068 F75
G02 X124.762830 Y55.123120 Z2 I-1.052990 J-13.198688
G02 X125.205152 Y55.047420 Z2 I-1.071214 J-7.589276
G02 X125.525330 Y54.932500 Z2 I-0.231153 J-1.147501
G02 X125.901014 Y54.617305 Z2 I-0.560277 J-1.049287
G02 X126.068960 Y54.388860 Z2 I-3.580169 J-2.807996
G01 X126.160760 Y54.134700 Z2
G01 X126.287840 Y53.753450 Z2
G03 X126.400000 Y53.491904 Z2 I4.570406 J1.805134
G03 X126.796170 Y52.863860 Z2 I2.624884 J1.216800
G00 Z0.000000

(End cutting path id: path1338)


(Start cutting path id: path1338)
(Change tool to Default tool)

G00 Z0.000000
G00 X121.077420 Y53.626360

G01 Z2 F100.0(Penetrate)
G01 X121.204510 Y52.736780 Z2 F75
G01 X121.204510 Y51.720110 Z2
G00 Z0.000000

(End cutting path id: path1338)


(Start cutting path id: path1338)
(Change tool to Default tool)

G00 Z0.000000
G00 X91.339922 Y53.499280

G01 Z2 F100.0(Penetrate)
G01 X92.229506 Y53.372200 Z2 F75
G00 Z0.000000

(End cutting path id: path1338)


(Start cutting path id: path1338)
(Change tool to Default tool)

G00 Z0.000000
G00 X97.185756 Y52.228450

G01 Z2 F100.0(Penetrate)
G01 X97.694089 Y52.355530 Z2 F75
G00 Z0.000000

(End cutting path id: path1338)


(Start cutting path id: path1338)
(Change tool to Default tool)

G00 Z0.000000
G00 X94.771172 Y50.957610

G01 Z2 F100.0(Penetrate)
G01 X94.898256 Y50.957610 Z2 F75
G00 Z0.000000

(End cutting path id: path1338)


(Start cutting path id: path1338)
(Change tool to Default tool)

G00 Z0.000000
G00 X116.248260 Y50.703450

G01 Z2 F100.0(Penetrate)
G01 X116.375340 Y50.703450 Z2 F75
G00 Z0.000000

(End cutting path id: path1338)


(Start cutting path id: path1338)
(Change tool to Default tool)

G00 Z0.000000
G00 X106.335760 Y45.874280

G01 Z2 F100.0(Penetrate)
G02 X107.489605 Y47.457311 Z2 I25.138739 J-17.111185 F75
G02 X108.877420 Y48.543030 Z2 I2.866401 J-2.234120
G00 Z0.000000

(End cutting path id: path1338)


(Start cutting path id: path1338)
(Change tool to Default tool)

G00 Z0.000000
G00 X133.658670 Y42.824280

G01 Z2 F100.0(Penetrate)
G01 X135.310760 Y43.254950 Z2 F75
G01 X136.200340 Y43.332650 Z2
G01 X136.962840 Y43.332650 Z2
G00 Z0.000000

(End cutting path id: path1338)


(Start cutting path id: path1338)
(Change tool to Default tool)

G00 Z0.000000
G00 X93.881589 Y42.061820

G01 Z2 F100.0(Penetrate)
G02 X95.150416 Y43.010093 Z2 I2.225614 J-1.654954 F75
G02 X96.677422 Y43.078490 Z2 I0.871209 J-2.370386
G00 Z0.000000

(End cutting path id: path1338)


(Start cutting path id: path1338)
(Change tool to Default tool)

G00 Z0.000000
G00 X107.733670 Y39.393070

G01 Z2 F100.0(Penetrate)
G02 X110.056460 Y40.032994 Z2 I2.874136 J-5.896929 F75
G02 X112.181590 Y39.647240 Z2 I0.348201 J-4.128328
G00 Z0.000000

(End cutting path id: path1338)


(Start cutting path id: path1338)
(Change tool to Default tool)

G00 Z0.000000
G00 X135.819090 Y39.265990

G01 Z2 F100.0(Penetrate)
G03 X136.681701 Y39.150611 Z2 I1.500414 J7.935284 F75
G03 X136.962840 Y39.138900 Z2 I0.296934 J3.748042
G00 Z0.000000

(End cutting path id: path1338)


(Start cutting path id: path1339)
(Change tool to Default tool)

G00 Z0.000000
G00 X140.121180 Y57.339490

G01 Z2 F100.0(Penetrate)
G01 X141.519100 Y57.074740 Z2 F75
G01 X147.492020 Y56.449910 Z2
G00 Z0.000000

(End cutting path id: path1339)


(Start cutting path id: path1339)
(Change tool to Default tool)

G00 Z0.000000
G00 X141.519100 Y51.366580

G01 Z2 F100.0(Penetrate)
G02 X140.308836 Y50.611684 Z2 I-2.470655 J2.613397 F75
G03 X139.231600 Y49.968660 Z2 I1.227336 J-3.279954
G00 Z0.000000

(End cutting path id: path1339)


(Start cutting path id: path1339)
(Change tool to Default tool)

G00 Z0.000000
G00 X149.398270 Y46.791580

G01 Z2 F100.0(Penetrate)
G02 X148.580907 Y46.592558 Z2 I-1.267730 J3.428507 F75
G03 X147.746180 Y46.459750 Z2 I1.520113 J-12.243903
G03 X146.296697 Y46.094064 Z2 I2.591621 J-13.328032
G02 X144.823270 Y45.785500 Z2 I-2.342717 J7.514560
G02 X142.647146 Y45.743096 Z2 I-1.319956 J11.879439
G03 X140.502430 Y45.520740 Z2 I-0.443550 J-6.176285
G00 Z0.000000

(End cutting path id: path1339)


(Start cutting path id: path1339)
(Change tool to Default tool)

G00 Z0.000000
G00 X148.254520 Y43.360330

G01 Z2 F100.0(Penetrate)
G02 X147.077654 Y42.641476 Z2 I-1.446196 J1.044853 F75
G02 X145.712850 Y42.442500 Z2 I-15.388221 J100.769621
G02 X142.798664 Y42.310122 Z2 I-2.169761 J15.622583
G02 X139.994100 Y42.647250 Z2 I0.921308 J19.498491
G03 X138.923732 Y42.834813 Z2 I-5.584919 J-28.723679
G02 X137.960770 Y42.986140 Z2 I77.361391 J495.423357
G02 X137.369171 Y43.082797 Z2 I9.116664 J57.658516
G03 X137.198270 Y43.106160 Z2 I-0.459500 J-2.724452
G00 Z0.000000

(End cutting path id: path1339)


(Start cutting path id: path1339)
(Change tool to Default tool)

G00 Z0.000000
G00 X137.071180 Y43.106160

G01 Z2 F100.0(Penetrate)
G01 X137.198270 Y43.106160 Z2 F75
G00 Z0.000000

(End cutting path id: path1339)


(Start cutting path id: path1339)
(Change tool to Default tool)

G00 Z0.000000
G00 X137.198270 Y38.912410

G01 Z2 F100.0(Penetrate)
G01 X137.960770 Y38.912410 Z2 F75
G01 X138.850350 Y38.912410 Z2
G02 X140.055836 Y38.848965 Z2 I-0.000000 J-11.484128
G03 X141.264930 Y38.785330 Z2 I1.209094 J11.454857
G03 X144.474273 Y38.863823 Z2 I0.000000 J65.649361
G03 X147.619100 Y39.216000 Z2 I-1.236113 J25.255332
G02 X149.387791 Y39.397454 Z2 I2.143908 J-12.186638
G02 X150.923270 Y39.420740 Z2 I1.535479 J-50.613161
G00 Z0.000000

(End cutting path id: path1339)


(Start cutting path id: path1339)
(Change tool to Default tool)

G00 Z0.000000
G00 X137.071180 Y38.912410

G01 Z2 F100.0(Penetrate)
G01 X137.198270 Y38.912410 Z2 F75
G00 Z0.000000

(End cutting path id: path1339)


(Footer)
M5
G00 X0.0000 Y0.0000
M2
(Using default footer. To add your own footer create file "footer" in the output dir.)
(end)
%