%
(Header)
(Generated by gcodetools from Inkscape.)
(Using default header. To add your own header create file "header" in the output dir.)
M3
(Header end.)
G21 (All units in mm)

(Start cutting path id: path1337)
(Change tool to Default tool)

G00 Z0.000000
G00 X82.689212 Y60.770740

G01 Z2 F100.0(Penetrate)
G03 X83.076728 Y60.636593 Z2 I1.293057 J3.108511 F75
G03 X83.705878 Y60.516580 Z2 I1.028694 J3.683656
G00 Z0.000000

(End cutting path id: path1337)


(Start cutting path id: path1337)
(Change tool to Default tool)

G00 Z0.000000
G00 X85.230878 Y60.643660

G01 Z2 F100.0(Penetrate)
G02 X85.826398 Y60.591606 Z2 I-0.075080 J-4.291438 F75
G03 X86.755878 Y60.516580 Z2 I0.955176 J6.038417
G00 Z0.000000

(End cutting path id: path1337)


(Start cutting path id: path1337)
(Change tool to Default tool)

G00 Z0.000000
G00 X79.385045 Y60.262410

G01 Z2 F100.0(Penetrate)
G01 X81.672545 Y60.516580 Z2 F75
G00 Z0.000000

(End cutting path id: path1337)


(Start cutting path id: path1337)
(Change tool to Default tool)

G00 Z0.000000
G00 X74.682962 Y57.466580

G01 Z2 F100.0(Penetrate)
G02 X74.783000 Y58.530723 Z2 I5.709890 J-0.000000 F75
G02 X75.318378 Y59.372830 Z2 I1.325445 J-0.251426
G00 Z0.000000

(End cutting path id: path1337)


(Start cutting path id: path1337)
(Change tool to Default tool)

G00 Z0.000000
G00 X49.774628 Y58.101990

G01 Z2 F100.0(Penetrate)
G02 X48.196855 Y57.477516 Z2 I-4.854932 J9.960890 F75
G03 X46.724628 Y56.926470 Z2 I4.015754 J-12.971056
G03 X46.155950 Y56.669115 Z2 I14.160965 J-32.048516
G03 X45.962128 Y56.576990 Z2 I4.593704 J-9.914645
G00 Z0.000000

(End cutting path id: path1337)


(Start cutting path id: path1337)
(Change tool to Default tool)

G00 Z0.000000
G00 X70.107962 Y57.847830

G01 Z2 F100.0(Penetrate)
G01 X70.362128 Y57.974910 Z2 F75
G00 Z0.000000

(End cutting path id: path1337)


(Start cutting path id: path1337)
(Change tool to Default tool)

G00 Z0.000000
G00 X45.835045 Y56.576990

G01 Z2 F100.0(Penetrate)
G01 X45.962128 Y56.576990 Z2 F75
G00 Z0.000000

(End cutting path id: path1337)


(Start cutting path id: path1337)
(Change tool to Default tool)

G00 Z0.000000
G00 X88.662128 Y55.433240

G01 Z2 F100.0(Penetrate)
G01 X88.789212 Y55.433240 Z2 F75
G00 Z0.000000

(End cutting path id: path1337)


(Start cutting path id: path1337)
(Change tool to Default tool)

G00 Z0.000000
G00 X91.457962 Y53.908240

G01 Z2 F100.0(Penetrate)
G01 X91.457962 Y52.764490 Z2 F75
G00 Z0.000000

(End cutting path id: path1337)


(Start cutting path id: path1337)
(Change tool to Default tool)

G00 Z0.000000
G00 X77.732962 Y53.526990

G01 Z2 F100.0(Penetrate)
G01 X79.766295 Y53.781160 Z2 F75
G00 Z0.000000

(End cutting path id: path1337)


(Start cutting path id: path1337)
(Change tool to Default tool)

G00 Z0.000000
G00 X88.026712 Y48.062410

G01 Z2 F100.0(Penetrate)
G02 X87.512415 Y47.369750 Z2 I-4.613891 J2.888528 F75
G02 X86.755878 Y46.879830 Z2 I-1.236222 J1.079898
G02 X86.259525 Y46.784630 Z2 I-0.691145 J2.261950
G02 X85.739212 Y46.770400 Z2 I-0.389136 J4.708890
G02 X85.356764 Y46.785083 Z2 I0.498073 J17.961216
G02 X84.976712 Y46.851600 Z2 I0.076288 J1.554878
G02 X83.841886 Y47.983561 Z2 I0.501544 J1.637644
G02 X83.578795 Y49.587420 Z2 I5.679716 J1.755185
G01 X83.963574 Y50.639390 Z2
G01 X84.722545 Y50.653490 Z2
G02 X85.529830 Y50.469822 Z2 I-2.138426 J-11.265090
G02 X86.374628 Y50.222820 Z2 I-4.589761 J-17.266150
G00 Z0.000000

(End cutting path id: path1337)


(Start cutting path id: path1337)
(Change tool to Default tool)

G00 Z0.000000
G00 X80.655878 Y50.476980

G01 Z2 F100.0(Penetrate)
G02 X79.436601 Y49.716590 Z2 I-1.115809 J0.431443 F75
G03 X77.732962 Y49.703890 Z2 I-0.784503 J-9.036593
G03 X77.148019 Y49.596101 Z2 I0.374523 J-3.673499
G03 X76.589212 Y49.442670 Z2 I14.734425 J-54.758228
G03 X75.638094 Y48.865786 Z2 I0.558164 J-1.992757
G03 X74.937128 Y48.062400 Z2 I10.785673 J-10.118153
G00 Z0.000000

(End cutting path id: path1337)


(Start cutting path id: path1337)
(Change tool to Default tool)

G00 Z0.000000
G00 X51.045462 Y50.222820

G01 Z2 F100.0(Penetrate)
G02 X50.629293 Y50.071338 Z2 I-1.758263 J4.183080 F75
G03 X50.187649 Y49.809800 Z2 I0.326827 J-1.055553
G03 X49.862048 Y49.301629 Z2 I0.913105 J-0.943452
G02 X49.732267 Y48.951980 Z2 I-10.059364 J3.534864
G02 X49.357060 Y48.361744 Z2 I-1.694886 J0.663045
G03 X48.701480 Y47.426980 Z2 I2.807576 J-2.666316
G03 X48.471860 Y46.725778 Z2 I2.249972 J-1.124986
G03 X48.595577 Y46.039660 Z2 I1.008514 J-0.172364
G01 X49.520462 Y45.647820 Z2
G03 X50.078590 Y45.634147 Z2 I1.431445 J47.034139
G03 X50.664212 Y45.658420 Z2 I0.090728 J4.887751
G03 X51.254044 Y45.784024 Z2 I-0.282151 J2.772700
G03 X51.807962 Y45.979660 Z2 I-4.315990 J13.102127
G03 X53.690548 Y46.887447 Z2 I-4.173519 J11.061081
G03 X55.366295 Y48.189490 Z2 I-4.439711 J7.443348
G00 Z0.000000

(End cutting path id: path1337)


(Start cutting path id: path1337)
(Change tool to Default tool)

G00 Z0.000000
G00 X48.503795 Y50.095740

G01 Z2 F100.0(Penetrate)
G02 X49.591528 Y50.007832 Z2 I-0.000000 J-6.773477 F75
G02 X50.028795 Y49.841580 Z2 I-0.187182 J-1.150482
G00 Z0.000000

(End cutting path id: path1337)


(Start cutting path id: path1337)
(Change tool to Default tool)

G00 Z0.000000
G00 X65.024628 Y48.062410

G01 Z2 F100.0(Penetrate)
G01 X66.422545 Y48.249510 Z2 F75
G01 X68.074628 Y49.177920 Z2
G01 X68.964212 Y49.319120 Z2
G01 X69.726712 Y48.697830 Z2
G00 Z0.000000

(End cutting path id: path1337)


(Start cutting path id: path1337)
(Change tool to Default tool)

G00 Z0.000000
G00 X58.416295 Y44.122830

G01 Z2 F100.0(Penetrate)
G02 X57.429014 Y43.635991 Z2 I-1.485142 J1.767290 F75
G02 X56.510045 Y43.614490 Z2 I-0.514208 J2.328144
G00 Z0.000000

(End cutting path id: path1337)


(Start cutting path id: path1337)
(Change tool to Default tool)

G00 Z0.000000
G00 X78.368378 Y42.597830

G01 Z2 F100.0(Penetrate)
G02 X78.739730 Y42.938184 Z2 I9.815545 J-10.336729 F75
G02 X79.130878 Y43.250890 Z2 I3.333065 J-3.768179
G01 X79.893378 Y43.575660 Z2
G01 X80.705299 Y43.130870 Z2
G03 X81.431725 Y42.610945 Z2 I2.815873 J3.166830
G03 X82.307962 Y42.269530 Z2 I1.614831 J2.849312
G03 X83.747395 Y42.205912 Z2 I0.891299 J3.850459
G03 X84.849628 Y42.597830 Z2 I-0.403371 J2.880368
G00 Z0.000000

(End cutting path id: path1337)


(Start cutting path id: path1337)
(Change tool to Default tool)

G00 Z0.000000
G00 X50.410045 Y41.454080

G01 Z2 F100.0(Penetrate)
G02 X49.206478 Y40.960633 Z2 I-2.639306 J4.722998 F75
G02 X47.868378 Y40.642160 Z2 I-5.226409 J18.989017
G03 X47.267274 Y40.515725 Z2 I7.127935 J-35.380226
G02 X46.724628 Y40.440940 Z2 I-0.744435 J3.395527
G02 X46.147640 Y40.433832 Z2 I-0.365998 J6.287704
G03 X45.962128 Y40.436940 Z2 I-0.185512 J-5.534691
G00 Z0.000000

(End cutting path id: path1337)


(Start cutting path id: path1337)
(Change tool to Default tool)

G00 Z0.000000
G00 X69.599628 Y40.564020

G01 Z2 F100.0(Penetrate)
G01 X69.409003 Y40.373400 Z2 F75
G02 X68.724039 Y39.708774 Z2 I-8.048452 J7.609474
G02 X67.693378 Y39.293190 Z2 I-1.095450 J1.230920
G03 X66.467699 Y39.180668 Z2 I0.462495 J-11.769655
G03 X65.278795 Y38.911940 Z2 I1.114210 J-7.693808
G03 X64.425806 Y38.575687 Z2 I1.819048 J-5.864512
G03 X63.626712 Y38.149440 Z2 I4.954161 J-10.249813
G02 X62.830167 Y37.750552 Z2 I-3.437390 J5.869409
G02 X61.974628 Y37.429300 Z2 I-4.489230 J10.655615
G02 X61.536507 Y37.312153 Z2 I-1.220932 J3.688366
G02 X61.085045 Y37.259860 Z2 I-0.523593 J2.545368
G01 X60.071908 Y37.351660 Z2
G01 X59.651827 Y37.895290 Z2
G02 X59.546784 Y38.558496 Z2 I1.642588 J0.600087
G03 X59.560047 Y39.293210 Z2 I-20.342724 J0.734714
G00 Z0.000000

(End cutting path id: path1337)


(Start cutting path id: path1337)
(Change tool to Default tool)

G00 Z0.000000
G00 X45.835047 Y40.436960

G01 Z2 F100.0(Penetrate)
G01 X45.962130 Y40.436960 Z2 F75
G00 Z0.000000

(End cutting path id: path1337)


(Start cutting path id: path1337)
(Change tool to Default tool)

G00 Z0.000000
G00 X68.837130 Y34.209880

G01 Z2 F100.0(Penetrate)
G02 X70.412986 Y34.976054 Z2 I3.050722 J-4.270993 F75
G02 X72.141297 Y35.463060 Z2 I24.793897 J-84.679592
G03 X73.413055 Y35.807822 Z2 I-708.769822 J2617.026737
G02 X74.682964 Y35.989040 Z2 I1.366529 J-5.036003
G02 X75.078005 Y35.974115 Z2 I0.061140 J-3.617129
G02 X75.445464 Y35.907840 Z2 I-0.200587 J-2.163978
G01 X76.313866 Y35.110040 Z2
G03 X76.691752 Y34.776450 Z2 I1.051668 J0.810486
G03 X77.224630 Y34.601710 Z2 I0.665815 J1.130548
G03 X78.290407 Y34.816498 Z2 I0.186101 J1.828156
G02 X79.257964 Y35.325380 Z2 I17.450589 J-32.005193
G02 X80.644618 Y35.919699 Z2 I5.310917 J-10.476504
G02 X82.053797 Y36.370280 Z2 I7.928351 J-22.366843
G00 Z0.000000

(End cutting path id: path1337)


(Start cutting path id: path1340)
(Change tool to Default tool)

G00 Z0.000000
G00 X36.902398 Y52.863810

G01 Z2 F100.0(Penetrate)
G02 X36.246620 Y53.492520 Z2 I65.391195 J68.862814 F75
G03 X35.748057 Y53.891070 Z2 I-2.346396 J-2.424096
G01 X35.066749 Y54.515900 Z2
G01 X35.260907 Y55.786730 Z2
G02 X35.413709 Y56.392983 Z2 I2.406006 J-0.284033
G02 X35.663336 Y56.789280 Z2 I1.178843 J-0.465785
G02 X36.667921 Y57.372986 Z2 I1.457662 J-1.352383
G03 X37.410732 Y57.565900 Z2 I-3.611233 J15.431511
G00 Z0.000000

(End cutting path id: path1340)


(Start cutting path id: path1340)
(Change tool to Default tool)

G00 Z0.000000
G00 X32.200315 Y51.847150

G01 Z2 F100.0(Penetrate)
G01 X32.835732 Y51.720060 Z2 F75
G00 Z0.000000

(End cutting path id: path1340)


(Start cutting path id: path1340)
(Change tool to Default tool)

G00 Z0.000000
G00 X42.875315 Y46.636730

G01 Z2 F100.0(Penetrate)
G03 X42.879236 Y46.223934 Z2 I21.729513 J0.000000 F75
G02 X42.864725 Y45.874230 Z2 I-2.895256 J-0.055011
G02 X42.670298 Y45.119664 Z2 I-2.590035 J0.265035
G02 X41.858649 Y44.095060 Z2 I-2.274690 J0.968137
G00 Z0.000000

(End cutting path id: path1340)


(Start cutting path id: path1340)
(Change tool to Default tool)

G00 Z0.000000
G00 X33.598233 Y41.045060

G01 Z2 F100.0(Penetrate)
G01 X34.491345 Y39.993100 Z2 F75
G01 X35.758649 Y39.901300 Z2
G01 X38.173233 Y40.038980 Z2
G01 X39.189899 Y40.233130 Z2
G01 X41.223233 Y40.282530 Z2
G01 X42.239899 Y40.455510 Z2
G01 X43.891983 Y40.787340 Z2
G01 X45.289899 Y40.667310 Z2
G01 X46.179483 Y40.663310 Z2
G00 Z0.000000

(End cutting path id: path1340)


(Start cutting path id: path1340)
(Change tool to Default tool)

G00 Z0.000000
G00 X34.233649 Y39.900810

G01 Z2 F100.0(Penetrate)
G02 X33.174410 Y38.934238 Z2 I-1.410543 J0.482094 F75
G02 X31.691983 Y38.757060 Z2 I-1.482427 J6.113048
G00 Z0.000000

(End cutting path id: path1340)


(Start cutting path id: path1340)
(Change tool to Default tool)

G00 Z0.000000
G00 X39.444066 Y35.452900

G01 Z2 F100.0(Penetrate)
G02 X38.147672 Y34.837174 Z2 I-3.694737 J6.106544 F75
G02 X36.648233 Y34.358570 Z2 I-7.841343 J21.978344
G02 X36.206134 Y34.253521 Z2 I-1.470672 J5.206523
G02 X35.758649 Y34.175000 Z2 I-2.457223 J12.689146
G03 X34.614446 Y33.915284 Z2 I1.360756 J-8.645234
G02 X33.471149 Y33.684320 Z2 I-1.837828 J6.152253
G02 X32.686301 Y33.656937 Z2 I-0.578176 J5.310315
G03 X31.819066 Y33.673720 Z2 I-0.867235 J-22.398077
G00 Z0.000000

(End cutting path id: path1340)


(Footer)
M5
;G00 X0.0000 Y0.0000
M2
(Using default footer. To add your own footer create file "footer" in the output dir.)
(end)
%