%
(Header)
(Generated by gcodetools from Inkscape.)
(Using default header. To add your own header create file "header" in the output dir.)
M3
(Header end.)
G21 (All units in mm)

(Start cutting path id: path1333)
(Change tool to Default tool)

G00 Z0.000000
G00 X109.357970 Y107.790447

G01 Z2 F100.0(Penetrate)
G01 X109.230890 Y107.155031 Z2 F75
G00 Z0.000000

(End cutting path id: path1333)


(Start cutting path id: path1333)
(Change tool to Default tool)

G00 Z0.000000
G00 X108.976720 Y103.850864

G01 Z2 F100.0(Penetrate)
G01 X109.230890 Y103.596697 Z2 F75
G00 Z0.000000

(End cutting path id: path1333)


(Start cutting path id: path1333)
(Change tool to Default tool)

G00 Z0.000000
G00 X108.214220 Y97.623781

G01 Z2 F100.0(Penetrate)
G03 X107.937291 Y96.312080 Z2 I11.856514 J-3.188260 F75
G03 X107.832970 Y94.955031 Z2 I8.774401 J-1.357049
G03 X107.840070 Y94.269162 Z2 I33.133624 J0.000000
G02 X107.828970 Y93.684197 Z2 I-7.373831 J-0.152672
G02 X107.766090 Y92.953643 Z2 I-13.095723 J0.759186
G02 X107.574810 Y92.159197 Z2 I-3.323055 J0.379847
G02 X107.041182 Y91.317447 Z2 I-2.278573 J0.854481
G03 X106.702870 Y90.380031 Z2 I0.866770 J-0.842572
G03 X106.976294 Y89.767734 Z2 I0.998154 J0.078532
G03 X107.423010 Y89.313943 Z2 I14.325458 J13.655352
G02 X107.938116 Y88.578640 Z2 I-1.733896 J-1.762733
G02 X108.213750 Y87.711281 Z2 I-3.433767 J-1.568675
G00 Z0.000000

(End cutting path id: path1333)


(Start cutting path id: path1333)
(Change tool to Default tool)

G00 Z0.000000
G00 X127.784590 Y93.302947

G01 Z2 F100.0(Penetrate)
G01 X127.784590 Y93.175864 Z2 F75
G00 Z0.000000

(End cutting path id: path1333)


(Start cutting path id: path1333)
(Change tool to Default tool)

G00 Z0.000000
G00 X128.801250 Y89.490447

G01 Z2 F100.0(Penetrate)
G01 X130.326250 Y89.363364 Z2 F75
G00 Z0.000000

(End cutting path id: path1333)


(Start cutting path id: path1333)
(Change tool to Default tool)

G00 Z0.000000
G00 X125.497090 Y88.727947

G01 Z2 F100.0(Penetrate)
G01 X126.386670 Y88.600864 Z2 F75
G00 Z0.000000

(End cutting path id: path1333)


(Start cutting path id: path1333)
(Change tool to Default tool)

G00 Z0.000000
G00 X100.080420 Y88.600864

G01 Z2 F100.0(Penetrate)
G01 X100.334590 Y87.202947 Z2 F75
G01 X100.422890 Y86.567531 Z2
G01 X100.334590 Y85.677947 Z2
G01 X100.334590 Y84.280031 Z2
G01 X100.677010 Y82.373780 Z2
G01 X101.171220 Y80.975860 Z2
G01 X101.492460 Y80.255730 Z2
G01 X101.986670 Y80.213330 Z2
G01 X102.491470 Y80.227430 Z2
G01 X102.872720 Y80.721650 Z2
G01 X103.172780 Y82.246650 Z2
G01 X103.638750 Y84.788314 Z2
G00 Z0.000000

(End cutting path id: path1333)


(Start cutting path id: path1333)
(Change tool to Default tool)

G00 Z0.000000
G00 X117.109590 Y87.202897

G01 Z2 F100.0(Penetrate)
G01 X117.236670 Y87.202897 Z2 F75
G00 Z0.000000

(End cutting path id: path1333)


(Start cutting path id: path1333)
(Change tool to Default tool)

G00 Z0.000000
G00 X125.624170 Y86.059147

G01 Z2 F100.0(Penetrate)
G01 X125.115840 Y85.932064 Z2 F75
G00 Z0.000000

(End cutting path id: path1333)


(Start cutting path id: path1333)
(Change tool to Default tool)

G00 Z0.000000
G00 X98.301254 Y84.152897

G01 Z2 F100.0(Penetrate)
G02 X98.175030 Y82.559917 Z2 I-3.034667 J-0.561032 F75
G03 X97.930594 Y80.467480 Z2 I4.456013 J-1.581043
G03 X98.520076 Y79.214141 Z2 I2.116791 J0.230293
G02 X99.268499 Y77.925810 Z2 I-2.206407 J-2.143311
G02 X99.417456 Y77.110799 Z2 I-3.950800 J-1.143191
G02 X99.445004 Y76.400810 Z2 I-8.619438 J-0.689974
G03 X99.444608 Y76.083415 Z2 I148.705046 J-0.344406
G02 X99.413234 Y75.765400 Z2 I-1.630451 J0.000296
G02 X98.909676 Y74.317000 Z2 I-5.462908 J1.087526
G03 X98.936671 Y72.715400 Z2 I1.516531 J-0.775467
G00 Z0.000000

(End cutting path id: path1333)


(Start cutting path id: path1333)
(Change tool to Default tool)

G00 Z0.000000
G00 X130.072091 Y81.357060

G01 Z2 F100.0(Penetrate)
G03 X130.072272 Y81.075831 Z2 I218.706015 J0.000022 F75
G02 X130.072091 Y80.721650 Z2 I-98.581532 J-0.126767
G01 X130.029691 Y80.089760 Z2
G01 X128.801211 Y79.704980 Z2
G00 Z0.000000

(End cutting path id: path1333)


(Start cutting path id: path1333)
(Change tool to Default tool)

G00 Z0.000000
G00 X115.584551 Y80.467480

G01 Z2 F100.0(Penetrate)
G03 X115.498747 Y79.980989 Z2 I1.355944 J-0.489964 F75
G03 X115.559851 Y79.450810 Z2 I2.282929 J-0.005499
G01 X115.754001 Y78.946010 Z2
G01 X116.855391 Y78.561230 Z2
G00 Z0.000000

(End cutting path id: path1333)


(Start cutting path id: path1333)
(Change tool to Default tool)

G00 Z0.000000
G00 X101.351221 Y80.213310

G01 Z2 F100.0(Penetrate)
G01 X101.351221 Y77.036230 Z2 F75
G03 X101.458131 Y76.254717 Z2 I2.909882 J-0.000000
G03 X101.859561 Y75.511230 Z2 I1.838729 J0.512667
G00 Z0.000000

(End cutting path id: path1333)


(Start cutting path id: path1333)
(Change tool to Default tool)

G00 Z0.000000
G00 X102.876221 Y80.086230

G01 Z2 F100.0(Penetrate)
G02 X103.258052 Y78.947719 Z2 I-14.802260 J-5.597629 F75
G02 X103.384561 Y77.671650 Z2 I-3.312102 J-0.972666
G00 Z0.000000

(End cutting path id: path1333)


(Start cutting path id: path1333)
(Change tool to Default tool)

G00 Z0.000000
G00 X95.632475 Y78.179980

G01 Z2 F100.0(Penetrate)
G01 X96.737394 Y76.909150 Z2 F75
G02 X96.684090 Y76.497504 Z2 I-1.048612 J-0.073488
G02 X96.532649 Y76.146650 Z2 I-2.264975 J0.769529
G02 X96.128124 Y75.490411 Z2 I-5.244682 J2.780178
G03 X95.759558 Y74.748730 Z2 I2.170488 J-1.541004
G03 X95.667114 Y74.373671 Z2 I2.911263 J-0.916483
G03 X95.632475 Y73.986230 Z2 I2.149441 J-0.387441
G03 X95.920003 Y72.890468 Z2 I2.231725 J-0.000000
G02 X96.440866 Y71.825810 Z2 I-8.870367 J-4.999393
G02 X96.573225 Y71.365495 Z2 I-1.895793 J-0.794304
G03 X96.649141 Y70.936230 Z2 I18.182377 J2.994217
G00 Z0.000000

(End cutting path id: path1333)


(Start cutting path id: path1333)
(Change tool to Default tool)

G00 Z0.000000
G00 X127.911641 Y77.417480

G01 Z2 F100.0(Penetrate)
G01 X130.072061 Y77.544560 Z2 F75
G00 Z0.000000

(End cutting path id: path1333)


(Start cutting path id: path1333)
(Change tool to Default tool)

G00 Z0.000000
G00 X120.667891 Y75.892480

G01 Z2 F100.0(Penetrate)
G01 X121.430391 Y75.638310 Z2 F75
G00 Z0.000000

(End cutting path id: path1333)


(Start cutting path id: path1333)
(Change tool to Default tool)

G00 Z0.000000
G00 X116.219971 Y75.638310

G01 Z2 F100.0(Penetrate)
G01 X115.965811 Y75.511230 Z2 F75
G00 Z0.000000

(End cutting path id: path1333)


(Start cutting path id: path1333)
(Change tool to Default tool)

G00 Z0.000000
G00 X112.407471 Y73.604980

G01 Z2 F100.0(Penetrate)
G02 X112.609069 Y72.923795 Z2 I-1.431991 J-0.794226 F75
G03 X112.788721 Y72.079980 Z2 I3.068990 J0.212368
G00 Z0.000000

(End cutting path id: path1333)


(Start cutting path id: path1333)
(Change tool to Default tool)

G00 Z0.000000
G00 X120.794971 Y73.477900

G01 Z2 F100.0(Penetrate)
G01 X121.430391 Y73.096650 Z2 F75
G00 Z0.000000

(End cutting path id: path1333)


(Start cutting path id: path1333)
(Change tool to Default tool)

G00 Z0.000000
G00 X117.109561 Y72.842480

G01 Z2 F100.0(Penetrate)
G01 X116.092891 Y72.207060 Z2 F75
G00 Z0.000000

(End cutting path id: path1333)


(Start cutting path id: path1333)
(Change tool to Default tool)

G00 Z0.000000
G00 X126.132471 Y72.461230

G01 Z2 F100.0(Penetrate)
G01 X128.292891 Y71.825810 Z2 F75
G00 Z0.000000

(End cutting path id: path1333)


(Start cutting path id: path1333)
(Change tool to Default tool)

G00 Z0.000000
G00 X130.834561 Y71.952900

G01 Z2 F100.0(Penetrate)
G01 X133.503311 Y72.334150 Z2 F75
G00 Z0.000000

(End cutting path id: path1333)


(Start cutting path id: path1333)
(Change tool to Default tool)

G00 Z0.000000
G00 X134.774141 Y67.886230

G01 Z2 F100.0(Penetrate)
G03 X135.265126 Y67.498473 Z2 I1.221792 J1.042331 F75
G03 X135.790811 Y67.261410 Z2 I2.691143 J5.266196
G03 X136.990237 Y67.108351 Z2 I0.901969 J2.292061
G02 X137.188721 Y67.123730 Z2 I0.274959 J-2.260182
G00 Z0.000000

(End cutting path id: path1333)


(Start cutting path id: path1333)
(Change tool to Default tool)

G00 Z0.000000
G00 X106.815811 Y66.742480

G01 Z2 F100.0(Penetrate)
G01 X107.013491 Y66.234150 Z2 F75
G01 X107.250011 Y65.852900 Z2
G01 X107.571251 Y65.471650 Z2
G01 X108.086641 Y64.963310 Z2
G00 Z0.000000

(End cutting path id: path1333)


(Start cutting path id: path1333)
(Change tool to Default tool)

G00 Z0.000000
G00 X102.749141 Y66.488310

G01 Z2 F100.0(Penetrate)
G01 X102.494971 Y66.107060 Z2 F75
G00 Z0.000000

(End cutting path id: path1333)


(Start cutting path id: path1333)
(Change tool to Default tool)

G00 Z0.000000
G00 X110.247061 Y66.234150

G01 Z2 F100.0(Penetrate)
G01 X110.374141 Y66.107060 Z2 F75
G00 Z0.000000

(End cutting path id: path1333)


(Start cutting path id: path1333)
(Change tool to Default tool)

G00 Z0.000000
G00 X113.678311 Y65.090400

G01 Z2 F100.0(Penetrate)
G01 X113.805391 Y64.963310 Z2 F75
G00 Z0.000000

(End cutting path id: path1333)


(Start cutting path id: path1333)
(Change tool to Default tool)

G00 Z0.000000
G00 X107.578311 Y64.963310

G01 Z2 F100.0(Penetrate)
G01 X107.705391 Y64.963310 Z2 F75
G00 Z0.000000

(End cutting path id: path1333)


(Start cutting path id: path1333)
(Change tool to Default tool)

G00 Z0.000000
G00 X130.961641 Y61.023730

G01 Z2 F100.0(Penetrate)
G01 X130.961641 Y61.284960 Z2 F75
G01 X130.947541 Y61.532060 Z2
G01 X130.869841 Y61.782700 Z2
G03 X130.146216 Y62.218886 Z2 I-0.945444 J-0.750140
G03 X129.563701 Y62.298090 Z2 I-1.087317 J-5.815153
G02 X128.880942 Y62.429133 Z2 I0.285907 J3.333797
G02 X128.547041 Y62.548730 Z2 I1.022237 J3.379876
G01 X128.907111 Y63.311230 Z2
G01 X129.440151 Y64.109030 Z2
G01 X130.961621 Y64.327900 Z2
G00 Z0.000000

(End cutting path id: path1333)


(Start cutting path id: path1333)
(Change tool to Default tool)

G00 Z0.000000
G00 X91.565788 Y64.200810

G01 Z2 F100.0(Penetrate)
G01 X92.455371 Y63.946650 Z2 F75
G00 Z0.000000

(End cutting path id: path1333)


(Start cutting path id: path1333)
(Change tool to Default tool)

G00 Z0.000000
G00 X111.390791 Y63.692480

G01 Z2 F100.0(Penetrate)
G01 X112.407451 Y63.438310 Z2 F75
G00 Z0.000000

(End cutting path id: path1333)


(Start cutting path id: path1333)
(Change tool to Default tool)

G00 Z0.000000
G00 X123.717871 Y62.675810

G01 Z2 F100.0(Penetrate)
G01 X124.480371 Y62.294560 Z2 F75
G00 Z0.000000

(End cutting path id: path1333)


(Start cutting path id: path1333)
(Change tool to Default tool)

G00 Z0.000000
G00 X135.790791 Y62.167480

G01 Z2 F100.0(Penetrate)
G01 X135.917871 Y62.167480 Z2 F75
G00 Z0.000000

(End cutting path id: path1333)


(Start cutting path id: path1333)
(Change tool to Default tool)

G00 Z0.000000
G00 X97.411621 Y61.023730

G01 Z2 F100.0(Penetrate)
G01 X104.019951 Y61.023730 Z2 F75
G00 Z0.000000

(End cutting path id: path1333)


(Start cutting path id: path1333)
(Change tool to Default tool)

G00 Z0.000000
G00 X113.551201 Y61.023730

G01 Z2 F100.0(Penetrate)
G01 X114.186621 Y61.023730 Z2 F75
G00 Z0.000000

(End cutting path id: path1333)


(Start cutting path id: path1333)
(Change tool to Default tool)

G00 Z0.000000
G00 X116.347041 Y61.023730

G01 Z2 F100.0(Penetrate)
G01 X117.744951 Y61.023730 Z2 F75
G00 Z0.000000

(End cutting path id: path1333)


(Start cutting path id: path1333)
(Change tool to Default tool)

G00 Z0.000000
G00 X120.922041 Y61.023730

G01 Z2 F100.0(Penetrate)
G01 X121.049121 Y61.023730 Z2 F75
G00 Z0.000000

(End cutting path id: path1333)


(Start cutting path id: path1335)
(Change tool to Default tool)

G00 Z0.000000
G00 X141.137850 Y113.481422

G01 Z2 F100.0(Penetrate)
G01 X139.739930 Y112.846005 Z2 F75
G00 Z0.000000

(End cutting path id: path1335)


(Start cutting path id: path1335)
(Change tool to Default tool)

G00 Z0.000000
G00 X140.248270 Y107.635588

G01 Z2 F100.0(Penetrate)
G01 X139.485770 Y107.254338 Z2 F75
G00 Z0.000000

(End cutting path id: path1335)


(Start cutting path id: path1335)
(Change tool to Default tool)

G00 Z0.000000
G00 X139.612850 Y101.916838

G01 Z2 F100.0(Penetrate)
G01 X139.612850 Y101.789755 Z2 F75
G00 Z0.000000

(End cutting path id: path1335)


(Start cutting path id: path1335)
(Change tool to Default tool)

G00 Z0.000000
G00 X143.679520 Y101.535588

G01 Z2 F100.0(Penetrate)
G01 X143.425350 Y101.281422 Z2 F75
G00 Z0.000000

(End cutting path id: path1335)


(Start cutting path id: path1335)
(Change tool to Default tool)

G00 Z0.000000
G00 X148.381600 Y99.756422

G01 Z2 F100.0(Penetrate)
G01 X150.923270 Y99.629338 Z2 F75
G00 Z0.000000

(End cutting path id: path1335)


(Start cutting path id: path1335)
(Change tool to Default tool)

G00 Z0.000000
G00 X139.739930 Y99.629338

G01 Z2 F100.0(Penetrate)
G01 X139.609320 Y98.739755 Z2 F75
G01 X139.566920 Y98.358505 Z2
G01 X139.612820 Y97.723088 Z2
G00 Z0.000000

(End cutting path id: path1335)


(Start cutting path id: path1335)
(Change tool to Default tool)

G00 Z0.000000
G00 X150.796150 Y96.960588

G01 Z2 F100.0(Penetrate)
G01 X150.923240 Y96.960588 Z2 F75
G00 Z0.000000

(End cutting path id: path1335)


(Start cutting path id: path1335)
(Change tool to Default tool)

G00 Z0.000000
G00 X142.027400 Y88.573088

G01 Z2 F100.0(Penetrate)
G03 X142.443683 Y88.830390 Z2 I-2.121705 J3.898051 F75
G03 X142.796960 Y89.208505 Z2 I-0.707916 J1.015508
G01 X142.913460 Y89.716838 Z2
G01 X142.959360 Y90.348726 Z2
G01 X144.187830 Y90.860588 Z2
G03 X145.589745 Y90.918763 Z2 I-0.200051 J21.741758
G02 X147.110750 Y90.987672 Z2 I1.970319 J-26.669461
G00 Z0.000000

(End cutting path id: path1335)


(Start cutting path id: path1335)
(Change tool to Default tool)

G00 Z0.000000
G00 X141.137830 Y90.479338

G01 Z2 F100.0(Penetrate)
G03 X142.266905 Y90.500715 Z2 I0.000000 J29.828273 F75
G02 X142.917000 Y90.352255 Z2 I0.048657 J-1.284524
G00 Z0.000000

(End cutting path id: path1335)


(Start cutting path id: path1335)
(Change tool to Default tool)

G00 Z0.000000
G00 X148.381580 Y86.285588

G01 Z2 F100.0(Penetrate)
G01 X149.338230 Y85.650172 Z2 F75
G01 X149.691240 Y84.852372 Z2
G01 X150.414910 Y84.760592 Z2
G00 Z0.000000

(End cutting path id: path1335)


(Start cutting path id: path1335)
(Change tool to Default tool)

G00 Z0.000000
G00 X140.883660 Y85.396009

G01 Z2 F100.0(Penetrate)
G01 X141.010750 Y85.268926 Z2 F75
G00 Z0.000000

(End cutting path id: path1335)


(Start cutting path id: path1335)
(Change tool to Default tool)

G00 Z0.000000
G00 X149.525330 Y84.887676

G01 Z2 F100.0(Penetrate)
G02 X149.372601 Y84.762892 Z2 I-3.931784 J4.656417 F75
G02 X149.017000 Y84.506426 Z2 I-3.087982 J3.906866
G03 X148.482902 Y84.080114 Z2 I2.021265 J-3.080033
G03 X147.979150 Y83.489759 Z2 I2.754536 J-2.860559
G02 X147.711107 Y83.107878 Z2 I-55.567150 J38.717589
G02 X147.608490 Y82.981424 Z2 I-1.003987 J0.709874
G02 X147.292901 Y82.668041 Z2 I-3.988739 J3.701216
G02 X146.729500 Y82.349534 Z2 I-0.972815 J1.063246
G02 X145.455645 Y82.100527 Z2 I-1.943450 J6.559322
G03 X143.806580 Y81.583504 Z2 I0.413912 J-4.208579
G00 Z0.000000

(End cutting path id: path1335)


(Start cutting path id: path1335)
(Change tool to Default tool)

G00 Z0.000000
G00 X144.569080 Y84.125176

G01 Z2 F100.0(Penetrate)
G03 X146.128713 Y84.218424 Z2 I-0.000000 J13.089520 F75
G02 X147.110750 Y84.181656 Z2 I0.374779 J-3.122996
G01 X148.000330 Y83.489756 Z2
G00 Z0.000000

(End cutting path id: path1335)


(Start cutting path id: path1335)
(Change tool to Default tool)

G00 Z0.000000
G00 X151.558660 Y81.202251

G01 Z2 F100.0(Penetrate)
G02 X150.133541 Y80.568489 Z2 I-2.491159 J3.682598 F75
G02 X148.635750 Y80.203241 Z2 I-62.835610 J254.419237
G02 X146.932908 Y79.804220 Z2 I-33.722471 J140.079427
G03 X145.458660 Y79.296001 Z2 I1.609451 J-7.061078
G00 Z0.000000

(End cutting path id: path1335)


(Start cutting path id: path1335)
(Change tool to Default tool)

G00 Z0.000000
G00 X141.010750 Y78.406421

G01 Z2 F100.0(Penetrate)
G01 X141.010750 Y78.279341 Z2 F75
G00 Z0.000000

(End cutting path id: path1335)


(Start cutting path id: path1335)
(Change tool to Default tool)

G00 Z0.000000
G00 X145.204500 Y76.627251

G01 Z2 F100.0(Penetrate)
G01 X148.000330 Y77.418001 Z2 F75
G01 X150.287830 Y78.025171 Z2
G00 Z0.000000

(End cutting path id: path1335)


(Start cutting path id: path1335)
(Change tool to Default tool)

G00 Z0.000000
G00 X146.094080 Y69.129341

G01 Z2 F100.0(Penetrate)
G01 X146.284700 Y69.284661 Z2 F75
G01 X147.110750 Y69.577661 Z2
G02 X147.870058 Y69.544334 Z2 I-1.443164 J-41.546551
G03 X149.144080 Y69.510561 Z2 I1.274022 J24.013369
G00 Z0.000000

(End cutting path id: path1335)


(Start cutting path id: path1335)
(Change tool to Default tool)

G00 Z0.000000
G00 X138.469080 Y69.510561

G01 Z2 F100.0(Penetrate)
G01 X138.596160 Y69.383471 Z2 F75
G00 Z0.000000

(End cutting path id: path1335)


(Footer)
M5
G00 X0.0000 Y0.0000
M2
(Using default footer. To add your own footer create file "footer" in the output dir.)
(end)
%