%
(Header)
(Generated by gcodetools from Inkscape.)
(Using default header. To add your own header create file "header" in the output dir.)
M3
(Header end.)
G21 (All units in mm)

(Start cutting path id: path13)
(Change tool to Default tool)

G00 Z0.000000
G00 X115.518750 Y146.272918

G01 Z2 F100.0(Penetrate)
G03 X116.666508 Y146.009408 Z2 I1.877347 J5.545710 F75.000000
G02 X118.060420 Y145.604164 Z2 I-0.574871 J-4.577303
G02 X120.482845 Y144.379087 Z2 I-21.220001 J-44.967265
G02 X122.889590 Y142.992778 Z2 I-24.389953 J-45.125230
G02 X124.070695 Y142.245133 Z2 I-24.900123 J-40.643151
G02 X124.795840 Y141.316668 Z2 I-0.998341 J-1.527126
G01 X127.210420 Y142.147711 Z2
G01 X132.166670 Y144.589456 Z2
G01 X134.454170 Y145.720361 Z2
G01 X136.487500 Y146.145835 Z2
G00 Z0.000000

(End cutting path id: path13)


(Start cutting path id: path13)
(Change tool to Default tool)

G00 Z0.000000
G00 X136.614590 Y146.272918

G01 Z2 F100.0(Penetrate)
G01 X136.487500 Y146.145835 Z2 F75.000000
G00 Z0.000000

(End cutting path id: path13)


(Start cutting path id: path13)
(Change tool to Default tool)

G00 Z0.000000
G00 X124.668750 Y141.189585

G01 Z2 F100.0(Penetrate)
G02 X122.285979 Y139.480920 Z2 I-4.043521 J3.123035 F75.000000
G03 X118.950000 Y138.040350 Z2 I7.720376 J-22.461251
G02 X118.072889 Y137.668328 Z2 I-2.672563 J5.081075
G03 X117.175840 Y137.358454 Z2 I10.214232 J-31.022387
G03 X116.584104 Y136.998077 Z2 I0.593528 J-1.640568
G02 X116.025220 Y136.588698 Z2 I-2.055983 J2.220645
G01 X114.148390 Y135.214708 Z2
G01 X114.537000 Y134.327085 Z2
G03 X115.561940 Y133.226484 Z2 I8.006477 J6.428527
G02 X116.662500 Y132.166669 Z2 I-27.541704 J-29.701912
G02 X118.948621 Y129.877831 Z2 I-1927.080497 J-1927.078332
G03 X121.237500 Y127.591766 Z2 I635.320406 J633.813405
G03 X122.308369 Y126.550135 Z2 I46.130671 J46.354243
G02 X123.325260 Y125.583242 Z2 I-7624.449833 J-8019.729991
G02 X123.822376 Y125.102495 Z2 I-28.388065 J-29.852033
G02 X124.160420 Y124.668752 Z2 I-1.468018 J-1.492723
G00 Z0.000000

(End cutting path id: path13)


(Start cutting path id: path13)
(Change tool to Default tool)

G00 Z0.000000
G00 X124.160420 Y124.668752

G01 Z2 F100.0(Penetrate)
G01 X120.856250 Y121.364586 Z2 F75.000000
G01 X113.739590 Y114.375003 Z2
G02 X111.414340 Y112.050311 Z2 I-9969.759443 J9969.827613
G02 X109.927090 Y110.816670 Z2 I-7.378284 J7.381777
G00 Z0.000000

(End cutting path id: path13)


(Start cutting path id: path13)
(Change tool to Default tool)

G00 Z0.000000
G00 X109.800000 Y133.691669

G01 Z2 F100.0(Penetrate)
G01 X109.927090 Y133.691669 Z2 F75.000000
G00 Z0.000000

(End cutting path id: path13)


(Start cutting path id: path13)
(Change tool to Default tool)

G00 Z0.000000
G00 X113.104170 Y135.343752

G01 Z2 F100.0(Penetrate)
G02 X111.351653 Y134.158932 Z2 I-5.173602 J5.763967 F75.000000
G02 X109.927090 Y133.691669 Z2 I-2.363647 J4.800956
G00 Z0.000000

(End cutting path id: path13)


(Start cutting path id: path13)
(Change tool to Default tool)

G00 Z0.000000
G00 X109.800000 Y138.775002

G01 Z2 F100.0(Penetrate)
G02 X110.803946 Y138.071535 Z2 I-1.489240 J-3.193476 F75.000000
G02 X112.463160 Y136.360419 Z2 I-57.125935 J-57.053150
G03 X113.092188 Y135.718382 Z2 I16.424940 J15.462961
G03 X113.993750 Y135.343752 Z2 I0.917203 J0.935151
G00 Z0.000000

(End cutting path id: path13)


(Start cutting path id: path13)
(Change tool to Default tool)

G00 Z0.000000
G00 X109.800000 Y140.935418

G01 Z2 F100.0(Penetrate)
G02 X110.013343 Y140.893573 Z2 I-0.795222 J-4.619108 F75.000000
G02 X110.563090 Y140.730085 Z2 I-0.855641 J-3.883234
G02 X111.291640 Y140.438250 Z2 I-7.021527 J-18.584128
G02 X112.087500 Y140.099375 Z2 I-94.093874 J-222.087190
G03 X114.915174 Y138.938702 Z2 I40.518106 J94.686933
G02 X116.789590 Y137.504169 Z2 I-1.570595 J-3.994057
G00 Z0.000000

(End cutting path id: path13)


(Start cutting path id: path13)
(Change tool to Default tool)

G00 Z0.000000
G00 X137.377090 Y117.043753

G01 Z2 F100.0(Penetrate)
G02 X138.602820 Y115.351128 Z2 I-3.412791 J-3.761527 F75.000000
G02 X139.918650 Y112.341670 Z2 I-203.804646 J-90.902237
G03 X140.365441 Y111.311581 Z2 I116.834470 J50.063874
G02 X140.693410 Y110.438557 Z2 I-7.865645 J-3.453003
G02 X140.786481 Y110.002306 Z2 I-2.246221 J-0.707269
G02 X140.808340 Y109.800003 Z2 I-13.112796 J-1.519176
G00 Z0.000000

(End cutting path id: path13)


(Start cutting path id: path13)
(Change tool to Default tool)

G00 Z0.000000
G00 X138.902090 Y109.800003

G01 Z2 F100.0(Penetrate)
G03 X138.083840 Y110.982049 Z2 I-3.870101 J-1.804777 F75.000000
G03 X136.106350 Y112.817057 Z2 I-20.039841 J-19.612836
G02 X135.615993 Y113.265230 Z2 I5.276131 J6.265077
G02 X135.158810 Y113.860394 Z2 I1.966829 J1.984025
G03 X134.533841 Y114.552363 Z2 I-1.902285 J-1.089883
G02 X133.691670 Y115.264683 Z2 I4.015025 J5.600945
G02 X130.766548 Y118.185041 Z2 I604.168351 J608.079141
G03 X127.845840 Y121.110419 Z2 I-1836.517097 J-1830.664565
G01 X124.287500 Y124.668752 Z2
G02 X126.412219 Y126.655995 Z2 I30.781605 J-30.781578
G03 X129.175600 Y129.497919 Z2 I-16.154588 J18.472586
G02 X130.508372 Y130.873752 Z2 I9.360181 J-7.733778
G03 X131.912500 Y132.161668 Z2 I-31.613980 J35.875967
G02 X132.478822 Y132.672007 Z2 I9.164749 J-9.600698
G03 X133.056250 Y133.186473 Z2 I-10.858379 J12.768554
G03 X133.708945 Y133.798141 Z2 I-145.575731 J155.994259
G03 X134.327090 Y134.456032 Z2 I-5.034641 J5.349819
G02 X137.355008 Y137.627223 Z2 I24.285330 J-20.156973
G03 X140.554170 Y140.681252 Z2 I-64.191768 J70.444893
G02 X142.388019 Y142.474307 Z2 I80.616078 J-80.615878
G03 X144.239580 Y144.244588 Z2 I-15314.083959 J16019.060231
G03 X144.966339 Y144.984589 Z2 I-11.409917 J11.932606
G02 X145.634360 Y145.597102 Z2 I3.981539 J-3.671828
G02 X146.066948 Y145.828295 Z2 I0.900015 J-1.163723
G02 X146.272920 Y145.891668 Z2 I1.377946 J-4.112120
G00 Z0.000000

(End cutting path id: path13)


(Start cutting path id: path14)
(Change tool to Default tool)

G00 Z0.000000
G00 X151.610410 Y145.764585

G01 Z2 F100.0(Penetrate)
G03 X149.763200 Y142.375127 Z2 I19.196323 J-12.659827 F75.000000
G02 X148.062280 Y138.902085 Z2 I-43.746319 J19.271693
G03 X147.175004 Y137.192194 Z2 I49.205502 J-26.618270
G02 X146.527080 Y136.360419 Z2 I-2.372002 J1.179466
G00 Z0.000000

(End cutting path id: path14)


(Start cutting path id: path13)
(Change tool to Default tool)

G00 Z0.000000
G00 X146.272920 Y136.741669

G01 Z2 F100.0(Penetrate)
G03 X146.300638 Y135.835948 Z2 I14.811500 J-0.000000 F75.000000
G02 X146.233020 Y135.094586 Z2 I-2.451357 J-0.150181
G02 X145.994095 Y134.619974 Z2 I-1.164569 J0.288811
G03 X145.611530 Y134.067918 Z2 I3.100853 J-2.557423
G03 X145.124964 Y133.137654 Z2 I11.250258 J-6.476721
G02 X144.620840 Y132.166669 Z2 I-13.221093 J6.247877
G03 X143.496732 Y130.021102 Z2 I31.275726 J-17.753273
G02 X142.429050 Y127.845836 Z2 I-148.209401 J71.395696
G02 X141.797207 Y126.667067 Z2 I-21.067888 J10.534077
G03 X141.537700 Y125.436253 Z2 I1.774097 J-1.016817
G01 X142.074670 Y124.530294 Z2
G02 X142.449540 Y123.985101 Z2 I-6.908770 J-5.151878
G02 X142.817260 Y123.397919 Z2 I-65.672912 J-41.536155
G02 X144.275586 Y120.871921 Z2 I-39.422044 J-24.443360
G03 X145.611530 Y118.443533 Z2 I112.960144 J60.561791
G03 X145.993688 Y117.886188 Z2 I3.375530 J1.904830
G02 X146.233020 Y117.413628 Z2 I-0.939261 J-0.772582
G02 X146.304963 Y116.635734 Z2 I-2.421961 J-0.616268
G03 X146.272920 Y115.645836 Z2 I15.274234 J-0.989898
G00 Z0.000000

(End cutting path id: path13)


(Start cutting path id: path14)
(Change tool to Default tool)

G00 Z0.000000
G00 X146.399990 Y116.154169

G01 Z2 F100.0(Penetrate)
G01 X146.989810 Y115.513065 Z2 F75.000000
G01 X148.506480 Y111.833336 Z2
G01 X148.936560 Y110.563093 Z2
G01 X149.068740 Y109.800003 Z2
G00 Z0.000000

(End cutting path id: path14)


(Start cutting path id: path13)
(Change tool to Default tool)

G00 Z0.000000
G00 X135.216670 Y113.358336

G01 Z2 F100.0(Penetrate)
G01 X134.550360 Y112.341670 Z2 F75.000000
G01 X133.556350 Y110.438557 Z2
G01 X133.310420 Y109.800003 Z2
G00 Z0.000000

(End cutting path id: path13)


(Start cutting path id: path13)
(Change tool to Default tool)

G00 Z0.000000
G00 X135.216670 Y114.120836

G01 Z2 F100.0(Penetrate)
G03 X135.812874 Y114.992262 Z2 I-2.997574 J2.690517 F75.000000
G02 X136.532220 Y116.279290 Z2 I16.012709 J-8.105284
G02 X136.866659 Y116.681595 Z2 I1.566189 J-0.961821
G03 X137.258340 Y117.119257 Z2 I-1.854297 J2.053579
G03 X137.515700 Y117.779830 Z2 I-1.153355 J0.829770
G02 X137.723430 Y118.568753 Z2 I2.942093 J-0.352866
G02 X138.638936 Y120.477420 Z2 I18.905186 J-7.894107
G03 X139.633210 Y122.381253 Z2 I-53.461151 J29.131568
G03 X140.141292 Y123.420916 Z2 I-56.977687 J28.488934
G02 X140.672820 Y124.408997 Z2 I10.539052 J-5.032363
G02 X141.012810 Y124.824657 Z2 I1.603097 J-0.964379
G02 X141.316670 Y125.050002 Z2 I1.241136 J-1.356035
G00 Z0.000000

(End cutting path id: path13)


(Footer)
M5
M2
(Using default footer. To add your own footer create file "footer" in the output dir.)
(end)
%