%
(Header)
(Generated by gcodetools from Inkscape.)
(Using default header. To add your own header create file "header" in the output dir.)
M3
(Header end.)
G21 (All units in mm)

(Start cutting path id: path17)
(Change tool to Default tool)

G00 Z0.000000
G00 X73.199997 Y109.291670

G01 Z2 F100.0(Penetrate)
G02 X73.719096 Y109.096144 Z2 I-0.205683 J-1.332898 F75.000000
G02 X74.719996 Y108.275003 Z2 I-2.913044 J-4.571327
G02 X75.196698 Y107.746977 Z2 I-8.655046 J-8.292970
G03 X75.741664 Y107.131253 Z2 I15.795853 J13.431592
G03 X75.521836 Y106.704322 Z2 I1.321121 J-0.950309
G03 X75.360414 Y105.733337 Z2 I2.877216 J-0.977235
G02 X75.338270 Y103.770165 Z2 I-106.111584 J0.215207
G02 X75.244705 Y101.666670 Z2 I-44.006277 J0.903599
G03 X75.162960 Y97.204143 Z2 I44.496160 J-3.047098
G02 X75.233325 Y92.770837 Z2 I-139.623673 J-4.433306
G03 X75.236555 Y92.011564 Z2 I89.253679 J0.000000
G02 X75.231425 Y91.372920 Z2 I-19.308208 J-0.164259
G02 X75.175021 Y90.733742 Z2 I-5.052821 J0.123808
G03 X75.108068 Y89.975004 Z2 I5.930785 J-0.905670
G03 X75.085723 Y86.494195 Z2 I96.277543 J-2.358528
G02 X75.106168 Y82.985420 Z2 I-301.078472 J-3.508775
G02 X75.026223 Y79.718370 Z2 I-66.796360 J0.000000
G03 X74.979673 Y76.631250 Z2 I45.556172 J-2.230850
G01 X75.483495 Y75.509860 Z2
G01 X76.122834 Y75.761090 Z2
G03 X76.553770 Y76.234737 Z2 I-6.121165 J6.002052
G02 X77.266682 Y77.012500 Z2 I9.822066 J-8.287473
G02 X79.806615 Y79.555560 Z2 I706.085279 J-702.676974
G03 X82.349918 Y82.095840 Z2 I-2137.299593 J2142.387455
G02 X83.762951 Y83.498584 Z2 I192.712507 J-192.712937
G03 X85.143789 Y84.891671 Z2 I-58.726319 J59.590856
G03 X85.563116 Y85.344047 Z2 I-10.182362 J9.859004
G03 X85.814409 Y85.908337 Z2 I-0.765014 J0.678779
G01 X85.332748 Y87.052087 Z2
G02 X84.650549 Y88.336210 Z2 I5.247599 J3.611093
G02 X84.208707 Y89.720837 Z2 I10.404698 J4.083009
G02 X84.047508 Y90.518697 Z2 I8.883425 J2.210015
G02 X83.984449 Y91.245837 Z2 I5.277392 J0.823970
G02 X83.991989 Y91.987461 Z2 I13.087050 J0.237788
G02 X84.086625 Y92.770837 Z2 I4.829684 J-0.186044
G02 X84.618823 Y94.420496 Z2 I7.725506 J-1.581656
G02 X85.376972 Y95.947920 Z2 I20.189448 J-9.069327
G03 X85.617093 Y96.434301 Z2 I-5.855812 J3.193416
G02 X85.943552 Y96.877611 Z2 I1.169387 J-0.519292
G02 X87.946348 Y98.212366 Z2 I6.052543 J-6.911850
G02 X90.356167 Y98.959775 Z2 I3.584976 J-7.300182
G02 X90.945077 Y99.028839 Z2 I1.515928 J-10.381060
G02 X91.499917 Y99.067149 Z2 I1.257662 J-14.177415
G02 X92.279732 Y99.026804 Z2 I0.191044 J-3.863990
G02 X93.152000 Y98.854168 Z2 I-1.588421 J-10.315643
G02 X94.423057 Y98.408870 Z2 I-1.606828 J-6.623223
G02 X95.566584 Y97.876135 Z2 I-8874.787716 J-19051.412389
G03 X95.992398 Y97.711248 Z2 I1.449830 J3.111857
G02 X96.427730 Y97.491551 Z2 I-0.444160 J-1.421264
G02 X96.921077 Y96.929577 Z2 I-1.018864 J-1.391980
G03 X97.390170 Y96.202087 Z2 I5.367726 J2.946181
G02 X98.441204 Y94.515117 Z2 I-9.226433 J-6.919250
G02 X98.988223 Y92.643754 Z2 I-4.684824 J-2.385054
G03 X99.077568 Y92.001250 Z2 I8.013069 J0.786820
G02 X99.117564 Y91.372920 Z2 I-2.702253 J-0.487447
G02 X99.057546 Y90.795912 Z2 I-5.540546 J0.284683
G03 X98.986459 Y90.229171 Z2 I9.052012 J-1.423227
G02 X98.576130 Y88.720880 Z2 I-4.545912 J0.426749
G02 X97.828687 Y87.306254 Z2 I-14.962909 J7.001149
G03 X97.459153 Y86.630147 Z2 I9.658782 J-5.718160
G02 X97.056774 Y86.088078 Z2 I-1.755086 J0.882425
G02 X96.504359 Y85.674737 Z2 I-2.031882 J2.139726
G03 X95.820750 Y85.243306 Z2 I5.365244 J-9.258617
G02 X94.343137 Y84.444367 Z2 I-4.526194 J6.605190
G02 X92.770750 Y84.022189 Z2 I-2.422722 J5.884098
G03 X92.268038 Y83.943275 Z2 I1.569454 J-11.638694
G02 X91.754084 Y83.879220 Z2 I-0.856395 J4.777484
G02 X91.127048 Y83.913393 Z2 I-0.177611 J2.510805
G03 X90.483251 Y84.008461 Z2 I-1.765973 J-9.731706
G02 X89.709143 Y84.137225 Z2 I0.871049 J7.627907
G02 X88.958251 Y84.341565 Z2 I1.677027 J7.644418
G02 X87.353140 Y85.146275 Z2 I1.872507 J5.738155
G03 X85.908251 Y85.781254 Z2 I-2.289056 J-3.247319
G00 Z0.000000

(End cutting path id: path17)


(Start cutting path id: path17)
(Change tool to Default tool)

G00 Z0.000000
G00 X91.754163 Y83.747921

G01 Z2 F100.0(Penetrate)
G01 X91.754163 Y76.377090 Z2 F75.000000
G01 X91.754163 Y75.106250 Z2
G01 X91.754163 Y73.200000 Z2
G00 Z0.000000

(End cutting path id: path17)


(Start cutting path id: path17)
(Change tool to Default tool)

G00 Z0.000000
G00 X97.091663 Y86.035421

G01 Z2 F100.0(Penetrate)
G01 X99.251982 Y83.875004 Z2 F75.000000
G01 X100.412400 Y82.626230 Z2
G01 X104.081250 Y79.045840 Z2
G01 X106.114580 Y77.045450 Z2
G01 X107.131250 Y76.250000 Z2
G00 Z0.000000

(End cutting path id: path17)


(Start cutting path id: path17)
(Change tool to Default tool)

G00 Z0.000000
G00 X107.131250 Y75.741670

G01 Z2 F100.0(Penetrate)
G01 X105.987500 Y75.235790 Z2 F75.000000
G01 X104.208330 Y75.233790 Z2
G01 X100.268750 Y75.233790 Z2
G01 X93.152079 Y75.106700 Z2
G01 X91.627080 Y75.106700 Z2
G01 X90.356246 Y75.106700 Z2
G01 X83.239580 Y74.979620 Z2
G01 X78.918747 Y74.977620 Z2
G01 X77.012497 Y74.854850 Z2
G01 X75.868747 Y75.360730 Z2
G00 Z0.000000

(End cutting path id: path17)


(Start cutting path id: path17)
(Change tool to Default tool)

G00 Z0.000000
G00 X75.360414 Y75.360730

G01 Z2 F100.0(Penetrate)
G03 X74.910944 Y74.840278 Z2 I48.026495 J-41.930711 F75.000000
G02 X74.470830 Y74.344060 Z2 I-13.558900 J11.582597
G01 X73.327080 Y74.852400 Z2
G00 Z0.000000

(End cutting path id: path17)


(Start cutting path id: path17)
(Change tool to Default tool)

G00 Z0.000000
G00 X73.199997 Y74.852090

G01 Z2 F100.0(Penetrate)
G01 X73.327080 Y74.852090 Z2 F75.000000
G00 Z0.000000

(End cutting path id: path17)


(Start cutting path id: path17)
(Change tool to Default tool)

G00 Z0.000000
G00 X74.470830 Y74.343750

G01 Z2 F100.0(Penetrate)
G02 X74.386764 Y73.916591 Z2 I-1.147653 J0.004010 F75.000000
G02 X73.327080 Y73.200000 Z2 I-1.063745 J0.431232
G00 Z0.000000

(End cutting path id: path17)


(Start cutting path id: path17)
(Change tool to Default tool)

G00 Z0.000000
G00 X73.199997 Y73.200000

G01 Z2 F100.0(Penetrate)
G01 X73.327080 Y73.200000 Z2 F75.000000
G00 Z0.000000

(End cutting path id: path17)


(Start cutting path id: path17)
(Change tool to Default tool)

G00 Z0.000000
G00 X73.199997 Y91.372920

G01 Z2 F100.0(Penetrate)
G01 X75.106247 Y91.372920 Z2 F75.000000
G01 X76.631247 Y91.372920 Z2
G01 X82.349997 Y91.372920 Z2
G01 X83.874997 Y91.372920 Z2
G00 Z0.000000

(End cutting path id: path17)


(Start cutting path id: path17)
(Change tool to Default tool)

G00 Z0.000000
G00 X85.781246 Y96.964587

G01 Z2 F100.0(Penetrate)
G01 X83.366663 Y99.379170 Z2 F75.000000
G01 X78.918747 Y103.954170 Z2
G03 X77.799991 Y105.057204 Z2 I-78.498295 J-78.498295
G02 X76.779903 Y106.114587 Z2 I15.953144 J16.411205
G02 X76.160367 Y106.812088 Z2 I38.118038 J34.481196
G03 X75.868747 Y107.131253 Z2 I-7.042191 J-6.141614
G02 X76.381536 Y107.441130 Z2 I1.226246 J-1.449986
G02 X77.393747 Y107.639586 Z2 I1.017777 J-2.510521
G02 X80.265069 Y107.641132 Z2 I1.939097 J-934.957049
G03 X83.366663 Y107.639586 Z2 I3.101973 J3110.812306
G01 X90.229163 Y107.639586 Z2
G01 X91.627080 Y107.639586 Z2
G01 X93.024996 Y107.639586 Z2
G01 X98.489579 Y107.639586 Z2
G01 X104.462500 Y107.639586 Z2
G02 X105.295092 Y107.601827 Z2 I-0.000567 J-9.210659
G02 X105.987500 Y107.529568 Z2 I-2.349425 J-25.866660
G03 X106.726801 Y107.516498 Z2 I0.434979 J3.688829
G03 X107.385410 Y107.639586 Z2 I-0.267632 J3.255589
G00 Z0.000000

(End cutting path id: path17)


(Start cutting path id: path17)
(Change tool to Default tool)

G00 Z0.000000
G00 X107.893750 Y107.893753

G01 Z2 F100.0(Penetrate)
G01 X109.672910 Y107.639586 Z2 F75.000000
G00 Z0.000000

(End cutting path id: path17)


(Start cutting path id: path17)
(Change tool to Default tool)

G00 Z0.000000
G00 X107.893671 Y108.910420

G01 Z2 F100.0(Penetrate)
G01 X107.512421 Y107.639586 Z2 F75.000000
G02 X107.653539 Y107.289590 Z2 I-1.559724 J-0.832328
G02 X107.766491 Y106.495837 Z2 I-2.865966 J-0.812743
G02 X107.769159 Y104.878741 Z2 I-179.964001 J-1.105519
G03 X107.766581 Y103.064587 Z2 I638.198526 J-1.814156
G02 X107.703101 Y98.811315 Z2 I-142.520074 J-0.000000
G03 X107.639501 Y94.550004 Z2 I142.725867 J-4.261311
G02 X107.639019 Y93.417584 Z2 I-1331.048542 J0.000463
G03 X107.639501 Y92.389587 Z2 I389.578859 J-0.331487
G01 X107.770111 Y91.467252 Z2
G03 X109.174319 Y91.137257 Z2 I0.914818 J0.740151
G02 X109.672831 Y91.245837 Z2 I0.498512 J-1.090094
G00 Z0.000000

(End cutting path id: path17)


(Start cutting path id: path17)
(Change tool to Default tool)

G00 Z0.000000
G00 X107.639580 Y91.118755

G01 Z2 F100.0(Penetrate)
G01 X107.639580 Y87.560422 Z2 F75.000000
G02 X107.578091 Y82.632090 Z2 I-197.533503 J0.000001
G03 X107.512500 Y77.775001 Z2 I212.084570 J-5.293020
G02 X107.301931 Y76.754352 Z2 I-2.609218 J0.006259
G03 X107.189890 Y75.995841 Z2 I1.382028 J-0.591673
G01 X107.893750 Y74.979171 Z2
G01 X107.512500 Y73.200000 Z2
G00 Z0.000000

(End cutting path id: path17)


(Start cutting path id: path17)
(Change tool to Default tool)

G00 Z0.000000
G00 X107.893750 Y74.979170

G01 Z2 F100.0(Penetrate)
G01 X108.656250 Y74.979170 Z2 F75.000000
G00 Z0.000000

(End cutting path id: path17)


(Start cutting path id: path17)
(Change tool to Default tool)

G00 Z0.000000
G00 X109.418750 Y73.200000

G01 Z2 F100.0(Penetrate)
G02 X109.528266 Y73.452334 Z2 I2.298666 J-0.847717 F75.000000
G02 X109.672910 Y73.708340 Z2 I2.701836 J-1.357677
G01 X108.849810 Y74.950150 Z2
G01 X109.672910 Y75.360420 Z2
G00 Z0.000000

(End cutting path id: path17)


(Start cutting path id: path17)
(Change tool to Default tool)

G00 Z0.000000
G00 X99.252079 Y91.372920

G01 Z2 F100.0(Penetrate)
G01 X100.395830 Y91.372920 Z2 F75.000000
G01 X104.970830 Y91.367920 Z2
G01 X106.622720 Y91.245838 Z2
G01 X107.512500 Y91.245838 Z2
G00 Z0.000000

(End cutting path id: path17)


(Start cutting path id: path17)
(Change tool to Default tool)

G00 Z0.000000
G00 X105.860410 Y107.258336

G01 Z2 F100.0(Penetrate)
G02 X105.230156 Y106.126461 Z2 I-2.343037 J0.563250 F75.000000
G02 X103.700000 Y104.589587 Z2 I-257.688432 J255.031763
G03 X101.288519 Y102.172105 Z2 I588.553433 J-589.503797
G02 X98.870829 Y99.760911 Z2 I-261.162842 J259.448792
G02 X97.531548 Y98.462311 Z2 I-69.473669 J70.310184
G03 X96.583329 Y97.472920 Z2 I10.248355 J-10.770952
G00 Z0.000000

(End cutting path id: path17)


(Start cutting path id: path17)
(Change tool to Default tool)

G00 Z0.000000
G00 X90.991663 Y93.974010

G01 Z2 F100.0(Penetrate)
G02 X94.323106 Y92.107300 Z2 I0.652825 J-2.741030 F75.000000
G02 X92.516663 Y88.755554 Z2 I-2.499147 J-0.815740
G02 X89.080418 Y90.666853 Z2 I-0.740921 J2.712520
G02 X90.991663 Y93.974010 Z2 I2.520460 J0.749241
G00 Z0.000000

(End cutting path id: path17)


(Start cutting path id: path17)
(Change tool to Default tool)

G00 Z0.000000
G00 X91.627001 Y109.037503

G01 Z2 F100.0(Penetrate)
G01 X91.627001 Y107.639586 Z2 F75.000000
G01 X91.627001 Y106.368753 Z2
G01 X91.627001 Y99.252087 Z2
G00 Z0.000000

(End cutting path id: path17)


(Start cutting path id: path17)
(Change tool to Default tool)

G00 Z0.000000
G00 X75.360335 Y109.037503

G01 Z2 F100.0(Penetrate)
G01 X74.852001 Y108.275003 Z2 F75.000000
G00 Z0.000000

(End cutting path id: path17)


(Start cutting path id: path17)
(Change tool to Default tool)

G00 Z0.000000
G00 X74.724997 Y108.275003

G01 Z2 F100.0(Penetrate)
G01 X73.327080 Y107.639586 Z2 F75.000000
G00 Z0.000000

(End cutting path id: path17)


(Start cutting path id: path17)
(Change tool to Default tool)

G00 Z0.000000
G00 X73.199997 Y107.639586

G01 Z2 F100.0(Penetrate)
G01 X73.327080 Y107.639586 Z2 F75.000000
G00 Z0.000000

(End cutting path id: path17)


(Footer)
M5
G00 X0.0000 Y0.0000
M2
(Using default footer. To add your own footer create file "footer" in the output dir.)
(end)
%