%
(Header)
(Generated by gcodetools from Inkscape.)
(Using default header. To add your own header create file "header" in the output dir.)
M3
(Header end.)
G21 (All units in mm)

(Start cutting path id: path23)
(Change tool to Default tool)

G00 Z0.000000
G00 X109.800000 Y72.818750

G01 Z2 F100.0(Penetrate)
G02 X110.851256 Y72.233303 Z2 I-0.607585 J-2.327575 F75.000000
G02 X112.595840 Y70.531250 Z2 I-69.196691 J-72.670885
G03 X115.581467 Y67.609422 Z2 I139.193008 J139.246098
G02 X118.568750 Y64.685410 Z2 I-135.067507 J-140.978169
G02 X120.992131 Y62.261061 Z2 I-6066.076636 J-6066.012400
G03 X123.397920 Y59.856250 Z2 I1995.279809 J1993.678906
G03 X123.990147 Y59.286860 Z2 I15.389455 J15.414003
G03 X124.536670 Y58.785650 Z2 I53.538686 J57.830418
G02 X124.956109 Y58.361345 Z2 I-3.738941 J-4.115537
G03 X125.325740 Y57.949900 Z2 I34.711877 J30.812382
G03 X126.556394 Y56.769286 Z2 I9.249912 J8.410253
G02 X127.882120 Y55.524040 Z2 I-10.112925 J-12.094849
G03 X128.546299 Y54.838549 Z2 I32.531380 J30.855457
G03 X129.243750 Y54.137500 Z2 I136.600099 J135.201598
G01 X133.437500 Y49.943750 Z2
G01 X134.581250 Y48.800000 Z2
G01 X135.725000 Y47.656250 Z2
G01 X139.156250 Y44.225000 Z2
G03 X141.253756 Y42.191053 Z2 I67.153799 J67.153799
G02 X143.350000 Y40.158330 Z2 I-65.017127 J-69.146094
G02 X144.371307 Y39.124271 Z2 I-82.722807 J-82.724112
G03 X145.383240 Y38.131860 Z2 I22.899582 J22.337905
G02 X146.013825 Y37.404537 Z2 I-3.202371 J-3.413458
G02 X146.272920 Y36.600000 Z2 I-1.172222 J-0.821493
G00 Z0.000000

(End cutting path id: path23)


(Start cutting path id: path24)
(Change tool to Default tool)

G00 Z0.000000
G00 X146.399990 Y47.020830

G01 Z2 F100.0(Penetrate)
G01 X147.061490 Y46.253130 Z2 F75.000000
G01 X148.083460 Y44.225000 Z2
G01 X150.371050 Y39.650000 Z2
G01 X151.577070 Y37.363090 Z2
G01 X151.864580 Y36.600000 Z2
G00 Z0.000000

(End cutting path id: path24)


(Start cutting path id: path23)
(Change tool to Default tool)

G00 Z0.000000
G00 X125.685420 Y41.683340

G01 Z2 F100.0(Penetrate)
G01 X127.337500 Y41.040370 Z2 F75.000000
G01 X134.835420 Y37.329170 Z2
G01 X136.106250 Y36.639920 Z2
G01 X137.504170 Y36.600020 Z2
G00 Z0.000000

(End cutting path id: path23)


(Start cutting path id: path23)
(Change tool to Default tool)

G00 Z0.000000
G00 X116.789590 Y46.004160

G01 Z2 F100.0(Penetrate)
G01 X119.077090 Y45.158710 Z2 F75.000000
G01 X123.016670 Y43.176950 Z2
G01 X124.668560 Y42.344640 Z2
G01 X125.333390 Y41.677940 Z2
G01 X124.793780 Y40.859550 Z2
G01 X123.525000 Y40.024870 Z2
G01 X118.570620 Y37.243750 Z2
G01 X117.540710 Y36.639810 Z2
G01 X115.645840 Y36.600010 Z2
G00 Z0.000000

(End cutting path id: path23)


(Start cutting path id: path23)
(Change tool to Default tool)

G00 Z0.000000
G00 X109.800000 Y42.700010

G01 Z2 F100.0(Penetrate)
G01 X109.927090 Y42.572920 Z2 F75.000000
G00 Z0.000000

(End cutting path id: path23)


(Start cutting path id: path23)
(Change tool to Default tool)

G00 Z0.000000
G00 X113.231250 Y47.910410

G01 Z2 F100.0(Penetrate)
G01 X113.993750 Y47.910410 Z2 F75.000000
G00 Z0.000000

(End cutting path id: path23)


(Start cutting path id: path23)
(Change tool to Default tool)

G00 Z0.000000
G00 X109.800000 Y49.689580

G01 Z2 F100.0(Penetrate)
G02 X111.123311 Y49.208910 Z2 I-2.870644 J-9.964956 F75.000000
G02 X113.231250 Y47.910410 Z2 I-3.699104 J-8.365221
G02 X111.567634 Y45.779102 Z2 I-12.653427 J8.161840
G02 X109.927090 Y44.352080 Z2 I-7.776365 J7.283407
G00 Z0.000000

(End cutting path id: path23)


(Start cutting path id: path23)
(Change tool to Default tool)

G00 Z0.000000
G00 X124.541680 Y58.839580

G01 Z2 F100.0(Penetrate)
G01 X121.110430 Y55.408330 Z2 F75.000000
G01 X116.535430 Y50.833330 Z2
G03 X115.001168 Y49.198375 Z2 I24.962329 J-24.962329
G03 X113.993760 Y47.910410 Z2 I10.567584 J-9.303611
G03 X114.684740 Y47.402745 Z2 I2.931999 J3.266650
G03 X115.772440 Y46.797550 Z2 I11.320242 J19.065509
G01 X116.597600 Y45.999160 Z2
G01 X115.518760 Y44.888750 Z2
G02 X111.907059 Y43.102341 Z2 I-38.388287 J73.067927
G02 X109.927100 Y42.572910 Z2 I-2.499149 J5.379255
G00 Z0.000000

(End cutting path id: path23)


(Start cutting path id: path23)
(Change tool to Default tool)

G00 Z0.000000
G00 X135.216670 Y69.387500

G01 Z2 F100.0(Penetrate)
G02 X136.198772 Y67.807832 Z2 I-4.701860 J-4.018342 F75.000000
G03 X137.250000 Y66.210410 Z2 I4.997565 J2.144179
G00 Z0.000000

(End cutting path id: path23)


(Start cutting path id: path23)
(Change tool to Default tool)

G00 Z0.000000
G00 X135.343750 Y69.768750

G01 Z2 F100.0(Penetrate)
G02 X134.894326 Y69.103627 Z2 I-2.314167 J1.079285 F75.000000
G02 X134.236280 Y68.455360 Z2 I-8.266092 J7.732665
G03 X130.912090 Y65.249873 Z2 I51.545181 J-56.780346
G02 X127.591670 Y61.889580 Z2 I-283.169427 J276.488715
G03 X125.761843 Y60.009693 Z2 I68.739369 J-68.739369
G03 X124.668750 Y58.839580 Z2 I82.664563 J-78.319014
G00 Z0.000000

(End cutting path id: path23)


(Start cutting path id: path23)
(Change tool to Default tool)

G00 Z0.000000
G00 X133.691670 Y72.564580

G01 Z2 F100.0(Penetrate)
G02 X134.579991 Y70.903138 Z2 I-21.798121 J-12.722973 F75.000000
G03 X135.343750 Y69.768750 Z2 I4.439026 J2.164395
G03 X136.628235 Y70.899925 Z2 I-10.544327 J13.268289
G02 X138.393750 Y72.564580 Z2 I51.224966 J-52.560078
G00 Z0.000000

(End cutting path id: path23)


(Start cutting path id: path23)
(Change tool to Default tool)

G00 Z0.000000
G00 X140.554170 Y72.564580

G01 Z2 F100.0(Penetrate)
G03 X139.382715 Y70.011869 Z2 I107.417352 J-50.839619 F75.000000
G02 X138.170470 Y67.481250 Z2 I-45.282502 J20.136072
G02 X137.595596 Y66.559164 Z2 I-5.867131 J3.017612
G03 X137.390520 Y65.447910 Z2 I1.026199 J-0.763930
G03 X138.411912 Y63.078773 Z2 I9.425862 J2.658974
G02 X139.760290 Y60.618750 Z2 I-31.895101 J-19.081762
G02 X140.262474 Y59.582782 Z2 I-41.967270 J-20.983303
G03 X140.782450 Y58.590420 Z2 I11.648557 J5.471172
G03 X141.118810 Y58.137676 Z2 I2.166534 J1.258278
G02 X141.463850 Y57.684460 Z2 I-2.062132 J-1.927880
G02 X141.902230 Y56.703099 Z2 I-3.547611 J-2.173334
G03 X142.364710 Y55.535410 Z2 I6.961501 J2.081772
G02 X143.931639 Y52.254607 Z2 I-89.948026 J-44.974247
G03 X145.555030 Y49.183110 Z2 I26.935700 J12.271678
G03 X145.973666 Y48.626167 Z2 I2.995190 J1.815578
G02 X146.232620 Y48.153210 Z2 I-0.823407 J-0.758203
G02 X146.303014 Y47.419970 Z2 I-2.207898 J-0.581966
G03 X146.272920 Y46.512500 Z2 I13.667138 J-0.907470
G00 Z0.000000

(End cutting path id: path23)


(Start cutting path id: path23)
(Change tool to Default tool)

G00 Z0.000000
G00 X146.272920 Y66.972910

G01 Z2 F100.0(Penetrate)
G03 X146.298978 Y66.073182 Z2 I15.545748 J0.000000 F75.000000
G02 X146.233020 Y65.320830 Z2 I-2.602719 J-0.150888
G02 X145.975926 Y64.752368 Z2 I-1.591469 J0.377394
G03 X145.543770 Y64.050000 Z2 I5.174882 J-3.668156
G03 X143.678801 Y60.284352 Z2 I69.611855 J-36.820505
G02 X141.570850 Y57.822910 Z2 I-5.415472 J2.504415
G00 Z0.000000

(End cutting path id: path23)


(Start cutting path id: path24)
(Change tool to Default tool)

G00 Z0.000000
G00 X149.068740 Y72.564580

G01 Z2 F100.0(Penetrate)
G02 X148.447576 Y70.629307 Z2 I-12.706310 J3.011015 F75.000000
G02 X147.616900 Y68.625000 Z2 I-227.621208 J93.162314
G03 X147.323399 Y67.890012 Z2 I20.996623 J-8.810618
G02 X147.010010 Y67.234530 Z2 I-4.075822 J1.546014
G02 X146.719002 Y66.881033 Z2 I-1.245391 J0.728707
G02 X146.527080 Y66.718750 Z2 I-3.995898 J4.531070
G00 Z0.000000

(End cutting path id: path24)


(Footer)
M5
M2
(Using default footer. To add your own footer create file "footer" in the output dir.)
(end)
%