%
(Header)
(Generated by gcodetools from Inkscape.)
(Using default header. To add your own header create file "header" in the output dir.)
M3
(Header end.)
G21 (All units in mm)

(Start cutting path id: path15)
(Change tool to Default tool)

G00 Z0.000000
G00 X34.058332 Y109.164586

G01 Z2 F100.0(Penetrate)
G03 X33.579968 Y107.793980 Z2 I8.204396 J-3.632249 F75.000000
G03 X33.216207 Y106.368753 Z2 I144.726651 J-37.697681
G03 X32.560283 Y103.592314 Z2 I106.564837 J-26.641267
G03 X32.014801 Y100.777087 Z2 I50.683588 J-11.280979
G03 X31.918058 Y100.056666 Z2 I11.845950 J-1.957457
G03 X31.900463 Y99.506841 Z2 I3.844585 J-0.398226
G01 X32.192482 Y98.862307 Z2
G01 X33.295832 Y99.392899 Z2
G03 X35.291385 Y101.412834 Z2 I-15.131868 J16.944916
G02 X36.472915 Y102.302087 Z2 I2.688927 J-2.343154
G00 Z0.000000

(End cutting path id: path15)


(Start cutting path id: path15)
(Change tool to Default tool)

G00 Z0.000000
G00 X32.152082 Y98.743754

G01 Z2 F100.0(Penetrate)
G03 X31.733801 Y97.954236 Z2 I2.168688 J-1.654517 F75.000000
G02 X31.233571 Y97.115107 Z2 I-2.172454 J0.726398
G02 X30.578918 Y96.586836 Z2 I-2.210143 J2.069121
G03 X29.876446 Y96.051567 Z2 I2.038290 J-3.403581
G03 X29.397323 Y95.495820 Z2 I2.626636 J-2.748890
G02 X28.951562 Y94.931254 Z2 I-5.494000 J3.879607
G02 X28.146858 Y94.098873 Z2 I-9.317688 J8.202712
G03 X27.328504 Y93.279170 Z2 I12.994459 J-13.791421
G03 X26.597012 Y92.321717 Z2 I4.329601 J-4.065961
G03 X26.262124 Y91.500004 Z2 I2.318423 J-1.423969
G03 X26.285061 Y90.915898 Z2 I1.098600 J-0.249363
G03 X26.540508 Y90.356254 Z2 I2.327875 J0.724427
G03 X27.404331 Y89.327002 Z2 I3.992752 J2.473892
G02 X28.466665 Y88.322921 Z2 I-17.277959 J-19.344374
G03 X30.072052 Y86.949366 Z2 I9.627503 J9.627503
G02 X31.412627 Y85.527087 Z2 I-3.131911 J-4.294919
G02 X31.716076 Y84.872983 Z2 I-2.228118 J-1.431097
G03 X32.063438 Y84.320973 Z2 I1.195289 J0.366860
G03 X32.687381 Y83.887095 Z2 I1.878067 J2.035202
G02 X33.422915 Y83.364317 Z2 I-1.386313 J-2.729330
G02 X35.387083 Y81.414103 Z2 I-59.939991 J-62.333065
G03 X36.472915 Y80.570840 Z2 I3.589392 J3.501182
G00 Z0.000000

(End cutting path id: path15)


(Start cutting path id: path16)
(Change tool to Default tool)

G00 Z0.000000
G00 X36.599998 Y79.935420

G01 Z2 F100.0(Penetrate)
G02 X36.811749 Y79.832410 Z2 I-2.120039 J-4.627164 F75.000000
G02 X37.233552 Y79.556820 Z2 I-1.124322 J-2.181415
G02 X37.775514 Y79.046503 Z2 I-3.182317 J-3.922594
G03 X38.381028 Y78.446610 Z2 I6.500992 J5.956370
G03 X39.812693 Y77.194731 Z2 I45.805360 J50.939039
G02 X41.158132 Y75.868750 Z2 I-8.332092 J-9.799939
G02 X41.732586 Y75.017286 Z2 I-3.082546 J-2.699207
G03 X42.162640 Y74.216670 Z2 I16.173981 J8.172095
G03 X42.632763 Y73.488911 Z2 I6.778863 J3.863336
G03 X42.954165 Y73.200000 Z2 I0.840157 J0.611412
G00 Z0.000000

(End cutting path id: path16)


(Start cutting path id: path15)
(Change tool to Default tool)

G00 Z0.000000
G00 X31.897915 Y84.129171

G01 Z2 F100.0(Penetrate)
G03 X32.169307 Y81.000132 Z2 I18.173983 J0.000000 F75.000000
G03 X33.241901 Y76.250000 Z2 I48.923590 J8.550932
G02 X33.796437 Y74.179503 Z2 I-109.402352 J-30.410495
G02 X33.931249 Y73.200000 Z2 I-4.154945 J-1.070885
G00 Z0.000000

(End cutting path id: path15)


(Start cutting path id: path16)
(Change tool to Default tool)

G00 Z0.000000
G00 X36.599998 Y91.500004

G01 Z2 F100.0(Penetrate)
G01 X36.727082 Y91.500004 Z2 F75.000000
G00 Z0.000000

(End cutting path id: path16)


(Start cutting path id: path15)
(Change tool to Default tool)

G00 Z0.000000
G00 X26.433332 Y91.881254

G01 Z2 F100.0(Penetrate)
G03 X26.829400 Y91.667730 Z2 I1.395002 J2.113512 F75.000000
G03 X27.577082 Y91.501964 Z2 I0.811154 J1.889598
G03 X29.935686 Y91.549538 Z2 I0.713672 J23.108698
G02 X32.533332 Y91.626597 Z2 I2.225547 J-31.201064
G02 X35.264449 Y91.533849 Z2 I-0.737072 J-61.961707
G03 X36.472915 Y91.500004 Z2 I1.208466 J21.557811
G00 Z0.000000

(End cutting path id: path15)


(Start cutting path id: path16)
(Change tool to Default tool)

G00 Z0.000000
G00 X42.191665 Y108.910420

G01 Z2 F100.0(Penetrate)
G03 X41.154313 Y107.437151 Z2 I49.484487 J-35.944667 F75.000000
G02 X39.906028 Y106.007213 Z2 I-6.607791 J4.508541
G03 X37.986038 Y104.026148 Z2 I13.833704 J-15.328147
G02 X36.727082 Y103.064587 Z2 I-2.824258 J2.392811
G00 Z0.000000

(End cutting path id: path16)


(Start cutting path id: path16)
(Change tool to Default tool)

G00 Z0.000000
G00 X50.324998 Y109.164586

G01 Z2 F100.0(Penetrate)
G03 X52.668165 Y104.169240 Z2 I57.783927 J24.057486 F75.000000
G02 X55.185543 Y99.252087 Z2 I-256.964871 J-134.658278
G03 X56.426636 Y97.206507 Z2 I13.111862 J6.555937
G02 X57.042960 Y95.185911 Z2 I-2.631930 J-1.907087
G01 X56.176323 Y94.030295 Z2
G03 X55.343849 Y92.756797 Z2 I2.565059 J-2.585594
G03 X55.027081 Y91.372920 Z2 I4.629571 J-1.787897
G01 X53.883331 Y91.372920 Z2
G01 X49.562498 Y91.372920 Z2
G02 X45.679822 Y91.436571 Z2 I0.000000 J118.452805
G03 X41.810415 Y91.500004 Z2 I-3.869407 J-117.984584
G01 X36.727082 Y91.500004 Z2
G00 Z0.000000

(End cutting path id: path16)


(Start cutting path id: path16)
(Change tool to Default tool)

G00 Z0.000000
G00 X55.154164 Y91.245837

G01 Z2 F100.0(Penetrate)
G03 X55.699866 Y89.602638 Z2 I4.622846 J0.623022 F75.000000
G03 X56.842529 Y88.388227 Z2 I2.972808 J1.652392
G03 X57.536470 Y88.174304 Z2 I0.734738 J1.150911
G02 X58.331248 Y88.127686 Z2 I-0.414394 J-13.863234
G03 X59.491561 Y88.174775 Z2 I0.396997 J4.536732
G02 X60.491664 Y88.322921 Z2 I3.969669 J-23.348634
G00 Z0.000000

(End cutting path id: path16)


(Start cutting path id: path16)
(Change tool to Default tool)

G00 Z0.000000
G00 X62.143747 Y91.372920

G01 Z2 F100.0(Penetrate)
G01 X69.768747 Y91.372920 Z2 F75.000000
G01 X73.072914 Y91.372920 Z2
G00 Z0.000000

(End cutting path id: path16)


(Start cutting path id: path16)
(Change tool to Default tool)

G00 Z0.000000
G00 X57.187498 Y94.931254

G01 Z2 F100.0(Penetrate)
G02 X58.792436 Y94.919868 Z2 I0.688718 J-16.039611 F75.000000
G02 X60.491664 Y94.804170 Z2 I-4.465802 J-78.124090
G00 Z0.000000

(End cutting path id: path16)


(Start cutting path id: path16)
(Change tool to Default tool)

G00 Z0.000000
G00 X56.679164 Y88.068754

G01 Z2 F100.0(Penetrate)
G02 X55.951015 Y86.251420 Z2 I-9.357046 J2.694538 F75.000000
G03 X54.995702 Y84.383337 Z2 I102.526652 J-53.609066
G03 X53.310306 Y80.888456 Z2 I121.327564 J-60.663706
G02 X51.627209 Y77.393750 Z2 I-127.564750 J59.284216
G03 X50.251681 Y74.530776 Z2 I96.479713 J-48.116018
G03 X49.689581 Y73.200000 Z2 I19.571243 J-9.050699
G00 Z0.000000

(End cutting path id: path16)


(Start cutting path id: path16)
(Change tool to Default tool)

G00 Z0.000000
G00 X73.072914 Y73.327090

G01 Z2 F100.0(Penetrate)
G01 X72.945830 Y73.200000 Z2 F75.000000
G00 Z0.000000

(End cutting path id: path16)


(Start cutting path id: path16)
(Change tool to Default tool)

G00 Z0.000000
G00 X73.072914 Y74.852090

G01 Z2 F100.0(Penetrate)
G02 X71.741536 Y74.870665 Z2 I-0.000000 J47.723924 F75.000000
G03 X68.752080 Y74.847090 Z2 I-1.165493 J-41.761434
G02 X67.826193 Y74.834991 Z2 I-0.660140 J15.084249
G02 X66.946045 Y75.257360 Z2 I0.020617 J1.171188
G02 X66.036687 Y76.767897 Z2 I4.487410 J3.730455
G03 X65.289451 Y78.410420 Z2 I-22.740230 J-9.354017
G02 X63.796108 Y81.459358 Z2 I185.159246 J92.579569
G03 X62.302210 Y84.510421 Z2 I-189.738529 J-91.010848
G03 X61.344367 Y86.323853 Z2 I-40.668867 J-20.321353
G02 X60.692978 Y88.068754 Z2 I5.399826 J3.009844
G01 X61.300839 Y89.466671 Z2
G03 X61.904821 Y90.745527 Z2 I-3.462050 J2.417122
G03 X61.997738 Y92.008337 Z2 I-3.076202 J0.861168
G03 X61.167295 Y93.623602 Z2 I-2.635894 J-0.334064
G02 X60.696115 Y95.058337 Z2 I1.057843 J1.142143
G02 X61.271764 Y96.501910 Z2 I4.033397 J-0.771824
G03 X62.112368 Y97.981254 Z2 I-13.500743 J8.649993
G02 X63.804647 Y101.312903 Z2 I263.923786 J-131.961954
G02 X65.535774 Y104.589587 Z2 I169.210992 J-87.301350
G03 X66.227848 Y106.144501 Z2 I-9.729125 J5.261796
G02 X67.232572 Y107.435822 Z2 I2.454173 J-0.872964
G02 X68.211303 Y107.686306 Z2 I0.843920 J-1.260131
G03 X69.260414 Y107.639586 Z2 I1.049111 J11.755729
G01 X73.072914 Y107.639586 Z2
G00 Z0.000000

(End cutting path id: path16)


(Footer)
M5
M2
(Using default footer. To add your own footer create file "footer" in the output dir.)
(end)
%