%
(Header)
(Generated by gcodetools from Inkscape.)
(Using default header. To add your own header create file "header" in the output dir.)
M3
(Header end.)
G21 (All units in mm)

(Start cutting path id: path25)
(Change tool to Default tool)

G00 Z0.000000
G00 X31.516665 Y35.964590

G01 Z2 F100.0(Penetrate)
G02 X30.225561 Y33.370847 Z2 I-19.869562 J8.272386 F75.000000
G03 X29.219458 Y31.008340 Z2 I8.775782 J-5.132760
G03 X29.052587 Y30.325540 Z2 I9.322108 J-2.640047
G02 X28.974999 Y29.991670 Z2 I-6.735305 J1.389259
G03 X29.762596 Y30.031647 Z2 I0.317448 J1.524203
G03 X30.627082 Y30.516970 Z2 I-0.736078 J2.323743
G03 X32.482566 Y32.300552 Z2 I-17.134687 J19.682371
G02 X34.312499 Y34.185420 Z2 I64.631368 J-60.916947
G03 X35.103112 Y35.003650 Z2 I-23.451374 J23.450920
G02 X35.834361 Y35.670020 Z2 I4.485025 J-4.187288
G02 X36.267502 Y35.901422 Z2 I0.900234 J-1.163989
G02 X36.472915 Y35.964590 Z2 I1.382391 J-4.129752
G00 Z0.000000

(End cutting path id: path25)


(Start cutting path id: path26)
(Change tool to Default tool)

G00 Z0.000000
G00 X36.599998 Y31.516670

G01 Z2 F100.0(Penetrate)
G01 X36.727082 Y31.516670 Z2 F75.000000
G00 Z0.000000

(End cutting path id: path26)


(Start cutting path id: path25)
(Change tool to Default tool)

G00 Z0.000000
G00 X29.229165 Y29.864590

G01 Z2 F100.0(Penetrate)
G01 X28.961369 Y28.380090 Z2 F75.000000
G01 X30.372915 Y28.288490 Z2
G03 X34.386641 Y30.191783 Z2 I-5.490379 J16.762067
G02 X36.472915 Y31.135410 Z2 I4.290464 J-6.707737
G00 Z0.000000

(End cutting path id: path25)


(Start cutting path id: path25)
(Change tool to Default tool)

G00 Z0.000000
G00 X28.720832 Y28.339580

G01 Z2 F100.0(Penetrate)
G01 X26.687499 Y26.306250 Z2 F75.000000
G00 Z0.000000

(End cutting path id: path25)


(Start cutting path id: path26)
(Change tool to Default tool)

G00 Z0.000000
G00 X48.164581 Y36.472920

G01 Z2 F100.0(Penetrate)
G02 X47.060622 Y36.211613 Z2 I-1.936568 J5.718896 F75.000000
G03 X45.749998 Y35.853190 Z2 I0.730450 J-5.246445
G03 X44.685755 Y35.352025 Z2 I5.087880 J-12.184871
G02 X43.589582 Y34.789460 Z2 I-27.316599 J51.877880
G01 X39.014582 Y32.501960 Z2
G02 X37.540344 Y31.779173 Z2 I-47.035091 J94.070636
G02 X36.727082 Y31.516670 Z2 I-1.367093 J2.844360
G00 Z0.000000

(End cutting path id: path26)


(Start cutting path id: path26)
(Change tool to Default tool)

G00 Z0.000000
G00 X65.193747 Y36.472920

G01 Z2 F100.0(Penetrate)
G01 X67.481247 Y35.951840 Z2 F75.000000
G01 X71.039580 Y34.559910 Z2
G01 X72.309824 Y34.102560 Z2
G01 X73.072914 Y33.931260 Z2
G00 Z0.000000

(End cutting path id: path26)


(Start cutting path id: path27)
(Change tool to Default tool)

G00 Z0.000000
G00 X73.199997 Y33.804170

G01 Z2 F100.0(Penetrate)
G02 X74.336623 Y33.469169 Z2 I-15.995191 J-56.365842 F75.000000
G03 X76.758330 Y32.803980 Z2 I12.811112 J41.899663
G03 X79.090685 Y32.283632 Z2 I14.239067 J58.336455
G03 X81.460413 Y31.845360 Z2 I14.285163 J70.613864
G03 X82.570714 Y31.663528 Z2 I24.434550 J145.721385
G03 X83.620830 Y31.517260 Z2 I4.158980 J26.016208
G03 X84.354727 Y31.578214 Z2 I0.217407 J1.830983
G03 X84.764580 Y31.770840 Z2 I-0.409703 J1.404069
G00 Z0.000000

(End cutting path id: path27)


(Start cutting path id: path27)
(Change tool to Default tool)

G00 Z0.000000
G00 X81.079163 Y35.964590

G01 Z2 F100.0(Penetrate)
G03 X82.648446 Y34.439005 Z2 I54.820656 J54.821008 F75.000000
G02 X84.112199 Y32.914590 Z2 I-14.961005 J-15.830610
G02 X84.511586 Y32.287649 Z2 I-1.883546 J-1.640578
G03 X84.926964 Y31.693860 Z2 I1.730431 J0.768322
G03 X85.571343 Y31.284011 Z2 I1.326324 J1.373808
G02 X86.235647 Y30.867920 Z2 I-0.724566 J-1.895135
G02 X87.647087 Y29.449688 Z2 I-20.250941 J-21.565408
G03 X89.085413 Y27.958340 Z2 I41.847076 J38.920026
G02 X89.673137 Y27.359753 Z2 I-32.302813 J-32.304439
G03 X90.229163 Y26.867830 Z2 I3.368035 J3.246722
G03 X90.844270 Y26.568864 Z2 I1.074729 J1.428943
G03 X91.754163 Y26.687510 Z2 I0.310481 J1.167226
G01 X91.500584 Y27.831260 Z2
G01 X91.627080 Y30.245840 Z2
G01 X91.627080 Y35.837510 Z2
G00 Z0.000000

(End cutting path id: path27)


(Start cutting path id: path27)
(Change tool to Default tool)

G00 Z0.000000
G00 X98.108329 Y31.389590

G01 Z2 F100.0(Penetrate)
G03 X101.463173 Y31.720602 Z2 I-0.049917 J17.672290 F75.000000
G03 X105.606250 Y32.587270 Z2 I-33.046665 J168.314695
G03 X108.436936 Y33.319056 Z2 I-9.207680 J41.457755
G02 X109.672910 Y33.677090 Z2 I33.465440 J-113.214071
G00 Z0.000000

(End cutting path id: path27)


(Start cutting path id: path28)
(Change tool to Default tool)

G00 Z0.000000
G00 X109.800000 Y33.804170

G01 Z2 F100.0(Penetrate)
G01 X109.927090 Y33.804170 Z2 F75.000000
G00 Z0.000000

(End cutting path id: path28)


(Start cutting path id: path27)
(Change tool to Default tool)

G00 Z0.000000
G00 X101.666660 Y35.964590

G01 Z2 F100.0(Penetrate)
G02 X100.113795 Y34.447700 Z2 I-65.494526 J65.494526 F75.000000
G03 X98.630392 Y32.914590 Z2 I18.453165 J-19.339077
G03 X98.192501 Y32.205965 Z2 I1.779133 J-1.589016
G02 X97.789347 Y31.599140 Z2 I-1.636357 J0.649805
G02 X97.166729 Y31.195474 Z2 I-1.303004 J1.327766
G03 X96.456343 Y30.794380 Z2 I1.072354 J-2.728904
G03 X93.665145 Y28.070858 Z2 I9.939931 J-12.978964
G02 X91.881246 Y26.687510 Z2 I-3.805468 J3.065459
G00 Z0.000000

(End cutting path id: path27)


(Start cutting path id: path28)
(Change tool to Default tool)

G00 Z0.000000
G00 X118.060420 Y36.472920

G01 Z2 F100.0(Penetrate)
G01 X115.900000 Y35.970860 Z2 F75.000000
G01 X112.087500 Y34.483320 Z2
G01 X110.565640 Y33.975580 Z2
G01 X109.927090 Y33.804170 Z2
G00 Z0.000000

(End cutting path id: path28)


(Start cutting path id: path28)
(Change tool to Default tool)

G00 Z0.000000
G00 X135.470840 Y36.345840

G01 Z2 F100.0(Penetrate)
G02 X136.482614 Y36.244153 Z2 I-0.383885 J-8.904023 F75.000000
G02 X137.631250 Y35.920370 Z2 I-0.797026 J-5.026792
G02 X140.468778 Y34.572835 Z2 I-11.756050 J-28.416198
G03 X143.477080 Y33.010290 Z2 I52.214335 J96.848921
G02 X144.534280 Y32.471818 Z2 I-35.613421 J-71.228102
G03 X145.509830 Y31.999120 Z2 I9.133157 J17.605906
G03 X146.054456 Y31.815464 Z2 I1.200218 J2.659840
G03 X146.272920 Y31.770840 Z2 I0.997613 J4.326943
G00 Z0.000000

(End cutting path id: path28)


(Start cutting path id: path29)
(Change tool to Default tool)

G00 Z0.000000
G00 X146.399990 Y31.516670

G01 Z2 F100.0(Penetrate)
G02 X148.825600 Y30.252031 Z2 I-6.113689 J-14.684723 F75.000000
G03 X153.516660 Y28.034330 Z2 I11.164537 J17.545824
G03 X154.708086 Y27.996888 Z2 I0.659584 J2.013721
G03 X155.168740 Y28.212510 Z2 I-0.348705 J1.344855
G00 Z0.000000

(End cutting path id: path29)


(Start cutting path id: path29)
(Change tool to Default tool)

G00 Z0.000000
G00 X154.024990 Y29.610420

G01 Z2 F100.0(Penetrate)
G01 X154.787490 Y29.356260 Z2 F75.000000
G00 Z0.000000

(End cutting path id: path29)


(Start cutting path id: path29)
(Change tool to Default tool)

G00 Z0.000000
G00 X152.245830 Y35.964590

G01 Z2 F100.0(Penetrate)
G01 X154.787490 Y30.754170 Z2 F75.000000
G00 Z0.000000

(End cutting path id: path29)


(Start cutting path id: path29)
(Change tool to Default tool)

G00 Z0.000000
G00 X147.543740 Y35.964590

G01 Z2 F100.0(Penetrate)
G01 X153.770830 Y29.737510 Z2 F75.000000
G01 X154.787490 Y30.754170 Z2
G02 X155.028461 Y29.519442 Z2 I-1.784993 J-0.989240
G03 X155.360550 Y28.123570 Z2 I2.053696 J-0.248849
G03 X156.297401 Y27.083394 Z2 I4.018159 J2.677034
G02 X156.947910 Y26.433340 Z2 I-3.162827 J-3.815552
G00 Z0.000000

(End cutting path id: path29)


(Footer)
M5
M2
(Using default footer. To add your own footer create file "footer" in the output dir.)
(end)
%