%
(Header)
(Generated by gcodetools from Inkscape.)
(Using default header. To add your own header create file "header" in the output dir.)
M3
(Header end.)
G21 (All units in mm)

(Start cutting path id: path12)
(Change tool to Default tool)

G00 Z0.000000
G00 X79.299997 Y145.764585

G01 Z2 F100.0(Penetrate)
G03 X78.162326 Y144.730893 Z2 I25.934049 J-29.685654 F75.000000
G03 X77.140070 Y143.731252 Z2 I28.602225 J-30.271808
G03 X76.273556 Y142.716186 Z2 I6.525718 J-6.448079
G02 X75.355412 Y141.819215 Z2 I-3.181763 J2.338476
G02 X74.799262 Y141.469011 Z2 I-3.884627 J5.552368
G02 X74.216860 Y141.147517 Z2 I-18.020619 J31.956964
G02 X73.516834 Y140.859951 Z2 I-1.707260 J3.160187
G02 X73.327080 Y140.808335 Z2 I-1.479154 J5.063128
G00 Z0.000000

(End cutting path id: path12)


(Start cutting path id: path12)
(Change tool to Default tool)

G00 Z0.000000
G00 X73.199997 Y133.056252

G01 Z2 F100.0(Penetrate)
G02 X74.539694 Y132.387201 Z2 I-17.056923 J-35.830332 F75.000000
G03 X77.393747 Y130.927215 Z2 I80.800765 J154.433718
G01 X85.018746 Y127.114715 Z2
G03 X86.907988 Y126.236610 Z2 I16.313365 J32.626786
G02 X88.449996 Y125.431252 Z2 I-4.603468 J-10.693107
G00 Z0.000000

(End cutting path id: path12)


(Start cutting path id: path12)
(Change tool to Default tool)

G00 Z0.000000
G00 X88.577080 Y122.889586

G01 Z2 F100.0(Penetrate)
G02 X87.160196 Y121.964563 Z2 I-4.916247 J5.982701 F75.000000
G02 X85.272913 Y121.014715 Z2 I-181.637041 J358.550556
G03 X81.950268 Y119.327259 Z2 I132.852569 J-265.705139
G03 X78.664580 Y117.569736 Z2 I56.991467 J-110.495549
G02 X77.214220 Y116.882353 Z2 I-6.123414 J11.046438
G03 X75.912481 Y116.073174 Z2 I1.608948 J-4.039994
G03 X75.503610 Y115.194586 Z2 I0.829080 J-0.920264
G03 X75.487497 Y114.247920 Z2 I28.445189 J-0.957629
G02 X75.399470 Y111.173384 Z2 I-54.470544 J0.021014
G03 X75.360414 Y109.800003 Z2 I24.127491 J-1.373380
G00 Z0.000000

(End cutting path id: path12)


(Start cutting path id: path12)
(Change tool to Default tool)

G00 Z0.000000
G00 X91.627080 Y121.110419

G01 Z2 F100.0(Penetrate)
G01 X91.627080 Y119.712503 Z2 F75.000000
G01 X91.627080 Y113.358336 Z2
G01 X91.627080 Y109.800003 Z2
G00 Z0.000000

(End cutting path id: path12)


(Start cutting path id: path12)
(Change tool to Default tool)

G00 Z0.000000
G00 X94.677079 Y122.635419

G01 Z2 F100.0(Penetrate)
G02 X96.409074 Y121.942667 Z2 I-1.342845 J-5.868845 F75.000000
G03 X98.108329 Y121.014715 Z2 I13.664029 J23.001617
G01 X104.081250 Y118.029040 Z2
G03 X105.898871 Y117.265270 Z2 I6.700142 J13.400337
G02 X107.440820 Y116.140834 Z2 I-1.058698 J-3.071263
G02 X107.752088 Y115.254347 Z2 I-1.252709 J-0.937748
G02 X107.766660 Y114.375003 Z2 I-27.139860 J-0.889544
G02 X107.747153 Y112.382118 Z2 I-97.947222 J-0.037821
G03 X107.768660 Y110.563093 Z2 I28.616292 J-0.571306
G01 X108.060780 Y109.876684 Z2
G03 X108.882431 Y109.839959 Z2 I0.452825 J0.921300
G03 X109.672460 Y110.562503 Z2 I-0.527346 J1.369780
G00 Z0.000000

(End cutting path id: path12)


(Start cutting path id: path12)
(Change tool to Default tool)

G00 Z0.000000
G00 X94.677079 Y126.066669

G01 Z2 F100.0(Penetrate)
G03 X96.019868 Y126.586700 Z2 I-2.300454 J7.933730 F75.000000
G03 X97.854163 Y127.495965 Z2 I-131.096965 J266.771551
G01 X105.860410 Y131.499873 Z2
G03 X108.474707 Y132.832199 Z2 I-85.490713 J170.981426
G02 X109.672910 Y133.310419 Z2 I3.000254 J-5.777087
G00 Z0.000000

(End cutting path id: path12)


(Start cutting path id: path12)
(Change tool to Default tool)

G00 Z0.000000
G00 X108.783330 Y141.062502

G01 Z2 F100.0(Penetrate)
G01 X109.672910 Y141.062502 Z2 F75.000000
G00 Z0.000000

(End cutting path id: path12)


(Start cutting path id: path12)
(Change tool to Default tool)

G00 Z0.000000
G00 X103.064580 Y145.764585

G01 Z2 F100.0(Penetrate)
G02 X104.882135 Y143.863994 Z2 I-41.645898 J-41.645784 F75.000000
G03 X106.750000 Y142.175854 Z2 I9.777667 J8.941196
G03 X107.618258 Y141.643769 Z2 I3.383386 J4.546564
G02 X108.493860 Y141.014355 Z2 I-1.470698 J-2.969693
G01 X109.672910 Y139.410418 Z2
G00 Z0.000000

(End cutting path id: path12)


(Start cutting path id: path12)
(Change tool to Default tool)

G00 Z0.000000
G00 X91.499996 Y145.764585

G01 Z2 F100.0(Penetrate)
G01 X91.499996 Y143.985418 Z2 F75.000000
G01 X91.499996 Y141.697918 Z2
G03 X91.563465 Y137.699398 Z2 I125.984437 J-0.000000
G02 X91.627080 Y133.691669 Z2 I-126.210978 J-4.007729
G03 X91.654030 Y130.925250 Z2 I141.997633 J-0.000000
G02 X91.624580 Y128.481349 Z2 I-38.752896 J-0.755133
G01 X91.423267 Y127.790336 Z2
G02 X90.768580 Y127.411083 Z2 I-0.945419 J0.877328
G03 X89.974948 Y127.098634 Z2 I0.653252 J-2.823439
G03 X88.917635 Y126.201651 Z2 I1.925013 J-3.340738
G03 X88.456911 Y125.050002 Z2 I1.592875 J-1.305221
G03 X88.419189 Y123.835264 Z2 I13.902439 J-1.039679
G03 X88.686072 Y122.889586 Z2 I1.893146 J0.023774
G03 X89.130311 Y122.330549 Z2 I2.297067 J1.369338
G03 X89.720782 Y121.847914 Z2 I3.298604 J3.433101
G03 X90.638682 Y121.417036 Z2 I1.743360 J2.520743
G03 X91.499948 Y121.268096 Z2 I1.162110 J4.155391
G03 X92.190934 Y121.340467 Z2 I0.139787 J2.000232
G03 X92.897865 Y121.608456 Z2 I-1.240478 J4.338675
G03 X93.814989 Y122.192008 Z2 I-1.951936 J4.080172
G03 X94.419824 Y122.911159 Z2 I-1.625446 J1.980986
G03 X94.592044 Y123.438068 Z2 I-1.220482 J0.690515
G03 X94.655458 Y124.033336 Z2 I-27.505265 J3.231132
G03 X94.714948 Y125.131572 Z2 I-13.289520 J1.270606
G03 X94.473267 Y125.918013 Z2 I-1.343928 J0.017354
G03 X93.314649 Y126.989129 Z2 I-3.026950 J-2.112038
G03 X91.754115 Y127.591669 Z2 I-2.620340 J-4.464380
G00 Z0.000000

(End cutting path id: path12)


(Footer)
M5
M2
(Using default footer. To add your own footer create file "footer" in the output dir.)
(end)
%