%
(Header)
(Generated by gcodetools from Inkscape.)
(Using default header. To add your own header create file "header" in the output dir.)
M3
(Header end.)
G21 (All units in mm)

(Start cutting path id: path5)
(Change tool to Default tool)

G00 Z0.000000
G00 X26.560416 Y156.566668

G01 Z2 F100.0(Penetrate)
G01 X29.102082 Y154.152085 Z2 F75.000000
G03 X28.915917 Y153.691443 Z2 I0.909732 J-0.635601
G03 X28.996473 Y152.372918 Z2 I2.997676 J-0.478579
G03 X30.823706 Y148.438834 Z2 I13.547004 J3.900690
G02 X31.770832 Y146.400002 Z2 I-6.076541 J-4.062224
G00 Z0.000000

(End cutting path id: path5)


(Start cutting path id: path5)
(Change tool to Default tool)

G00 Z0.000000
G00 X36.345832 Y146.400002

G01 Z2 F100.0(Penetrate)
G01 X35.456249 Y147.800272 Z2 F75.000000
G02 X33.612974 Y149.626280 Z2 I70.584006 J73.094788
G03 X31.770832 Y151.483335 Z2 I-231.278621 J-227.579233
G03 X30.990590 Y152.247800 Z2 I-37.812730 J-37.812730
G02 X30.347420 Y153.008335 Z2 I3.327139 J3.465921
G03 X29.845833 Y153.729575 Z2 I-38.099065 J-25.961010
G03 X29.610415 Y154.025001 Z2 I-2.769851 J-1.965713
G02 X30.260151 Y154.261433 Z2 I0.767751 J-1.098864
G02 X31.262499 Y154.107861 Z2 I0.187647 J-2.123144
G02 X34.670789 Y152.354772 Z2 I-8.850804 J-21.397085
G03 X36.472915 Y151.737501 Z2 I2.231637 J3.575979
G00 Z0.000000

(End cutting path id: path5)


(Start cutting path id: path6)
(Change tool to Default tool)

G00 Z0.000000
G00 X36.599998 Y151.356251

G01 Z2 F100.0(Penetrate)
G01 X37.363087 Y151.068745 Z2 F75.000000
G01 X39.395832 Y150.054039 Z2
G01 X43.589582 Y147.956381 Z2
G01 X45.495831 Y146.991291 Z2
G01 X46.512498 Y146.439913 Z2
G01 X48.164581 Y146.400003 Z2
G00 Z0.000000

(End cutting path id: path6)


(Start cutting path id: path6)
(Change tool to Default tool)

G00 Z0.000000
G00 X65.320831 Y146.400003

G01 Z2 F100.0(Penetrate)
G02 X66.380948 Y146.367383 Z2 I-0.000000 J-17.242816 F75.000000
G03 X67.227081 Y146.439913 Z2 I0.178198 J2.892910
G03 X67.725383 Y146.660711 Z2 I-0.342190 J1.444955
G02 X68.243747 Y146.968347 Z2 I2.584261 J-3.763913
G02 X70.272301 Y147.832530 Z2 I7.471410 J-14.725161
G02 X72.309824 Y148.530904 Z2 I62.269525 J-178.351431
G02 X72.849342 Y148.659973 Z2 I0.987460 J-2.935503
G02 X73.072914 Y148.687501 Z2 I0.719902 J-4.925169
G00 Z0.000000

(End cutting path id: path6)


(Start cutting path id: path7)
(Change tool to Default tool)

G00 Z0.000000
G00 X73.200007 Y148.941668

G01 Z2 F100.0(Penetrate)
G01 X73.327090 Y148.941668 Z2 F75.000000
G00 Z0.000000

(End cutting path id: path7)


(Start cutting path id: path7)
(Change tool to Default tool)

G00 Z0.000000
G00 X73.327090 Y148.941668

G01 Z2 F100.0(Penetrate)
G03 X74.397784 Y149.190346 Z2 I-0.985264 J6.671381 F75.000000
G02 X76.504173 Y149.812031 Z2 I14.680340 J-45.860602
G02 X80.753020 Y150.744432 Z2 I11.796023 J-43.606191
G02 X83.493757 Y150.975001 Z2 I2.740737 J-16.174074
G00 Z0.000000

(End cutting path id: path7)


(Start cutting path id: path7)
(Change tool to Default tool)

G00 Z0.000000
G00 X80.189580 Y146.400002

G01 Z2 F100.0(Penetrate)
G02 X81.029898 Y147.460327 Z2 I3.153068 J-1.635696 F75.000000
G03 X82.950112 Y149.450001 Z2 I-9.576897 J11.163990
G03 X83.363396 Y150.241189 Z2 I-1.826980 J1.457873
G02 X83.783214 Y150.886259 Z2 I1.299892 J-0.386838
G02 X84.472965 Y151.368174 Z2 I2.838984 J-3.328784
G03 X85.145339 Y151.861544 Z2 I-1.718176 J3.046413
G02 X86.268169 Y152.906829 Z2 I180.970573 J-193.270272
G03 X87.433330 Y154.025098 Z2 I-30.279901 J32.715761
G03 X89.163250 Y155.900733 Z2 I-21.029382 J21.131224
G02 X90.609922 Y156.980571 Z2 I3.056733 J-2.586160
G01 X91.648652 Y156.750527 Z2
G03 X92.121985 Y156.477703 Z2 I2.020201 J2.957915
G02 X92.643746 Y156.150118 Z2 I-1.168389 J-2.440259
G02 X93.338296 Y155.510779 Z2 I-4.259488 J-5.324253
G03 X94.041663 Y154.787501 Z2 I26.259503 J24.832979
G02 X95.535392 Y153.224454 Z2 I-33.716375 J-33.716375
G03 X97.091663 Y151.787512 Z2 I9.191283 J8.393339
G03 X97.793168 Y151.398049 Z2 I1.608959 J2.071563
G02 X98.424764 Y151.004909 Z2 I-0.636755 J-1.726887
G02 X98.813900 Y150.384668 Z2 I-1.018927 J-1.071462
G03 X99.269043 Y149.577085 Z2 I2.188315 J0.701256
G03 X101.331248 Y147.518477 Z2 I15.719972 J13.685231
G02 X102.175000 Y146.400002 Z2 I-2.202751 J-2.539196
G00 Z0.000000

(End cutting path id: path7)


(Start cutting path id: path7)
(Change tool to Default tool)

G00 Z0.000000
G00 X98.743756 Y151.229168

G01 Z2 F100.0(Penetrate)
G02 X102.110285 Y150.884928 Z2 I-0.001839 J-16.651775 F75.000000
G02 X106.241670 Y149.942252 Z2 I-20.761172 J-100.512637
G02 X108.617764 Y149.276374 Z2 I-10.592328 J-42.369562
G03 X109.672920 Y149.068751 Z2 I1.492264 J4.798804
G00 Z0.000000

(End cutting path id: path7)


(Start cutting path id: path8)
(Change tool to Default tool)

G00 Z0.000000
G00 X109.800000 Y148.941667

G01 Z2 F100.0(Penetrate)
G01 X110.563090 Y148.687500 Z2 F75.000000
G01 X113.866670 Y147.467461 Z2
G01 X115.010420 Y146.983448 Z2
G01 X116.027090 Y146.439912 Z2
G01 X117.933340 Y146.400002 Z2
G00 Z0.000000

(End cutting path id: path8)


(Start cutting path id: path8)
(Change tool to Default tool)

G00 Z0.000000
G00 X134.327090 Y146.400002

G01 Z2 F100.0(Penetrate)
G01 X136.094880 Y146.439912 Z2 F75.000000
G01 X137.000840 Y146.991290 Z2
G01 X138.902090 Y147.956380 Z2
G01 X143.477080 Y150.243879 Z2
G01 X145.509830 Y151.260154 Z2
G01 X146.272920 Y151.610417 Z2
G00 Z0.000000

(End cutting path id: path8)


(Start cutting path id: path9)
(Change tool to Default tool)

G00 Z0.000000
G00 X146.399990 Y151.864584

G01 Z2 F100.0(Penetrate)
G01 X146.527080 Y151.864584 Z2 F75.000000
G00 Z0.000000

(End cutting path id: path9)


(Start cutting path id: path9)
(Change tool to Default tool)

G00 Z0.000000
G00 X146.527080 Y151.864585

G01 Z2 F100.0(Penetrate)
G03 X149.044909 Y152.975228 Z2 I-2.831049 J9.827273 F75.000000
G02 X153.262490 Y155.124527 Z2 I15.668603 J-25.533845
G02 X154.599632 Y155.222692 Z2 I0.817214 J-1.975643
G02 X155.168740 Y155.041667 Z2 I-1.166030 J-4.650880
G00 Z0.000000

(End cutting path id: path9)


(Start cutting path id: path9)
(Change tool to Default tool)

G00 Z0.000000
G00 X155.041660 Y155.041667

G01 Z2 F100.0(Penetrate)
G03 X154.793531 Y154.779549 Z2 I7.598604 J-7.441575 F75.000000
G03 X154.115800 Y154.025000 Z2 I40.651254 J-37.194333
G02 X153.376970 Y153.243772 Z2 I-11.561604 J10.194161
G03 X152.499990 Y152.372917 Z2 I124.085666 J-125.835435
G02 X150.593166 Y150.529650 Z2 I-55.326101 J55.325836
G03 X148.687490 Y148.687500 Z2 I53.394565 J-57.142656
G01 X146.527080 Y146.527084 Z2
G00 Z0.000000

(End cutting path id: path9)


(Start cutting path id: path8)
(Change tool to Default tool)

G00 Z0.000000
G00 X146.272920 Y146.654168

G01 Z2 F100.0(Penetrate)
G01 X146.018750 Y146.400002 Z2 F75.000000
G00 Z0.000000

(End cutting path id: path8)


(Start cutting path id: path9)
(Change tool to Default tool)

G00 Z0.000000
G00 X156.820830 Y156.693751

G01 Z2 F100.0(Penetrate)
G01 X155.168740 Y155.041668 Z2 F75.000000
G02 X155.402911 Y154.546483 Z2 I-1.033165 J-0.791541
G02 X155.346920 Y153.262501 Z2 I-2.318304 J-0.542117
G02 X153.219010 Y148.787584 Z2 I-18.588349 J6.095732
G03 X151.991660 Y146.400002 Z2 I11.779123 J-7.564378
G00 Z0.000000

(End cutting path id: path9)


(Start cutting path id: path7)
(Change tool to Default tool)

G00 Z0.000000
G00 X91.372913 Y156.566668

G01 Z2 F100.0(Penetrate)
G02 X91.338193 Y154.706129 Z2 I-49.867061 J0.000000 F75.000000
G03 X91.384293 Y151.737501 Z2 I28.084121 J-1.048548
G03 X91.469773 Y150.750494 Z2 I27.432171 J1.878556
G02 X91.488626 Y149.704168 Z2 I-6.031407 J-0.632010
G03 X91.444935 Y147.408758 Z2 I23.220161 J-1.590097
G03 X91.500006 Y146.400002 Z2 I20.839453 J0.631811
G00 Z0.000000

(End cutting path id: path7)


(Start cutting path id: path5)
(Change tool to Default tool)

G00 Z0.000000
G00 X29.102082 Y154.152085

G01 Z2 F100.0(Penetrate)
G01 X29.483332 Y154.025001 Z2 F75.000000
G00 Z0.000000

(End cutting path id: path5)


(Footer)
M5
M2
(Using default footer. To add your own footer create file "footer" in the output dir.)
(end)
%