%
(Header)
(Generated by gcodetools from Inkscape.)
(Using default header. To add your own header create file "header" in the output dir.)
M3
(Header end.)
G21 (All units in mm)

(Start cutting path id: path10)
(Change tool to Default tool)

G00 Z0.000000
G00 X32.152082 Y145.764585

G01 Z2 F100.0(Penetrate)
G01 X34.639817 Y140.808335 Z2 F75.000000
G01 X35.811906 Y138.395615 Z2
G01 X36.433008 Y137.365710 Z2
G01 X36.472918 Y135.725002 Z2
G00 Z0.000000

(End cutting path id: path10)


(Start cutting path id: path11)
(Change tool to Default tool)

G00 Z0.000000
G00 X36.599998 Y136.233335

G01 Z2 F100.0(Penetrate)
G02 X37.373221 Y135.225540 Z2 I-2.389962 J-2.634202 F75.000000
G02 X38.537627 Y132.929169 Z2 I-203.180076 J-104.468612
G03 X40.797541 Y128.834951 Z2 I51.384427 J25.692202
G02 X41.937498 Y125.304169 Z2 I-6.876658 J-4.169630
G00 Z0.000000

(End cutting path id: path11)


(Start cutting path id: path11)
(Change tool to Default tool)

G00 Z0.000000
G00 X46.004165 Y117.297919

G01 Z2 F100.0(Penetrate)
G02 X46.899307 Y115.925368 Z2 I-3.986039 J-3.577762 F75.000000
G03 X47.910415 Y114.375003 Z2 I5.513552 J2.490903
G00 Z0.000000

(End cutting path id: path11)


(Start cutting path id: path11)
(Change tool to Default tool)

G00 Z0.000000
G00 X47.910415 Y113.739586

G01 Z2 F100.0(Penetrate)
G01 X48.517493 Y112.722920 Z2 F75.000000
G01 X49.644867 Y110.438557 Z2
G01 X49.816665 Y109.800003 Z2
G00 Z0.000000

(End cutting path id: path11)


(Start cutting path id: path10)
(Change tool to Default tool)

G00 Z0.000000
G00 X36.472918 Y117.297919

G01 Z2 F100.0(Penetrate)
G03 X36.508900 Y116.239289 Z2 I15.591217 J0.000000 F75.000000
G02 X36.433008 Y115.403044 Z2 I-2.654551 J-0.180659
G02 X36.211196 Y114.960738 Z2 I-1.119335 J0.284565
G03 X35.904573 Y114.497085 Z2 I2.243196 J-1.816683
G03 X35.074670 Y112.539812 Z2 I10.828366 J-5.745912
G03 X34.442917 Y110.563093 Z2 I202.570037 J-65.830075
G02 X34.269374 Y110.032415 Z2 I-22.970100 J7.217990
G02 X34.185415 Y109.800003 Z2 I-6.154314 J2.091883
G00 Z0.000000

(End cutting path id: path10)


(Start cutting path id: path11)
(Change tool to Default tool)

G00 Z0.000000
G00 X36.599998 Y146.018752

G01 Z2 F100.0(Penetrate)
G02 X36.965755 Y145.937480 Z2 I-0.481129 J-3.028941 F75.000000
G02 X37.616665 Y145.602105 Z2 I-0.519137 J-1.806908
G02 X38.630972 Y144.662185 Z2 I-5.698369 J-7.166603
G03 X39.649998 Y143.604168 Z2 I28.688046 J26.611050
G01 X43.970832 Y139.283335 Z2
G01 X52.358331 Y130.768752 Z2
G03 X53.393186 Y129.787296 Z2 I19.047035 J19.047035
G02 X54.380289 Y128.851127 Z2 I-17.180781 J-19.104024
G02 X55.011192 Y128.169779 Z2 I-8.546526 J-8.546545
G03 X55.662595 Y127.464586 Z2 I9.795918 J8.395251
G03 X56.571851 Y126.554206 Z2 I253.501032 J252.278621
G02 X57.441664 Y125.685419 Z2 I-735.294589 J-737.032955
G01 X58.458331 Y124.668752 Z2
G01 X59.474998 Y123.652086 Z2
G01 X64.812497 Y118.187503 Z2
G01 X70.531247 Y112.468753 Z2
G02 X72.203377 Y110.790870 Z2 I-487.679465 J-487.679465
G03 X73.072914 Y110.308336 Z2 I1.266868 J1.258195
G00 Z0.000000

(End cutting path id: path11)


(Start cutting path id: path11)
(Change tool to Default tool)

G00 Z0.000000
G00 X72.818747 Y110.181253

G01 Z2 F100.0(Penetrate)
G01 X72.818747 Y109.800003 Z2 F75.000000
G00 Z0.000000

(End cutting path id: path11)


(Start cutting path id: path11)
(Change tool to Default tool)

G00 Z0.000000
G00 X69.260414 Y135.343752

G01 Z2 F100.0(Penetrate)
G03 X69.597625 Y135.032533 Z2 I11.742753 J12.385196 F75.000000
G03 X70.150191 Y134.625771 Z2 I2.359436 J2.626475
G03 X72.020023 Y133.641079 Z2 I10.299239 J17.289571
G03 X73.072914 Y133.310419 Z2 I1.812120 J3.928528
G00 Z0.000000

(End cutting path id: path11)


(Start cutting path id: path11)
(Change tool to Default tool)

G00 Z0.000000
G00 X65.702081 Y137.250002

G01 Z2 F100.0(Penetrate)
G03 X67.155629 Y136.116117 Z2 I3.345386 J2.789905 F75.000000
G02 X68.497914 Y135.216669 Z2 I-2.494845 J-5.174463
G00 Z0.000000

(End cutting path id: path11)


(Start cutting path id: path11)
(Change tool to Default tool)

G00 Z0.000000
G00 X67.862497 Y146.272918

G01 Z2 F100.0(Penetrate)
G01 X67.735414 Y146.145835 Z2 F75.000000
G00 Z0.000000

(End cutting path id: path11)


(Start cutting path id: path11)
(Change tool to Default tool)

G00 Z0.000000
G00 X58.204164 Y140.935418

G01 Z2 F100.0(Penetrate)
G03 X60.385444 Y139.183018 Z2 I3.350088 J1.936222 F75.000000
G02 X63.668747 Y137.854039 Z2 I-6.887526 J-21.736217
G03 X64.574354 Y137.417307 Z2 I17.236701 J34.584656
G03 X65.447914 Y137.301876 Z2 I0.620129 J1.329843
G03 X66.177195 Y137.665769 Z2 I-0.246762 J1.407266
G02 X66.972914 Y138.233329 Z2 I2.527140 J-2.701467
G02 X70.862184 Y140.051912 Z2 I20.226946 J-38.189748
G02 X72.945830 Y140.808335 Z2 I10.622597 J-26.013023
G02 X72.920345 Y139.655925 Z2 I-1.814571 J-0.536358
G02 X72.435046 Y138.890710 Z2 I-1.850874 J0.637328
G03 X71.170557 Y137.655198 Z2 I350.569501 J-360.056266
G03 X69.885631 Y136.221960 Z2 I10.480124 J-10.688240
G02 X69.455835 Y135.679781 Z2 I-72.780670 J57.253310
G02 X68.879556 Y135.238242 Z2 I-1.178737 J0.941602
G03 X68.317508 Y134.800455 Z2 I0.572821 J-1.315092
G02 X67.834060 Y134.200002 Z2 I-15.418649 J11.919313
G02 X65.938725 Y132.204451 Z2 I-17.020065 J14.267470
G03 X63.922914 Y130.260419 Z2 I52.615334 J-56.575177
G01 X59.474998 Y125.812502 Z2
G02 X58.954348 Y125.292926 Z2 I-252.320425 J252.321049
G03 X58.458821 Y124.795836 Z2 I68.096979 J-68.378469
G03 X57.878886 Y124.186130 Z2 I15.098535 J-14.941966
G03 X57.255649 Y123.503430 Z2 I506.138234 J-462.679348
G02 X54.337602 Y120.498245 Z2 I-49.199287 J44.853406
G03 X51.341665 Y117.552086 Z2 I174.347771 J-180.289867
G03 X50.131691 Y116.331757 Z2 I142.581563 J-142.581748
G02 X48.927081 Y115.142504 Z2 I-40.408536 J39.725620
G03 X48.366118 Y114.593997 Z2 I26.810164 J-27.980128
G03 X47.874133 Y113.997381 Z2 I2.822079 J-2.828316
G02 X47.324936 Y113.420729 Z2 I-1.970856 J1.327171
G03 X46.639581 Y112.844511 Z2 I4.645590 J-6.221167
G03 X45.414293 Y111.586330 Z2 I14.412450 J-15.261377
G02 X44.371791 Y110.437871 Z2 I-85.393875 J76.468043
G02 X43.930019 Y110.045916 Z2 I-2.150012 J1.978341
G02 X43.208332 Y109.803044 Z2 I-0.753627 J1.045707
G01 X42.438673 Y110.563093 Z2
G02 X42.720629 Y111.424373 Z2 I4.571285 J-1.019701
G03 X43.106744 Y112.341670 Z2 I-30.679650 J13.453816
G02 X43.951243 Y114.272655 Z2 I34.037066 J-13.735640
G02 X44.893754 Y116.154169 Z2 I40.663646 J-19.192915
G02 X45.479486 Y116.906686 Z2 I2.438281 J-1.293655
G03 X45.842957 Y117.563461 Z2 I-0.778377 J0.859731
G03 X45.727954 Y118.438788 Z2 I-1.440237 J0.255996
G03 X45.280790 Y119.331253 Z2 I-16.562288 J-7.740172
G02 X44.571299 Y120.717910 Z2 I36.403076 J19.500684
G03 X43.875127 Y122.127086 Z2 I-147.462763 J-71.974120
G02 X43.335427 Y123.222707 Z2 I91.959297 J45.979649
G03 X42.793742 Y124.287405 Z2 I-28.479668 J-13.819417
G01 X42.060953 Y125.089030 Z2
G01 X41.307573 Y124.656299 Z2
G03 X40.939472 Y124.114704 Z2 I3.665509 J-2.887193
G02 X40.578707 Y123.525002 Z2 I-13.390095 J7.786521
G03 X39.182420 Y121.261523 Z2 I60.093631 J-38.632758
G03 X37.903681 Y118.950003 Z2 I39.447831 J-23.332104
G03 X37.227428 Y117.590550 Z2 I45.359344 J-23.411694
G02 X36.727082 Y116.916669 Z2 I-1.983953 J0.950365
G00 Z0.000000

(End cutting path id: path11)


(Start cutting path id: path11)
(Change tool to Default tool)

G00 Z0.000000
G00 X45.877081 Y146.272918

G01 Z2 F100.0(Penetrate)
G03 X46.962725 Y146.008985 Z2 I2.038188 J6.018964 F75.000000
G02 X48.291665 Y145.604164 Z2 I-0.719478 J-4.745617
G02 X51.376338 Y144.053613 Z2 I-29.637006 J-62.803613
G03 X54.518748 Y142.429039 Z2 I61.765704 J115.621774
G02 X56.065630 Y141.605712 Z2 I-15.388225 J-30.776507
G03 X57.566787 Y141.198313 Z2 I1.549758 J2.741061
G01 X58.611988 Y141.837750 Z2
G02 X59.334422 Y142.348571 Z2 I4.589627 J-5.724663
G03 X60.110414 Y142.834905 Z2 I-51.291937 J82.703402
G02 X62.727714 Y144.379209 Z2 I25.828927 J-40.785018
G02 X65.320831 Y145.663389 Z2 I16.663172 J-30.387391
G02 X66.634916 Y146.042669 Z2 I2.031867 J-4.573694
G02 X67.735414 Y146.145835 Z2 I1.571931 J-10.846928
G00 Z0.000000

(End cutting path id: path11)


(Footer)
M5
M2
(Using default footer. To add your own footer create file "footer" in the output dir.)
(end)
%