%
(Header)
(Generated by gcodetools from Inkscape.)
(Using default header. To add your own header create file "header" in the output dir.)
M3
(Header end.)
G21 (All units in mm)

(Start cutting path id: path9)
(Change tool to Default tool)

G00 Z0.000000
G00 X68.116667 Y121.364583

G01 Z2 F100.0(Penetrate)
G03 X71.217734 Y115.249071 Z2 I50.462465 J21.744609 F75.000000
G03 X74.852083 Y109.418750 Z2 I115.298983 J67.824089
G00 Z0.000000

(End cutting path id: path9)


(Start cutting path id: path9)
(Change tool to Default tool)

G00 Z0.000000
G00 X79.300000 Y106.495833

G01 Z2 F100.0(Penetrate)
G01 X86.925000 Y98.616667 Z2 F75.000000
G00 Z0.000000

(End cutting path id: path9)


(Start cutting path id: path9)
(Change tool to Default tool)

G00 Z0.000000
G00 X85.527083 Y106.877083

G01 Z2 F100.0(Penetrate)
G01 X90.483333 Y101.539583 Z2 F75.000000
G00 Z0.000000

(End cutting path id: path9)


(Start cutting path id: path9)
(Change tool to Default tool)

G00 Z0.000000
G00 X88.577083 Y106.877083

G01 Z2 F100.0(Penetrate)
G01 X90.864583 Y104.462500 Z2 F75.000000
G00 Z0.000000

(End cutting path id: path9)


(Start cutting path id: path9)
(Change tool to Default tool)

G00 Z0.000000
G00 X82.477083 Y106.750000

G01 Z2 F100.0(Penetrate)
G01 X89.212500 Y99.633333 Z2 F75.000000
G00 Z0.000000

(End cutting path id: path9)


(Start cutting path id: path9)
(Change tool to Default tool)

G00 Z0.000000
G00 X82.477083 Y90.356250

G01 Z2 F100.0(Penetrate)
G01 X75.868750 Y84.637500 Z2 F75.000000
G00 Z0.000000

(End cutting path id: path9)


(Start cutting path id: path9)
(Change tool to Default tool)

G00 Z0.000000
G00 X79.045833 Y90.356250

G01 Z2 F100.0(Penetrate)
G01 X76.377083 Y88.195833 Z2 F75.000000
G00 Z0.000000

(End cutting path id: path9)


(Start cutting path id: path9)
(Change tool to Default tool)

G00 Z0.000000
G00 X83.493750 Y88.577083

G01 Z2 F100.0(Penetrate)
G01 X76.122917 Y81.460420 Z2 F75.000000
G00 Z0.000000

(End cutting path id: path9)


(Start cutting path id: path9)
(Change tool to Default tool)

G00 Z0.000000
G00 X73.962500 Y73.200000

G01 Z2 F100.0(Penetrate)
G03 X71.527563 Y68.873400 Z2 I22.554895 J-15.541980 F75.000000
G03 X69.514583 Y64.304170 Z2 I330.815120 J-148.469074
G02 X68.527798 Y62.195445 Z2 I-36.102405 J15.609003
G03 X67.989583 Y61.000000 Z2 I13.231028 J-6.675768
G00 Z0.000000

(End cutting path id: path9)


(Start cutting path id: path9)
(Change tool to Default tool)

G00 Z0.000000
G00 X74.725000 Y66.337500

G01 Z2 F100.0(Penetrate)
G02 X73.738252 Y62.888363 Z2 I-807.848493 J229.248108 F75.000000
G03 X73.200000 Y61.000000 Z2 I303.683099 J-87.581568
G00 Z0.000000

(End cutting path id: path9)


(Start cutting path id: path9)
(Change tool to Default tool)

G00 Z0.000000
G00 X61.127083 Y68.116670

G01 Z2 F100.0(Penetrate)
G03 X62.511860 Y68.758406 Z2 I-3.075685 J8.451846 F75.000000
G02 X64.558333 Y69.913580 Z2 I115.999134 J-203.110395
G02 X69.054852 Y72.410582 Z2 I642.951318 J-1152.508562
G02 X73.581250 Y74.852080 Z2 I120.693587 J-218.342417
G00 Z0.000000

(End cutting path id: path9)


(Start cutting path id: path9)
(Change tool to Default tool)

G00 Z0.000000
G00 X61.127083 Y73.072920

G01 Z2 F100.0(Penetrate)
G03 X63.378195 Y73.466413 Z2 I-0.410849 J8.986283 F75.000000
G03 X66.972917 Y74.597920 Z2 I-122.915605 J396.770488
G00 Z0.000000

(End cutting path id: path9)


(Start cutting path id: path9)
(Change tool to Default tool)

G00 Z0.000000
G00 X61.000000 Y68.116670

G01 Z2 F100.0(Penetrate)
G01 X61.127083 Y68.116670 Z2 F75.000000
G00 Z0.000000

(End cutting path id: path9)


(Start cutting path id: path9)
(Change tool to Default tool)

G00 Z0.000000
G00 X84.129167 Y86.670833

G01 Z2 F100.0(Penetrate)
G01 X76.377083 Y78.791670 Z2 F75.000000
G00 Z0.000000

(End cutting path id: path9)


(Start cutting path id: path9)
(Change tool to Default tool)

G00 Z0.000000
G00 X92.516667 Y78.664580

G01 Z2 F100.0(Penetrate)
G01 X94.931250 Y76.122920 Z2 F75.000000
G00 Z0.000000

(End cutting path id: path9)


(Start cutting path id: path9)
(Change tool to Default tool)

G00 Z0.000000
G00 X92.897917 Y81.587500

G01 Z2 F100.0(Penetrate)
G01 X98.489583 Y75.741670 Z2 F75.000000
G00 Z0.000000

(End cutting path id: path9)


(Start cutting path id: path9)
(Change tool to Default tool)

G00 Z0.000000
G00 X94.168750 Y83.366667

G01 Z2 F100.0(Penetrate)
G01 X101.285420 Y75.995830 Z2 F75.000000
G00 Z0.000000

(End cutting path id: path9)


(Start cutting path id: path9)
(Change tool to Default tool)

G00 Z0.000000
G00 X96.075000 Y84.256250

G01 Z2 F100.0(Penetrate)
G01 X104.335420 Y76.122920 Z2 F75.000000
G00 Z0.000000

(End cutting path id: path9)


(Start cutting path id: path9)
(Change tool to Default tool)

G00 Z0.000000
G00 X107.639580 Y66.718750

G01 Z2 F100.0(Penetrate)
G03 X108.907949 Y63.042850 Z2 I104.004065 J33.829814 F75.000000
G02 X109.291670 Y61.000000 Z2 I-5.966487 J-2.178185
G00 Z0.000000

(End cutting path id: path9)


(Start cutting path id: path9)
(Change tool to Default tool)

G00 Z0.000000
G00 X115.137500 Y61.000000

G01 Z2 F100.0(Penetrate)
G03 X114.684722 Y62.073887 Z2 I-4.755103 J-1.372478 F75.000000
G03 X113.631620 Y63.922920 Z2 I-1319.996269 J-750.568882
G02 X111.655098 Y67.419222 Z2 I447.347561 J255.200422
G03 X109.672920 Y70.912500 Z2 I-318.819312 J-178.597449
G03 X108.481895 Y72.468188 Z2 I-6.463685 J-3.714791
G02 X108.570060 Y74.248930 Z2 I0.850783 J0.850431
G02 X110.361284 Y74.229759 Z2 I0.884171 J-1.078605
G03 X111.960420 Y73.168620 Z2 I5.119453 J5.979495
G03 X115.440660 Y71.434660 Z2 I612.820352 J1225.635408
G03 X118.950000 Y69.758550 Z2 I56.766969 J114.343431
G02 X120.816768 Y68.853270 Z2 I-20.427596 J-44.500892
G03 X121.872920 Y68.497920 Z2 I1.718510 J3.360468
G00 Z0.000000

(End cutting path id: path9)


(Start cutting path id: path9)
(Change tool to Default tool)

G00 Z0.000000
G00 X116.789580 Y75.233330

G01 Z2 F100.0(Penetrate)
G03 X120.048471 Y74.035643 Z2 I6.170248 J11.756620 F75.000000
G03 X121.872920 Y73.708330 Z2 I4.667559 J20.768662
G00 Z0.000000

(End cutting path id: path9)


(Start cutting path id: path9)
(Change tool to Default tool)

G00 Z0.000000
G00 X106.622920 Y95.439583

G01 Z2 F100.0(Penetrate)
G01 X103.064580 Y92.262500 Z2 F75.000000
G00 Z0.000000

(End cutting path id: path9)


(Start cutting path id: path9)
(Change tool to Default tool)

G00 Z0.000000
G00 X106.750000 Y98.743750

G01 Z2 F100.0(Penetrate)
G01 X100.395830 Y93.025000 Z2 F75.000000
G00 Z0.000000

(End cutting path id: path9)


(Start cutting path id: path9)
(Change tool to Default tool)

G00 Z0.000000
G00 X107.131250 Y102.047917

G01 Z2 F100.0(Penetrate)
G01 X99.506250 Y95.185417 Z2 F75.000000
G00 Z0.000000

(End cutting path id: path9)


(Start cutting path id: path9)
(Change tool to Default tool)

G00 Z0.000000
G00 X106.877080 Y105.097917

G01 Z2 F100.0(Penetrate)
G02 X102.641684 Y100.910141 Z2 I-372.404670 J372.403716 F75.000000
G02 X98.235417 Y96.837500 Z2 I-74.859784 J76.572271
G00 Z0.000000

(End cutting path id: path9)


(Start cutting path id: path9)
(Change tool to Default tool)

G00 Z0.000000
G00 X108.656250 Y108.147917

G01 Z2 F100.0(Penetrate)
G03 X113.514587 Y110.678714 Z2 I-26.687329 J57.159938 F75.000000
G02 X118.314580 Y113.330483 Z2 I72.358149 J-125.306072
G03 X120.568836 Y114.580506 Z2 I-29.308885 J55.512473
G02 X121.872920 Y115.137500 Z2 I2.901573 J-4.988302
G00 Z0.000000

(End cutting path id: path9)


(Start cutting path id: path9)
(Change tool to Default tool)

G00 Z0.000000
G00 X116.535420 Y107.893750

G01 Z2 F100.0(Penetrate)
G02 X119.932846 Y109.151904 Z2 I7.928022 J-16.192085 F75.000000
G02 X121.872920 Y109.545833 Z2 I4.634643 J-17.850988
G00 Z0.000000

(End cutting path id: path9)


(Start cutting path id: path9)
(Change tool to Default tool)

G00 Z0.000000
G00 X113.866670 Y121.364583

G01 Z2 F100.0(Penetrate)
G03 X111.031181 Y115.433156 Z2 I34.495978 J-20.134089 F75.000000
G02 X108.020830 Y109.672917 Z2 I-25.792802 J9.812806
G00 Z0.000000

(End cutting path id: path9)


(Start cutting path id: path9)
(Change tool to Default tool)

G00 Z0.000000
G00 X109.291670 Y121.364583

G01 Z2 F100.0(Penetrate)
G01 X108.020830 Y116.662500 Z2 F75.000000
G00 Z0.000000

(End cutting path id: path9)


(Start cutting path id: path9)
(Change tool to Default tool)

G00 Z0.000000
G00 X73.454167 Y121.364583

G01 Z2 F100.0(Penetrate)
G01 X75.360417 Y116.154167 Z2 F75.000000
G00 Z0.000000

(End cutting path id: path9)


(Start cutting path id: path9)
(Change tool to Default tool)

G00 Z0.000000
G00 X61.000000 Y114.756250

G01 Z2 F100.0(Penetrate)
G02 X62.208416 Y114.256062 Z2 I-1.620167 J-5.624015 F75.000000
G03 X64.304167 Y113.137016 Z2 I41.104997 J74.459511
G02 X68.820555 Y110.778292 Z2 I-242.468887 J-469.772752
G03 X73.327083 Y108.402083 Z2 I1350.942479 J2556.628020
G00 Z0.000000

(End cutting path id: path9)


(Start cutting path id: path9)
(Change tool to Default tool)

G00 Z0.000000
G00 X61.000000 Y109.545833

G01 Z2 F100.0(Penetrate)
G03 X62.896035 Y108.999192 Z2 I9.011457 J27.694859 F75.000000
G02 X66.210417 Y107.766667 Z2 I-3.963119 J-15.729839
G00 Z0.000000

(End cutting path id: path9)


(Footer)
M5
M2
(Using default footer. To add your own footer create file "footer" in the output dir.)
(end)
%