%
(Header)
(Generated by gcodetools from Inkscape.)
(Using default header. To add your own header create file "header" in the output dir.)
M3
(Header end.)
G21 (All units in mm)

(Start cutting path id: path10)
(Change tool to Default tool)

G00 Z0.000000
G00 X131.150000 Y121.364583

G01 Z2 F100.0(Penetrate)
G03 X130.465934 Y120.463780 Z2 I6.709270 J-5.805132 F75.000000
G02 X129.740220 Y119.612479 Z2 I-3.886053 J2.577791
G02 X127.489898 Y118.166062 Z2 I-5.254952 J5.701882
G03 X125.050000 Y116.970598 Z2 I9.131375 J-21.724403
G02 X123.304411 Y116.002822 Z2 I-69.581397 J123.446576
G02 X122.127080 Y115.518750 Z2 I-2.798496 J5.132585
G00 Z0.000000

(End cutting path id: path10)


(Start cutting path id: path10)
(Change tool to Default tool)

G00 Z0.000000
G00 X122.000000 Y115.518750

G01 Z2 F100.0(Penetrate)
G01 X122.127080 Y115.518750 Z2 F75.000000
G00 Z0.000000

(End cutting path id: path10)


(Start cutting path id: path10)
(Change tool to Default tool)

G00 Z0.000000
G00 X122.000000 Y109.800000

G01 Z2 F100.0(Penetrate)
G01 X122.127080 Y109.800000 Z2 F75.000000
G00 Z0.000000

(End cutting path id: path10)


(Start cutting path id: path10)
(Change tool to Default tool)

G00 Z0.000000
G00 X134.200000 Y113.612500

G01 Z2 F100.0(Penetrate)
G02 X132.882781 Y113.113605 Z2 I-5.174004 J11.672414 F75.000000
G02 X131.531250 Y112.704972 Z2 I-16.087508 J50.769236
G03 X128.354108 Y111.713958 Z2 I20.927746 J-72.681687
G02 X125.177080 Y110.686349 Z2 I-46.147397 J137.247598
G03 X123.319576 Y110.062688 Z2 I12.849606 J-41.349123
G02 X122.127080 Y109.800000 Z2 I-1.602983 J4.438820
G00 Z0.000000

(End cutting path id: path10)


(Start cutting path id: path10)
(Change tool to Default tool)

G00 Z0.000000
G00 X130.768750 Y90.229167

G01 Z2 F100.0(Penetrate)
G01 X127.972920 Y87.433333 Z2 F75.000000
G00 Z0.000000

(End cutting path id: path10)


(Start cutting path id: path10)
(Change tool to Default tool)

G00 Z0.000000
G00 X134.454170 Y90.102083

G01 Z2 F100.0(Penetrate)
G02 X131.771912 Y87.507840 Z2 I-79.106476 J79.106575 F75.000000
G03 X129.243750 Y85.018750 Z2 I47.397278 J-50.669755
G00 Z0.000000

(End cutting path id: path10)


(Start cutting path id: path10)
(Change tool to Default tool)

G00 Z0.000000
G00 X132.547920 Y77.647920

G01 Z2 F100.0(Penetrate)
G01 X141.697920 Y86.428042 Z2 F75.000000
G01 X145.383330 Y89.975000 Z2
G00 Z0.000000

(End cutting path id: path10)


(Start cutting path id: path10)
(Change tool to Default tool)

G00 Z0.000000
G00 X141.570830 Y89.847917

G01 Z2 F100.0(Penetrate)
G02 X136.465260 Y85.000161 Z2 I-101.402273 J101.682621 F75.000000
G03 X131.404170 Y80.189580 Z2 I93.502551 J-103.439284
G00 Z0.000000

(End cutting path id: path10)


(Start cutting path id: path10)
(Change tool to Default tool)

G00 Z0.000000
G00 X122.000000 Y73.581250

G01 Z2 F100.0(Penetrate)
G02 X123.106697 Y73.279007 Z2 I-3.294096 J-14.238983 F75.000000
G03 X125.177080 Y72.654700 Z2 I25.064767 J79.376863
G02 X129.879182 Y71.252110 Z2 I-67.706659 J-235.565717
G03 X134.454170 Y69.895830 Z2 I60.268094 J194.901352
G00 Z0.000000

(End cutting path id: path10)


(Start cutting path id: path10)
(Change tool to Default tool)

G00 Z0.000000
G00 X122.000000 Y68.243750

G01 Z2 F100.0(Penetrate)
G02 X123.021094 Y67.795488 Z2 I-10.910327 J-26.239710 F75.000000
G02 X124.795830 Y66.941540 Z2 I-27.242000 J-58.887420
G03 X127.651773 Y65.650966 Z2 I17.870600 J35.741002
G02 X130.385640 Y64.200620 Z2 I-5.679209 J-14.006984
G02 X132.085001 Y62.277679 Z2 I-2.812866 J-4.198173
G02 X132.675000 Y61.000000 Z2 I-18.252709 J-9.203693
G00 Z0.000000

(End cutting path id: path10)


(Start cutting path id: path10)
(Change tool to Default tool)

G00 Z0.000000
G00 X138.520830 Y90.356250

G01 Z2 F100.0(Penetrate)
G01 X130.133330 Y82.604170 Z2 F75.000000
G00 Z0.000000

(End cutting path id: path10)


(Start cutting path id: path10)
(Change tool to Default tool)

G00 Z0.000000
G00 X149.577080 Y90.102083

G01 Z2 F100.0(Penetrate)
G01 X133.818750 Y75.233330 Z2 F75.000000
G00 Z0.000000

(End cutting path id: path10)


(Start cutting path id: path10)
(Change tool to Default tool)

G00 Z0.000000
G00 X153.135420 Y90.229167

G01 Z2 F100.0(Penetrate)
G01 X146.527080 Y84.013458 Z2 F75.000000
G01 X134.708330 Y72.818750 Z2
G00 Z0.000000

(End cutting path id: path10)


(Footer)
M5
M2
(Using default footer. To add your own footer create file "footer" in the output dir.)
(end)
%