%
(Header)
(Generated by gcodetools from Inkscape.)
(Using default header. To add your own header create file "header" in the output dir.)
M3
(Header end.)
G21 (All units in mm)

(Start cutting path id: path12)
(Change tool to Default tool)

G00 Z0.000000
G00 X67.608333 Y60.364580

G01 Z2 F100.0(Penetrate)
G03 X66.076975 Y57.407613 Z2 I28.501141 J-16.635229 F75.000000
G02 X64.654528 Y54.391670 Z2 I-113.835365 J51.846165
G03 X64.287621 Y53.402569 Z2 I4.804945 J-2.344997
G02 X63.850648 Y52.485910 Z2 I-2.621887 J0.687376
G02 X62.300269 Y51.071844 Z2 I-4.297783 J3.155133
G02 X61.127083 Y50.579170 Z2 I-2.288014 J3.805189
G00 Z0.000000

(End cutting path id: path12)


(Start cutting path id: path12)
(Change tool to Default tool)

G00 Z0.000000
G00 X72.564583 Y47.656250

G01 Z2 F100.0(Penetrate)
G01 X90.229167 Y30.118750 Z2 F75.000000
G00 Z0.000000

(End cutting path id: path12)


(Start cutting path id: path12)
(Change tool to Default tool)

G00 Z0.000000
G00 X77.393750 Y49.689580

G01 Z2 F100.0(Penetrate)
G01 X81.968750 Y45.114580 Z2 F75.000000
G01 X90.229167 Y36.981250 Z2
G00 Z0.000000

(End cutting path id: path12)


(Start cutting path id: path12)
(Change tool to Default tool)

G00 Z0.000000
G00 X82.222917 Y52.612500

G01 Z2 F100.0(Penetrate)
G01 X90.610417 Y43.843750 Z2 F75.000000
G00 Z0.000000

(End cutting path id: path12)


(Start cutting path id: path12)
(Change tool to Default tool)

G00 Z0.000000
G00 X86.925000 Y54.772920

G01 Z2 F100.0(Penetrate)
G01 X90.483333 Y50.960420 Z2 F75.000000
G00 Z0.000000

(End cutting path id: path12)


(Start cutting path id: path12)
(Change tool to Default tool)

G00 Z0.000000
G00 X84.383333 Y53.756250

G01 Z2 F100.0(Penetrate)
G01 X90.356250 Y47.275000 Z2 F75.000000
G00 Z0.000000

(End cutting path id: path12)


(Start cutting path id: path12)
(Change tool to Default tool)

G00 Z0.000000
G00 X79.808333 Y51.214580

G01 Z2 F100.0(Penetrate)
G01 X90.610417 Y40.158330 Z2 F75.000000
G00 Z0.000000

(End cutting path id: path12)


(Start cutting path id: path12)
(Change tool to Default tool)

G00 Z0.000000
G00 X74.852083 Y48.545830

G01 Z2 F100.0(Penetrate)
G01 X90.229167 Y33.422920 Z2 F75.000000
G00 Z0.000000

(End cutting path id: path12)


(Start cutting path id: path12)
(Change tool to Default tool)

G00 Z0.000000
G00 X72.945833 Y60.364580

G01 Z2 F100.0(Penetrate)
G01 X71.457801 Y55.027080 Z2 F75.000000
G01 X69.641667 Y49.054170 Z2
G00 Z0.000000

(End cutting path id: path12)


(Start cutting path id: path12)
(Change tool to Default tool)

G00 Z0.000000
G00 X109.672920 Y60.364580

G01 Z2 F100.0(Penetrate)
G02 X111.528632 Y54.311980 Z2 I-176.212064 J-57.336957 F75.000000
G03 X113.485420 Y48.418750 Z2 I74.292286 J21.396528
G00 Z0.000000

(End cutting path id: path12)


(Start cutting path id: path12)
(Change tool to Default tool)

G00 Z0.000000
G00 X115.645830 Y60.364580

G01 Z2 F100.0(Penetrate)
G02 X117.548580 Y56.887570 Z2 I-53.156073 J-31.348133 F75.000000
G03 X119.573260 Y53.502180 Z2 I25.018496 J12.664520
G03 X120.967459 Y52.197983 Z2 I3.766206 J2.628807
G03 X121.872920 Y51.850000 Z2 I1.432313 J2.374905
G00 Z0.000000

(End cutting path id: path12)


(Footer)
M5
M2
(Using default footer. To add your own footer create file "footer" in the output dir.)
(end)
%