%
(Header)
(Generated by gcodetools from Inkscape.)
(Using default header. To add your own header create file "header" in the output dir.)
M3
(Header end.)
G21 (All units in mm)

(Start cutting path id: path5)
(Change tool to Default tool)

G00 Z0.000000
G00 X27.195833 Y156.185417

G01 Z2 F100.0(Penetrate)
G02 X28.575017 Y154.899676 Z2 I-6.185981 J-8.018137 F75.000000
G03 X29.918614 Y153.672284 Z2 I6.588831 J5.863537
G03 X30.540374 Y153.375210 Z2 I1.078442 J1.457930
G02 X31.008333 Y153.220727 Z2 I-0.965910 J-3.711938
G02 X31.551518 Y152.934653 Z2 I-1.131340 J-2.806869
G02 X32.152083 Y152.514708 Z2 I-8.494050 J-12.786765
G02 X42.356065 Y144.910411 Z2 I-593.983376 J-807.697164
G03 X52.612500 Y137.377083 Z2 I288.721209 J382.337990
G02 X55.481652 Y135.270183 Z2 I-78.534502 J-109.954432
G03 X58.331250 Y133.136267 Z2 I281.872551 J373.438511
G02 X59.918332 Y131.955630 Z2 I-940.351571 J-1265.732937
G03 X60.872917 Y131.531250 Z2 I1.417846 J1.903458
G00 Z0.000000

(End cutting path id: path5)


(Start cutting path id: path5)
(Change tool to Default tool)

G00 Z0.000000
G00 X30.118750 Y153.389583

G01 Z2 F100.0(Penetrate)
G03 X31.122440 Y150.701698 Z2 I5.350301 J0.466532 F75.000000
G02 X33.761804 Y146.908333 Z2 I-94.034593 J-68.242685
G01 X45.665279 Y129.116667 Z2
G01 X48.800000 Y124.414583 Z2
G03 X49.817036 Y122.894334 Z2 I473.525149 J315.684764
G02 X50.325000 Y122.000000 Z2 I-5.722988 J-3.841967
G00 Z0.000000

(End cutting path id: path5)


(Start cutting path id: path11)
(Change tool to Default tool)

G00 Z0.000000
G00 X50.960417 Y60.364580

G01 Z2 F100.0(Penetrate)
G01 X46.222739 Y53.629170 Z2 F75.000000
G01 X34.991260 Y37.743750 Z2
G01 X31.570206 Y32.914580 Z2
G01 X30.025105 Y30.627080 Z2
G01 X29.737500 Y29.229170 Z2
G03 X32.395521 Y30.488612 Z2 I-2.387924 J8.474218
G03 X36.218750 Y33.186690 Z2 I-317.090606 J453.381418
G02 X44.885287 Y39.248986 Z2 I365.914803 J-513.878546
G02 X53.629167 Y45.199700 Z2 I672.413545 J-978.633902
G03 X56.048045 Y46.864867 Z2 I-83.747699 J124.244225
G02 X58.458333 Y48.542600 Z2 I182.919034 J-260.217404
G02 X59.976434 Y49.577828 Z2 I104.797701 J-152.048956
G02 X60.872917 Y50.070830 Z2 I3.157749 J-4.680513
G00 Z0.000000

(End cutting path id: path11)


(Start cutting path id: path11)
(Change tool to Default tool)

G00 Z0.000000
G00 X29.610417 Y29.229170

G01 Z2 F100.0(Penetrate)
G01 X27.577083 Y27.322920 Z2 F75.000000
G00 Z0.000000

(End cutting path id: path11)


(Start cutting path id: path13)
(Change tool to Default tool)

G00 Z0.000000
G00 X122.000000 Y51.341670

G01 Z2 F100.0(Penetrate)
G01 X122.127080 Y51.341670 Z2 F75.000000
G00 Z0.000000

(End cutting path id: path13)


(Start cutting path id: path13)
(Change tool to Default tool)

G00 Z0.000000
G00 X133.310420 Y60.364580

G01 Z2 F100.0(Penetrate)
G01 X137.968770 Y53.502080 Z2 F75.000000
G01 X149.153470 Y37.235420 Z2
G01 X152.662680 Y32.152080 Z2
G01 X154.182090 Y29.864580 Z2
G01 X154.533330 Y28.593750 Z2
G02 X151.409923 Y29.975230 Z2 I0.818296 J6.071714
G03 X147.670830 Y32.877710 Z2 I-39.248159 J-46.701407
G02 X138.555109 Y39.424604 Z2 I2114.749428 J2954.140778
G02 X129.497920 Y46.051230 Z2 I451.298596 J626.332127
G03 X126.964287 Y47.899886 Z2 I-109.080677 J-146.837454
G03 X124.414580 Y49.726450 Z2 I-6625.646172 J-9246.071126
G03 X123.069100 Y50.688085 Z2 I-496.657125 J-693.480102
G03 X122.127080 Y51.341670 Z2 I-25.601064 J-35.893457
G00 Z0.000000

(End cutting path id: path13)


(Start cutting path id: path13)
(Change tool to Default tool)

G00 Z0.000000
G00 X154.533330 Y28.593750

G01 Z2 F100.0(Penetrate)
G01 X155.804170 Y27.195830 Z2 F75.000000
G00 Z0.000000

(End cutting path id: path13)


(Start cutting path id: path7)
(Change tool to Default tool)

G00 Z0.000000
G00 X122.127080 Y133.437500

G01 Z2 F100.0(Penetrate)
G03 X123.060698 Y133.848258 Z2 I-0.638754 J2.718231 F75.000000
G02 X124.414580 Y134.747558 Z2 I38.680076 J-56.763448
G03 X127.148631 Y136.536532 Z2 I-180.007426 J278.085210
G02 X129.879170 Y138.330798 Z2 I301.629459 J-456.049083
G02 X138.661543 Y144.060460 Z2 I9330.853325 J-14292.649928
G03 X147.416670 Y149.831250 Z2 I-571.332943 J876.321925
G03 X150.232612 Y151.778218 Z2 I-55.329807 J83.034552
G02 X153.008330 Y153.450870 Z2 I11.850777 J-16.526589
G02 X153.773445 Y153.702254 Z2 I1.242613 J-2.491977
G02 X154.406250 Y153.770833 Z2 I0.848288 J-4.873651
G00 Z0.000000

(End cutting path id: path7)


(Start cutting path id: path7)
(Change tool to Default tool)

G00 Z0.000000
G00 X156.820830 Y156.185417

G01 Z2 F100.0(Penetrate)
G02 X155.649686 Y155.049815 Z2 I-11.428645 J10.614636 F75.000000
G03 X154.587950 Y153.897917 Z2 I4.759924 J-5.452618
G03 X154.125371 Y152.975365 Z2 I2.432224 J-1.796795
G02 X153.587960 Y151.864583 Z2 I-3.769856 J1.138512
G02 X145.741206 Y141.075200 Z2 I-262.617890 J182.745107
G03 X137.743620 Y130.387500 Z2 I734.948413 J-558.296629
G03 X135.601245 Y127.456692 Z2 I369.404828 J-272.277639
G02 X133.437500 Y124.541667 Z2 I-130.365823 J94.506488
G03 X132.284307 Y122.954876 Z2 I36.572117 J-27.791049
G03 X131.785420 Y122.000000 Z2 I3.530549 J-2.452343
G00 Z0.000000

(End cutting path id: path7)


(Start cutting path id: path7)
(Change tool to Default tool)

G00 Z0.000000
G00 X122.000000 Y133.437500

G01 Z2 F100.0(Penetrate)
G01 X122.127080 Y133.437500 Z2 F75.000000
G00 Z0.000000

(End cutting path id: path7)


(Footer)
M5
M2
(Using default footer. To add your own footer create file "footer" in the output dir.)
(end)
%