%
(Header)
(Generated by gcodetools from Inkscape.)
(Using default header. To add your own header create file "header" in the output dir.)
M3
(Header end.)
G21 (All units in mm)

(Start cutting path id: path6)
(Change tool to Default tool)

G00 Z0.000000
G00 X92.516667 Y152.881250

G01 Z2 F100.0(Penetrate)
G01 X103.688630 Y141.316667 Z2 F75.000000
G01 X110.054170 Y134.708333 Z2
G00 Z0.000000

(End cutting path id: path6)


(Start cutting path id: path6)
(Change tool to Default tool)

G00 Z0.000000
G00 X112.850000 Y134.454167

G01 Z2 F100.0(Penetrate)
G03 X112.440581 Y132.822727 Z2 I110.051024 J-28.485038 F75.000000
G02 X111.997380 Y131.150000 Z2 I-40.962961 J9.958342
G03 X111.261709 Y128.489177 Z2 I135.657911 J-38.939164
G02 X110.543280 Y125.812500 Z2 I-592.760941 J157.664192
G02 X109.837148 Y123.344370 Z2 I-87.449838 J23.684306
G03 X109.545830 Y122.000000 Z2 I8.299337 J-2.502174
G00 Z0.000000

(End cutting path id: path6)


(Start cutting path id: path6)
(Change tool to Default tool)

G00 Z0.000000
G00 X114.247920 Y122.000000

G01 Z2 F100.0(Penetrate)
G02 X114.622918 Y122.918644 Z2 I52.508888 J-20.898713 F75.000000
G02 X115.360680 Y124.541667 Z2 I27.144525 J-11.359632
G03 X116.741630 Y127.616708 Z2 I-43.416607 J21.345288
G02 X118.385380 Y130.514095 Z2 I12.007449 J-4.897121
G02 X120.429554 Y132.302017 Z2 I5.272092 J-3.965171
G02 X121.872920 Y132.929167 Z2 I3.803150 J-6.778327
G00 Z0.000000

(End cutting path id: path6)


(Start cutting path id: path6)
(Change tool to Default tool)

G00 Z0.000000
G00 X92.770833 Y133.310417

G01 Z2 F100.0(Penetrate)
G01 X96.837500 Y128.481250 Z2 F75.000000
G00 Z0.000000

(End cutting path id: path6)


(Start cutting path id: path6)
(Change tool to Default tool)

G00 Z0.000000
G00 X92.643750 Y130.006250

G01 Z2 F100.0(Penetrate)
G01 X94.677083 Y127.337500 Z2 F75.000000
G00 Z0.000000

(End cutting path id: path6)


(Start cutting path id: path6)
(Change tool to Default tool)

G00 Z0.000000
G00 X92.516667 Y137.250000

G01 Z2 F100.0(Penetrate)
G01 X96.928399 Y132.293750 Z2 F75.000000
G01 X99.379167 Y129.625000 Z2
G00 Z0.000000

(End cutting path id: path6)


(Start cutting path id: path6)
(Change tool to Default tool)

G00 Z0.000000
G00 X92.516667 Y141.443750

G01 Z2 F100.0(Penetrate)
G01 X98.987030 Y134.200000 Z2 F75.000000
G01 X101.920830 Y131.022917 Z2
G00 Z0.000000

(End cutting path id: path6)


(Start cutting path id: path6)
(Change tool to Default tool)

G00 Z0.000000
G00 X92.516667 Y145.764583

G01 Z2 F100.0(Penetrate)
G01 X104.970830 Y132.039583 Z2 F75.000000
G00 Z0.000000

(End cutting path id: path6)


(Start cutting path id: path6)
(Change tool to Default tool)

G00 Z0.000000
G00 X92.643750 Y149.577083

G01 Z2 F100.0(Penetrate)
G03 X96.900518 Y144.772835 Z2 I34.546274 J26.321503 F75.000000
G02 X101.401130 Y140.172917 Z2 I-91.503167 J-94.029426
G02 X104.373192 Y136.810346 Z2 I-62.845593 J-58.541820
G03 X107.512500 Y133.691667 Z2 I18.659095 J15.643141
G00 Z0.000000

(End cutting path id: path6)


(Start cutting path id: path6)
(Change tool to Default tool)

G00 Z0.000000
G00 X68.752083 Y134.454167

G01 Z2 F100.0(Penetrate)
G02 X70.622288 Y130.055613 Z2 I-13.263803 J-8.236456 F75.000000
G03 X72.049484 Y125.431250 Z2 I46.018036 J11.669923
G02 X72.840038 Y123.211680 Z2 I-135.297213 J-49.439995
G02 X73.072917 Y122.000000 Z2 I-4.058521 J-1.408246
G00 Z0.000000

(End cutting path id: path6)


(Start cutting path id: path6)
(Change tool to Default tool)

G00 Z0.000000
G00 X61.000000 Y131.022917

G01 Z2 F100.0(Penetrate)
G02 X62.046091 Y130.495324 Z2 I-10.683226 J-22.483181 F75.000000
G02 X63.591284 Y129.230413 Z2 I-2.423971 J-4.537324
G02 X64.957822 Y127.074033 Z2 I-7.922693 J-6.531950
G03 X66.137265 Y124.795833 Z2 I30.948478 J14.577873
G03 X66.726544 Y123.756334 Z2 I1043.196647 J590.687961
G02 X67.279054 Y122.763089 Z2 I-57.661350 J-32.725458
G02 X67.516542 Y122.257292 Z2 I-4.084685 J-2.226548
G02 X67.608333 Y122.000000 Z2 I-3.505826 J-1.395745
G00 Z0.000000

(End cutting path id: path6)


(Footer)
M5
M2
(Using default footer. To add your own footer create file "footer" in the output dir.)
(end)
%