%
(Header)
(Generated by gcodetools from Inkscape.)
(Using default header. To add your own header create file "header" in the output dir.)
M3
(Header end.)
G21 (All units in mm)

(Start cutting path id: path6)
(Change tool to Default tool)

G00 Z0.000000
G00 X92.643750 Y154.533333

G01 Z2 F100.0(Penetrate)
G01 X111.197920 Y135.597917 Z2 F75.000000
G00 Z0.000000

(End cutting path id: path6)


(Start cutting path id: path6)
(Change tool to Default tool)

G00 Z0.000000
G00 X92.897917 Y135.343750

G01 Z2 F100.0(Penetrate)
G01 X98.108333 Y129.243750 Z2 F75.000000
G00 Z0.000000

(End cutting path id: path6)


(Start cutting path id: path6)
(Change tool to Default tool)

G00 Z0.000000
G00 X92.770833 Y131.531250

G01 Z2 F100.0(Penetrate)
G01 X95.947917 Y127.972917 Z2 F75.000000
G00 Z0.000000

(End cutting path id: path6)


(Start cutting path id: path6)
(Change tool to Default tool)

G00 Z0.000000
G00 X92.770833 Y139.283333

G01 Z2 F100.0(Penetrate)
G02 X95.267051 Y136.593075 Z2 I-39.203548 J-38.879133 F75.000000
G02 X97.673152 Y133.818750 Z2 I-4269.875376 J-3705.584059
G03 X99.211414 Y132.055739 Z2 I266.930717 J231.349783
G03 X100.650000 Y130.514583 Z2 I26.182070 J22.997547
G00 Z0.000000

(End cutting path id: path6)


(Start cutting path id: path6)
(Change tool to Default tool)

G00 Z0.000000
G00 X92.897917 Y143.222917

G01 Z2 F100.0(Penetrate)
G03 X94.511324 Y141.329233 Z2 I18.010204 J13.710431 F75.000000
G02 X96.256015 Y139.410417 Z2 I-41.332522 J-39.334356
G03 X99.721472 Y135.472710 Z2 I303.788513 J263.861328
G03 X103.318750 Y131.658333 Z2 I70.132376 J62.537266
G00 Z0.000000

(End cutting path id: path6)


(Start cutting path id: path6)
(Change tool to Default tool)

G00 Z0.000000
G00 X92.516667 Y147.797917

G01 Z2 F100.0(Penetrate)
G03 X94.232784 Y145.814591 Z2 I34.054628 J27.732409 F75.000000
G03 X96.073627 Y143.858333 Z2 I83.427763 J76.661457
G02 X99.011679 Y140.705183 Z2 I-92.553012 J-89.184719
G03 X101.899260 Y137.504167 Z2 I2536.903928 J2285.594243
G02 X104.064753 Y135.096073 Z2 I-548.005814 J-494.975215
G03 X106.114580 Y132.929167 Z2 I40.515419 J36.273362
G00 Z0.000000

(End cutting path id: path6)


(Start cutting path id: path6)
(Change tool to Default tool)

G00 Z0.000000
G00 X92.389583 Y151.356250

G01 Z2 F100.0(Penetrate)
G01 X98.865832 Y144.493750 Z2 F75.000000
G01 X108.402080 Y134.454167 Z2
G00 Z0.000000

(End cutting path id: path6)


(Footer)
M5
M2
(Using default footer. To add your own footer create file "footer" in the output dir.)
(end)
%