%
(Header)
(Generated by gcodetools from Inkscape.)
(Using default header. To add your own header create file "header" in the output dir.)
M3
(Header end.)
G21 (All units in mm)

(Start cutting path id: path7)
(Change tool to Default tool)

G00 Z0.000000
G00 X129.243750 Y90.356250

G01 Z2 F100.0(Penetrate)
G01 X127.337500 Y88.322917 Z2 F75.000000
G00 Z0.000000

(End cutting path id: path7)


(Start cutting path id: path7)
(Change tool to Default tool)

G00 Z0.000000
G00 X130.006250 Y84.002083

G01 Z2 F100.0(Penetrate)
G01 X132.293750 Y86.162500 Z2 F75.000000
G01 X136.487500 Y90.229167 Z2
G00 Z0.000000

(End cutting path id: path7)


(Start cutting path id: path7)
(Change tool to Default tool)

G00 Z0.000000
G00 X140.045830 Y90.229167

G01 Z2 F100.0(Penetrate)
G01 X131.404170 Y81.587500 Z2 F75.000000
G00 Z0.000000

(End cutting path id: path7)


(Start cutting path id: path7)
(Change tool to Default tool)

G00 Z0.000000
G00 X132.547920 Y89.975000

G01 Z2 F100.0(Penetrate)
G01 X128.481250 Y86.289583 Z2 F75.000000
G00 Z0.000000

(End cutting path id: path7)


(Start cutting path id: path7)
(Change tool to Default tool)

G00 Z0.000000
G00 X143.858330 Y90.229167

G01 Z2 F100.0(Penetrate)
G03 X142.246265 Y88.599642 Z2 I150.367389 J-150.368420 F75.000000
G02 X140.300000 Y86.675836 Z2 I-58.988034 J57.730270
G03 X136.285163 Y82.809147 Z2 I537.240908 J-561.842385
G03 X132.293750 Y78.918750 Z2 I810.614129 J-835.654835
G00 Z0.000000

(End cutting path id: path7)


(Start cutting path id: path7)
(Change tool to Default tool)

G00 Z0.000000
G00 X147.670830 Y90.229167

G01 Z2 F100.0(Penetrate)
G01 X139.664580 Y82.602310 Z2 F75.000000
G01 X133.691670 Y76.885420 Z2
G00 Z0.000000

(End cutting path id: path7)


(Start cutting path id: path7)
(Change tool to Default tool)

G00 Z0.000000
G00 X151.229170 Y90.102083

G01 Z2 F100.0(Penetrate)
G01 X140.172920 Y79.786760 Z2 F75.000000
G01 X134.454170 Y74.470830 Z2
G00 Z0.000000

(End cutting path id: path7)


(Start cutting path id: path7)
(Change tool to Default tool)

G00 Z0.000000
G00 X154.533330 Y90.229167

G01 Z2 F100.0(Penetrate)
G01 X135.725000 Y72.183330 Z2 F75.000000
G00 Z0.000000

(End cutting path id: path7)


(Footer)
M5
M2
(Using default footer. To add your own footer create file "footer" in the output dir.)
(end)
%