%
(Header)
(Generated by gcodetools from Inkscape.)
(Using default header. To add your own header create file "header" in the output dir.)
M3
(Header end.)
G21 (All units in mm)

(Start cutting path id: path5)
(Change tool to Default tool)

G00 Z0.000000
G00 X47.529167 Y112.087500

G01 Z2 F100.0(Penetrate)
G01 X28.847917 Y93.533333 Z2 F75.000000
G00 Z0.000000

(End cutting path id: path5)


(Start cutting path id: path5)
(Change tool to Default tool)

G00 Z0.000000
G00 X51.977083 Y102.556250

G01 Z2 F100.0(Penetrate)
G01 X42.318750 Y93.152083 Z2 F75.000000
G00 Z0.000000

(End cutting path id: path5)


(Start cutting path id: path5)
(Change tool to Default tool)

G00 Z0.000000
G00 X54.645833 Y97.472917

G01 Z2 F100.0(Penetrate)
G01 X49.308333 Y92.643750 Z2 F75.000000
G00 Z0.000000

(End cutting path id: path5)


(Start cutting path id: path5)
(Change tool to Default tool)

G00 Z0.000000
G00 X55.662500 Y95.439583

G01 Z2 F100.0(Penetrate)
G01 X52.993750 Y92.770833 Z2 F75.000000
G00 Z0.000000

(End cutting path id: path5)


(Start cutting path id: path5)
(Change tool to Default tool)

G00 Z0.000000
G00 X53.629167 Y100.141667

G01 Z2 F100.0(Penetrate)
G01 X48.291667 Y94.931250 Z2 F75.000000
G01 X45.877083 Y92.643750 Z2
G00 Z0.000000

(End cutting path id: path5)


(Start cutting path id: path5)
(Change tool to Default tool)

G00 Z0.000000
G00 X50.833333 Y105.097917

G01 Z2 F100.0(Penetrate)
G01 X42.827083 Y97.345833 Z2 F75.000000
G01 X38.125000 Y92.770833 Z2
G00 Z0.000000

(End cutting path id: path5)


(Start cutting path id: path5)
(Change tool to Default tool)

G00 Z0.000000
G00 X49.816667 Y107.766667

G01 Z2 F100.0(Penetrate)
G01 X39.650000 Y97.600000 Z2 F75.000000
G01 X34.439583 Y92.389583 Z2
G00 Z0.000000

(End cutting path id: path5)


(Start cutting path id: path5)
(Change tool to Default tool)

G00 Z0.000000
G00 X48.545833 Y110.054167

G01 Z2 F100.0(Penetrate)
G01 X31.770833 Y93.279167 Z2 F75.000000
G00 Z0.000000

(End cutting path id: path5)


(Footer)
M5
M2
(Using default footer. To add your own footer create file "footer" in the output dir.)
(end)
%