%
(Header)
(Generated by gcodetools from Inkscape.)
(Using default header. To add your own header create file "header" in the output dir.)
M3
(Header end.)
G21 (All units in mm)

(Start cutting path id: path8)
(Change tool to Default tool)

G00 Z0.000000
G00 X88.195833 Y55.535420

G01 Z-1.000000 F100.0(Penetrate)
G01 X90.610417 Y52.866670 Z-1.000000 F75.000000
G00 Z0.000000

(End cutting path id: path8)


(Start cutting path id: path8)
(Change tool to Default tool)

G00 Z0.000000
G00 X85.400000 Y54.137500

G01 Z-1.000000 F100.0(Penetrate)
G01 X90.483333 Y49.054170 Z-1.000000 F75.000000
G00 Z0.000000

(End cutting path id: path8)


(Start cutting path id: path8)
(Change tool to Default tool)

G00 Z0.000000
G00 X83.366667 Y52.866670

G01 Z-1.000000 F100.0(Penetrate)
G01 X90.610417 Y45.495830 Z-1.000000 F75.000000
G00 Z0.000000

(End cutting path id: path8)


(Start cutting path id: path8)
(Change tool to Default tool)

G00 Z0.000000
G00 X81.460417 Y51.722920

G01 Z-1.000000 F100.0(Penetrate)
G01 X90.610417 Y42.064580 Z-1.000000 F75.000000
G00 Z0.000000

(End cutting path id: path8)


(Start cutting path id: path8)
(Change tool to Default tool)

G00 Z0.000000
G00 X78.791667 Y50.197920

G01 Z-1.000000 F100.0(Penetrate)
G01 X90.610417 Y38.379170 Z-1.000000 F75.000000
G00 Z0.000000

(End cutting path id: path8)


(Start cutting path id: path8)
(Change tool to Default tool)

G00 Z0.000000
G00 X75.868750 Y49.181250

G01 Z-1.000000 F100.0(Penetrate)
G01 X90.610417 Y34.820830 Z-1.000000 F75.000000
G00 Z0.000000

(End cutting path id: path8)


(Start cutting path id: path8)
(Change tool to Default tool)

G00 Z0.000000
G00 X73.708333 Y48.164580

G01 Z-1.000000 F100.0(Penetrate)
G01 X85.018750 Y36.854170 Z-1.000000 F75.000000
G01 X90.483333 Y31.389580 Z-1.000000
G00 Z0.000000

(End cutting path id: path8)


(Start cutting path id: path8)
(Change tool to Default tool)

G00 Z0.000000
G00 X71.039583 Y47.275000

G01 Z-1.000000 F100.0(Penetrate)
G01 X90.229167 Y28.085420 Z-1.000000 F75.000000
G00 Z0.000000

(End cutting path id: path8)


(Footer)
M5
M2
(Using default footer. To add your own footer create file "footer" in the output dir.)
(end)
%