%
(Header)
(Generated by gcodetools from Inkscape.)
(Using default header. To add your own header create file "header" in the output dir.)
M3
(Header end.)
G21 (All units in mm)

(Start cutting path id: path5)
(Change tool to Default tool)

G00 Z0.000000
G00 X94.931250 Y159.743750

G01 Z2 F100.0(Penetrate)
G01 X97.727083 Y159.616667 Z2 F75.000000
G00 Z0.000000

(End cutting path id: path5)


(Start cutting path id: path5)
(Change tool to Default tool)

G00 Z0.000000
G00 X101.031250 Y159.108333

G01 Z2 F100.0(Penetrate)
G01 X105.225000 Y158.472917 Z2 F75.000000
G00 Z0.000000

(End cutting path id: path5)


(Start cutting path id: path5)
(Change tool to Default tool)

G00 Z0.000000
G00 X107.893750 Y157.837500

G01 Z2 F100.0(Penetrate)
G01 X112.214580 Y156.566667 Z2 F75.000000
G00 Z0.000000

(End cutting path id: path5)


(Start cutting path id: path5)
(Change tool to Default tool)

G00 Z0.000000
G00 X115.137500 Y155.550000

G01 Z2 F100.0(Penetrate)
G01 X119.966670 Y153.516667 Z2 F75.000000
G00 Z0.000000

(End cutting path id: path5)


(Start cutting path id: path5)
(Change tool to Default tool)

G00 Z0.000000
G00 X122.762500 Y152.118750

G01 Z2 F100.0(Penetrate)
G01 X128.100000 Y148.980791 Z2 F75.000000
G01 X130.260420 Y147.560907 Z2
G01 X131.531250 Y147.289583 Z2
G00 Z0.000000

(End cutting path id: path5)


(Start cutting path id: path5)
(Change tool to Default tool)

G00 Z0.000000
G00 X135.979170 Y142.460417

G01 Z2 F100.0(Penetrate)
G01 X136.233330 Y142.333333 Z2 F75.000000
G00 Z0.000000

(End cutting path id: path5)


(Start cutting path id: path5)
(Change tool to Default tool)

G00 Z0.000000
G00 X147.162500 Y130.387500

G01 Z2 F100.0(Penetrate)
G01 X150.212500 Y125.558333 Z2 F75.000000
G00 Z0.000000

(End cutting path id: path5)


(Start cutting path id: path5)
(Change tool to Default tool)

G00 Z0.000000
G00 X151.991670 Y122.254167

G01 Z2 F100.0(Penetrate)
G01 X154.025000 Y117.806250 Z2 F75.000000
G00 Z0.000000

(End cutting path id: path5)


(Start cutting path id: path5)
(Change tool to Default tool)

G00 Z0.000000
G00 X155.550000 Y113.866667

G01 Z2 F100.0(Penetrate)
G01 X156.566670 Y110.308333 Z2 F75.000000
G00 Z0.000000

(End cutting path id: path5)


(Start cutting path id: path5)
(Change tool to Default tool)

G00 Z0.000000
G00 X157.583330 Y106.114583

G01 Z2 F100.0(Penetrate)
G01 X158.218750 Y102.175000 Z2 F75.000000
G00 Z0.000000

(End cutting path id: path5)


(Start cutting path id: path5)
(Change tool to Default tool)

G00 Z0.000000
G00 X158.600000 Y99.125000

G01 Z2 F100.0(Penetrate)
G01 X158.981250 Y95.820833 Z2 F75.000000
G00 Z0.000000

(End cutting path id: path5)


(Start cutting path id: path5)
(Change tool to Default tool)

G00 Z0.000000
G00 X158.854170 Y87.179167

G01 Z2 F100.0(Penetrate)
G01 X158.472920 Y84.256250 Z2 F75.000000
G00 Z0.000000

(End cutting path id: path5)


(Start cutting path id: path5)
(Change tool to Default tool)

G00 Z0.000000
G00 X157.964580 Y80.697920

G01 Z2 F100.0(Penetrate)
G02 X157.745085 Y79.004499 Z2 I-17.040604 J1.347803 F75.000000
G02 X157.329170 Y77.393750 Z2 I-11.097071 J2.006328
G00 Z0.000000

(End cutting path id: path5)


(Start cutting path id: path5)
(Change tool to Default tool)

G00 Z0.000000
G00 X156.566670 Y73.962500

G01 Z2 F100.0(Penetrate)
G01 X155.295830 Y70.022920 Z2 F75.000000
G00 Z0.000000

(End cutting path id: path5)


(Start cutting path id: path5)
(Change tool to Default tool)

G00 Z0.000000
G00 X153.770830 Y66.083330

G01 Z2 F100.0(Penetrate)
G01 X151.864580 Y62.143750 Z2 F75.000000
G00 Z0.000000

(End cutting path id: path5)


(Start cutting path id: path5)
(Change tool to Default tool)

G00 Z0.000000
G00 X149.831250 Y58.331250

G01 Z2 F100.0(Penetrate)
G02 X147.575486 Y54.863502 Z2 I-20.864471 J11.104740 F75.000000
G03 X146.908330 Y53.120830 Z2 I2.495949 J-1.954579
G00 Z0.000000

(End cutting path id: path5)


(Start cutting path id: path5)
(Change tool to Default tool)

G00 Z0.000000
G00 X124.160420 Y33.168750

G01 Z2 F100.0(Penetrate)
G03 X126.369091 Y34.378710 Z2 I-8.283417 J17.741466 F75.000000
G03 X128.481250 Y35.752780 Z2 I-60.070452 J94.647986
G02 X129.689653 Y36.530819 Z2 I24.989313 J-37.484421
G02 X130.514580 Y36.854170 Z2 I1.288378 J-2.072944
G00 Z0.000000

(End cutting path id: path5)


(Start cutting path id: path5)
(Change tool to Default tool)

G00 Z0.000000
G00 X121.237500 Y31.643750

G01 Z2 F100.0(Penetrate)
G02 X118.570133 Y30.315963 Z2 I-11.321554 J19.400557 F75.000000
G02 X116.027080 Y29.356250 Z2 I-15.116976 J36.207893
G00 Z0.000000

(End cutting path id: path5)


(Start cutting path id: path5)
(Change tool to Default tool)

G00 Z0.000000
G00 X108.910420 Y27.068750

G01 Z2 F100.0(Penetrate)
G03 X111.159013 Y27.592576 Z2 I-1.626790 J12.071323 F75.000000
G03 X113.231250 Y28.339580 Z2 I-15.793372 J47.059580
G00 Z0.000000

(End cutting path id: path5)


(Start cutting path id: path5)
(Change tool to Default tool)

G00 Z0.000000
G00 X102.047920 Y25.543750

G01 Z2 F100.0(Penetrate)
G01 X105.987500 Y26.306250 Z2 F75.000000
G00 Z0.000000

(End cutting path id: path5)


(Start cutting path id: path5)
(Change tool to Default tool)

G00 Z0.000000
G00 X95.820833 Y24.908330

G01 Z2 F100.0(Penetrate)
G01 X99.379167 Y25.162500 Z2 F75.000000
G00 Z0.000000

(End cutting path id: path5)


(Start cutting path id: path5)
(Change tool to Default tool)

G00 Z0.000000
G00 X84.510417 Y25.035420

G01 Z2 F100.0(Penetrate)
G01 X87.433333 Y24.781250 Z2 F75.000000
G00 Z0.000000

(End cutting path id: path5)


(Start cutting path id: path5)
(Change tool to Default tool)

G00 Z0.000000
G00 X77.520833 Y26.179170

G01 Z2 F100.0(Penetrate)
G01 X81.206250 Y25.543750 Z2 F75.000000
G00 Z0.000000

(End cutting path id: path5)


(Start cutting path id: path5)
(Change tool to Default tool)

G00 Z0.000000
G00 X70.022917 Y28.212500

G01 Z2 F100.0(Penetrate)
G03 X72.367574 Y27.394166 Z2 I6.213678 J14.035099 F75.000000
G03 X74.852083 Y26.814580 Z2 I12.543755 J48.156323
G00 Z0.000000

(End cutting path id: path5)


(Start cutting path id: path5)
(Change tool to Default tool)

G00 Z0.000000
G00 X62.016667 Y31.389580

G01 Z2 F100.0(Penetrate)
G02 X64.366983 Y30.325123 Z2 I-15.866341 J-38.159781 F75.000000
G03 X66.591667 Y29.483330 Z2 I5.541394 J11.284168
G00 Z0.000000

(End cutting path id: path5)


(Start cutting path id: path5)
(Change tool to Default tool)

G00 Z0.000000
G00 X53.247917 Y36.472920

G01 Z2 F100.0(Penetrate)
G02 X56.219200 Y34.685070 Z2 I-25.052029 J-44.997701 F75.000000
G03 X59.093750 Y32.914580 Z2 I39.414692 J60.774507
G00 Z0.000000

(End cutting path id: path5)


(Start cutting path id: path5)
(Change tool to Default tool)

G00 Z0.000000
G00 X32.660417 Y58.966670

G01 Z2 F100.0(Penetrate)
G03 X34.157017 Y56.464118 Z2 I204.778614 J120.764856 F75.000000
G03 X35.735129 Y54.010420 Z2 I47.166518 J28.601126
G03 X36.610324 Y52.733579 Z2 I220.992640 J150.538368
G02 X36.981250 Y51.850000 Z2 I-1.925318 J-1.327894
G00 Z0.000000

(End cutting path id: path5)


(Start cutting path id: path5)
(Change tool to Default tool)

G00 Z0.000000
G00 X28.847917 Y66.972920

G01 Z2 F100.0(Penetrate)
G01 X31.008333 Y62.143750 Z2 F75.000000
G00 Z0.000000

(End cutting path id: path5)


(Start cutting path id: path5)
(Change tool to Default tool)

G00 Z0.000000
G00 X26.433333 Y74.089580

G01 Z2 F100.0(Penetrate)
G03 X27.023200 Y72.134136 Z2 I59.667306 J16.932169 F75.000000
G03 X27.704167 Y70.022920 Z2 I410.648485 J131.288176
G00 Z0.000000

(End cutting path id: path5)


(Start cutting path id: path5)
(Change tool to Default tool)

G00 Z0.000000
G00 X24.781250 Y81.206250

G01 Z2 F100.0(Penetrate)
G01 X25.670833 Y77.139580 Z2 F75.000000
G00 Z0.000000

(End cutting path id: path5)


(Start cutting path id: path5)
(Change tool to Default tool)

G00 Z0.000000
G00 X24.018750 Y87.433333

G01 Z2 F100.0(Penetrate)
G01 X24.400000 Y84.256250 Z2 F75.000000
G00 Z0.000000

(End cutting path id: path5)


(Start cutting path id: path5)
(Change tool to Default tool)

G00 Z0.000000
G00 X24.272917 Y98.870833

G01 Z2 F100.0(Penetrate)
G01 X24.018750 Y95.820833 Z2 F75.000000
G00 Z0.000000

(End cutting path id: path5)


(Start cutting path id: path5)
(Change tool to Default tool)

G00 Z0.000000
G00 X25.289583 Y105.860417

G01 Z2 F100.0(Penetrate)
G01 X24.527083 Y101.920833 Z2 F75.000000
G00 Z0.000000

(End cutting path id: path5)


(Start cutting path id: path5)
(Change tool to Default tool)

G00 Z0.000000
G00 X27.195833 Y113.104167

G01 Z2 F100.0(Penetrate)
G02 X26.588837 Y111.071281 Z2 I-16.463776 J3.808829 F75.000000
G03 X26.052083 Y108.910417 Z2 I9.558568 J-3.521423
G00 Z0.000000

(End cutting path id: path5)


(Start cutting path id: path5)
(Change tool to Default tool)

G00 Z0.000000
G00 X29.991667 Y120.475000

G01 Z2 F100.0(Penetrate)
G01 X28.339583 Y116.408333 Z2 F75.000000
G00 Z0.000000

(End cutting path id: path5)


(Start cutting path id: path5)
(Change tool to Default tool)

G00 Z0.000000
G00 X36.472917 Y131.531250

G01 Z2 F100.0(Penetrate)
G03 X34.203201 Y127.992015 Z2 I64.136619 J-43.628305 F75.000000
G02 X32.025000 Y124.541667 Z2 I-87.400312 J52.762996
G00 Z0.000000

(End cutting path id: path5)


(Start cutting path id: path5)
(Change tool to Default tool)

G00 Z0.000000
G00 X58.458333 Y151.229167

G01 Z2 F100.0(Penetrate)
G02 X56.234486 Y149.856281 Z2 I-23.974600 J36.347280 F75.000000
G03 X54.010417 Y148.475700 Z2 I20.138432 J-34.924079
G03 X52.657834 Y147.568015 Z2 I148.160912 J-222.243147
G02 X51.595833 Y147.035417 Z2 I-2.579910 J3.819224
G00 Z0.000000

(End cutting path id: path5)


(Start cutting path id: path5)
(Change tool to Default tool)

G00 Z0.000000
G00 X61.635417 Y152.881250

G01 Z2 F100.0(Penetrate)
G01 X66.337500 Y154.914583 Z2 F75.000000
G00 Z0.000000

(End cutting path id: path5)


(Start cutting path id: path5)
(Change tool to Default tool)

G00 Z0.000000
G00 X69.133333 Y156.058333

G01 Z2 F100.0(Penetrate)
G01 X74.089583 Y157.583333 Z2 F75.000000
G00 Z0.000000

(End cutting path id: path5)


(Start cutting path id: path5)
(Change tool to Default tool)

G00 Z0.000000
G00 X77.139583 Y158.345833

G01 Z2 F100.0(Penetrate)
G01 X81.460417 Y159.108333 Z2 F75.000000
G00 Z0.000000

(End cutting path id: path5)


(Start cutting path id: path5)
(Change tool to Default tool)

G00 Z0.000000
G00 X84.510417 Y159.489583

G01 Z2 F100.0(Penetrate)
G01 X87.052083 Y159.616667 Z2 F75.000000
G00 Z0.000000

(End cutting path id: path5)


(Footer)
M5
M2
(Using default footer. To add your own footer create file "footer" in the output dir.)
(end)
%