%
(Header)
(Generated by gcodetools from Inkscape.)
(Using default header. To add your own header create file "header" in the output dir.)
M3
(Header end.)
G21 (All units in mm)

(Start cutting path id: path5)
(Change tool to Default tool)

G00 Z0.000000
G00 X12.925788 Y25.017410

G01 Z2 F100.0(Penetrate)
G03 X12.974622 Y24.814740 Z2 I1.555473 J0.267575 F75
G03 X13.110223 Y24.464110 Z2 I2.700791 J0.842958
G01 X12.618396 Y25.201850 Z2
G01 X13.233417 Y24.828140 Z2
G01 X13.725007 Y24.341150 Z2
G00 Z0.000000

(End cutting path id: path5)


(Start cutting path id: path5)
(Change tool to Default tool)

G00 Z0.000000
G00 X11.757698 Y24.341150

G01 Z2 F100.0(Penetrate)
G02 X12.175867 Y24.803400 Z2 I247.231823 J-223.235253 F75
G02 X12.556917 Y25.140370 Z2 I1.710397 J-1.550204
G00 Z0.000000

(End cutting path id: path5)


(Start cutting path id: path5)
(Change tool to Default tool)

G00 Z0.000000
G00 X12.433961 Y25.017410

G01 Z2 F100.0(Penetrate)
G01 X12.556917 Y24.894460 Z2 F75
G00 Z0.000000

(End cutting path id: path5)


(Start cutting path id: path5)
(Change tool to Default tool)

G00 Z0.000000
G00 X13.602050 Y24.464110

G01 Z2 F100.0(Penetrate)
G02 X13.423679 Y24.388572 Z2 I-0.490530 J0.909944 F75
G02 X13.171702 Y24.341150 Z2 I-0.321424 J1.014735
G03 X13.714270 Y22.881073 Z2 I9.691411 J2.770503
G02 X14.348994 Y21.451670 Z2 I-46.580494 J-21.539612
G01 X14.585705 Y20.283580 Z2
G03 X13.892358 Y20.817349 Z2 I-5.706679 J-6.695575
G03 X13.171702 Y21.307320 Z2 I-26.918707 J-38.817420
G01 X12.679874 Y21.517650 Z2
G01 X12.249525 Y21.302520 Z2
G02 X11.272813 Y20.642210 Z2 I-23.331330 J33.458517
G02 X10.651087 Y20.283580 Z2 I-3.463673 J5.286445
G01 X10.774044 Y20.283580 Z2
G00 Z0.000000

(End cutting path id: path5)


(Start cutting path id: path5)
(Change tool to Default tool)

G00 Z0.000000
G00 X11.942133 Y24.341150

G01 Z2 F100.0(Penetrate)
G01 X12.311004 Y24.341150 Z2 F75
G01 X11.266535 Y21.820540 Z2
G01 X10.712565 Y20.406530 Z2
G00 Z0.000000

(End cutting path id: path5)


(Start cutting path id: path5)
(Change tool to Default tool)

G00 Z0.000000
G00 X5.056551 Y21.574620

G01 Z2 F100.0(Penetrate)
G02 X4.468217 Y20.931202 Z2 I-5.465464 J4.406870 F75
G02 X3.826983 Y20.345060 Z2 I-11.008166 J11.399003
G01 X3.828693 Y21.537530 Z2
G01 X4.318813 Y21.636130 Z2
G02 X4.762756 Y21.625133 Z2 I0.017004 J-8.280168
G02 X5.056554 Y21.574630 Z2 I-0.064926 J-1.257522
G00 Z0.000000

(End cutting path id: path5)


(Start cutting path id: path5)
(Change tool to Default tool)

G00 Z0.000000
G00 X20.426156 Y21.636130

G01 Z2 F100.0(Penetrate)
G01 X21.618629 Y21.572930 Z2 F75
G01 X21.717159 Y21.144280 Z2
G02 X21.708573 Y20.662441 Z2 I-9.796774 J-0.066421
G02 X21.655729 Y20.345070 Z2 I-1.314521 J0.055789
G02 X20.939682 Y20.911826 Z2 I4.709768 J6.686090
G02 X20.426161 Y21.636110 Z2 I1.299353 J1.465435
G00 Z0.000000

(End cutting path id: path5)


(Start cutting path id: path5)
(Change tool to Default tool)

G00 Z0.000000
G00 X12.741360 Y21.513150

G01 Z2 F100.0(Penetrate)
G01 X12.741360 Y18.931060 Z2 F75
G03 X12.799174 Y17.309841 Z2 I22.760017 J-0.000000
G02 X12.732260 Y15.734420 Z2 I-6.929124 J-0.494826
G01 X12.169230 Y15.045020 Z2
G01 X12.460066 Y13.705400 Z2
G02 X12.573872 Y13.286130 Z2 I-34.865712 J-9.688920
G03 X12.705932 Y12.906410 Z2 I2.570898 J0.681294
G01 X13.602065 Y12.159190 Z2
G02 X14.343711 Y11.640683 Z2 I-2.457267 J-4.304414
G03 X15.139026 Y11.339330 Z2 I0.824480 J0.975771
G01 X15.999723 Y11.799570 Z2
G02 X16.520945 Y10.998676 Z2 I-7.532112 J-5.471947
G02 X16.860421 Y10.324080 Z2 I-5.505143 J-3.193065
G01 X15.202211 Y10.361180 Z2
G01 X15.139021 Y11.246260 Z2
G00 Z0.000000

(End cutting path id: path5)


(Start cutting path id: path5)
(Change tool to Default tool)

G00 Z0.000000
G00 X14.831629 Y20.345070

G01 Z2 F100.0(Penetrate)
G01 X14.647193 Y20.283570 Z2 F75
G00 Z0.000000

(End cutting path id: path5)


(Start cutting path id: path5)
(Change tool to Default tool)

G00 Z0.000000
G00 X12.741363 Y15.488250

G01 Z2 F100.0(Penetrate)
G01 X13.300598 Y14.990680 Z2 F75
G02 X13.167207 Y13.763300 Z2 I-1.750733 J-0.430669
G02 X12.741363 Y12.967640 Z2 I-12.012941 J5.917635
G00 Z0.000000

(End cutting path id: path5)


(Start cutting path id: path5)
(Change tool to Default tool)

G00 Z0.000000
G00 X0.998976 Y13.582430

G01 Z2 F100.0(Penetrate)
G02 X1.127966 Y12.690985 Z2 I-3.015887 J-0.891446 F75
G02 X0.998976 Y11.799560 Z2 I-3.144720 J-0.000001
G01 X0.194918 Y12.721730 Z2
G01 X0.998976 Y13.582430 Z2
G00 Z0.000000

(End cutting path id: path5)


(Start cutting path id: path5)
(Change tool to Default tool)

G00 Z0.000000
G00 X24.422251 Y11.861030

G01 Z2 F100.0(Penetrate)
G03 X24.389425 Y12.672546 Z2 I-10.047620 J0.000000 F75
G02 X24.483731 Y13.582430 Z2 I2.489903 J0.201761
G01 X25.244147 Y12.660250 Z2
G01 X24.422253 Y11.676600 Z2
G00 Z0.000000

(End cutting path id: path5)


(Start cutting path id: path5)
(Change tool to Default tool)

G00 Z0.000000
G00 X5.056553 Y3.807360

G01 Z2 F100.0(Penetrate)
G01 X3.864081 Y3.782960 Z2 F75
G01 X3.765507 Y4.299170 Z2
G02 X3.776626 Y4.743151 Z2 I8.196043 J0.016864
G02 X3.826985 Y5.036910 Z2 I1.267942 J-0.066165
G02 X4.458668 Y4.378460 Z2 I-15.549832 J-15.549940
G03 X5.179510 Y3.745860 Z2 I3.316392 J3.052002
G00 Z0.000000

(End cutting path id: path5)


(Start cutting path id: path5)
(Change tool to Default tool)

G00 Z0.000000
G00 X20.426156 Y3.745860

G01 Z2 F100.0(Penetrate)
G02 X20.948937 Y4.464000 Z2 I2.099663 J-0.979129 F75
G02 X21.655724 Y5.036910 Z2 I4.591694 J-4.942246
G01 X21.618624 Y3.782960 Z2
G01 X20.795021 Y3.685260 Z2
G02 X20.496459 Y3.710819 Z2 I0.055763 J2.407953
G03 X20.241716 Y3.745860 Z2 I-1.727725 J-11.616819
G00 Z0.000000

(End cutting path id: path5)


(Start cutting path id: path5)
(Change tool to Default tool)

G00 Z0.000000
G00 X11.696217 Y1.040810

G01 Z2 F100.0(Penetrate)
G01 X12.188044 Y0.977910 Z2 F75
G01 X12.741350 Y0.978910 Z2
G01 X13.233177 Y0.978290 Z2
G01 X13.725004 Y1.040390 Z2
G00 Z0.000000

(End cutting path id: path5)


(Start cutting path id: path5)
(Change tool to Default tool)

G00 Z0.000000
G00 X13.602047 Y0.917440

G01 Z2 F100.0(Penetrate)
G01 X12.679871 Y0.157020 Z2 F75
G01 X11.880652 Y0.855960 Z2
G00 Z0.000000

(End cutting path id: path5)


(Footer)
M5
G00 X0.0000 Y0.0000
M2
(Using default footer. To add your own footer create file "footer" in the output dir.)
(end)
%