%
(Header)
(Generated by gcodetools from Inkscape.)
(Using default header. To add your own header create file "header" in the output dir.)
M3
(Header end.)
G21 (All units in mm)

(Start cutting path id: path1611)
(Change tool to Default tool)

G00 Z0.000000
G00 X12.241001 Y20.036690

G01 Z2 F100.0(Penetrate)
G02 X13.287048 Y20.045762 Z2 I0.560045 J-4.264422 F75
G02 X14.316391 Y19.869300 Z2 I-1.044091 J-9.180868
G02 X18.230236 Y17.477292 Z2 I-1.624712 J-7.056337
G02 X19.996699 Y13.271030 Z2 I-5.859970 J-4.935009
G02 X20.014657 Y11.838419 Z2 I-8.628980 J-0.824586
G02 X19.647386 Y10.445890 Z2 I-3.850013 J0.270721
G01 X18.867244 Y10.038410 Z2
G01 X17.091911 Y9.302310 Z2
G01 X16.416013 Y8.988360 Z2
G01 X16.106117 Y8.270100 Z2
G02 X15.770506 Y7.471322 Z2 I-879.479953 J369.048255
G03 X15.441602 Y6.669800 Z2 I45.283860 J-19.050456
G01 X15.060917 Y5.832390 Z2
G01 X14.666456 Y5.687360 Z2
G02 X14.145146 Y5.562774 Z2 I-1.730696 J6.088843
G02 X13.616259 Y5.476610 Z2 I-1.665466 J8.556616
G02 X12.373883 Y5.426486 Z2 I-0.897622 J6.826641
G02 X11.140795 Y5.589350 Z2 I0.383775 J7.655115
G01 X10.308116 Y5.872980 Z2
G02 X10.137445 Y6.209209 Z2 I0.792833 J0.613875
G03 X10.008561 Y6.569780 Z2 I-2.934653 J-0.845657
G02 X9.663022 Y7.393284 Z2 I46.936193 J20.178493
G02 X9.325370 Y8.220090 Z2 I495.601621 J202.876750
G01 X8.977909 Y9.007770 Z2
G01 X8.240251 Y9.335380 Z2
G02 X7.414712 Y9.676835 Z2 I31.719488 J77.857073
G03 X6.589942 Y10.020150 Z2 I-56.479793 J-134.523350
G01 X5.771733 Y10.421870 Z2
G02 X5.649311 Y10.751149 Z2 I0.909459 J0.525522
G03 X5.574107 Y11.095630 Z2 I-6.414647 J-1.219938
G02 X5.408186 Y12.178589 Z2 I5.922416 J1.461568
G02 X5.412483 Y13.271030 Z2 I8.261211 J0.513731
G02 X6.699368 Y16.912078 Z2 I7.227587 J-0.506563
G02 X9.665518 Y19.389460 Z2 I6.039313 J-4.216459
G02 X10.933214 Y19.810860 Z2 I2.550623 J-5.555529
G02 X12.241001 Y20.036690 Z2 I3.444287 J-16.046309
G00 Z0.000000

(End cutting path id: path1611)


(Start cutting path id: path1611)
(Change tool to Default tool)

G00 Z0.000000
G00 X8.490298 Y13.871150

G01 Z2 F100.0(Penetrate)
G01 X8.220282 Y13.978750 Z2 F75
G01 X8.254644 Y14.221210 Z2
G03 X8.337386 Y14.533623 Z2 I-12.863553 J3.574042
G02 X8.419065 Y14.846330 Z2 I18.026769 J-4.541580
G02 X8.683291 Y15.324089 Z2 I1.104068 J-0.298663
G02 X9.065406 Y15.721490 Z2 I10.321691 J-9.542254
G01 X10.265631 Y16.921720 Z2
G01 X10.290631 Y16.221590 Z2
G01 X10.290631 Y14.821320 Z2
G01 X10.250541 Y14.134430 Z2
G02 X9.856593 Y13.790938 Z2 I-1.212626 J0.993096
G02 X9.365460 Y13.642480 Z2 I-0.529132 J0.863869
G01 X8.540305 Y13.846140 Z2
G00 Z0.000000

(End cutting path id: path1611)


(Start cutting path id: path1611)
(Change tool to Default tool)

G00 Z0.000000
G00 X16.966886 Y13.871140

G01 Z2 F100.0(Penetrate)
G01 X16.016707 Y13.644820 Z2 F75
G01 X15.516614 Y13.910610 Z2
G01 X15.181636 Y14.129400 Z2
G01 X15.141546 Y14.821310 Z2
G01 X15.141546 Y16.221580 Z2
G01 X15.166556 Y16.896700 Z2
G01 X16.216753 Y15.846510 Z2
G02 X16.675959 Y15.382521 Z2 I-44.603632 J-44.603077
G02 X16.994792 Y14.821310 Z2 I-0.902250 J-0.883755
G01 X17.016902 Y13.896140 Z2
G00 Z0.000000

(End cutting path id: path1611)


(Start cutting path id: path1611)
(Change tool to Default tool)

G00 Z0.000000
G00 X12.716096 Y12.695920

G01 Z2 F100.0(Penetrate)
G01 X12.244171 Y11.020600 Z2 F75
G01 X12.110406 Y10.428340 Z2
G01 X12.366030 Y10.335240 Z2
G01 X13.066161 Y10.339240 Z2
G01 X13.298785 Y10.428240 Z2
G01 X13.163015 Y11.020500 Z2
G01 X12.741100 Y12.620800 Z2
G00 Z0.000000

(End cutting path id: path1611)


(Footer)
M5
G00 X0.0000 Y0.0000
M2
(Using default footer. To add your own footer create file "footer" in the output dir.)
(end)
%