%
(Header)
(Generated by gcodetools from Inkscape.)
(Using default header. To add your own header create file "header" in the output dir.)
M3
(Header end.)
G21 (All units in mm)

(Start cutting path id: path9)
(Change tool to Default tool)

G00 Z0.000000
G00 X59.366667 Y113.900000

G01 Z2 F100.0(Penetrate)
G01 X58.945268 Y113.900000 Z2 F75.000000
G03 X57.529666 Y113.814102 Z2 I0.001098 J-11.725655
G03 X55.500000 Y113.536112 Z2 I8.250745 J-67.788965
G03 X54.786344 Y113.386746 Z2 I0.994519 J-6.531276
G03 X54.300000 Y113.233333 Z2 I1.497707 J-5.595578
G02 X54.129129 Y113.702099 Z2 I2.272712 J1.093958
G02 X54.012244 Y114.300000 Z2 I5.142179 J1.315629
G03 X53.834897 Y115.125412 Z2 I-5.508237 J-0.751734
G02 X53.583950 Y116.033333 Z2 I25.119269 J7.431545
G02 X53.186634 Y117.686344 Z2 I52.110292 J13.399417
G02 X52.833435 Y119.366667 Z2 I64.929514 J14.525293
G03 X52.425570 Y121.131169 Z2 I-27.024522 J-5.317332
G02 X52.513786 Y122.558848 Z2 I2.185599 J0.581517
G01 X53.900000 Y123.101955 Z2
G03 X56.588903 Y123.184727 Z2 I-8.462404 J318.624435
G02 X59.366667 Y123.233333 Z2 I2.777764 J-79.347965
G00 Z0.000000

(End cutting path id: path9)


(Start cutting path id: path9)
(Change tool to Default tool)

G00 Z0.000000
G00 X54.566667 Y113.100000

G01 Z2 F100.0(Penetrate)
G03 X54.603257 Y112.831672 Z2 I18.951915 J2.447644 F75.000000
G03 X54.731893 Y112.166461 Z2 I6.929802 J0.995021
G03 X55.037522 Y111.202681 Z2 I7.264648 J1.773379
G03 X55.446810 Y110.166667 Z2 I345.190590 J135.772217
G03 X56.488641 Y107.717004 Z2 I50.753619 J20.138932
G03 X57.627675 Y105.366667 Z2 I47.997349 J21.809569
G01 X58.224382 Y104.169857 Z2
G01 X59.286214 Y103.602881 Z2
G02 X59.424448 Y102.805355 Z2 I-1.480215 J-0.667307
G03 X59.366664 Y101.366667 Z2 I17.880983 J-1.438688
G00 Z0.000000

(End cutting path id: path9)


(Start cutting path id: path9)
(Change tool to Default tool)

G00 Z0.000000
G00 X58.033330 Y104.166667

G01 Z2 F100.0(Penetrate)
G02 X57.667579 Y103.981839 Z2 I-1.796848 J3.101432 F75.000000
G02 X56.966664 Y103.727983 Z2 I-2.355170 J5.408230
G03 X55.986193 Y103.432040 Z2 I16.151859 J-55.283933
G03 X54.966664 Y103.099589 Z2 I12.102939 J-38.845640
G03 X51.775108 Y101.926159 Z2 I22.912456 J-67.245486
G03 X49.899997 Y100.833333 Z2 I2.643422 J-6.690785
G00 Z0.000000

(End cutting path id: path9)


(Start cutting path id: path9)
(Change tool to Default tool)

G00 Z0.000000
G00 X49.233333 Y100.833333

G01 Z2 F100.0(Penetrate)
G02 X47.080174 Y99.343342 Z2 I-6.951662 J7.744976 F75.000000
G03 X43.633333 Y97.233333 Z2 I13.300829 J-25.598130
G03 X42.591238 Y96.473189 Z2 I34.684718 J-48.644296
G03 X41.633333 Y95.738580 Z2 I27.307962 J-36.600482
G03 X40.987433 Y95.207312 Z2 I12.395974 J-15.728923
G03 X40.566667 Y94.833333 Z2 I10.542130 J-12.284712
G01 X41.500205 Y93.899795 Z2
G03 X42.858091 Y92.579150 Z2 I48.174532 J48.174587
G02 X43.546091 Y91.722839 Z2 I-2.776322 J-2.935168
G01 X43.633333 Y91.500000 Z2
G00 Z0.000000

(End cutting path id: path9)


(Start cutting path id: path9)
(Change tool to Default tool)

G00 Z0.000000
G00 X55.233333 Y94.300000

G01 Z2 F100.0(Penetrate)
G01 X54.299795 Y93.501750 Z2 F75.000000
G01 X52.578601 Y92.238684 Z2
G01 X51.754732 Y91.580351 Z2
G01 X50.566667 Y91.500000 Z2
G00 Z0.000000

(End cutting path id: path9)


(Start cutting path id: path9)
(Change tool to Default tool)

G00 Z0.000000
G00 X55.900000 Y94.300000

G01 Z2 F100.0(Penetrate)
G03 X56.792285 Y93.324991 Z2 I7.575331 J6.036811 F75.000000
G03 X58.028086 Y92.218622 Z2 I18.340659 J19.242932
G01 X59.366667 Y91.766667 Z2
G00 Z0.000000

(End cutting path id: path9)


(Start cutting path id: path9)
(Change tool to Default tool)

G00 Z0.000000
G00 X59.366667 Y96.300000

G01 Z2 F100.0(Penetrate)
G01 X59.078807 Y96.228400 Z2 F75.000000
G03 X58.118468 Y95.823966 Z2 I3.583573 J-9.851672
G03 X56.700000 Y94.995477 Z2 I4.437631 J-9.226269
G01 X55.633848 Y94.384674 Z2
G01 X54.544033 Y95.176855 Z2
G03 X53.832850 Y95.846277 Z2 I-57.145887 J-59.998299
G02 X53.111934 Y96.566671 Z2 I9.705186 J10.433146
G03 X51.646009 Y98.116118 Z2 I-101.162243 J-94.240962
G02 X50.362756 Y99.766671 Z2 I7.221695 J6.938763
G02 X49.962838 Y100.414250 Z2 I105.904483 J65.849481
G03 X49.503703 Y100.894033 Z2 I-1.337491 J-0.820352
G02 X49.084903 Y101.327535 Z2 I0.815094 J1.206501
G03 X48.713580 Y101.900000 Z2 I-18.345125 J-11.492689
G02 X47.142852 Y104.285903 Z2 I132.276560 J88.792517
G02 X45.667798 Y106.833333 Z2 I25.565882 J16.504341
G02 X45.104447 Y107.930645 Z2 I252.259490 J130.201161
G02 X44.637140 Y108.966667 Z2 I10.461484 J5.342151
G03 X44.291133 Y109.664672 Z2 I-4.275351 J-1.684567
G03 X44.033333 Y110.033333 Z2 I-2.953394 J-1.790801
G01 X42.966667 Y109.419958 Z2
G01 X41.233333 Y108.534054 Z2
G01 X37.233333 Y106.185185 Z2
G01 X35.233539 Y104.824691 Z2
G01 X34.300000 Y104.166667 Z2
G01 X33.600926 Y105.233333 Z2
G01 X32.243519 Y108.433333 Z2
G01 X30.816461 Y113.100000 Z2
G01 X30.445473 Y114.833333 Z2
G01 X30.570370 Y115.738271 Z2
G01 X32.033333 Y116.720062 Z2
G01 X39.233333 Y120.159465 Z2
G01 X40.700000 Y120.784054 Z2
G01 X41.900000 Y121.141461 Z2
G01 X46.033333 Y122.282717 Z2
G01 X48.966667 Y122.833333 Z2
G01 X51.366667 Y122.964095 Z2
G01 X52.433333 Y122.566667 Z2
G00 Z0.000000

(End cutting path id: path9)


(Start cutting path id: path9)
(Change tool to Default tool)

G00 Z0.000000
G00 X40.566667 Y120.700000

G01 Z2 F100.0(Penetrate)
G02 X41.469916 Y118.144978 Z2 I-7.153884 J-3.966204 F75.000000
G03 X42.477778 Y114.166667 Z2 I27.072022 J4.741581
G03 X43.072423 Y112.548912 Z2 I27.806805 J9.302892
G02 X43.623457 Y111.100000 Z2 I-39.476339 J-15.842447
G03 X43.932218 Y110.404173 Z2 I4.949068 J1.779645
G03 X44.166667 Y110.033333 Z2 I2.628454 J1.402206
G01 X45.233333 Y110.508744 Z2
G01 X47.366667 Y111.324178 Z2
G01 X50.433333 Y112.345473 Z2
G01 X52.966667 Y113.011316 Z2
G01 X54.166667 Y113.366667 Z2
G00 Z0.000000

(End cutting path id: path9)


(Start cutting path id: path9)
(Change tool to Default tool)

G00 Z0.000000
G00 X40.300000 Y122.833333

G01 Z2 F100.0(Penetrate)
G02 X40.530811 Y121.501369 Z2 I-5.578855 J-1.652720 F75.000000
G03 X40.566667 Y120.966667 Z2 I22.669031 J1.251575
G00 Z0.000000

(End cutting path id: path9)


(Start cutting path id: path9)
(Change tool to Default tool)

G00 Z0.000000
G00 X34.299997 Y104.033333

G01 Z2 F100.0(Penetrate)
G02 X33.771308 Y103.631919 Z2 I-3.141534 J3.588750 F75.000000
G03 X32.966664 Y103.059979 Z2 I7.084081 J-10.818339
G03 X29.465389 Y99.722249 Z2 I14.028819 J-18.221494
G02 X27.633333 Y98.300000 Z2 I-4.306758 J3.656613
G00 Z0.000000

(End cutting path id: path9)


(Start cutting path id: path9)
(Change tool to Default tool)

G00 Z0.000000
G00 X27.500000 Y92.966667

G01 Z2 F100.0(Penetrate)
G02 X28.161716 Y92.272730 Z2 I-2.633410 J-3.173599 F75.000000
G02 X28.566667 Y91.500000 Z2 I-2.155509 J-1.622072
G00 Z0.000000

(End cutting path id: path9)


(Start cutting path id: path9)
(Change tool to Default tool)

G00 Z0.000000
G00 X34.166667 Y103.900000

G01 Z2 F100.0(Penetrate)
G01 X34.809671 Y102.966461 Z2 F75.000000
G01 X35.874795 Y101.100000 Z2
G01 X38.383539 Y97.500000 Z2
G01 X39.671296 Y95.900205 Z2
G01 X40.566667 Y94.966667 Z2
G03 X40.140847 Y94.540534 Z2 I305.219727 J-305.421010
G02 X39.500000 Y93.938066 Z2 I-9.753062 J9.732299
G03 X38.170179 Y92.709703 Z2 I25.867496 J-29.338059
G03 X37.381585 Y91.787860 Z2 I4.482071 J-4.632430
G01 X37.233333 Y91.500000 Z2
G00 Z0.000000

(End cutting path id: path9)


(Footer)
M5
M2
(Using default footer. To add your own footer create file "footer" in the output dir.)
(end)
%