%
(Header)
(Generated by gcodetools from Inkscape.)
(Using default header. To add your own header create file "header" in the output dir.)
M3
(Header end.)
G21 (All units in mm)

(Start cutting path id: path11)
(Change tool to Default tool)

G00 Z0.000000
G00 X91.633333 Y114.566667

G01 Z2 F100.0(Penetrate)
G03 X92.663011 Y115.802091 Z2 I-2.802483 J3.382571 F75.000000
G02 X94.540638 Y118.566565 Z2 I16.987740 J-9.518173
G02 X95.380802 Y119.333208 Z2 I2.980968 J-2.423153
G03 X95.960699 Y119.951851 Z2 I-1.051539 J1.566792
G02 X96.387815 Y120.617215 Z2 I7.732405 J-4.493875
G02 X96.833951 Y121.122119 Z2 I2.534528 J-1.789968
G03 X97.670741 Y121.890347 Z2 I-87.303223 J95.934622
G02 X98.566667 Y122.626131 Z2 I6.621877 J-7.149762
G02 X99.332886 Y123.002846 Z2 I1.473196 J-2.028823
G02 X99.766667 Y123.100000 Z2 I0.957320 J-3.257350
G00 Z0.000000

(End cutting path id: path11)


(Start cutting path id: path11)
(Change tool to Default tool)

G00 Z0.000000
G00 X102.833330 Y122.833333

G01 Z2 F100.0(Penetrate)
G01 X103.500000 Y118.433333 Z2 F75.000000
G01 X103.941870 Y117.059157 Z2
G01 X105.233330 Y117.353394 Z2
G01 X109.633330 Y119.519958 Z2
G01 X111.358850 Y120.319753 Z2
G01 X111.330950 Y121.366667 Z2
G01 X111.233330 Y122.700000 Z2
G00 Z0.000000

(End cutting path id: path11)


(Start cutting path id: path11)
(Change tool to Default tool)

G00 Z0.000000
G00 X111.766670 Y120.433358

G01 Z2 F100.0(Penetrate)
G02 X114.095129 Y121.099730 Z2 I12.999458 J-41.021842 F75.000000
G02 X117.500000 Y121.873379 Z2 I15.938077 J-62.265025
G02 X118.530807 Y122.067349 Z2 I9.967070 J-50.131664
G02 X119.500000 Y122.164737 Z2 I1.127560 J-6.349987
G02 X120.273749 Y122.168796 Z2 I0.491990 J-20.034315
G03 X120.566670 Y122.166737 Z2 I0.292921 J20.832192
G00 Z0.000000

(End cutting path id: path11)


(Start cutting path id: path11)
(Change tool to Default tool)

G00 Z0.000000
G00 X120.833330 Y122.433358

G01 Z2 F100.0(Penetrate)
G03 X120.730361 Y121.902232 Z2 I1.787756 J-0.622136 F75.000000
G03 X120.694650 Y121.100025 Z2 I111.052430 J-5.345479
G02 X120.485580 Y118.694331 Z2 I-26.336647 J1.076884
G02 X120.129010 Y116.033358 Z2 I-1910.891284 J254.705140
G02 X119.970911 Y115.113315 Z2 I-12.770577 J1.720877
G03 X119.825310 Y114.300025 Z2 I13.822290 J-2.894241
G01 X119.903810 Y113.409079 Z2
G01 X120.833330 Y113.100641 Z2
G03 X122.296682 Y113.095204 Z2 I0.911731 J48.458305
G02 X123.143830 Y113.100025 Z2 I0.847148 J-74.427822
G01 X123.366670 Y113.100025 Z2
G00 Z0.000000

(End cutting path id: path11)


(Start cutting path id: path11)
(Change tool to Default tool)

G00 Z0.000000
G00 X120.833330 Y122.700000

G01 Z2 F100.0(Penetrate)
G01 X121.633950 Y122.430658 Z2 F75.000000
G02 X122.761243 Y122.433035 Z2 I1.706318 J-542.015205
G02 X123.366670 Y122.433358 Z2 I0.605485 J-566.704466
G00 Z0.000000

(End cutting path id: path11)


(Start cutting path id: path11)
(Change tool to Default tool)

G00 Z0.000000
G00 X111.500000 Y119.900000

G01 Z2 F100.0(Penetrate)
G02 X111.455167 Y117.994868 Z2 I-40.500661 J0.000000 F75.000000
G03 X111.367080 Y115.233333 Z2 I90.969191 J-4.283891
G02 X111.294998 Y114.239017 Z2 I-8.958390 J0.149660
G03 X111.233850 Y113.366667 Z2 I7.474855 J-0.962273
G03 X111.231874 Y112.733174 Z2 I32.176241 J-0.417129
G02 X111.233330 Y112.300000 Z2 I-64.422803 J-0.433174
G01 X112.300000 Y112.415946 Z2
G01 X113.900000 Y112.699898 Z2
G01 X118.033330 Y113.100000 Z2
G01 X119.766670 Y113.366667 Z2
G00 Z0.000000

(End cutting path id: path11)


(Start cutting path id: path11)
(Change tool to Default tool)

G00 Z0.000000
G00 X117.100000 Y105.366667

G01 Z2 F100.0(Penetrate)
G03 X117.606011 Y105.186185 Z2 I0.859923 J1.611351 F75.000000
G03 X118.433330 Y105.099485 Z2 I0.890885 J4.510489
G02 X120.636451 Y104.872319 Z2 I-0.172379 J-12.468614
G02 X122.566050 Y104.489301 Z2 I-43.805966 J-225.741291
G01 X123.229630 Y104.220062 Z2
G02 X123.455932 Y103.590364 Z2 I-0.850571 J-0.661193
G02 X123.324430 Y102.445268 Z2 I-4.026077 J-0.117748
G02 X122.934404 Y101.726862 Z2 I-1.666822 J0.439849
G03 X122.110130 Y100.700000 Z2 I8.083202 J-7.332739
G02 X121.125291 Y99.393083 Z2 I-22.454837 J15.896520
G03 X120.220730 Y98.166768 Z2 I14.874000 J-11.918209
G02 X119.795546 Y97.647524 Z2 I-3.071190 J2.081147
G02 X119.129470 Y97.198765 Z2 I-1.433088 J1.408382
G01 X118.152310 Y96.033333 Z2
G02 X116.591546 Y94.582674 Z2 I-8.602432 J7.690409
G03 X114.968670 Y93.298045 Z2 I47.865155 J-62.135652
G03 X114.460878 Y92.795502 Z2 I2.316944 J-2.848965
G02 X113.888120 Y92.380452 Z2 I-1.097244 J0.911447
G02 X112.967085 Y92.219691 Z2 I-0.849623 J2.148881
G02 X112.204780 Y92.411212 Z2 I0.056867 J1.839189
G02 X111.435570 Y92.802149 Z2 I21.798209 J43.842553
G03 X110.433380 Y93.183435 Z2 I-2.144634 J-4.129308
G03 X109.148159 Y93.463270 Z2 I-4.795943 J-18.935461
G03 X108.033380 Y93.635903 Z2 I-3.744914 J-20.497100
G02 X107.449991 Y93.817447 Z2 I0.221327 J1.739358
G03 X106.700050 Y94.017694 Z2 I-0.831525 J-1.609712
G03 X105.686153 Y93.928298 Z2 I-0.172825 J-3.834196
G03 X104.433380 Y93.633331 Z2 I13.680077 J-60.909405
G00 Z0.000000

(End cutting path id: path11)


(Start cutting path id: path11)
(Change tool to Default tool)

G00 Z0.000000
G00 X104.700000 Y91.500000

G01 Z2 F100.0(Penetrate)
G01 X106.433330 Y91.500000 Z2 F75.000000
G00 Z0.000000

(End cutting path id: path11)


(Start cutting path id: path11)
(Change tool to Default tool)

G00 Z0.000000
G00 X112.300000 Y92.166672

G01 Z2 F100.0(Penetrate)
G01 X111.880250 Y91.542186 Z2 F75.000000
G02 X111.375519 Y91.483277 Z2 I-0.428505 J1.479708
G03 X110.700000 Y91.500000 Z2 I-0.675519 J-13.635313
G01 X108.700000 Y91.500000 Z2
G00 Z0.000000

(End cutting path id: path11)


(Start cutting path id: path11)
(Change tool to Default tool)

G00 Z0.000000
G00 X114.300000 Y92.166667

G01 Z2 F100.0(Penetrate)
G01 X114.719750 Y91.542181 Z2 F75.000000
G01 X116.300000 Y91.500000 Z2
G00 Z0.000000

(End cutting path id: path11)


(Start cutting path id: path11)
(Change tool to Default tool)

G00 Z0.000000
G00 X119.766670 Y97.233338

G01 Z2 F100.0(Penetrate)
G01 X120.700210 Y96.701856 Z2 F75.000000
G01 X122.696710 Y95.887249 Z2
G01 X123.366670 Y95.766672 Z2
G00 Z0.000000

(End cutting path id: path11)


(Start cutting path id: path11)
(Change tool to Default tool)

G00 Z0.000000
G00 X116.300050 Y104.833331

G01 Z2 F100.0(Penetrate)
G02 X115.528940 Y103.146193 Z2 I-9.305294 J3.233214 F75.000000
G02 X113.664870 Y100.299998 Z2 I-25.941766 J14.956631
G01 X113.109620 Y98.986418 Z2
G01 X114.433380 Y98.444031 Z2
G02 X117.268097 Y97.863175 Z2 I-6.241945 J-37.669703
G02 X118.833380 Y97.233331 Z2 I-1.411588 J-5.767997
G00 Z0.000000

(End cutting path id: path11)


(Start cutting path id: path11)
(Change tool to Default tool)

G00 Z0.000000
G00 X111.366670 Y98.566672

G01 Z2 F100.0(Penetrate)
G02 X111.256787 Y98.107078 Z2 I-3.024868 J0.480272 F75.000000
G02 X110.929530 Y97.500520 Z2 I-1.803553 J0.581512
G02 X109.313295 Y96.122704 Z2 I-4.444753 J3.577015
G03 X107.647740 Y94.995889 Z2 I6.557494 J-11.487032
G03 X107.260714 Y94.570094 Z2 I1.107710 J-1.395643
G03 X107.100000 Y94.300005 Z2 I3.398742 J-2.205248
G00 Z0.000000

(End cutting path id: path11)


(Start cutting path id: path11)
(Change tool to Default tool)

G00 Z0.000000
G00 X105.500000 Y98.833333

G01 Z2 F100.0(Penetrate)
G03 X105.875879 Y98.689620 Z2 I0.791122 J1.505758 F75.000000
G03 X106.566670 Y98.644033 Z2 I0.470144 J1.867559
G02 X108.377714 Y98.809475 Z2 I4.392424 J-38.087349
G02 X110.300000 Y98.827983 Z2 I1.121201 J-16.614781
G02 X110.887854 Y98.739166 Z2 I-0.140711 J-2.921149
G03 X111.500000 Y98.648045 Z2 I0.742558 J2.886729
G03 X112.086442 Y98.663243 Z2 I0.184339 J4.209112
G02 X112.833330 Y98.700005 Z2 I0.769269 J-8.023437
G00 Z0.000000

(End cutting path id: path11)


(Start cutting path id: path11)
(Change tool to Default tool)

G00 Z0.000000
G00 X107.900000 Y103.766667

G01 Z2 F100.0(Penetrate)
G02 X107.424839 Y102.309021 Z2 I-3.274188 J0.261046 F75.000000
G02 X105.981280 Y100.033333 Z2 I-78.577384 J48.249033
G03 X105.672565 Y99.439299 Z2 I2.787302 J-1.825775
G02 X105.310900 Y98.869958 Z2 I-1.683078 J0.669607
G02 X104.282724 Y98.245696 Z2 I-1.633410 J1.531423
G02 X103.100000 Y98.033333 Z2 I-1.693397 J6.031432
G00 Z0.000000

(End cutting path id: path11)


(Start cutting path id: path11)
(Change tool to Default tool)

G00 Z0.000000
G00 X101.100000 Y101.766667

G01 Z2 F100.0(Penetrate)
G01 X100.033330 Y100.700000 Z2 F75.000000
G00 Z0.000000

(End cutting path id: path11)


(Start cutting path id: path11)
(Change tool to Default tool)

G00 Z0.000000
G00 X97.766667 Y104.700000

G01 Z2 F100.0(Penetrate)
G03 X98.138429 Y104.788103 Z2 I-9.333958 J40.214410 F75.000000
G03 X98.833333 Y105.079116 Z2 I-0.558389 J2.308544
G03 X100.026067 Y106.105970 Z2 I-2.690738 J4.331538
G02 X101.366670 Y107.196708 Z2 I3.621155 J-3.081463
G02 X101.959104 Y107.416732 Z2 I1.051498 J-1.923651
G02 X102.433330 Y107.500000 Z2 I1.357434 J-6.338762
G00 Z0.000000

(End cutting path id: path11)


(Start cutting path id: path11)
(Change tool to Default tool)

G00 Z0.000000
G00 X103.500000 Y109.233333

G01 Z2 F100.0(Penetrate)
G03 X103.954866 Y109.286518 Z2 I-0.536685 J6.561749 F75.000000
G03 X104.566670 Y109.439714 Z2 I-0.505072 J3.315303
G03 X105.461417 Y109.837023 Z2 I-2.082551 J5.896088
G02 X106.433330 Y110.329218 Z2 I9.438017 J-17.431097
G02 X108.842483 Y111.270881 Z2 I8.049811 J-17.042034
G02 X110.833330 Y111.766667 Z2 I5.131154 J-16.359283
G00 Z0.000000

(End cutting path id: path11)


(Start cutting path id: path11)
(Change tool to Default tool)

G00 Z0.000000
G00 X111.233330 Y112.300000

G01 Z2 F100.0(Penetrate)
G03 X110.850938 Y111.400986 Z2 I2.255428 J-1.490170 F75.000000
G03 X110.700000 Y110.433333 Z2 I7.274913 J-1.630364
G02 X109.749997 Y106.831192 Z2 I-11.040227 J0.985326
G03 X109.233330 Y104.833333 Z2 I5.436485 J-2.471669
G00 Z0.000000

(End cutting path id: path11)


(Start cutting path id: path11)
(Change tool to Default tool)

G00 Z0.000000
G00 X103.766670 Y115.633333

G01 Z2 F100.0(Penetrate)
G02 X103.668540 Y113.134203 Z2 I-31.872289 J-0.000000 F75.000000
G02 X103.404730 Y110.433333 Z2 I-71.667323 J5.636844
G03 X103.386988 Y109.804700 Z2 I3.552831 J-0.414836
G02 X103.350330 Y109.233333 Z2 I-2.312702 J-0.138479
G02 X103.040282 Y108.463372 Z2 I-2.105946 J0.400618
G03 X102.639320 Y107.633333 Z2 I3.033387 J-1.977184
G03 X102.492567 Y106.872127 Z2 I2.794847 J-0.933568
G02 X102.414010 Y106.166667 Z2 I-6.768271 J0.396583
G02 X101.873891 Y104.473852 Z2 I-6.046113 J0.996531
G03 X101.342100 Y102.966667 Z2 I6.249224 J-3.052370
G03 X101.209464 Y102.334252 Z2 I18.203563 J-4.147945
G02 X101.100020 Y101.766667 Z2 I-268.244363 J51.429484
G02 X101.748993 Y101.911541 Z2 I2.483946 J-9.601004
G03 X102.433350 Y102.073458 Z2 I-1.408097 J7.478660
G03 X104.532579 Y102.918795 Z2 I-2.988915 J10.451560
G02 X106.833350 Y103.798560 Z2 I4.741678 J-8.952109
G02 X107.425593 Y103.852970 Z2 I0.474047 J-1.909468
G03 X108.033350 Y103.939815 Z2 I0.091897 J1.526915
G02 X109.607828 Y104.475074 Z2 I17.233477 J-48.109348
G02 X111.233350 Y104.866152 Z2 I3.403532 J-10.573056
G02 X113.296533 Y105.124649 Z2 I4.607877 J-28.414690
G02 X115.233350 Y105.226029 Z2 I2.367274 J-26.674050
G02 X115.941481 Y105.133610 Z2 I0.039382 J-2.457377
G03 X116.813700 Y105.251029 Z2 I0.300807 J1.063772
G01 X117.442720 Y106.700000 Z2
G02 X118.170565 Y108.711537 Z2 I18.517141 J-5.562706
G03 X118.922240 Y110.700000 Z2 I-23.793355 J10.130623
G03 X119.122690 Y111.387997 Z2 I-9.241618 J3.065772
G03 X119.233250 Y112.033128 Z2 I-4.127189 J1.039341
G02 X119.313375 Y112.660387 Z2 I9.205738 J-0.857185
G02 X119.366690 Y112.966667 Z2 I13.836296 J-2.250721
G00 Z0.000000

(End cutting path id: path11)


(Start cutting path id: path11)
(Change tool to Default tool)

G00 Z0.000000
G00 X98.433353 Y112.433333

G01 Z2 F100.0(Penetrate)
G02 X98.357250 Y111.651900 Z2 I-5.143834 J0.106534 F75.000000
G03 X98.323168 Y110.966667 Z2 I2.737145 J-0.479602
G03 X98.388737 Y110.339012 Z2 I10.482928 J0.777865
G02 X98.395288 Y109.633333 Z2 I-2.808623 J-0.378942
G02 X98.126393 Y107.819626 Z2 I-28.787015 J3.341099
G02 X97.753209 Y106.033333 Z2 I-33.101493 J5.983276
G03 X97.659533 Y105.196089 Z2 I3.377116 J-0.801717
G02 X97.504135 Y104.433333 Z2 I-1.856388 J-0.019002
G02 X97.013464 Y103.428463 Z2 I-12.188623 J5.329387
G03 X96.833353 Y102.966667 Z2 I1.756368 J-0.951046
G00 Z0.000000

(End cutting path id: path11)


(Start cutting path id: path11)
(Change tool to Default tool)

G00 Z0.000000
G00 X93.633333 Y106.033333

G01 Z2 F100.0(Penetrate)
G01 X93.233333 Y104.433333 Z2 F75.000000
G00 Z0.000000

(End cutting path id: path11)


(Start cutting path id: path11)
(Change tool to Default tool)

G00 Z0.000000
G00 X91.500000 Y111.366667

G01 Z2 F100.0(Penetrate)
G03 X91.700204 Y111.206361 Z2 I8.426981 J10.319156 F75.000000
G02 X92.057510 Y110.818005 Z2 I-1.013490 J-1.291008
G02 X92.649789 Y109.366135 Z2 I-3.379600 J-2.225423
G02 X92.959979 Y107.366667 Z2 I-25.839735 J-5.032479
G01 X93.640535 Y106.167489 Z2
G01 X94.725103 Y107.100103 Z2
G03 X95.901136 Y108.947006 Z2 I-6747.121396 J4297.593799
G02 X97.122942 Y110.396606 Z2 I6.009539 J-3.825477
G02 X97.659938 Y110.767489 Z2 I1.659052 J-1.827919
G03 X98.033333 Y110.966667 Z2 I-5.293202 J10.372662
G00 Z0.000000

(End cutting path id: path11)


(Start cutting path id: path11)
(Change tool to Default tool)

G00 Z0.000000
G00 X96.033333 Y119.766667

G01 Z2 F100.0(Penetrate)
G02 X96.796897 Y118.470659 Z2 I-3.789275 J-3.105450 F75.000000
G02 X97.677366 Y116.033333 Z2 I-38.070746 J-15.130514
G02 X98.085756 Y114.071758 Z2 I-8.695671 J-2.833696
G03 X98.566667 Y112.566667 Z2 I3.707076 J0.355118
G03 X100.144280 Y113.634616 Z2 I-2.348955 J5.169190
G02 X102.033330 Y115.174178 Z2 I10.567171 J-11.037251
G02 X102.738981 Y115.523420 Z2 I1.553643 J-2.251657
G03 X103.326230 Y115.768929 Z2 I-1.222073 J3.748252
G01 X103.766670 Y116.966667 Z2
G00 Z0.000000

(End cutting path id: path11)


(Start cutting path id: path11)
(Change tool to Default tool)

G00 Z0.000000
G00 X94.566667 Y122.833333

G01 Z2 F100.0(Penetrate)
G02 X95.363128 Y121.491853 Z2 I-49.536457 J-30.317882 F75.000000
G03 X96.033333 Y120.566667 Z2 I4.743220 J2.730647
G00 Z0.000000

(End cutting path id: path11)


(Footer)
M5
M2
(Using default footer. To add your own footer create file "footer" in the output dir.)
(end)
%