%
(Header)
(Generated by gcodetools from Inkscape.)
(Using default header. To add your own header create file "header" in the output dir.)
M3
(Header end.)
G21 (All units in mm)

(Start cutting path id: path12)
(Change tool to Default tool)

G00 Z0.000000
G00 X141.900000 Y122.833333

G01 Z2 F100.0(Penetrate)
G01 X141.633330 Y120.966667 Z2 F75.000000
G01 X141.233330 Y119.766667 Z2
G03 X141.726917 Y119.510156 Z2 I1.451701 J2.190268
G03 X142.433330 Y119.263991 Z2 I3.597896 J9.188113
G02 X143.399411 Y118.912527 Z2 I-2.924597 J-9.542414
G02 X144.433330 Y118.470782 Z2 I-65.737330 J-155.291339
G02 X146.657610 Y117.455093 Z2 I-22.779389 J-52.828452
G02 X148.833330 Y116.341152 Z2 I-22.529379 J-46.685523
G03 X150.356072 Y115.665981 Z2 I5.002801 J9.228291
G02 X151.419440 Y114.671604 Z2 I-0.599958 J-1.707344
G02 X151.366290 Y113.129018 Z2 I-1.667478 J-0.714755
G03 X150.706690 Y111.633333 Z2 I12.441260 J-6.379905
G02 X149.750688 Y109.205931 Z2 I-66.684236 J24.860802
G02 X148.667080 Y106.833333 Z2 I-34.506031 J14.325771
G03 X148.172721 Y105.796781 Z2 I28.024460 J-14.001772
G02 X147.720880 Y104.833539 Z2 I-40.625984 J18.469377
G02 X147.350886 Y104.217010 Z2 I-3.600825 J1.741657
G02 X147.100000 Y103.900000 Z2 I-4.190721 J3.058810
G03 X147.546540 Y103.536768 Z2 I3.953902 J4.404643
G03 X148.166670 Y103.111833 Z2 I6.652139 J9.042857
G02 X150.330789 Y101.521337 Z2 I-10.854956 J-17.037432
G02 X152.566670 Y99.595268 Z2 I-88.197952 J-104.645542
G02 X153.608719 Y98.632855 Z2 I-19.686400 J-22.360708
G03 X154.566050 Y97.771914 Z2 I12.087869 J12.478493
G02 X155.105877 Y97.269818 Z2 I-4.389214 J-5.260290
G02 X155.366670 Y96.833333 Z2 I-0.805084 J-0.777179
G00 Z0.000000

(End cutting path id: path12)


(Start cutting path id: path12)
(Change tool to Default tool)

G00 Z0.000000
G00 X155.366670 Y95.766667

G01 Z2 F100.0(Penetrate)
G03 X155.392723 Y94.857254 Z2 I15.884887 J0.000000 F75.000000
G02 X155.324370 Y94.178601 Z2 I-2.168549 J-0.124354
G02 X155.100517 Y93.755148 Z2 I-1.023460 J0.270144
G03 X154.759250 Y93.354732 Z2 I22.828904 J-19.802296
G03 X153.716192 Y91.883806 Z2 I8.618450 J-7.216775
G03 X153.500000 Y91.500000 Z2 I8.042549 J-4.783029
G00 Z0.000000

(End cutting path id: path12)


(Start cutting path id: path12)
(Change tool to Default tool)

G00 Z0.000000
G00 X141.233330 Y94.833333

G01 Z2 F100.0(Penetrate)
G02 X141.586663 Y94.477060 Z2 I-42.646695 J-42.648010 F75.000000
G03 X142.166870 Y93.905042 Z2 I18.846284 J18.535850
G03 X143.474074 Y92.697903 Z2 I35.636138 J37.278831
G02 X144.285080 Y91.787860 Z2 I-3.550760 J-3.980736
G01 X144.433330 Y91.500000 Z2
G00 Z0.000000

(End cutting path id: path12)


(Start cutting path id: path12)
(Change tool to Default tool)

G00 Z0.000000
G00 X147.233330 Y103.766667

G01 Z2 F100.0(Penetrate)
G03 X146.937020 Y103.372983 Z2 I4.465630 J-3.669448 F75.000000
G03 X146.534160 Y102.700000 Z2 I5.119140 J-3.521485
G02 X145.992483 Y101.718444 Z2 I-17.792555 J9.178667
G02 X145.373350 Y100.700000 Z2 I-36.797848 J21.672772
G02 X143.782441 Y98.272911 Z2 I-61.311057 J38.453246
G02 X142.150720 Y96.033333 Z2 I-38.913082 J26.637238
G02 X141.697251 Y95.481100 Z2 I-9.921771 J7.685010
G02 X141.237140 Y94.966667 Z2 I-18.956367 J16.491680
G03 X140.749820 Y94.377058 Z2 I5.340585 J-4.910262
G02 X140.395270 Y93.900000 Z2 I-202.627241 J150.222411
G02 X139.334025 Y92.674009 Z2 I-8.893442 J6.626046
G03 X138.597630 Y91.787860 Z2 I4.366945 J-4.378007
G01 X138.433330 Y91.500000 Z2
G00 Z0.000000

(End cutting path id: path12)


(Start cutting path id: path12)
(Change tool to Default tool)

G00 Z0.000000
G00 X133.100000 Y100.700000

G01 Z2 F100.0(Penetrate)
G03 X133.377396 Y100.449912 Z2 I21.648172 J23.733126 F75.000000
G03 X133.900620 Y100.046604 Z2 I3.090179 J3.467933
G03 X134.652892 Y99.580332 Z2 I7.978282 J12.031979
G02 X135.500000 Y99.055658 Z2 I-8.222111 J-14.221126
G02 X137.994869 Y97.343711 Z2 I-50.578047 J-76.382725
G02 X140.166670 Y95.684774 Z2 I-23.018363 J-32.385616
G02 X140.781666 Y95.177196 Z2 I-77.017914 J-93.943410
G03 X141.233330 Y94.833333 Z2 I4.261921 J5.129476
G00 Z0.000000

(End cutting path id: path12)


(Start cutting path id: path12)
(Change tool to Default tool)

G00 Z0.000000
G00 X132.833330 Y100.700000

G01 Z2 F100.0(Penetrate)
G03 X132.582827 Y100.372209 Z2 I4.471015 J-3.676437 F75.000000
G03 X132.185080 Y99.766461 Z2 I8.239093 J-5.843418
G02 X131.809124 Y99.195353 Z2 I-7.889941 J4.784587
G02 X131.349790 Y98.566667 Z2 I-26.992676 J19.239399
G02 X129.775722 Y96.597677 Z2 I-31.854027 J23.851368
G02 X128.149280 Y94.700000 Z2 I-378.452094 J322.714060
G02 X127.506279 Y94.010060 Z2 I-9.138714 J7.872378
G02 X126.846710 Y93.461934 Z2 I-3.432116 J3.459023
G03 X126.486001 Y93.142402 Z2 I1.148324 J-1.659668
G03 X126.220780 Y92.836009 Z2 I11.935106 J-10.599282
G02 X125.088535 Y91.869007 Z2 I-3.503057 J2.955303
G02 X123.766670 Y91.500000 Z2 I-1.323840 J2.190180
G00 Z0.000000

(End cutting path id: path12)


(Start cutting path id: path12)
(Change tool to Default tool)

G00 Z0.000000
G00 X123.500000 Y95.366667

G01 Z2 F100.0(Penetrate)
G01 X124.169960 Y95.127057 Z2 F75.000000
G01 X125.766460 Y94.241563 Z2
G01 X126.700000 Y93.500000 Z2
G00 Z0.000000

(End cutting path id: path12)


(Start cutting path id: path12)
(Change tool to Default tool)

G00 Z0.000000
G00 X127.233330 Y93.500000

G01 Z2 F100.0(Penetrate)
G01 X128.033950 Y92.799280 Z2 F75.000000
G01 X128.954730 Y92.107304 Z2
G01 X129.655970 Y91.579938 Z2
G01 X130.700000 Y91.500000 Z2
G00 Z0.000000

(End cutting path id: path12)


(Start cutting path id: path12)
(Change tool to Default tool)

G00 Z0.000000
G00 X123.633330 Y104.033333

G01 Z2 F100.0(Penetrate)
G01 X124.433330 Y104.033333 Z2 F75.000000
G00 Z0.000000

(End cutting path id: path12)


(Start cutting path id: path12)
(Change tool to Default tool)

G00 Z0.000000
G00 X123.500000 Y112.966667

G01 Z2 F100.0(Penetrate)
G01 X123.787860 Y112.966667 Z2 F75.000000
G02 X125.088517 Y112.864342 Z2 I-0.027012 J-8.660898
G02 X126.832720 Y112.582098 Z2 I-20.748428 J-133.750847
G02 X127.396425 Y112.414795 Z2 I-0.402903 J-2.390844
G02 X127.633330 Y112.300000 Z2 I-1.275600 J-2.934331
G00 Z0.000000

(End cutting path id: path12)


(Start cutting path id: path12)
(Change tool to Default tool)

G00 Z0.000000
G00 X130.300000 Y122.166667

G01 Z2 F100.0(Penetrate)
G02 X130.248264 Y121.778935 Z2 I-27.393822 J3.457876 F75.000000
G03 X130.163370 Y120.966667 Z2 I11.362871 J-1.598164
G02 X130.020749 Y119.983735 Z2 I-6.572237 J0.451805
G02 X129.783950 Y118.966667 Z2 I-55.384284 J12.358730
G02 X129.078705 Y116.195673 Z2 I-123.264008 J29.896633
G02 X128.339200 Y113.500000 Z2 I-186.188927 J49.628034
G02 X128.125256 Y112.861457 Z2 I-6.713702 J1.894314
G02 X127.822220 Y112.300000 Z2 I-2.415962 J0.941464
G03 X127.564742 Y111.683520 Z2 I1.232906 J-0.876943
G02 X127.354320 Y110.833333 Z2 I-6.202159 J1.083904
G02 X126.257754 Y108.190976 Z2 I-16.795894 J5.421509
G03 X125.027060 Y105.633333 Z2 I48.516655 J-24.920288
G01 X124.743720 Y104.203703 Z2
G01 X126.166670 Y103.500000 Z2
G02 X128.880467 Y102.483564 Z2 I-12.514571 J-37.543840
G02 X131.500000 Y101.338786 Z2 I-32.333204 J-77.555783
G02 X132.218808 Y100.978714 Z2 I-4.727765 J-10.335501
G03 X132.808640 Y100.815125 Z2 I0.645486 J1.182212
G01 X133.848770 Y102.166667 Z2
G02 X135.462208 Y104.929032 Z2 I366.313692 J-212.103651
G03 X136.934980 Y107.766667 Z2 I-25.675881 J15.127147
G01 X137.236210 Y109.324795 Z2
G01 X136.300000 Y109.778497 Z2
G02 X134.008315 Y110.616830 Z2 I15.207363 J45.122664
G03 X131.633330 Y111.422839 Z2 I-9.381640 J-23.741843
G02 X130.230109 Y111.829639 Z2 I48.526733 J170.012325
G03 X128.966870 Y112.129012 Z2 I-3.421325 J-11.621793
G02 X128.368031 Y112.286408 Z2 I0.708466 J3.913356
G02 X128.033330 Y112.433333 Z2 I0.764182 J2.195538
G00 Z0.000000

(End cutting path id: path12)


(Start cutting path id: path12)
(Change tool to Default tool)

G00 Z0.000000
G00 X130.700000 Y122.166667

G01 Z2 F100.0(Penetrate)
G02 X132.817537 Y121.984837 Z2 I-0.035798 J-12.837895 F75.000000
G02 X136.566670 Y121.138684 Z2 I-6.033966 J-35.464191
G02 X138.380926 Y120.595452 Z2 I-16.606098 J-58.761344
G03 X140.166460 Y120.100411 Z2 I7.769510 J24.555781
G03 X140.819912 Y119.960864 Z2 I3.223230 J13.493612
G02 X141.100000 Y119.900000 Z2 I-0.959549 J-5.090590
G00 Z0.000000

(End cutting path id: path12)


(Start cutting path id: path12)
(Change tool to Default tool)

G00 Z0.000000
G00 X141.366670 Y119.633333

G01 Z2 F100.0(Penetrate)
G01 X141.011320 Y118.433333 Z2 F75.000000
G01 X140.477780 Y116.566667 Z2
G01 X139.019860 Y112.433333 Z2
G01 X138.185290 Y110.300000 Z2
G01 X137.633330 Y109.233333 Z2
G00 Z0.000000

(End cutting path id: path12)


(Start cutting path id: path12)
(Change tool to Default tool)

G00 Z0.000000
G00 X137.766670 Y109.366667

G01 Z2 F100.0(Penetrate)
G01 X138.700210 Y108.734774 Z2 F75.000000
G01 X140.700000 Y107.733745 Z2
G01 X144.433330 Y105.640021 Z2
G01 X146.166460 Y104.532408 Z2
G01 X147.100000 Y103.900000 Z2
G00 Z0.000000

(End cutting path id: path12)


(Start cutting path id: path12)
(Change tool to Default tool)

G00 Z0.000000
G00 X130.566670 Y122.700000

G01 Z2 F100.0(Penetrate)
G01 X128.966670 Y122.421399 Z2 F75.000000
G03 X125.442398 Y122.558474 Z2 I-4.060032 J-59.011583
G03 X123.633330 Y122.566667 Z2 I-1.809068 J-199.723800
G00 Z0.000000

(End cutting path id: path12)


(Start cutting path id: path12)
(Change tool to Default tool)

G00 Z0.000000
G00 X123.500000 Y122.566667

G01 Z2 F100.0(Penetrate)
G01 X123.633330 Y122.566667 Z2 F75.000000
G00 Z0.000000

(End cutting path id: path12)


(Footer)
M5
M2
(Using default footer. To add your own footer create file "footer" in the output dir.)
(end)
%