%
(Header)
(Generated by gcodetools from Inkscape.)
(Using default header. To add your own header create file "header" in the output dir.)
M3
(Header end.)
G21 (All units in mm)

(Start cutting path id: path15)
(Change tool to Default tool)

G00 Z0.000000
G00 X112.566670 Y91.366667

G01 Z2 F100.0(Penetrate)
G02 X110.957255 Y91.005547 Z2 I-2.910072 J9.202474 F75.000000
G02 X109.100000 Y90.838580 Z2 I-2.761640 J20.306048
G03 X108.028925 Y90.761177 Z2 I0.846408 J-19.161665
G02 X106.966670 Y90.700515 Z2 I-1.234541 J12.287103
G01 X105.807000 Y90.390946 Z2
G01 X106.702060 Y89.134979 Z2
G03 X108.767461 Y88.045825 Z2 I39.119268 J71.680351
G02 X110.692700 Y86.827983 Z2 I-5.562808 J-10.924711
G02 X111.169338 Y86.293556 Z2 I-1.186248 J-1.537738
G03 X111.555250 Y85.808952 Z2 I2.051715 J1.237913
G01 X113.329630 Y85.252262 Z2
G02 X113.672003 Y84.822010 Z2 I-0.639702 J-0.860390
G03 X113.967900 Y84.338066 Z2 I1.916699 J0.839493
G03 X115.365530 Y82.902718 Z2 I8.894790 J7.262930
G02 X116.779430 Y81.366670 Z2 I-5.918120 J-6.866261
G02 X117.065019 Y80.744161 Z2 I-1.404890 J-1.021288
G03 X117.441770 Y80.170270 Z2 I0.976278 J0.230301
G02 X118.220318 Y79.573372 Z2 I-21.762213 J-29.191148
G02 X118.800410 Y78.833330 Z2 I-1.232485 J-1.563478
G03 X120.119406 Y76.479134 Z2 I14.593672 J6.629864
G02 X121.532410 Y74.033330 Z2 I-16.466109 J-11.143963
G02 X121.930342 Y72.989141 Z2 I-5.672191 J-2.759543
G03 X122.310700 Y72.300000 Z2 I1.669019 J0.471648
G02 X123.063920 Y70.984934 Z2 I-2.662376 J-2.398149
G02 X123.324900 Y70.033330 Z2 I-11.940022 J-3.786174
G02 X123.396755 Y69.186747 Z2 I-2.891823 J-0.671789
G03 X123.366700 Y68.166670 Z2 I17.295756 J-1.020077
G01 X123.366700 Y66.700000 Z2
G00 Z0.000000

(End cutting path id: path15)


(Start cutting path id: path15)
(Change tool to Default tool)

G00 Z0.000000
G00 X122.566670 Y72.166670

G01 Z2 F100.0(Penetrate)
G01 X123.366670 Y72.433330 Z2 F75.000000
G00 Z0.000000

(End cutting path id: path15)


(Start cutting path id: path15)
(Change tool to Default tool)

G00 Z0.000000
G00 X122.033330 Y72.433330

G01 Z2 F100.0(Penetrate)
G01 X121.099790 Y72.157100 Z2 F75.000000
G01 X119.633330 Y72.010800 Z2
G01 X115.633330 Y71.899900 Z2
G01 X113.900000 Y72.300000 Z2
G00 Z0.000000

(End cutting path id: path15)


(Start cutting path id: path15)
(Change tool to Default tool)

G00 Z0.000000
G00 X114.566670 Y71.766670

G01 Z2 F100.0(Penetrate)
G03 X114.821303 Y69.680782 Z2 I8.870791 J0.024409 F75.000000
G02 X115.354840 Y66.300000 Z2 I-19.888905 J-4.871252
G02 X115.372996 Y65.610735 Z2 I-7.404053 J-0.539901
G03 X115.537650 Y65.009050 Z2 I1.100731 J-0.022151
G01 X116.966670 Y64.677370 Z2
G03 X119.016900 Y64.507087 Z2 I8.072443 J84.765442
G03 X121.100000 Y64.433330 Z2 I2.083100 J29.379498
G01 X122.696710 Y64.433330 Z2
G01 X123.366670 Y64.433330 Z2
G00 Z0.000000

(End cutting path id: path15)


(Start cutting path id: path15)
(Change tool to Default tool)

G00 Z0.000000
G00 X115.633330 Y64.700040

G01 Z2 F100.0(Penetrate)
G01 X115.633330 Y63.366710 Z2 F75.000000
G01 X115.500000 Y60.169960 Z2
G01 X115.500000 Y59.500000 Z2
G00 Z0.000000

(End cutting path id: path15)


(Start cutting path id: path15)
(Change tool to Default tool)

G00 Z0.000000
G00 X107.500000 Y66.700000

G01 Z2 F100.0(Penetrate)
G03 X107.778801 Y66.629746 Z2 I0.864831 J2.843703 F75.000000
G02 X108.300620 Y66.524690 Z2 I-254.605441 J-1265.993284
G02 X109.061249 Y66.300045 Z2 I-0.888786 J-4.409386
G03 X109.900000 Y66.014710 Z2 I3.417865 J8.671487
G03 X112.059323 Y65.443281 Z2 I14.277244 J49.585471
G03 X114.166670 Y65.025210 Z2 I6.122868 J25.342969
G03 X114.909993 Y64.967144 Z2 I0.749667 J4.809905
G03 X115.366670 Y64.966710 Z2 I0.840874 J645.238198
G00 Z0.000000

(End cutting path id: path15)


(Start cutting path id: path15)
(Change tool to Default tool)

G00 Z0.000000
G00 X105.633330 Y75.100000

G01 Z2 F100.0(Penetrate)
G02 X106.098370 Y74.490711 Z2 I-59.278854 J-45.726762 F75.000000
G03 X106.700000 Y73.766670 Z2 I8.078733 J6.100908
G00 Z0.000000

(End cutting path id: path15)


(Start cutting path id: path15)
(Change tool to Default tool)

G00 Z0.000000
G00 X100.566670 Y70.300000

G01 Z2 F100.0(Penetrate)
G02 X101.082482 Y70.180873 Z2 I-2.610804 J-12.480900 F75.000000
G02 X101.633330 Y69.976340 Z2 I-0.669592 J-2.647383
G02 X102.466854 Y69.463193 Z2 I-2.475070 J-4.953882
G03 X103.366670 Y68.871190 Z2 I5.511825 J7.397872
G03 X105.433435 Y67.805329 Z2 I12.276981 J21.269042
G03 X106.966670 Y67.366670 Z2 I2.216647 J4.848926
G00 Z0.000000

(End cutting path id: path15)


(Start cutting path id: path15)
(Change tool to Default tool)

G00 Z0.000000
G00 X99.366667 Y63.900000

G01 Z2 F100.0(Penetrate)
G01 X99.366667 Y63.100000 Z2 F75.000000
G00 Z0.000000

(End cutting path id: path15)


(Start cutting path id: path15)
(Change tool to Default tool)

G00 Z0.000000
G00 X91.500000 Y60.833330

G01 Z2 F100.0(Penetrate)
G02 X92.139852 Y60.202684 Z2 I-2.396389 J-3.071288 F75.000000
G02 X92.566667 Y59.500000 Z2 I-2.448546 J-1.968231
G00 Z0.000000

(End cutting path id: path15)


(Start cutting path id: path15)
(Change tool to Default tool)

G00 Z0.000000
G00 X94.033333 Y69.366670

G01 Z2 F100.0(Penetrate)
G03 X93.744702 Y69.007292 Z2 I4.630528 J-4.014549 F75.000000
G03 X93.414815 Y68.433130 Z2 I2.266265 J-1.683944
G03 X92.453607 Y66.111667 Z2 I101.334545 J-43.317565
G02 X91.633333 Y64.966670 Z2 I-2.744663 J1.099953
G00 Z0.000000

(End cutting path id: path15)


(Start cutting path id: path15)
(Change tool to Default tool)

G00 Z0.000000
G00 X91.500000 Y76.300000

G01 Z2 F100.0(Penetrate)
G01 X92.109979 Y75.499380 Z2 F75.000000
G01 X93.073148 Y72.300620 Z2
G01 X93.766667 Y71.500000 Z2
G00 Z0.000000

(End cutting path id: path15)


(Start cutting path id: path15)
(Change tool to Default tool)

G00 Z0.000000
G00 X95.233333 Y76.433330

G01 Z2 F100.0(Penetrate)
G03 X94.899959 Y75.410053 Z2 I1.973360 J-1.208845 F75.000000
G02 X94.577263 Y72.833330 Z2 I-29.216167 J2.350324
G02 X94.324726 Y72.013303 Z2 I-3.266212 J0.556971
G03 X94.085905 Y71.366670 Z2 I4.194888 J-1.916714
G03 X94.019951 Y70.810980 Z2 I1.679498 J-0.481097
G02 X94.033335 Y70.300000 Z2 I-15.455586 J-0.660503
G01 X94.168315 Y69.416670 Z2
G03 X94.503760 Y68.999414 Z2 I1.523484 J0.881310
G02 X94.889405 Y68.560900 Z2 I-1.820409 J-1.989767
G03 X96.101771 Y66.900810 Z2 I46.946828 J33.012599
G03 X97.490023 Y65.233440 Z2 I18.955672 J14.370872
G01 X99.092698 Y64.182920 Z2
G01 X99.951442 Y66.033330 Z2
G03 X100.175245 Y67.513329 Z2 I-26.029496 J4.693055
G03 X100.304732 Y68.966670 Z2 I-22.001408 J2.692681
G02 X100.388028 Y69.672580 Z2 I5.779291 J-0.324076
G03 X100.451542 Y70.300000 Z2 I-3.981659 J0.719989
G03 X100.422505 Y70.936649 Z2 I-4.676888 J0.105679
G03 X100.300002 Y71.633330 Z2 I-5.829877 J-0.666005
G00 Z0.000000

(End cutting path id: path15)


(Start cutting path id: path15)
(Change tool to Default tool)

G00 Z0.000000
G00 X94.700000 Y78.700000

G01 Z2 F100.0(Penetrate)
G02 X94.961418 Y77.546230 Z2 I-3.102357 J-1.309425 F75.000000
G03 X95.255247 Y76.595060 Z2 I1.983592 J0.091789
G03 X95.823270 Y76.044977 Z2 I1.368133 J0.844437
G02 X96.313169 Y75.619340 Z2 I-0.835828 J-1.456772
G02 X97.114950 Y74.497296 Z2 I-13.409114 J-10.429263
G03 X98.071914 Y73.233330 Z2 I9.730680 J6.372967
G03 X98.662883 Y72.597510 Z2 I10.039273 J8.738543
G03 X99.233333 Y72.145890 Z2 I2.163103 J2.146174
G01 X100.124280 Y71.947120 Z2
G01 X100.311830 Y73.633330 Z2
G03 X99.796827 Y77.221279 Z2 I-26.068386 J-1.910840
G02 X99.633333 Y78.700000 Z2 I7.153227 J1.539291
G00 Z0.000000

(End cutting path id: path15)


(Start cutting path id: path15)
(Change tool to Default tool)

G00 Z0.000000
G00 X102.566670 Y82.166668

G01 Z2 F100.0(Penetrate)
G02 X102.647207 Y81.814585 Z2 I-389.732116 J-89.334390 F75.000000
G03 X102.883850 Y81.099998 Z2 I3.853369 J0.879606
G03 X103.390796 Y80.225275 Z2 I4.209660 J1.855448
G02 X104.058540 Y79.233328 Z2 I-11.229954 J-8.280334
G02 X104.958398 Y77.636523 Z2 I-21.446417 J-13.137801
G02 X105.483950 Y76.166668 Z2 I-5.216114 J-2.693923
G02 X105.584923 Y75.571190 Z2 I-7.018654 J-1.496429
G02 X105.633330 Y75.099998 Z2 I-9.998375 J-1.265242
G03 X104.993626 Y75.264796 Z2 I-3.993368 J-14.177276
G02 X104.300000 Y75.506578 Z2 I0.792643 J3.389767
G02 X102.595593 Y76.721406 Z2 I2.522091 J5.341561
G03 X101.100000 Y78.152258 Z2 I-21.743617 J-21.230368
G03 X100.400935 Y78.621791 Z2 I-2.042746 J-2.286177
G02 X99.728086 Y79.129938 Z2 I0.962567 J1.974097
G02 X99.103564 Y79.959182 Z2 I4.535555 J4.065623
G02 X98.833333 Y80.433328 Z2 I5.484660 J3.439957
G00 Z0.000000

(End cutting path id: path15)


(Start cutting path id: path15)
(Change tool to Default tool)

G00 Z0.000000
G00 X101.633330 Y82.833328

G01 Z2 F100.0(Penetrate)
G03 X102.929701 Y82.371186 Z2 I8.702055 J22.361113 F75.000000
G02 X103.900000 Y82.041358 Z2 I-11.370739 J-35.042987
G02 X105.355123 Y81.457494 Z2 I-6.568148 J-18.474496
G03 X106.966670 Y80.833438 Z2 I6.787518 J15.135098
G03 X107.581432 Y80.660410 Z2 I2.318878 J7.060271
G03 X108.166460 Y80.549378 Z2 I1.558758 J6.616311
G03 X108.764009 Y80.468019 Z2 I5.133859 J35.471043
G03 X109.100000 Y80.433328 Z2 I0.889856 J6.974068
G00 Z0.000000

(End cutting path id: path15)


(Start cutting path id: path15)
(Change tool to Default tool)

G00 Z0.000000
G00 X111.100000 Y79.500000

G01 Z2 F100.0(Penetrate)
G03 X111.139460 Y79.220137 Z2 I25.148694 J3.403230 F75.000000
G03 X111.266460 Y78.699380 Z2 I2.838346 J0.416336
G03 X111.591254 Y77.995552 Z2 I3.682708 J1.272595
G02 X112.033230 Y77.233330 Z2 I-58.304370 J-34.317175
G02 X112.932704 Y75.539642 Z2 I-27.071060 J-15.462434
G02 X113.627680 Y73.766670 Z2 I-10.198861 J-5.020481
G01 X113.674280 Y72.382410 Z2
G01 X112.566670 Y72.293310 Z2
G02 X110.562330 Y72.668428 Z2 I1.498714 J13.550354
G02 X108.566670 Y73.279220 Z2 I7.221667 J27.161207
G02 X107.905987 Y73.532369 Z2 I3.651779 J10.519336
G03 X107.367280 Y73.693620 Z2 I-1.021105 J-2.430827
G01 X106.703700 Y73.552370 Z2
G01 X106.645400 Y72.433330 Z2
G02 X106.901955 Y70.665786 Z2 I-88.373661 J-13.729645
G02 X107.088100 Y68.833330 Z2 I-27.728050 J-3.742355
G02 X107.109164 Y67.923062 Z2 I-10.053245 J-0.688019
G03 X107.171900 Y67.100000 Z2 I4.211530 J-0.092910
G02 X107.179814 Y66.240098 Z2 I-2.577989 J-0.453713
G03 X107.105200 Y65.500000 Z2 I6.644011 J-1.043632
G02 X106.923921 Y62.782814 Z2 I-63.071223 J2.843196
G02 X106.553350 Y60.300620 Z2 I-20.841238 J1.842667
G01 X105.632670 Y59.502570 Z2
G02 X104.377329 Y59.735049 Z2 I-0.124510 J2.833207
G02 X103.628040 Y60.161520 Z2 I1.605248 J3.691811
G03 X102.112244 Y61.233209 Z2 I-58.323929 J-80.885493
G02 X100.433280 Y62.426650 Z2 I49.552874 J71.490010
G03 X99.833010 Y62.816017 Z2 I-3.878083 J-5.321275
G02 X99.366617 Y63.100000 Z2 I5.255981 J9.157029
G01 X98.792131 Y61.766670 Z2
G01 X98.265999 Y60.300620 Z2
G01 X98.033333 Y59.500000 Z2
G00 Z0.000000

(End cutting path id: path15)


(Start cutting path id: path15)
(Change tool to Default tool)

G00 Z0.000000
G00 X104.033330 Y86.300000

G01 Z2 F100.0(Penetrate)
G03 X104.225647 Y86.296302 Z2 I0.121478 J1.314899 F75.000000
G02 X104.914810 Y86.079527 Z2 I0.055240 J-1.028251
G02 X105.359584 Y85.482604 Z2 I-0.867616 J-1.110636
G03 X105.917700 Y84.645369 Z2 I2.197220 J0.860064
G03 X107.425495 Y83.303304 Z2 I17.251090 J17.863370
G02 X108.758950 Y81.900000 Z2 I-4.950913 J-6.039678
G02 X109.104115 Y81.163782 Z2 I-1.669789 J-1.231878
G03 X109.541870 Y80.469550 Z2 I1.261495 J0.310317
G03 X109.866136 Y80.261333 Z2 I1.055484 J1.287152
G03 X110.300000 Y80.064300 Z2 I3.671477 J7.508321
G03 X110.688942 Y79.916076 Z2 I2.394515 J5.698827
G03 X111.100000 Y79.810490 Z2 I0.872383 J2.543346
G03 X111.617797 Y79.766274 Z2 I0.511998 J2.941818
G02 X112.166670 Y79.766690 Z2 I0.450339 J-231.879526
G02 X115.448305 Y79.736957 Z2 I-0.073938 J-189.272439
G03 X117.233330 Y80.166690 Z2 I0.064776 J3.653119
G00 Z0.000000

(End cutting path id: path15)


(Start cutting path id: path15)
(Change tool to Default tool)

G00 Z0.000000
G00 X118.433330 Y80.033328

G01 Z2 F100.0(Penetrate)
G02 X118.945806 Y80.235756 Z2 I1.092477 J-2.015843 F75.000000
G02 X119.900000 Y80.461418 Z2 I5.275000 J-20.174751
G03 X121.434020 Y80.854224 Z2 I-3.911646 J18.467874
G02 X122.696710 Y81.228088 Z2 I39.819918 J-132.168902
G02 X123.172206 Y81.336209 Z2 I1.145590 J-3.938453
G02 X123.366670 Y81.366668 Z2 I1.839896 J-11.110795
G00 Z0.000000

(End cutting path id: path15)


(Start cutting path id: path15)
(Change tool to Default tool)

G00 Z0.000000
G00 X123.366670 Y85.766667

G01 Z2 F100.0(Penetrate)
G01 X122.696710 Y86.148456 Z2 F75.000000
G01 X121.513890 Y87.233435 Z2
G01 X120.700000 Y88.300000 Z2
G01 X121.633540 Y89.094855 Z2
G01 X122.696710 Y89.805351 Z2
G01 X123.366670 Y90.166667 Z2
G00 Z0.000000

(End cutting path id: path15)


(Start cutting path id: path15)
(Change tool to Default tool)

G00 Z0.000000
G00 X119.900000 Y88.300000

G01 Z2 F100.0(Penetrate)
G01 X120.700000 Y88.300000 Z2 F75.000000
G00 Z0.000000

(End cutting path id: path15)


(Start cutting path id: path15)
(Change tool to Default tool)

G00 Z0.000000
G00 X114.166700 Y91.366667

G01 Z2 F100.0(Penetrate)
G01 X116.566700 Y90.712758 Z2 F75.000000
G01 X119.094580 Y89.094855 Z2
G01 X119.900000 Y88.300000 Z2
G02 X118.487586 Y87.275204 Z2 I-4.195021 J4.296023
G02 X116.300000 Y86.307098 Z2 I-8.505846 J16.264630
G02 X115.249267 Y85.980682 Z2 I-3.772512 J10.289361
G03 X114.300620 Y85.733435 Z2 I30.620607 J-119.429764
G03 X113.765363 Y85.520238 Z2 I0.615590 J-2.324029
G03 X113.500000 Y85.366667 Z2 I2.881599 J-5.285302
G00 Z0.000000

(End cutting path id: path15)


(Start cutting path id: path15)
(Change tool to Default tool)

G00 Z0.000000
G00 X105.100000 Y86.166667

G01 Z2 F100.0(Penetrate)
G02 X105.515475 Y86.211281 Z2 I0.416811 J-1.924747 F75.000000
G02 X106.433330 Y86.087447 Z2 I0.002338 J-3.446159
G03 X108.362367 Y85.624349 Z2 I7.919468 J28.739302
G03 X110.433330 Y85.331171 Z2 I3.408426 J16.615533
G03 X111.126191 Y85.433476 Z2 I0.123475 J1.561118
G03 X111.500000 Y85.633331 Z2 I-0.649886 J1.665060
G00 Z0.000000

(End cutting path id: path15)


(Start cutting path id: path15)
(Change tool to Default tool)

G00 Z0.000000
G00 X105.366670 Y90.433333

G01 Z2 F100.0(Penetrate)
G01 X105.633330 Y90.433333 Z2 F75.000000
G00 Z0.000000

(End cutting path id: path15)


(Footer)
M5
M2
(Using default footer. To add your own footer create file "footer" in the output dir.)
(end)
%