%
(Header)
(Generated by gcodetools from Inkscape.)
(Using default header. To add your own header create file "header" in the output dir.)
M3
(Header end.)
G21 (All units in mm)

(Start cutting path id: path10)
(Change tool to Default tool)

G00 Z0.000000
G00 X59.500000 Y123.233333

G01 Z2 F100.0(Penetrate)
G03 X60.293395 Y123.249792 Z2 I0.000000 J19.131157 F75.000000
G02 X60.966667 Y123.202883 Z2 I0.126287 J-3.042553
G02 X61.518429 Y122.978380 Z2 I-0.261789 J-1.433689
G02 X61.952881 Y122.431278 Z2 I-0.644385 J-0.957752
G02 X62.078910 Y121.419949 Z2 I-2.005726 J-0.763466
G03 X62.038581 Y120.300002 Z2 I6.985894 J-0.812262
G03 X62.265481 Y117.955588 Z2 I22.326686 J0.977662
G03 X62.621297 Y115.633335 Z2 I409.989314 J61.630255
G01 X62.581477 Y114.247121 Z2
G01 X61.766663 Y114.033952 Z2
G02 X60.451224 Y114.028821 Z2 I-0.829443 J44.022507
G03 X59.633329 Y114.033335 Z2 I-0.817895 J-74.095342
G00 Z0.000000

(End cutting path id: path10)


(Start cutting path id: path10)
(Change tool to Default tool)

G00 Z0.000000
G00 X59.500000 Y114.033333

G01 Z2 F100.0(Penetrate)
G01 X59.633333 Y114.033333 Z2 F75.000000
G00 Z0.000000

(End cutting path id: path10)


(Start cutting path id: path10)
(Change tool to Default tool)

G00 Z0.000000
G00 X62.833333 Y114.166667

G01 Z2 F100.0(Penetrate)
G03 X63.637117 Y113.921865 Z2 I0.902992 J1.522913 F75.000000
G03 X64.433333 Y113.900000 Z2 I0.780132 J13.900615
G02 X66.409473 Y113.774443 Z2 I0.017986 J-15.330898
G02 X68.433333 Y113.413169 Z2 I-2.704178 J-20.998317
G02 X69.393302 Y113.174335 Z2 I-5.930715 J-25.886559
G03 X70.300000 Y112.984568 Z2 I2.141332 J7.970225
G03 X70.932546 Y112.891689 Z2 I10.929102 J72.231185
G03 X71.366667 Y112.833333 Z2 I3.960036 J27.815696
G00 Z0.000000

(End cutting path id: path10)


(Start cutting path id: path10)
(Change tool to Default tool)

G00 Z0.000000
G00 X63.233333 Y113.766667

G01 Z2 F100.0(Penetrate)
G03 X63.236859 Y113.446132 Z2 I59.302009 J0.492108 F75.000000
G03 X63.295163 Y112.833128 Z2 I3.799111 J0.052064
G03 X63.438296 Y112.196675 Z2 I7.098280 J1.262019
G03 X63.633332 Y111.500000 Z2 I53.708811 J14.660315
G03 X64.457927 Y109.064973 Z2 I26.267545 J7.538077
G03 X65.402159 Y106.700000 Z2 I188.371153 J73.837546
G02 X65.616110 Y105.891972 Z2 I-3.049121 J-1.239690
G03 X65.975205 Y105.213993 Z2 I1.092406 J0.144511
G03 X67.243498 Y104.858930 Z2 I0.996859 J1.118085
G02 X68.433332 Y104.966667 Z2 I1.179368 J-6.400743
G02 X70.618520 Y104.725524 Z2 I-0.016019 J-10.166588
G03 X72.699999 Y104.336625 Z2 I6.837187 J30.829506
G01 X73.807612 Y104.392385 Z2
G01 X73.668724 Y105.900000 Z2
G02 X72.948183 Y107.828464 Z2 I38.555104 J15.504362
G02 X72.338683 Y109.766667 Z2 I34.143140 J11.801812
G02 X72.148081 Y110.442373 Z2 I209.262496 J59.393112
G02 X71.988786 Y111.100000 Z2 I9.134347 J2.560693
G02 X71.905910 Y111.834782 Z2 I4.044825 J0.828280
G02 X71.900000 Y112.300000 Z2 I23.387868 J0.529763
G00 Z0.000000

(End cutting path id: path10)


(Start cutting path id: path10)
(Change tool to Default tool)

G00 Z0.000000
G00 X74.033333 Y104.300000

G01 Z2 F100.0(Penetrate)
G03 X74.893506 Y103.593092 Z2 I39.850847 J47.614123 F75.000000
G02 X75.766667 Y102.833333 Z2 I-9.791882 J-12.135051
G00 Z0.000000

(End cutting path id: path10)


(Start cutting path id: path10)
(Change tool to Default tool)

G00 Z0.000000
G00 X78.166667 Y98.433333

G01 Z2 F100.0(Penetrate)
G01 X79.233333 Y97.766667 Z2 F75.000000
G00 Z0.000000

(End cutting path id: path10)


(Start cutting path id: path10)
(Change tool to Default tool)

G00 Z0.000000
G00 X81.633333 Y101.366665

G01 Z2 F100.0(Penetrate)
G01 X82.300000 Y100.700000 Z2 F75.000000
G00 Z0.000000

(End cutting path id: path10)


(Start cutting path id: path10)
(Change tool to Default tool)

G00 Z0.000000
G00 X79.366667 Y108.166667

G01 Z2 F100.0(Penetrate)
G02 X80.550814 Y107.602659 Z2 I-0.599421 J-2.783569 F75.000000
G02 X82.300000 Y106.033333 Z2 I-13.551250 J-16.863855
G02 X83.025068 Y105.259460 Z2 I-11.592258 J-11.587790
G03 X83.671399 Y104.633230 Z2 I4.194839 J3.682832
G03 X84.238311 Y104.312305 Z2 I1.197422 J1.454054
G03 X84.700000 Y104.166667 Z2 I2.266791 J6.381346
G00 Z0.000000

(End cutting path id: path10)


(Start cutting path id: path10)
(Change tool to Default tool)

G00 Z0.000000
G00 X85.233333 Y112.166667

G01 Z2 F100.0(Penetrate)
G03 X84.707186 Y110.553443 Z2 I2.265980 J-1.631454 F75.000000
G03 X84.700000 Y107.633333 Z2 I358.913768 J-2.343281
G03 X84.755061 Y106.527318 Z2 I11.506942 J0.018474
G02 X84.855863 Y105.500000 Z2 I-7313.278063 J-718.109226
G02 X84.880343 Y104.556044 Z2 I-6.548454 J-0.642121
G03 X85.100000 Y103.366667 Z2 I2.666797 J-0.122462
G00 Z0.000000

(End cutting path id: path10)


(Start cutting path id: path10)
(Change tool to Default tool)

G00 Z0.000000
G00 X85.100000 Y113.766667

G01 Z2 F100.0(Penetrate)
G03 X85.102079 Y112.840180 Z2 I206.489957 J0.000000 F75.000000
G03 X85.313684 Y112.194548 Z2 I1.105889 J0.004962
G03 X85.811320 Y111.702687 Z2 I1.750873 J1.273761
G02 X86.286110 Y111.227572 Z2 I-1.159349 J-1.633346
G02 X87.395828 Y109.270420 Z2 I-9.122009 J-6.465421
G02 X88.180247 Y106.966667 Z2 I-12.838773 J-5.656978
G03 X88.415140 Y106.142592 Z2 I11.452829 J2.818987
G03 X88.608950 Y105.794238 Z2 I0.984828 J0.319826
G01 X89.098045 Y105.584155 Z2
G01 X89.766565 Y106.966667 Z2
G02 X89.885088 Y108.544312 Z2 I11.642702 J-0.081398
G02 X90.223354 Y110.166667 Z2 I13.114699 J-1.888017
G02 X90.459341 Y110.993496 Z2 I41.942183 J-11.523705
G02 X90.765125 Y111.630042 Z2 I2.126037 J-0.629587
G02 X91.154771 Y112.088325 Z2 I2.552768 J-1.775657
G03 X91.366667 Y112.300000 Z2 I-6.684943 J6.903801
G00 Z0.000000

(End cutting path id: path10)


(Start cutting path id: path10)
(Change tool to Default tool)

G00 Z0.000000
G00 X87.100000 Y119.366667

G01 Z2 F100.0(Penetrate)
G01 X87.971604 Y118.554527 Z2 F75.000000
G01 X90.538375 Y114.578601 Z2
G01 X91.346914 Y113.366152 Z2
G01 X91.366664 Y110.966667 Z2
G00 Z0.000000

(End cutting path id: path10)


(Start cutting path id: path10)
(Change tool to Default tool)

G00 Z0.000000
G00 X88.700000 Y122.833333

G01 Z2 F100.0(Penetrate)
G02 X87.881685 Y121.250998 Z2 I-19.948742 J9.313862 F75.000000
G02 X87.100000 Y120.166667 Z2 I-5.444997 J3.101329
G00 Z0.000000

(End cutting path id: path10)


(Start cutting path id: path10)
(Change tool to Default tool)

G00 Z0.000000
G00 X79.766663 Y122.833335

G01 Z2 F100.0(Penetrate)
G02 X79.487467 Y121.574701 Z2 I-8.839429 J1.300521 F75.000000
G03 X79.156584 Y120.300000 Z2 I17.274399 J-5.164329
G02 X78.912875 Y119.345052 Z2 I-14.840054 J3.278714
G02 X78.700000 Y118.833333 Z2 I-2.383000 J0.691188
G00 Z0.000000

(End cutting path id: path10)


(Start cutting path id: path10)
(Change tool to Default tool)

G00 Z0.000000
G00 X78.699997 Y118.166667

G01 Z2 F100.0(Penetrate)
G01 X78.566664 Y117.233128 Z2 F75.000000
G01 X78.433845 Y115.633333 Z2
G01 X78.445265 Y111.100000 Z2
G01 X78.566664 Y110.033333 Z2
G00 Z0.000000

(End cutting path id: path10)


(Start cutting path id: path10)
(Change tool to Default tool)

G00 Z0.000000
G00 X66.833333 Y104.700000

G01 Z2 F100.0(Penetrate)
G03 X67.728235 Y102.967870 Z2 I7.878216 J2.973028 F75.000000
G03 X69.348972 Y100.566667 Z2 I1459.795729 J983.568796
G02 X69.591209 Y100.072118 Z2 I-1.645282 J-1.112484
G03 X69.880452 Y99.575205 Z2 I1.306003 J0.427559
G01 X70.700103 Y99.244649 Z2
G03 X71.234825 Y99.158117 Z2 I2.269023 J12.325933
G03 X71.766667 Y99.100000 Z2 I1.234862 J8.837963
G00 Z0.000000

(End cutting path id: path10)


(Start cutting path id: path10)
(Change tool to Default tool)

G00 Z0.000000
G00 X69.766667 Y99.500000

G01 Z2 F100.0(Penetrate)
G02 X69.429096 Y99.354203 Z2 I-1.049312 J1.965832 F75.000000
G02 X68.833128 Y99.223765 Z2 I-0.890508 J2.641999
G03 X66.496627 Y98.873681 Z2 I2.910755 J-27.398779
G03 X64.300617 Y98.294753 Z2 I3.271512 J-16.864075
G03 X63.775174 Y98.062178 Z2 I0.986843 J-2.939348
G03 X63.500000 Y97.900000 Z2 I3.378253 J-6.046582
G00 Z0.000000

(End cutting path id: path10)


(Start cutting path id: path10)
(Change tool to Default tool)

G00 Z0.000000
G00 X62.433333 Y97.900000

G01 Z2 F100.0(Penetrate)
G02 X60.833952 Y97.034822 Z2 I-4.314814 J6.065515 F75.000000
G02 X59.633333 Y96.700000 Z2 I-2.244797 J5.729471
G00 Z0.000000

(End cutting path id: path10)


(Start cutting path id: path10)
(Change tool to Default tool)

G00 Z0.000000
G00 X59.500000 Y96.700000

G01 Z2 F100.0(Penetrate)
G01 X59.633333 Y96.700000 Z2 F75.000000
G00 Z0.000000

(End cutting path id: path10)


(Start cutting path id: path10)
(Change tool to Default tool)

G00 Z0.000000
G00 X59.500000 Y101.900000

G01 Z2 F100.0(Penetrate)
G02 X60.256281 Y101.102894 Z2 I-3.038430 J-3.640136 F75.000000
G03 X61.797531 Y99.100000 Z2 I78.531395 J58.836385
G03 X62.361650 Y98.392904 Z2 I76.373294 J60.351850
G03 X63.093313 Y97.865432 Z2 I1.325784 J1.067826
G01 X63.967901 Y96.833333 Z2
G03 X64.916472 Y95.827247 Z2 I4.287341 J3.092030
G02 X66.033333 Y94.915226 Z2 I-402.443995 J-493.973013
G03 X66.738611 Y94.374483 Z2 I8.852601 J10.815918
G02 X67.298766 Y93.860596 Z2 I-1.850214 J-2.579038
G01 X67.937037 Y93.142387 Z2
G03 X68.804079 Y93.059584 Z2 I0.629628 J2.012071
G03 X69.366667 Y93.173147 Z2 I-0.374780 J3.306957
G03 X70.021306 Y93.422015 Z2 I-1.269347 J4.324418
G02 X70.833333 Y93.684668 Z2 I1.424540 J-3.017580
G02 X73.303332 Y93.925840 Z2 I2.613239 J-13.994854
G02 X75.366667 Y93.879936 Z2 I0.321442 J-31.946773
G03 X76.132721 Y94.006805 Z2 I0.097576 J1.787024
G03 X76.433333 Y94.166665 Z2 I-0.601283 J1.493277
G00 Z0.000000

(End cutting path id: path10)


(Start cutting path id: path10)
(Change tool to Default tool)

G00 Z0.000000
G00 X69.633333 Y92.966667

G01 Z2 F100.0(Penetrate)
G03 X70.148137 Y92.181894 Z2 I2.729687 J1.229409 F75.000000
G03 X71.233333 Y91.541872 Z2 I1.577280 J1.434355
G03 X72.067995 Y91.467642 Z2 I0.672887 J2.836426
G02 X73.233333 Y91.500002 Z2 I1.165338 J-20.966728
G00 Z0.000000

(End cutting path id: path10)


(Start cutting path id: path10)
(Change tool to Default tool)

G00 Z0.000000
G00 X67.633333 Y93.100000

G01 Z2 F100.0(Penetrate)
G02 X66.818351 Y92.601398 Z2 I-2.209236 J2.695716 F75.000000
G03 X65.771914 Y92.096297 Z2 I6.093835 J-13.961337
G03 X65.271005 Y91.766333 Z2 I1.487658 J-2.803566
G02 X64.821399 Y91.541872 Z2 I-0.741006 J0.921746
G02 X64.086259 Y91.471435 Z2 I-0.595303 J2.341596
G03 X63.100000 Y91.500000 Z2 I-0.986259 J-17.011873
G00 Z0.000000

(End cutting path id: path10)


(Start cutting path id: path10)
(Change tool to Default tool)

G00 Z0.000000
G00 X59.500000 Y91.500000

G01 Z2 F100.0(Penetrate)
G01 X60.033333 Y91.500000 Z2 F75.000000
G00 Z0.000000

(End cutting path id: path10)


(Start cutting path id: path10)
(Change tool to Default tool)

G00 Z0.000000
G00 X59.500000 Y104.433333

G01 Z2 F100.0(Penetrate)
G01 X59.633333 Y104.433333 Z2 F75.000000
G00 Z0.000000

(End cutting path id: path10)


(Start cutting path id: path10)
(Change tool to Default tool)

G00 Z0.000000
G00 X65.766667 Y105.233333

G01 Z2 F100.0(Penetrate)
G02 X64.865385 Y105.007149 Z2 I-0.904253 J1.694425 F75.000000
G03 X63.366667 Y104.954732 Z2 I0.034714 J-22.444746
G03 X60.811648 Y104.602438 Z2 I1.284489 J-18.757096
G02 X59.633333 Y104.433333 Z2 I-1.926849 J9.236410
G00 Z0.000000

(End cutting path id: path10)


(Start cutting path id: path10)
(Change tool to Default tool)

G00 Z0.000000
G00 X62.033329 Y122.700002

G01 Z2 F100.0(Penetrate)
G02 X62.389626 Y122.914951 Z2 I1.506457 J-2.094311 F75.000000
G02 X63.099996 Y123.097430 Z2 I0.781879 J-1.569836
G02 X63.565932 Y123.105338 Z2 I0.398996 J-9.778912
G02 X64.033329 Y123.098047 Z2 I-0.182548 J-26.689237
G02 X65.796319 Y122.990048 Z2 I-0.589663 J-24.069380
G02 X67.499996 Y122.811112 Z2 I-12.355218 J-125.835865
G02 X68.640407 Y122.589224 Z2 I-0.800667 J-7.156645
G03 X69.766663 Y122.338068 Z2 I2.907671 J10.388038
G03 X70.504657 Y122.215267 Z2 I60.920395 J363.831631
G02 X71.176745 Y121.974591 Z2 I-0.325264 J-1.967044
G03 X71.727396 Y121.709157 Z2 I2.048636 J3.546067
G03 X72.166765 Y121.566874 Z2 I1.378866 J3.508412
G02 X72.957018 Y121.315735 Z2 I-1.851769 J-7.195828
G03 X73.899996 Y120.959981 Z2 I64.615823 J169.845960
G02 X75.844705 Y120.112508 Z2 I-7.016940 J-18.756891
G03 X77.633329 Y119.278192 Z2 I16.058396 J32.091920
G02 X78.232211 Y119.009738 Z2 I-10.479255 J-24.179946
G02 X78.795264 Y118.566669 Z2 I-0.652629 J-1.408660
G03 X79.429240 Y118.068221 Z2 I1.365935 J1.084933
G02 X80.166663 Y117.671608 Z2 I-2.908279 J-6.291214
G02 X82.547458 Y115.541641 Z2 I-4.799703 J-7.760487
G03 X84.433228 Y114.137657 Z2 I3.521249 J2.761154
G01 X85.478699 Y114.833437 Z2
G03 X85.987082 Y116.574808 Z2 I-26.275220 J8.615782
G02 X86.568616 Y118.300002 Z2 I11.945102 J-3.065888
G02 X86.890850 Y118.942677 Z2 I5.040460 J-2.125141
G03 X87.072939 Y119.754118 Z2 I-1.176500 J0.690160
G01 X86.243309 Y120.735085 Z2
G02 X84.950585 Y122.115818 Z2 I11.879443 J12.417772
G03 X83.633329 Y122.966669 Z2 I-2.034602 J-1.704805
G00 Z0.000000

(End cutting path id: path10)


(Start cutting path id: path10)
(Change tool to Default tool)

G00 Z0.000000
G00 X71.366667 Y122.566667

G01 Z2 F100.0(Penetrate)
G01 X71.366667 Y122.300000 Z2 F75.000000
G00 Z0.000000

(End cutting path id: path10)


(Start cutting path id: path10)
(Change tool to Default tool)

G00 Z0.000000
G00 X71.233333 Y121.633333

G01 Z2 F100.0(Penetrate)
G02 X71.200546 Y121.255399 Z2 I-4.344592 J0.186513 F75.000000
G03 X71.122634 Y120.566667 Z2 I19.612577 J-2.567434
G03 X71.089455 Y119.659990 Z2 I7.718026 J-0.736376
G02 X71.100000 Y118.700000 Z2 I-43.693833 J-0.959990
G03 X71.198971 Y116.390101 Z2 I27.004943 J0.000000
G02 X71.369958 Y114.166667 Z2 I-124.966876 J-10.728504
G02 X71.410945 Y113.368806 Z2 I-24.099086 J-1.637966
G03 X71.698251 Y112.597119 Z2 I1.301677 J0.045300
G03 X72.372498 Y112.199726 Z2 I0.864710 J0.696446
G02 X72.966667 Y112.062449 Z2 I-0.957379 J-5.498276
G02 X74.394671 Y111.531743 Z2 I-2.860180 J-9.882638
G02 X75.900000 Y110.798869 Z2 I-15.075717 J-32.878037
G02 X76.589482 Y110.415960 Z2 I-5.884854 J-11.408728
G03 X77.233333 Y110.107922 Z2 I2.001854 J3.357311
G03 X77.759252 Y109.973303 Z2 I0.906397 J2.446432
G02 X78.393003 Y109.688167 Z2 I-0.185672 J-1.259541
G02 X79.026992 Y108.757001 Z2 I-1.340637 J-1.594191
G02 X79.197738 Y108.166667 Z2 I-6.873206 J-2.307833
G02 X79.259002 Y107.622767 Z2 I-2.099255 J-0.511856
G03 X79.322530 Y106.966667 Z2 I2.965533 J-0.043983
G03 X79.945785 Y104.959031 Z2 I11.056979 J2.331991
G03 X80.867696 Y102.966667 Z2 I25.843928 J10.749087
G01 X81.299074 Y101.641152 Z2
G01 X79.366667 Y101.660082 Z2
G03 X77.070003 Y102.744999 Z2 I-6.883341 J-11.597995
G03 X75.900000 Y103.100000 Z2 I-3.968115 J-10.972488
G01 X75.766667 Y102.966667 Z2
G02 X75.870587 Y102.457836 Z2 I-122.268008 J-25.236176
G03 X76.078704 Y101.766667 Z2 I3.805654 J0.768998
G03 X76.874049 Y100.589543 Z2 I3.177513 J1.289686
G02 X77.621914 Y99.633539 Z2 I-3.042558 J-3.150664
G02 X77.901125 Y99.030205 Z2 I-3.151701 J-1.824818
G03 X78.033333 Y98.700000 Z2 I4.318623 J1.537529
G02 X77.550998 Y98.550430 Z2 I-0.645125 J1.227905
G02 X76.566667 Y98.577881 Z2 I-0.398510 J3.372051
G02 X74.699992 Y98.986333 Z2 I3.923671 J22.401356
G03 X72.833333 Y99.232715 Z2 I-1.904240 J-7.232687
G01 X71.916152 Y99.019548 Z2
G01 X72.234671 Y97.805247 Z2
G03 X73.751259 Y96.501569 Z2 I4.440943 J3.632241
G02 X75.497942 Y95.417902 Z2 I-25.638077 J-43.273641
G02 X76.193669 Y94.678027 Z2 I-1.161150 J-1.788908
G03 X76.851029 Y94.071604 Z2 I1.270585 J0.717810
G03 X77.962251 Y93.874847 Z2 I0.927778 J2.003508
G02 X78.566667 Y93.900000 Z2 I0.604416 J-7.249471
G00 Z0.000000

(End cutting path id: path10)


(Footer)
M5
M2
(Using default footer. To add your own footer create file "footer" in the output dir.)
(end)
%