%
(Header)
(Generated by gcodetools from Inkscape.)
(Using default header. To add your own header create file "header" in the output dir.)
M3
(Header end.)
G21 (All units in mm)

(Start cutting path id: path17)
(Change tool to Default tool)

G00 Z0.000000
G00 X45.633333 Y58.833330

G01 Z2 F100.0(Penetrate)
G03 X45.525431 Y57.528786 Z2 I15.036847 J-1.900474 F75.000000
G03 X45.500000 Y56.300000 Z2 I32.951527 J-1.296609
G01 X45.286214 Y55.192390 Z2
G01 X44.433333 Y55.100690 Z2
G02 X43.827734 Y55.207850 Z2 I0.716805 J5.815742
G02 X43.100000 Y55.383510 Z2 I9.169645 J39.583727
G02 X38.682958 Y56.865876 Z2 I7.308223 J29.098452
G02 X34.566667 Y58.699970 Z2 I49.900385 J117.528546
G00 Z0.000000

(End cutting path id: path17)


(Start cutting path id: path17)
(Change tool to Default tool)

G00 Z0.000000
G00 X45.633333 Y54.700000

G01 Z2 F100.0(Penetrate)
G03 X45.471806 Y54.316163 Z2 I2.001993 J-1.068391 F75.000000
G03 X45.369238 Y53.633330 Z2 I2.100616 J-0.664651
G03 X45.477928 Y51.021289 Z2 I39.218101 J0.323628
G03 X45.766667 Y48.300000 Z2 I44.327557 J3.327358
G03 X45.893573 Y47.468595 Z2 I27.812794 J3.819954
G02 X46.044033 Y46.566670 Z2 I-391.717005 J-65.810302
G02 X46.186942 Y44.948161 Z2 I-10.545260 J-1.746674
G03 X46.757819 Y43.713790 Z2 I1.663060 J0.019942
G03 X47.735068 Y43.323590 Z2 I1.046298 J1.201582
G02 X48.966667 Y43.181480 Z2 I-0.375896 J-8.665607
G03 X52.344168 Y42.663478 Z2 I9.254599 J49.072161
G03 X55.766667 Y42.578600 Z2 I2.165437 J18.271669
G02 X57.040731 Y42.665523 Z2 I175.866326 J-2568.362537
G03 X57.900000 Y42.746810 Z2 I-1.106727 J16.281203
G03 X58.084984 Y42.774352 Z2 I-0.415183 J3.423490
G02 X58.433232 Y42.783310 Z2 I0.203918 J-1.153835
G01 X59.324280 Y42.030840 Z2
G02 X59.409249 Y41.114270 Z2 I-2.752178 J-0.717358
G03 X59.366670 Y39.899980 Z2 I17.293753 J-1.214290
G01 X59.366670 Y38.699980 Z2
G00 Z0.000000

(End cutting path id: path17)


(Start cutting path id: path17)
(Change tool to Default tool)

G00 Z0.000000
G00 X56.700000 Y53.766670

G01 Z2 F100.0(Penetrate)
G01 X59.366667 Y54.033330 Z2 F75.000000
G00 Z0.000000

(End cutting path id: path17)


(Start cutting path id: path17)
(Change tool to Default tool)

G00 Z0.000000
G00 X56.700000 Y53.766670

G01 Z2 F100.0(Penetrate)
G01 X56.700000 Y52.700000 Z2 F75.000000
G01 X56.854012 Y50.700000 Z2
G01 X57.650616 Y46.300000 Z2
G01 X58.127161 Y44.300000 Z2
G01 X58.300000 Y42.966670 Z2
G00 Z0.000000

(End cutting path id: path17)


(Start cutting path id: path17)
(Change tool to Default tool)

G00 Z0.000000
G00 X56.566667 Y58.833300

G01 Z2 F100.0(Penetrate)
G03 X56.567605 Y56.884967 Z2 I2022.699526 J0.000255 F75.000000
G02 X56.566667 Y55.099970 Z2 I-599.426349 J-0.577413
G01 X56.352881 Y53.998940 Z2
G01 X55.500000 Y53.768690 Z2
G02 X54.778148 Y53.802961 Z2 I-0.139709 J4.676679
G03 X53.900000 Y53.888040 Z2 I-1.949213 J-15.544386
G02 X50.298160 Y54.225946 Z2 I4.909481 J71.697113
G03 X46.833333 Y54.554700 Z2 I-8.547912 J-71.665985
G02 X45.987480 Y54.683596 Z2 I0.373979 J5.293969
G02 X45.366667 Y54.966640 Z2 I0.402934 J1.706123
G00 Z0.000000

(End cutting path id: path17)


(Footer)
M5
M2
(Using default footer. To add your own footer create file "footer" in the output dir.)
(end)
%