%
(Header)
(Generated by gcodetools from Inkscape.)
(Using default header. To add your own header create file "header" in the output dir.)
M3
(Header end.)
G21 (All units in mm)

(Start cutting path id: path20)
(Change tool to Default tool)

G00 Z0.000000
G00 X135.766670 Y58.833330

G01 Z2 F100.0(Penetrate)
G02 X135.962927 Y57.450968 Z2 I-7.328858 J-1.745605 F75.000000
G03 X136.055970 Y56.166670 Z2 I26.700924 J1.288876
G03 X136.128456 Y55.531296 Z2 I18.425178 J1.780210
G02 X136.166560 Y54.833330 Z2 I-4.544112 J-0.598097
G03 X136.162263 Y54.087194 Z2 I23.293892 J-0.507230
G02 X136.166670 Y53.233330 Z2 I-83.828327 J-0.859601
G02 X136.007985 Y49.956932 Z2 I-33.860253 J-0.002100
G02 X135.615840 Y46.700000 Z2 I-71.064118 J6.904281
G02 X135.445684 Y45.777746 Z2 I-11.693072 J1.680556
G03 X135.291870 Y44.966670 Z2 I11.592825 J-2.618601
G01 X135.313670 Y44.075720 Z2
G01 X136.033320 Y43.766670 Z2
G00 Z0.000000

(End cutting path id: path20)


(Start cutting path id: path20)
(Change tool to Default tool)

G00 Z0.000000
G00 X123.633380 Y43.500000

G01 Z2 F100.0(Penetrate)
G03 X124.564592 Y43.355039 Z2 I1.377688 J5.786630 F75.000000
G03 X126.966720 Y43.235290 Z2 I3.565342 J47.366778
G03 X129.371406 Y43.196781 Z2 I3.476385 J141.982551
G03 X131.766720 Y43.328590 Z2 I0.144868 J19.197827
G02 X132.950849 Y43.438798 Z2 I2.821190 J-23.895623
G02 X134.033380 Y43.501950 Z2 I3.757294 J-55.096905
G03 X134.698495 Y43.619548 Z2 I-0.129671 J2.673094
G03 X135.100050 Y43.766660 Z2 I-1.279668 J4.114553
G00 Z0.000000

(End cutting path id: path20)


(Start cutting path id: path20)
(Change tool to Default tool)

G00 Z0.000000
G00 X124.966670 Y53.766670

G01 Z2 F100.0(Penetrate)
G02 X124.958698 Y53.472246 Z2 I-7.921257 J0.067166 F75.000000
G02 X124.889970 Y52.700000 Z2 I-8.987357 J0.410669
G03 X124.558951 Y48.699742 Z2 I40.865735 J-5.395436
G02 X123.633380 Y46.300000 Z2 I-3.917705 J0.132678
G00 Z0.000000

(End cutting path id: path20)


(Start cutting path id: path20)
(Change tool to Default tool)

G00 Z0.000000
G00 X123.633330 Y54.033330

G01 Z2 F100.0(Penetrate)
G02 X123.898441 Y53.994661 Z2 I-0.880760 J-6.966600 F75.000000
G03 X124.966670 Y53.900510 Z2 I1.152303 J6.966814
G03 X125.596304 Y53.898276 Z2 I0.447039 J37.269630
G02 X126.300000 Y53.900000 Z2 I0.703696 J-143.640805
G03 X129.248320 Y53.959149 Z2 I-0.000000 J73.509738
G03 X132.300000 Y54.223250 Z2 I-1.329802 J33.128942
G03 X133.612758 Y54.414118 Z2 I-7.400902 J55.512176
G02 X134.833330 Y54.554840 Z2 I2.307175 J-14.647799
G03 X135.573680 Y54.621242 Z2 I-1.697770 J23.089668
G03 X136.033330 Y54.700000 Z2 I-0.382805 J3.614841
G00 Z0.000000

(End cutting path id: path20)


(Start cutting path id: path20)
(Change tool to Default tool)

G00 Z0.000000
G00 X125.100000 Y58.700000

G01 Z2 F100.0(Penetrate)
G01 X125.099900 Y55.100000 Z2 F75.000000
G01 X125.100000 Y53.900000 Z2
G00 Z0.000000

(End cutting path id: path20)


(Start cutting path id: path20)
(Change tool to Default tool)

G00 Z0.000000
G00 X123.500000 Y54.033330

G01 Z2 F100.0(Penetrate)
G01 X123.633330 Y54.033330 Z2 F75.000000
G00 Z0.000000

(End cutting path id: path20)


(Start cutting path id: path20)
(Change tool to Default tool)

G00 Z0.000000
G00 X147.233330 Y58.700000

G01 Z2 F100.0(Penetrate)
G02 X143.958127 Y57.000995 Z2 I-7.659207 J10.758458 F75.000000
G02 X140.300000 Y55.823250 Z2 I-23.707805 J67.367431
G02 X138.764702 Y55.389144 Z2 I-24.860908 J84.993357
G02 X137.366670 Y55.100100 Z2 I-3.002067 J10.994737
G02 X136.642797 Y55.002185 Z2 I-7.645957 J53.801070
G02 X136.300000 Y54.966670 Z2 I-0.896309 J6.979134
G00 Z0.000000

(End cutting path id: path20)


(Footer)
M5
M2
(Using default footer. To add your own footer create file "footer" in the output dir.)
(end)
%