%
(Header)
(Generated by gcodetools from Inkscape.)
(Using default header. To add your own header create file "header" in the output dir.)
M3
(Header end.)
G21 (All units in mm)

(Start cutting path id: path13)
(Change tool to Default tool)

G00 Z0.000000
G00 X52.300000 Y91.366667

G01 Z2 F100.0(Penetrate)
G02 X51.687241 Y91.146866 Z2 I-2.077047 J4.826350 F75.000000
G03 X50.566667 Y90.586934 Z2 I0.969806 J-3.342091
G03 X49.755843 Y89.901058 Z2 I5.526764 J-7.355790
G03 X48.994548 Y89.156584 Z2 I25.517236 J-26.855290
G03 X48.535384 Y88.658770 Z2 I6.464816 J-6.423547
G02 X48.033333 Y88.204732 Z2 I-2.019005 J1.727920
G03 X47.496055 Y87.718243 Z2 I1.616606 J-2.325308
G02 X46.952881 Y87.100000 Z2 I-22.037863 J18.814221
G03 X45.153857 Y85.031050 Z2 I52.621082 J-47.572509
G03 X43.416564 Y82.833330 Z2 I39.108325 J-32.700561
G03 X42.797947 Y81.975566 Z2 I25.470552 J-19.021249
G03 X42.317283 Y81.233950 Z2 I10.952634 J-7.625310
G02 X42.070082 Y80.877625 Z2 I-2.878521 J1.733069
G02 X41.673250 Y80.433330 Z2 I-4.028956 J3.199184
G03 X41.311079 Y79.923902 Z2 I1.312232 J-1.316368
G02 X40.961420 Y79.233330 Z2 I-17.774547 J8.566026
G02 X39.502047 Y76.574838 Z2 I-97.651742 J51.875905
G03 X38.110494 Y73.766670 Z2 I24.496317 J-13.887712
G03 X37.632425 Y72.583678 Z2 I28.837704 J-12.341955
G03 X37.246914 Y71.500000 Z2 I24.510230 J-9.329747
G02 X37.014771 Y70.892808 Z2 I-6.810571 J2.255858
G03 X36.833333 Y70.433330 Z2 I6.583247 J-2.865147
G01 X37.766872 Y69.978190 Z2
G01 X39.766667 Y69.043830 Z2
G01 X44.033333 Y67.366670 Z2
G01 X45.766667 Y66.845880 Z2
G01 X47.100000 Y66.566670 Z2
G01 X47.301440 Y67.633330 Z2
G01 X47.919238 Y69.766670 Z2
G01 X49.233333 Y73.366670 Z2
G01 X50.021708 Y75.233130 Z2
G01 X50.433333 Y76.166670 Z2
G03 X50.072258 Y76.368357 Z2 I-1.504818 J-2.269976
G03 X49.366667 Y76.642080 Z2 I-2.510712 J-5.425728
G02 X46.892223 Y77.641460 Z2 I5.228836 J16.509509
G02 X44.300000 Y78.933740 Z2 I431.975000 J869.757816
G02 X43.436076 Y79.372709 Z2 I35.262418 J70.468714
G02 X42.700617 Y79.798560 Z2 I4.010733 J7.774676
G02 X42.149209 Y80.212949 Z2 I2.636969 J4.082957
G02 X41.900000 Y80.433330 Z2 I12.681827 J14.591794
G00 Z0.000000

(End cutting path id: path13)


(Start cutting path id: path13)
(Change tool to Default tool)

G00 Z0.000000
G00 X50.700000 Y76.300000

G01 Z2 F100.0(Penetrate)
G03 X52.502853 Y75.431285 Z2 I3.179047 J4.292413 F75.000000
G03 X56.300000 Y74.540120 Z2 I16.716358 J62.691193
G03 X57.503671 Y74.318546 Z2 I6.618316 J32.572891
G02 X58.566050 Y74.112760 Z2 I-3.182274 J-19.273837
G01 X59.286214 Y73.724790 Z2
G02 X59.480842 Y72.812723 Z2 I-1.759451 J-0.852252
G02 X59.347014 Y71.371910 Z2 I-11.668290 J0.357171
G02 X59.109468 Y70.804539 Z2 I-1.268721 J0.197772
G03 X58.753083 Y70.164710 Z2 I2.265649 J-1.681137
G03 X58.060384 Y68.001104 Z2 I15.493664 J-6.153136
G03 X57.588783 Y65.900000 Z2 I50.110375 J-12.350940
G01 X57.637133 Y64.913790 Z2
G01 X59.366660 Y64.566670 Z2
G00 Z0.000000

(End cutting path id: path13)


(Start cutting path id: path13)
(Change tool to Default tool)

G00 Z0.000000
G00 X57.233333 Y64.433630

G01 Z2 F100.0(Penetrate)
G01 X57.062036 Y63.366970 Z2 F75.000000
G01 X56.700000 Y60.169960 Z2
G01 X56.700000 Y59.500000 Z2
G00 Z0.000000

(End cutting path id: path13)


(Start cutting path id: path13)
(Change tool to Default tool)

G00 Z0.000000
G00 X47.100000 Y66.566670

G01 Z2 F100.0(Penetrate)
G01 X47.900618 Y66.218420 Z2 F75.000000
G01 X50.033333 Y65.713370 Z2
G01 X55.900000 Y64.836630 Z2
G01 X57.500000 Y64.833630 Z2
G00 Z0.000000

(End cutting path id: path13)


(Start cutting path id: path13)
(Change tool to Default tool)

G00 Z0.000000
G00 X46.833333 Y66.566670

G01 Z2 F100.0(Penetrate)
G01 X46.677366 Y65.366670 Z2 F75.000000
G01 X45.956584 Y61.633330 Z2
G01 X45.771914 Y60.169960 Z2
G01 X45.766714 Y59.500000 Z2
G00 Z0.000000

(End cutting path id: path13)


(Start cutting path id: path13)
(Change tool to Default tool)

G00 Z0.000000
G00 X36.700000 Y70.300000

G01 Z2 F100.0(Penetrate)
G02 X36.068024 Y67.933136 Z2 I-154.990215 J40.116091 F75.000000
G03 X34.977366 Y62.966670 Z2 I46.800690 J-12.880632
G03 X34.718335 Y60.427313 Z2 I20.284503 J-3.352044
G03 X34.700000 Y59.500000 Z2 I23.441114 J-0.927313
G00 Z0.000000

(End cutting path id: path13)


(Start cutting path id: path13)
(Change tool to Default tool)

G00 Z0.000000
G00 X27.500000 Y76.433330

G01 Z2 F100.0(Penetrate)
G02 X27.706476 Y76.315622 Z2 I-32.857299 J-57.876121 F75.000000
G02 X28.169959 Y76.018620 Z2 I-2.737696 J-4.782424
G02 X29.063096 Y75.367475 Z2 I-31.740521 J-44.474691
G03 X30.166667 Y74.551230 Z2 I126.613101 J170.027987
G03 X32.871567 Y72.655849 Z2 I43.687709 J59.469002
G03 X35.633333 Y71.126440 Z2 I10.563244 J15.816557
G03 X36.380318 Y70.806266 Z2 I9.409592 J20.921676
G02 X36.833333 Y70.566670 Z2 I-0.976273 J-2.393951
G00 Z0.000000

(End cutting path id: path13)


(Start cutting path id: path13)
(Change tool to Default tool)

G00 Z0.000000
G00 X32.966667 Y86.833333

G01 Z2 F100.0(Penetrate)
G03 X32.665780 Y86.490209 Z2 I8.478714 J-7.738513 F75.000000
G03 X32.212449 Y85.899795 Z2 I6.296985 J-5.304187
G03 X30.860168 Y83.919297 Z2 I93.630140 J-65.382407
G03 X29.443827 Y81.633330 Z2 I33.000527 J-22.028249
G03 X28.314425 Y79.560482 Z2 I46.722035 J-26.800844
G02 X27.633333 Y78.700000 Z2 I-2.546938 J1.316171
G00 Z0.000000

(End cutting path id: path13)


(Start cutting path id: path13)
(Change tool to Default tool)

G00 Z0.000000
G00 X29.366667 Y90.833333

G01 Z2 F100.0(Penetrate)
G01 X31.900000 Y88.033333 Z2 F75.000000
G01 X32.966667 Y86.966768 Z2
G01 X34.166667 Y85.862449 Z2
G01 X38.833333 Y82.211110 Z2
G01 X40.699383 Y80.984570 Z2
G01 X41.500000 Y80.433330 Z2
G00 Z0.000000

(End cutting path id: path13)


(Start cutting path id: path13)
(Change tool to Default tool)

G00 Z0.000000
G00 X48.300000 Y88.166667

G01 Z2 F100.0(Penetrate)
G01 X49.100618 Y87.435083 Z2 F75.000000
G01 X50.433333 Y86.559979 Z2
G01 X54.166667 Y84.461110 Z2
G01 X55.485596 Y83.927470 Z2
G01 X56.406685 Y84.966667 Z2
G01 X58.696708 Y87.336316 Z2
G01 X59.366667 Y87.766667 Z2
G00 Z0.000000

(End cutting path id: path13)


(Start cutting path id: path13)
(Change tool to Default tool)

G00 Z0.000000
G00 X58.566667 Y91.233333

G01 Z2 F100.0(Penetrate)
G03 X58.979283 Y91.158352 Z2 I3.981326 J20.736216 F75.000000
G03 X59.366667 Y91.100000 Z2 I1.629210 J9.500859
G00 Z0.000000

(End cutting path id: path13)


(Start cutting path id: path13)
(Change tool to Default tool)

G00 Z0.000000
G00 X55.900000 Y83.900000

G01 Z2 F100.0(Penetrate)
G01 X56.700618 Y83.327161 Z2 F75.000000
G01 X58.566048 Y82.613070 Z2
G01 X59.366667 Y82.433330 Z2
G00 Z0.000000

(End cutting path id: path13)


(Start cutting path id: path13)
(Change tool to Default tool)

G00 Z0.000000
G00 X54.966667 Y83.900000

G01 Z2 F100.0(Penetrate)
G02 X53.915767 Y81.719546 Z2 I-5.498707 J1.306704 F75.000000
G03 X52.113375 Y79.100000 Z2 I20.110432 J-15.766929
G03 X51.550836 Y78.148376 Z2 I72.581061 J-43.547371
G03 X51.126851 Y77.233330 Z2 I4.669770 J-2.719477
G02 X50.815877 Y76.546428 Z2 I-4.202472 J1.488698
G02 X50.566667 Y76.166670 Z2 I-2.795635 J1.562941
G00 Z0.000000

(End cutting path id: path13)


(Start cutting path id: path13)
(Change tool to Default tool)

G00 Z0.000000
G00 X44.166667 Y90.966667

G01 Z2 F100.0(Penetrate)
G02 X45.436167 Y90.276693 Z2 I-0.860501 J-3.096135 F75.000000
G03 X46.833128 Y89.060185 Z2 I75.479337 J85.265387
G02 X47.427005 Y88.507590 Z2 I-6.425454 J-7.500888
G03 X47.766667 Y88.166667 Z2 I52.887153 J52.351914
G00 Z0.000000

(End cutting path id: path13)


(Start cutting path id: path13)
(Change tool to Default tool)

G00 Z0.000000
G00 X36.300000 Y90.833333

G01 Z2 F100.0(Penetrate)
G03 X34.268728 Y88.550227 Z2 I22.809400 J-22.338613 F75.000000
G02 X32.966667 Y87.100000 Z2 I-14.476395 J11.687745
G00 Z0.000000

(End cutting path id: path13)


(Footer)
M5
M2
(Using default footer. To add your own footer create file "footer" in the output dir.)
(end)
%