%
(Header)
(Generated by gcodetools from Inkscape.)
(Using default header. To add your own header create file "header" in the output dir.)
M3
(Header end.)
G21 (All units in mm)

(Start cutting path id: path18)
(Change tool to Default tool)

G00 Z0.000000
G00 X65.366667 Y58.833330

G01 Z2 F100.0(Penetrate)
G01 X65.556584 Y56.300000 Z2 F75.000000
G01 X65.766667 Y55.100000 Z2
G01 X66.966667 Y55.404730 Z2
G01 X69.233333 Y56.033440 Z2
G01 X73.766667 Y57.783330 Z2
G01 X75.043415 Y58.422220 Z2
G01 X75.768622 Y58.841460 Z2
G01 X77.766667 Y59.233330 Z2
G00 Z0.000000

(End cutting path id: path18)


(Start cutting path id: path18)
(Change tool to Default tool)

G00 Z0.000000
G00 X74.966667 Y58.300000

G01 Z2 F100.0(Penetrate)
G02 X75.137364 Y57.971153 Z2 I-3.462458 J-2.006013 F75.000000
G02 X75.366256 Y57.366460 Z2 I-4.159521 J-1.920151
G02 X75.709468 Y56.125162 Z2 I-28.723245 J-8.609913
G03 X76.079218 Y54.833330 Z2 I21.362999 J5.415718
G03 X76.668517 Y53.082018 Z2 I57.413479 J18.344278
G03 X77.313477 Y51.366670 Z2 I43.803075 J15.490740
G01 X77.936625 Y50.353810 Z2
G01 X78.833333 Y50.533440 Z2
G03 X79.486563 Y50.934428 Z2 I-1.600106 J3.339218
G02 X80.166667 Y51.450210 Z2 I48.232315 J-62.892348
G03 X82.162572 Y53.059603 Z2 I-21.892564 J29.192601
G02 X84.033333 Y54.672220 Z2 I349.516556 J-403.574958
G03 X84.708115 Y55.303009 Z2 I-7.061190 J8.229962
G03 X85.100000 Y56.166670 Z2 I-0.985190 J0.967769
G00 Z0.000000

(End cutting path id: path18)


(Start cutting path id: path18)
(Change tool to Default tool)

G00 Z0.000000
G00 X85.100000 Y55.366670

G01 Z2 F100.0(Penetrate)
G02 X85.417371 Y54.994577 Z2 I-6.863549 J-6.175548 F75.000000
G02 X85.818107 Y54.433130 Z2 I-4.487750 J-3.626897
G02 X86.408017 Y53.463033 Z2 I-35.007832 J-21.952471
G03 X87.056071 Y52.433330 Z2 I18.001142 J10.610412
G03 X88.857660 Y49.961927 Z2 I32.520817 J21.814476
G03 X90.566667 Y48.033330 Z2 I18.014142 J14.241545
G02 X88.123220 Y45.646806 Z2 I-102.473992 J102.474059
G02 X85.100000 Y42.956070 Z2 I-40.432231 J42.384527
G02 X84.412242 Y42.413150 Z2 I-11.435411 J13.779016
G03 X83.767387 Y41.914920 Z2 I17.413323 J-23.204369
G01 X83.176851 Y41.228090 Z2
G01 X83.502881 Y40.300000 Z2
G03 X83.956571 Y39.645787 Z2 I5.474257 J3.311917
G02 X84.489917 Y38.966670 Z2 I-118.728455 J-93.792699
G03 X86.687555 Y36.353806 Z2 I36.960830 J28.856529
G03 X89.099485 Y33.976750 Z2 I22.045059 J19.956298
G02 X89.756660 Y33.295215 Z2 I-3.795218 J-4.317178
G03 X90.311934 Y32.837040 Z2 I1.430479 J1.168071
G03 X91.200484 Y32.687037 Z2 I0.665784 J1.237117
G02 X91.366667 Y32.700000 Z2 I0.162552 J-1.012179
G00 Z0.000000

(End cutting path id: path18)


(Start cutting path id: path18)
(Change tool to Default tool)

G00 Z0.000000
G00 X91.366667 Y49.766670

G01 Z2 F100.0(Penetrate)
G03 X91.387729 Y49.000206 Z2 I13.956911 J-0.000000 F75.000000
G02 X91.324277 Y48.453090 Z2 I-1.621518 J-0.089183
G01 X90.566664 Y48.033330 Z2
G00 Z0.000000

(End cutting path id: path18)


(Start cutting path id: path18)
(Change tool to Default tool)

G00 Z0.000000
G00 X77.900000 Y49.766670

G01 Z2 F100.0(Penetrate)
G02 X78.116865 Y49.436749 Z2 I-4.869746 J-3.437243 F75.000000
G02 X78.433024 Y48.833130 Z2 I-4.415157 J-2.697142
G03 X79.618945 Y46.406013 Z2 I32.585598 J14.418466
G03 X81.127057 Y43.766670 Z2 I50.147766 J26.903726
G03 X81.660313 Y42.928603 Z2 I20.363523 J12.368474
G02 X82.160083 Y42.166670 Z2 I-54.188756 J-36.088574
G03 X82.598502 Y41.543593 Z2 I8.074426 J5.215667
G03 X82.966667 Y41.100000 Z2 I5.733758 J4.384221
G00 Z0.000000

(End cutting path id: path18)


(Start cutting path id: path18)
(Change tool to Default tool)

G00 Z0.000000
G00 X77.900000 Y50.166670

G01 Z2 F100.0(Penetrate)
G02 X77.446768 Y49.588969 Z2 I-1.592751 J0.782942 F75.000000
G02 X76.833333 Y49.156690 Z2 I-2.894806 J3.456545
G02 X74.269481 Y47.730908 Z2 I-32.227639 J54.933920
G02 X71.500000 Y46.334460 Z2 I-41.358819 J78.579673
G02 X70.403091 Y45.847972 Z2 I-8.119831 J16.828323
G02 X69.366872 Y45.465740 Z2 I-6.499854 J16.025202
G03 X68.700707 Y45.220821 Z2 I3.635484 J-10.916725
G03 X68.433333 Y45.100000 Z2 I1.329862 J-3.299207
G00 Z0.000000

(End cutting path id: path18)


(Start cutting path id: path18)
(Change tool to Default tool)

G00 Z0.000000
G00 X59.633330 Y42.966670

G01 Z2 F100.0(Penetrate)
G03 X60.708807 Y43.098947 Z2 I-0.983681 J12.435991 F75.000000
G03 X62.966664 Y43.528090 Z2 I-8.621803 J51.516296
G03 X65.386035 Y44.133497 Z2 I-7.344650 J34.488177
G03 X67.366458 Y44.739200 Z2 I-17.654617 J61.264448
G03 X67.939458 Y44.947151 Z2 I-2.675295 J8.265071
G03 X68.300000 Y45.100000 Z2 I-4.125299 J10.232456
G00 Z0.000000

(End cutting path id: path18)


(Start cutting path id: path18)
(Change tool to Default tool)

G00 Z0.000000
G00 X59.500000 Y42.966670

G01 Z2 F100.0(Penetrate)
G01 X59.633333 Y42.966670 Z2 F75.000000
G00 Z0.000000

(End cutting path id: path18)


(Start cutting path id: path18)
(Change tool to Default tool)

G00 Z0.000000
G00 X59.500000 Y39.233330

G01 Z2 F100.0(Penetrate)
G02 X59.689777 Y39.053278 Z2 I-14.195156 J-15.151961 F75.000000
G02 X60.076543 Y38.554110 Z2 I-1.501670 J-1.562945
G02 X60.975355 Y36.744978 Z2 I-16.958789 J-9.553295
G03 X62.051955 Y34.566670 Z2 I22.372372 J9.702048
G02 X62.519567 Y33.621763 Z2 I-9.337337 J-5.208982
G03 X63.127984 Y33.008440 Z2 I1.092128 J0.474956
G03 X64.163134 Y32.947940 Z2 I0.597971 J1.345321
G02 X65.366667 Y33.283230 Z2 I6.225989 J-20.020672
G03 X67.933786 Y33.960174 Z2 I-20.034773 J81.182262
G03 X70.433333 Y34.776750 Z2 I-8.452915 J30.108303
G02 X71.355314 Y35.099049 Z2 I7.951093 J-21.265294
G03 X72.163375 Y35.434360 Z2 I-1.725933 J5.300631
G03 X72.597164 Y35.711853 Z2 I-1.205991 J2.363060
G03 X72.833333 Y35.900000 Z2 I-14.579346 J18.542857
G00 Z0.000000

(End cutting path id: path18)


(Start cutting path id: path18)
(Change tool to Default tool)

G00 Z0.000000
G00 X73.500000 Y35.900000

G01 Z2 F100.0(Penetrate)
G02 X73.783955 Y36.067471 Z2 I2.749605 J-4.337626 F75.000000
G02 X74.433539 Y36.380140 Z2 I3.319106 J-6.064484
G03 X77.084591 Y37.655658 Z2 I-10.928759 J26.107217
G03 X79.766667 Y39.226650 Z2 I-25.345012 J46.345248
G02 X80.803102 Y39.875333 Z2 I5320.063843 J-8498.998511
G03 X81.766667 Y40.501230 Z2 I-18.035421 J28.820065
G03 X82.437367 Y40.964186 Z2 I-20.354841 J30.206064
G02 X82.833333 Y41.233330 Z2 I7.525580 J-10.645820
G00 Z0.000000

(End cutting path id: path18)


(Start cutting path id: path18)
(Change tool to Default tool)

G00 Z0.000000
G00 X83.633333 Y58.833330

G01 Z2 F100.0(Penetrate)
G01 X84.439095 Y57.100100 Z2 F75.000000
G01 X85.105863 Y56.366980 Z2
G01 X86.164712 Y56.850620 Z2
G01 X87.900000 Y58.833330 Z2
G00 Z0.000000

(End cutting path id: path18)


(Start cutting path id: path18)
(Change tool to Default tool)

G00 Z0.000000
G00 X59.633333 Y54.033330

G01 Z2 F100.0(Penetrate)
G02 X61.237991 Y54.359553 Z2 I2.662754 J-8.988133 F75.000000
G03 X64.300000 Y54.774790 Z2 I-8.046821 J70.835680
G03 X65.138432 Y54.923540 Z2 I-3.470346 J21.997930
G03 X65.633333 Y55.100000 Z2 I-0.345166 J1.750288
G02 X65.815804 Y54.569552 Z2 I-1.563790 J-0.834542
G02 X65.938580 Y53.766670 Z2 I-19.359798 J-3.371316
G03 X66.096855 Y52.858272 Z2 I11.034692 J1.454642
G03 X66.317284 Y51.900000 Z2 I39.520953 J8.586432
G03 X66.829090 Y49.820356 Z2 I340.438374 J82.679972
G03 X67.412551 Y47.766670 Z2 I31.927616 J7.961050
G03 X67.687582 Y46.950677 Z2 I25.897422 J8.274389
G02 X67.932613 Y46.166670 Z2 I-10.185530 J-3.613650
G03 X68.086908 Y45.623188 Z2 I23.266849 J6.311841
G03 X68.305144 Y45.100000 Z2 I2.548186 J0.755807
G02 X68.604772 Y44.446669 Z2 I-4.377823 J-2.403113
G03 X68.967079 Y43.500000 Z2 I62.889544 J23.526271
G03 X69.925685 Y41.331875 Z2 I25.541489 J9.996826
G03 X71.043827 Y39.233330 Z2 I35.485629 J17.560224
G03 X71.734351 Y38.082954 Z2 I27.704703 J15.847574
G02 X72.401029 Y36.966670 Z2 I-23.667922 J-14.892408
G02 X72.732021 Y36.379946 Z2 I-195.659305 J-110.765126
G03 X73.113271 Y35.938070 Z2 I1.281977 J0.720679
G02 X73.584789 Y35.391081 Z2 I-1.112219 J-1.435484
G03 X74.200515 Y34.433330 Z2 I8.266091 J4.637372
G03 X77.006349 Y31.185662 Z2 I21.386787 J15.641300
G03 X80.166152 Y28.388170 Z2 I28.186485 J28.653731
G03 X80.953456 Y27.794133 Z2 I11.928839 J14.991088
G03 X81.900102 Y27.503190 Z2 I0.908699 J1.271116
G03 X82.775621 Y27.767167 Z2 I-0.041933 J1.722964
G02 X83.500000 Y28.193930 Z2 I7.731150 J-12.294532
G03 X87.590561 Y30.558404 Z2 I-55.187901 J100.196136
G03 X90.166667 Y32.700000 Z2 I-5.855378 J9.663567
G00 Z0.000000

(End cutting path id: path18)


(Start cutting path id: path18)
(Change tool to Default tool)

G00 Z0.000000
G00 X59.500000 Y54.033330

G01 Z2 F100.0(Penetrate)
G01 X59.633333 Y54.033330 Z2 F75.000000
G00 Z0.000000

(End cutting path id: path18)


(Footer)
M5
M2
(Using default footer. To add your own footer create file "footer" in the output dir.)
(end)
%