%
(Header)
(Generated by gcodetools from Inkscape.)
(Using default header. To add your own header create file "header" in the output dir.)
M3
(Header end.)
G21 (All units in mm)

(Start cutting path id: path6)
(Change tool to Default tool)

G00 Z0.000000
G00 X83.366667 Y123.500000

G01 Z2 F100.0(Penetrate)
G01 X82.554527 Y124.146503 Z2 F75.000000
G01 X81.500616 Y124.964506 Z2
G01 X80.700000 Y125.626131 Z2
G01 X79.500000 Y126.404631 Z2
G01 X75.500000 Y128.667078 Z2
G01 X73.766667 Y129.488477 Z2
G01 X72.700000 Y129.900000 Z2
G02 X72.854279 Y130.389503 Z2 I704.780658 J-221.859701
G03 X73.064095 Y131.100000 Z2 I-19.075789 J6.019483
G02 X73.323244 Y131.999017 Z2 I37.523706 J-10.329676
G02 X73.633745 Y132.966667 Z2 I27.286033 J-8.221928
G02 X74.668259 Y135.647055 Z2 I33.997833 J-11.581863
G02 X75.794445 Y138.166667 Z2 I105.716043 J-45.740197
G02 X76.097977 Y138.806725 Z2 I30.609272 J-14.123708
G02 X76.434774 Y139.366667 Z2 I3.334892 J-1.624628
G03 X76.779846 Y139.928915 Z2 I-3.367921 J2.454033
G03 X77.083333 Y140.566667 Z2 I-11.627573 J5.924293
G02 X78.507602 Y143.070160 Z2 I13.168873 J-5.835051
G02 X80.264610 Y145.500000 Z2 I141.160793 J-100.222659
G02 X81.467817 Y147.010989 Z2 I20.597725 J-15.167503
G03 X82.595473 Y148.433232 Z2 I-17.263468 J14.845876
G02 X82.953563 Y148.917328 Z2 I38.158442 J-27.851631
G02 X83.380042 Y149.328601 Z2 I1.485117 J-1.113267
G03 X84.023711 Y149.892169 Z2 I-2.179408 J3.138534
G02 X84.713890 Y150.604732 Z2 I12.227703 J-11.153053
G02 X86.329679 Y152.144006 Z2 I76.037436 J-78.199463
G02 X88.033333 Y153.605247 Z2 I18.250577 J-19.554499
G02 X88.846437 Y154.233031 Z2 I33.452534 J-42.487156
G02 X89.633333 Y154.748765 Z2 I4.189670 J-5.534330
G02 X90.692288 Y155.128128 Z2 I1.645571 J-2.925781
G02 X91.366667 Y155.233333 Z2 I2.853473 J-16.077193
G00 Z0.000000

(End cutting path id: path6)


(Start cutting path id: path6)
(Change tool to Default tool)

G00 Z0.000000
G00 X83.766667 Y149.366665

G01 Z2 F100.0(Penetrate)
G03 X85.802193 Y147.735154 Z2 I10.440869 J10.940814 F75.000000
G02 X88.700000 Y145.554629 Z2 I-18.079765 J-27.042877
G02 X90.060045 Y144.378925 Z2 I-48.408773 J-57.373393
G03 X90.946914 Y143.594546 Z2 I600.198492 J677.728933
G02 X91.235835 Y143.165098 Z2 I-0.678988 J-0.768718
G02 X91.346914 Y141.905245 Z2 I-2.419754 J-0.848168
G02 X91.041523 Y141.304601 Z2 I-1.093085 J0.177808
G02 X90.433232 Y140.698043 Z2 I-41.689418 J41.200285
G03 X87.104993 Y136.684239 Z2 I17.970048 J-18.287519
G02 X84.833333 Y133.766665 Z2 I-21.609646 J14.482383
G03 X85.291680 Y133.358090 Z2 I12.766294 J13.860109
G02 X85.900000 Y132.833331 Z2 I-8658.805697 J-10038.210097
G02 X88.240407 Y130.676556 Z2 I-31.721158 J-36.770179
G02 X90.509979 Y128.305245 Z2 I-38.435759 J-39.058466
G01 X91.339095 Y127.098043 Z2
G02 X91.086626 Y126.323768 Z2 I-1.081743 J-0.075573
G03 X90.740845 Y125.899998 Z2 I13.276632 J-11.186189
G03 X89.513327 Y124.041931 Z2 I10.311785 J-8.146914
G03 X89.233333 Y123.499998 Z2 I12.115209 J-6.602711
G00 Z0.000000

(End cutting path id: path6)


(Start cutting path id: path6)
(Change tool to Default tool)

G00 Z0.000000
G00 X80.700000 Y125.366667

G01 Z2 F100.0(Penetrate)
G01 X80.033333 Y123.500000 Z2 F75.000000
G00 Z0.000000

(End cutting path id: path6)


(Start cutting path id: path6)
(Change tool to Default tool)

G00 Z0.000000
G00 X72.566667 Y129.766667

G01 Z2 F100.0(Penetrate)
G03 X72.240100 Y128.318191 Z2 I49.469215 J-11.914159 F75.000000
G03 X71.689917 Y125.500000 Z2 I97.869404 J-20.569415
G03 X71.564997 Y124.760838 Z2 I33.429540 J-6.029800
G03 X71.505247 Y124.169958 Z2 I5.277571 J-0.832131
G03 X71.498452 Y123.694078 Z2 I7.695797 J-0.347874
G02 X71.500000 Y123.500000 Z2 I-11.228802 J-0.186605
G00 Z0.000000

(End cutting path id: path6)


(Start cutting path id: path6)
(Change tool to Default tool)

G00 Z0.000000
G00 X61.766667 Y123.500000

G01 Z2 F100.0(Penetrate)
G01 X65.633333 Y123.500000 Z2 F75.000000
G01 X67.633333 Y123.500000 Z2
G00 Z0.000000

(End cutting path id: path6)


(Start cutting path id: path6)
(Change tool to Default tool)

G00 Z0.000000
G00 X59.633333 Y123.500000

G01 Z2 F100.0(Penetrate)
G01 X61.492181 Y123.542390 Z2 F75.000000
G01 X62.025514 Y124.300619 Z2
G01 X62.045264 Y126.033336 Z2
G01 X62.677878 Y131.233336 Z2
G01 X63.002775 Y132.833336 Z2
G01 X63.322119 Y134.300000 Z2
G01 X64.521193 Y138.700000 Z2
G01 X65.720370 Y142.300000 Z2
G01 X66.206584 Y143.576750 Z2
G01 X66.739403 Y144.700000 Z2
G01 X68.267079 Y148.033333 Z2
G01 X70.942078 Y152.833333 Z2
G01 X71.540432 Y153.858232 Z2
G01 X72.966667 Y153.811212 Z2
G01 X75.100000 Y153.188888 Z2
G01 X80.166667 Y151.132920 Z2
G01 X82.299795 Y150.012962 Z2
G01 X83.233333 Y149.366665 Z2
G00 Z0.000000

(End cutting path id: path6)


(Start cutting path id: path6)
(Change tool to Default tool)

G00 Z0.000000
G00 X76.566667 Y139.366667

G01 Z2 F100.0(Penetrate)
G01 X77.500205 Y138.731070 Z2 F75.000000
G01 X79.100000 Y137.808744 Z2
G01 X82.433333 Y135.583435 Z2
G01 X83.899795 Y134.490021 Z2
G01 X84.833333 Y133.766667 Z2
G00 Z0.000000

(End cutting path id: path6)


(Start cutting path id: path6)
(Change tool to Default tool)

G00 Z0.000000
G00 X84.966667 Y133.633333

G01 Z2 F100.0(Penetrate)
G03 X84.664454 Y133.278860 Z2 I6.483139 J-5.833406 F75.000000
G03 X84.245268 Y132.699795 Z2 I5.280440 J-4.263769
G03 X83.776342 Y131.941599 Z2 I18.717927 J-12.100700
G03 X83.289917 Y131.100000 Z2 I42.582214 J-25.172909
G03 X82.126835 Y128.855075 Z2 I30.389921 J-17.168583
G03 X81.165432 Y126.700616 Z2 I48.321436 J-22.854641
G02 X80.882240 Y126.163206 Z2 I-3.210851 J1.348658
G02 X80.700000 Y125.900000 Z2 I-4.042304 J2.604148
G00 Z0.000000

(End cutting path id: path6)


(Start cutting path id: path6)
(Change tool to Default tool)

G00 Z0.000000
G00 X63.100000 Y132.966667

G01 Z2 F100.0(Penetrate)
G01 X64.033539 Y132.640535 Z2 F75.000000
G01 X66.300000 Y132.110083 Z2
G01 X69.900000 Y131.011110 Z2
G01 X71.633333 Y130.448765 Z2
G01 X72.700000 Y130.033333 Z2
G00 Z0.000000

(End cutting path id: path6)


(Start cutting path id: path6)
(Change tool to Default tool)

G00 Z0.000000
G00 X59.500000 Y133.366667

G01 Z2 F100.0(Penetrate)
G01 X59.722840 Y133.361067 Z2 F75.000000
G02 X60.578713 Y133.264648 Z2 I-0.917176 J-11.988257
G03 X61.899794 Y133.078865 Z2 I11.859746 J79.543278
G02 X62.498944 Y132.947537 Z2 I-0.477072 J-3.608900
G02 X62.833333 Y132.833288 Z2 I-1.795133 J-5.800575
G00 Z0.000000

(End cutting path id: path6)


(Start cutting path id: path6)
(Change tool to Default tool)

G00 Z0.000000
G00 X59.500000 Y123.500000

G01 Z2 F100.0(Penetrate)
G01 X59.633333 Y123.500000 Z2 F75.000000
G00 Z0.000000

(End cutting path id: path6)


(Start cutting path id: path6)
(Change tool to Default tool)

G00 Z0.000000
G00 X66.433333 Y143.633334

G01 Z2 F100.0(Penetrate)
G01 X67.233951 Y143.235289 Z2 F75.000000
G01 X69.100000 Y142.609155 Z2
G01 X73.500000 Y140.798869 Z2
G01 X75.366461 Y139.887860 Z2
G01 X76.300000 Y139.366667 Z2
G00 Z0.000000

(End cutting path id: path6)


(Start cutting path id: path6)
(Change tool to Default tool)

G00 Z0.000000
G00 X59.500000 Y144.966667

G01 Z2 F100.0(Penetrate)
G02 X59.694756 Y144.939872 Z2 I-1.134746 J-8.968953 F75.000000
G03 X60.169959 Y144.869447 Z2 I75.507001 J507.855685
G03 X60.935628 Y144.756659 Z2 I137.978314 J934.018485
G02 X61.900000 Y144.592903 Z2 I-3.179618 J-21.646555
G02 X64.496583 Y144.054500 Z2 I-18.075851 J-93.705785
G03 X65.900000 Y143.766668 Z2 I9.662543 J43.547552
G00 Z0.000000

(End cutting path id: path6)


(Footer)
M5
M2
(Using default footer. To add your own footer create file "footer" in the output dir.)
(end)
%