%
(Header)
(Generated by gcodetools from Inkscape.)
(Using default header. To add your own header create file "header" in the output dir.)
M3
(Header end.)
G21 (All units in mm)

(Start cutting path id: path14)
(Change tool to Default tool)

G00 Z0.000000
G00 X65.366667 Y91.366667

G01 Z2 F100.0(Penetrate)
G02 X64.292483 Y91.114752 Z2 I-1.842970 J5.442401 F75.000000
G03 X63.101955 Y90.680762 Z2 I0.396668 J-2.938079
G03 X62.571089 Y90.235124 Z2 I1.394872 J-2.200655
G02 X61.894856 Y89.806482 Z2 I-1.122277 J1.022784
G03 X61.089705 Y89.418694 Z2 I0.874347 J-2.845120
G03 X60.554938 Y88.989301 Z2 I2.515470 J-3.680472
G02 X59.968777 Y88.519164 Z2 I-3.318485 J3.536970
G02 X59.633333 Y88.300000 Z2 I-5.722959 J8.393042
G00 Z0.000000

(End cutting path id: path14)


(Start cutting path id: path14)
(Change tool to Default tool)

G00 Z0.000000
G00 X59.500000 Y88.300000

G01 Z2 F100.0(Penetrate)
G01 X59.633333 Y88.300000 Z2 F75.000000
G00 Z0.000000

(End cutting path id: path14)


(Start cutting path id: path14)
(Change tool to Default tool)

G00 Z0.000000
G00 X59.500000 Y90.966667

G01 Z2 F100.0(Penetrate)
G02 X60.149775 Y90.697382 Z2 I-0.498547 J-2.121558 F75.000000
G02 X61.233333 Y89.766667 Z2 I-2.442285 J-3.939467
G00 Z0.000000

(End cutting path id: path14)


(Start cutting path id: path14)
(Change tool to Default tool)

G00 Z0.000000
G00 X62.433333 Y89.633333

G01 Z2 F100.0(Penetrate)
G03 X64.087315 Y88.447553 Z2 I3.210839 J2.732214 F75.000000
G03 X66.566667 Y87.493313 Z2 I45.296840 J113.994268
G03 X67.423743 Y87.195789 Z2 I7.054317 J18.938062
G03 X68.300000 Y86.927881 Z2 I9.391535 J29.150343
G01 X69.411214 Y86.282202 Z2
G01 X68.819341 Y85.181997 Z2
G02 X67.320813 Y83.853666 Z2 I-42.489088 J46.423730
G03 X65.930350 Y82.433330 Z2 I7.477887 J-8.711384
G01 X65.603601 Y81.157820 Z2
G01 X66.433333 Y80.833950 Z2
G02 X68.009435 Y80.661679 Z2 I-31.303380 J-293.688855
G03 X69.633333 Y80.566770 Z2 I1.703515 J15.207351
G02 X70.380055 Y80.539643 Z2 I-0.072324 J-12.281731
G03 X70.966667 Y80.513070 Z2 I0.912071 J13.646441
G03 X71.492755 Y80.560735 Z2 I0.055347 J2.316201
G03 X72.033333 Y80.711930 Z2 I-0.837809 J4.037469
G03 X72.473349 Y80.876845 Z2 I-4.419176 J12.460460
G03 X72.891564 Y81.128500 Z2 I-0.544995 J1.379038
G03 X73.267711 Y81.710503 Z2 I-0.787067 J0.921233
G02 X73.663272 Y82.410600 Z2 I1.689221 J-0.492629
G02 X75.085417 Y83.533660 Z2 I4.245783 J-3.914515
G03 X76.419341 Y84.483848 Z2 I-3.712104 J6.622662
G03 X76.915314 Y85.148217 Z2 I-1.369950 J1.540026
G03 X77.100000 Y85.633333 Z2 I-3.135059 J1.471248
G00 Z0.000000

(End cutting path id: path14)


(Start cutting path id: path14)
(Change tool to Default tool)

G00 Z0.000000
G00 X76.033333 Y89.633333

G01 Z2 F100.0(Penetrate)
G02 X77.014204 Y89.742217 Z2 I1.204451 J-6.377704 F75.000000
G02 X78.433333 Y89.766667 Z2 I1.419129 J-41.172263
G00 Z0.000000

(End cutting path id: path14)


(Start cutting path id: path14)
(Change tool to Default tool)

G00 Z0.000000
G00 X81.100000 Y82.966670

G01 Z2 F100.0(Penetrate)
G02 X80.734869 Y82.648873 Z2 I-57.083978 J65.217799 F75.000000
G02 X79.633333 Y82.028600 Z2 I-2.076328 J2.399086
G02 X78.924378 Y81.974553 Z2 I-0.466754 J1.445737
G03 X78.300000 Y81.963700 Z2 I-0.281938 J-1.745847
G03 X76.249709 Y81.422169 Z2 I3.239950 J-16.418834
G02 X74.033539 Y80.975740 Z2 I-2.915975 J8.751552
G02 X73.366437 Y81.024091 Z2 I-0.171715 J2.257039
G02 X73.100000 Y81.100020 Z2 I0.532327 J2.373386
G00 Z0.000000

(End cutting path id: path14)


(Start cutting path id: path14)
(Change tool to Default tool)

G00 Z0.000000
G00 X70.966667 Y80.433380

G01 Z2 F100.0(Penetrate)
G02 X70.897076 Y79.928569 Z2 I-5.088705 J0.444308 F75.000000
G02 X70.668210 Y79.233380 Z2 I-2.749702 J0.519971
G02 X70.159759 Y78.389245 Z2 I-4.782238 J2.305304
G03 X69.556687 Y77.500050 Z2 I11.058625 J-8.149321
G03 X68.550546 Y75.495720 Z2 I10.406160 J-6.478421
G03 X68.033333 Y73.900050 Z2 I12.983550 J-5.090085
G03 X71.484372 Y73.983733 Z2 I1.595590 J5.400083
G02 X75.100000 Y74.833380 Z2 I5.839543 J-16.731983
G02 X74.708107 Y72.565976 Z2 I-12.431950 J0.981139
G03 X74.171914 Y69.100050 Z2 I15.415557 J-4.159291
G03 X74.219836 Y68.256092 Z2 I4.223022 J-0.183548
G02 X74.096914 Y67.386470 Z2 I-1.480652 J-0.234207
G01 X72.166667 Y66.567230 Z2
G02 X69.568474 Y65.810182 Z2 I-10.397963 J30.848823
G02 X66.966667 Y65.289970 Z2 I-7.127991 J28.883715
G01 X65.698354 Y64.993470 Z2
G01 X65.404732 Y63.633380 Z2
G03 X65.333751 Y61.687838 Z2 I12.122690 J-1.416347
G02 X65.366672 Y60.170010 Z2 I-34.973686 J-1.517828
G01 X65.366672 Y59.500050 Z2
G00 Z0.000000

(End cutting path id: path14)


(Start cutting path id: path14)
(Change tool to Default tool)

G00 Z0.000000
G00 X59.633285 Y64.566670

G01 Z2 F100.0(Penetrate)
G03 X61.176821 Y64.679214 Z2 I-1.113832 J25.917218 F75.000000
G02 X64.166619 Y64.833330 Z2 I3.001083 J-29.142363
G02 X64.900155 Y64.833386 Z2 I0.455554 J-1166.206099
G03 X65.366619 Y64.833330 Z2 I0.465121 J1954.805704
G00 Z0.000000

(End cutting path id: path14)


(Start cutting path id: path14)
(Change tool to Default tool)

G00 Z0.000000
G00 X59.500000 Y64.566670

G01 Z2 F100.0(Penetrate)
G01 X59.633333 Y64.566670 Z2 F75.000000
G00 Z0.000000

(End cutting path id: path14)


(Start cutting path id: path14)
(Change tool to Default tool)

G00 Z0.000000
G00 X60.566668 Y74.033330

G01 Z2 F100.0(Penetrate)
G01 X61.367285 Y73.768620 Z2 F75.000000
G01 X62.566668 Y73.638480 Z2
G01 X66.166668 Y73.500000 Z2
G01 X68.033334 Y73.900000 Z2
G00 Z0.000000

(End cutting path id: path14)


(Start cutting path id: path14)
(Change tool to Default tool)

G00 Z0.000000
G00 X67.366668 Y73.233330

G01 Z2 F100.0(Penetrate)
G03 X66.785264 Y71.220799 Z2 I38.942038 J-12.340297 F75.000000
G03 X66.061421 Y68.166670 Z2 I66.364487 J-17.341529
G03 X65.866899 Y67.208707 Z2 I50.360494 J-10.724830
G03 X65.768622 Y66.300000 Z2 I5.405155 J-1.044237
G03 X65.764266 Y65.666333 Z2 I17.841261 J-0.439486
G02 X65.766622 Y65.233330 Z2 I-39.793848 J-0.433003
G00 Z0.000000

(End cutting path id: path14)


(Start cutting path id: path14)
(Change tool to Default tool)

G00 Z0.000000
G00 X74.166619 Y66.833330

G01 Z2 F100.0(Penetrate)
G03 X74.314333 Y63.787201 Z2 I31.482173 J-0.000000 F75.000000
G03 X74.677833 Y60.433440 Z2 I151.855112 J14.762351
G01 X75.369190 Y59.507820 Z2
G03 X77.239800 Y59.714206 Z2 I0.427909 J4.702058
G03 X78.171866 Y60.199180 Z2 I-0.953015 J2.969737
G02 X79.492006 Y61.136855 Z2 I15.577418 J-20.533095
G03 X80.966619 Y62.159880 Z2 I-24.397231 J36.741046
G03 X81.783049 Y62.765723 Z2 I-25.843246 J35.679228
G03 X82.299952 Y63.766670 Z2 I-0.793237 J1.043580
G00 Z0.000000

(End cutting path id: path14)


(Start cutting path id: path14)
(Change tool to Default tool)

G00 Z0.000000
G00 X82.166667 Y62.833330

G01 Z2 F100.0(Penetrate)
G01 X82.718724 Y61.633330 Z2 F75.000000
G01 X83.143929 Y60.300620 Z2
G01 X83.366667 Y59.500000 Z2
G00 Z0.000000

(End cutting path id: path14)


(Start cutting path id: path14)
(Change tool to Default tool)

G00 Z0.000000
G00 X90.966667 Y62.700000

G01 Z2 F100.0(Penetrate)
G01 X91.366667 Y62.700000 Z2 F75.000000
G00 Z0.000000

(End cutting path id: path14)


(Start cutting path id: path14)
(Change tool to Default tool)

G00 Z0.000000
G00 X91.366619 Y65.366670

G01 Z2 F100.0(Penetrate)
G01 X91.366619 Y60.300000 Z2 F75.000000
G00 Z0.000000

(End cutting path id: path14)


(Start cutting path id: path14)
(Change tool to Default tool)

G00 Z0.000000
G00 X87.633285 Y68.566670

G01 Z2 F100.0(Penetrate)
G02 X88.428864 Y67.093954 Z2 I-3.646233 J-2.920988 F75.000000
G03 X89.600878 Y64.300510 Z2 I17.566922 J5.727770
G03 X90.308085 Y63.345854 Z2 I3.344430 J1.738270
G02 X90.966619 Y62.700000 Z2 I-442.331954 J-451.674822
G01 X90.547175 Y62.278600 Z2
G01 X88.942544 Y60.169960 Z2
G01 X88.566619 Y59.500000 Z2
G00 Z0.000000

(End cutting path id: path14)


(Start cutting path id: path14)
(Change tool to Default tool)

G00 Z0.000000
G00 X81.366622 Y71.100000

G01 Z2 F100.0(Penetrate)
G02 X81.452461 Y70.729865 Z2 I-1.679692 J-0.584561 F75.000000
G02 X81.500366 Y69.900000 Z2 I-6.533082 J-0.793449
G03 X81.495634 Y69.002395 Z2 I1808.943184 J-9.984270
G03 X81.556536 Y68.033330 Z2 I7.167443 J-0.036003
G02 X81.793112 Y65.518707 Z2 I-34.078280 J-4.474534
G03 X82.299952 Y63.766670 Z2 I4.088932 J0.233541
G02 X82.794516 Y63.968256 Z2 I3.340254 J-7.487395
G03 X83.366619 Y64.260290 Z2 I-0.950812 J2.569069
G03 X85.078533 Y65.888577 Z2 I-3.862178 J5.774597
G02 X86.551187 Y67.760900 Z2 I35.500239 J-26.406991
G02 X87.003514 Y68.197302 Z2 I2.203103 J-1.830880
G03 X87.420012 Y68.616670 Z2 I-1.379814 J1.786880
G01 X87.631125 Y69.366560 Z2
G02 X87.695047 Y69.979646 Z2 I6.368899 J-0.354161
G02 X87.766619 Y70.300000 Z2 I2.402256 J-0.368530
G00 Z0.000000

(End cutting path id: path14)


(Start cutting path id: path14)
(Change tool to Default tool)

G00 Z0.000000
G00 X91.366667 Y78.033330

G01 Z2 F100.0(Penetrate)
G02 X91.122279 Y76.849547 Z2 I-3.000805 J0.002389 F75.000000
G02 X90.736420 Y76.033330 Z2 I-11.773621 J5.066551
G03 X89.876189 Y73.894913 Z2 I10.866614 J-5.613599
G02 X88.860494 Y71.500510 Z2 I-11.049010 J3.274310
G01 X87.784363 Y70.657410 Z2
G01 X87.216050 Y71.766670 Z2
G02 X87.090326 Y73.828673 Z2 I12.191093 J1.778148
G02 X87.194650 Y75.500000 Z2 I21.306484 J-0.491031
G03 X87.119855 Y76.205624 Z2 I-1.715367 J0.174950
G03 X86.966668 Y76.566670 Z2 I-2.112927 J-0.683466
G00 Z0.000000

(End cutting path id: path14)


(Start cutting path id: path14)
(Change tool to Default tool)

G00 Z0.000000
G00 X88.033333 Y79.233330

G01 Z2 F100.0(Penetrate)
G03 X87.500675 Y77.907451 Z2 I2.973047 J-1.964324 F75.000000
G02 X87.013477 Y76.861830 Z2 I-2.241914 J0.408288
G02 X86.365587 Y76.356217 Z2 I-1.475001 J1.222150
G03 X85.845369 Y75.996710 Z2 I0.866422 J-1.809881
G03 X84.641925 Y74.606993 Z2 I6.754930 J-7.065449
G02 X83.233024 Y73.278810 Z2 I-4.060330 J2.895736
G02 X82.650347 Y72.982666 Z2 I-1.926060 J3.068320
G03 X82.300000 Y72.833330 Z2 I3.065041 J-7.676305
G00 Z0.000000

(End cutting path id: path14)


(Start cutting path id: path14)
(Change tool to Default tool)

G00 Z0.000000
G00 X83.500000 Y79.366670

G01 Z2 F100.0(Penetrate)
G02 X83.456373 Y79.048530 Z2 I-20.259865 J2.616236 F75.000000
G02 X83.301440 Y78.300000 Z2 I-6.312165 J0.916207
G02 X82.636140 Y76.333025 Z2 I-16.149065 J4.366184
G03 X82.056482 Y74.033330 Z2 I7.791120 J-3.186718
G03 X82.044780 Y73.448791 Z2 I3.402027 J-0.360494
G02 X82.008232 Y72.833330 Z2 I-2.470267 J-0.162125
G02 X81.841745 Y72.276395 Z2 I-2.692931 J0.501657
G03 X81.648765 Y71.767290 Z2 I7.287860 J-3.053648
G01 X81.324384 Y71.168420 Z2
G02 X80.664672 Y70.801258 Z2 I-1.070794 J1.147729
G03 X79.900000 Y70.472020 Z2 I0.772508 J-2.846797
G03 X77.727147 Y69.073005 Z2 I28.213326 J-46.205847
G02 X75.500000 Y67.979730 Z2 I-5.004201 J7.379092
G02 X74.828313 Y67.824321 Z2 I-1.202984 J3.670136
G02 X74.300000 Y67.766670 Z2 I-1.247512 J8.982580
G00 Z0.000000

(End cutting path id: path14)


(Start cutting path id: path14)
(Change tool to Default tool)

G00 Z0.000000
G00 X76.166668 Y75.900000

G01 Z2 F100.0(Penetrate)
G01 X75.100001 Y74.833330 Z2 F75.000000
G00 Z0.000000

(End cutting path id: path14)


(Start cutting path id: path14)
(Change tool to Default tool)

G00 Z0.000000
G00 X79.366667 Y81.633380

G01 Z2 F100.0(Penetrate)
G03 X79.195357 Y81.266288 Z2 I22.221036 J-10.593369 F75.000000
G02 X78.792798 Y80.566720 Z2 I-3.920814 J1.790582
G02 X77.567297 Y79.032005 Z2 I-13.847184 J9.800608
G03 X76.477161 Y77.233380 Z2 I4.211371 J-3.782162
G03 X76.278955 Y76.506675 Z2 I3.849698 J-1.440372
G02 X76.166667 Y75.900050 Z2 I-35.658304 J6.286753
G03 X76.675448 Y75.938572 Z2 I-0.336445 J7.822717
G03 X77.366667 Y76.073510 Z2 I-0.449671 J4.141293
G03 X78.081764 Y76.352773 Z2 I-1.109852 J3.897137
G03 X78.833333 Y76.757040 Z2 I-7.301845 J14.475558
G03 X80.424356 Y77.788729 Z2 I-8.497941 J14.847776
G02 X81.900000 Y78.854170 Z2 I99.769638 J-136.627113
G02 X82.837748 Y79.354476 Z2 I2.384277 J-3.339978
G03 X83.766667 Y80.033380 Z2 I-0.757797 J2.011819
G00 Z0.000000

(End cutting path id: path14)


(Start cutting path id: path14)
(Change tool to Default tool)

G00 Z0.000000
G00 X69.766667 Y86.300000

G01 Z2 F100.0(Penetrate)
G02 X70.714918 Y86.460183 Z2 I1.138046 J-3.850178 F75.000000
G03 X71.633333 Y86.566667 Z2 I-0.320981 J6.782320
G00 Z0.000000

(End cutting path id: path14)


(Start cutting path id: path14)
(Change tool to Default tool)

G00 Z0.000000
G00 X70.566667 Y91.366667

G01 Z2 F100.0(Penetrate)
G01 X73.100000 Y90.828190 Z2 F75.000000
G01 X74.833333 Y90.323560 Z2
G01 X75.900000 Y89.633333 Z2
G02 X75.515262 Y89.261897 Z2 I-32.809222 J33.599219
G02 X74.700000 Y88.687244 Z2 I-2.333131 J2.444387
G02 X73.498567 Y88.147577 Z2 I-6.774329 J13.474160
G03 X72.439095 Y87.548354 Z2 I1.655888 J-4.163961
G01 X71.848354 Y86.707202 Z2
G01 X72.833333 Y86.043929 Z2
G03 X74.173676 Y85.936155 Z2 I2.399213 J21.449451
G03 X75.633333 Y85.900000 Z2 I1.473132 J29.991040
G02 X76.712087 Y85.750910 Z2 I-0.001794 J-3.990230
G03 X77.633333 Y85.670473 Z2 I0.673030 J2.392492
G03 X78.662942 Y85.995979 Z2 I-0.263439 J2.624415
G02 X79.633333 Y86.433333 Z2 I2.937809 J-5.223128
G00 Z0.000000

(End cutting path id: path14)


(Start cutting path id: path14)
(Change tool to Default tool)

G00 Z0.000000
G00 X64.033333 Y80.966720

G01 Z2 F100.0(Penetrate)
G02 X62.893344 Y78.532385 Z2 I-5.727113 J1.197890 F75.000000
G03 X61.019856 Y75.500050 Z2 I12.040197 J-9.533798
G03 X60.762958 Y74.660529 Z2 I2.846588 J-1.330139
G02 X60.488374 Y74.108590 Z2 I-1.014340 J0.160353
G01 X59.633333 Y73.766720 Z2
G00 Z0.000000

(End cutting path id: path14)


(Start cutting path id: path14)
(Change tool to Default tool)

G00 Z0.000000
G00 X59.500000 Y82.300020

G01 Z2 F100.0(Penetrate)
G01 X59.787860 Y82.206220 Z2 F75.000000
G03 X61.021690 Y81.841489 Z2 I5.713163 J17.057459
G03 X63.100000 Y81.338220 Z2 I18.916275 J73.574128
G03 X64.075241 Y81.163963 Z2 I2.352562 J10.350164
G03 X65.233333 Y81.100050 Z2 I1.004353 J7.674488
G00 Z0.000000

(End cutting path id: path14)


(Footer)
M5
M2
(Using default footer. To add your own footer create file "footer" in the output dir.)
(end)
%