%
(Header)
(Generated by gcodetools from Inkscape.)
(Using default header. To add your own header create file "header" in the output dir.)
M3
(Header end.)
G21 (All units in mm)

(Start cutting path id: path5)
(Change tool to Default tool)

G00 Z0.000000
G00 X76.033333 Y150.433333

G01 Z2 F100.0(Penetrate)
G03 X77.797667 Y149.762767 Z2 I2.914815 J5.012838 F75.000000
G02 X79.052881 Y148.686007 Z2 I-0.336487 J-1.662256
G01 X78.650203 Y147.366667 Z2
G02 X77.805825 Y146.031141 Z2 I-65.013440 J40.169637
G03 X76.966667 Y144.700000 Z2 I56.697128 J-36.672245
G00 Z0.000000

(End cutting path id: path5)


(Start cutting path id: path5)
(Change tool to Default tool)

G00 Z0.000000
G00 X83.633333 Y145.233333

G01 Z2 F100.0(Penetrate)
G03 X83.838422 Y142.133355 Z2 I23.769253 J0.015755 F75.000000
G02 X84.033333 Y139.233333 Z2 I-22.404123 J-2.962349
G00 Z0.000000

(End cutting path id: path5)


(Start cutting path id: path5)
(Change tool to Default tool)

G00 Z0.000000
G00 X78.063273 Y135.037655

G01 Z2 F100.0(Penetrate)
G01 X79.633333 Y134.539917 Z2 F75.000000
G03 X80.590646 Y134.016218 Z2 I7.751442 J13.032676
G02 X81.167285 Y133.354220 Z2 I-0.517806 J-1.033181
G01 X80.923047 Y132.300000 Z2
G02 X80.294825 Y131.109935 Z2 I-361.729287 J190.192006
G02 X79.475309 Y130.315637 Z2 I-1.634105 J0.866069
G01 X77.766772 Y130.731787 Z2
G01 X76.919035 Y131.505762 Z2
G02 X76.903385 Y132.316987 Z2 I1.248585 J0.429851
G02 X77.189404 Y133.233333 Z2 I48.044259 J-14.493238
G03 X77.455228 Y134.289070 Z2 I-7.920299 J2.555583
G02 X78.063273 Y135.037655 Z2 I0.987594 J-0.180945
G00 Z0.000000

(End cutting path id: path5)


(Start cutting path id: path5)
(Change tool to Default tool)

G00 Z0.000000
G00 X75.633333 Y126.300000

G01 Z2 F100.0(Penetrate)
G01 X77.762964 Y124.952677 Z2 F75.000000
G01 X77.842904 Y123.766667 Z2
G01 X77.633333 Y122.566667 Z2
G00 Z0.000000

(End cutting path id: path5)


(Start cutting path id: path5)
(Change tool to Default tool)

G00 Z0.000000
G00 X86.033333 Y129.766667

G01 Z2 F100.0(Penetrate)
G03 X87.497324 Y128.533790 Z2 I7.924685 J7.924587 F75.000000
G02 X88.518929 Y126.966667 Z2 I-1.458568 J-2.067391
G02 X88.236572 Y125.382956 Z2 I-2.150079 J-0.433693
G03 X87.500000 Y123.900000 Z2 I7.765410 J-4.781420
G00 Z0.000000

(End cutting path id: path5)


(Start cutting path id: path5)
(Change tool to Default tool)

G00 Z0.000000
G00 X91.366662 Y137.766667

G01 Z2 F100.0(Penetrate)
G02 X91.143902 Y137.398260 Z2 I-2.032455 J0.977388 F75.000000
G03 X90.731782 Y136.821399 Z2 I14.899432 J-11.080076
G02 X90.055788 Y135.849853 Z2 I-73.353960 J50.318138
G03 X89.691149 Y134.433333 Z2 I1.684597 J-1.188839
G03 X90.127766 Y133.445579 Z2 I1.784045 J0.198226
G03 X90.699377 Y132.867904 Z2 I5.228982 J4.602447
G02 X91.172160 Y132.262560 Z2 I-1.471178 J-1.636310
G02 X91.366662 Y131.500000 Z2 I-1.475178 J-0.782350
G00 Z0.000000

(End cutting path id: path5)


(Start cutting path id: path5)
(Change tool to Default tool)

G00 Z0.000000
G00 X68.299995 Y139.633333

G01 Z2 F100.0(Penetrate)
G02 X69.385862 Y136.521973 Z2 I-47.489194 J-18.318926 F75.000000
G03 X70.699995 Y133.500000 Z2 I14.753103 J4.618806
G00 Z0.000000

(End cutting path id: path5)


(Start cutting path id: path5)
(Change tool to Default tool)

G00 Z0.000000
G00 X66.075716 Y129.058232

G01 Z2 F100.0(Penetrate)
G01 X67.233333 Y128.995372 Z2 F75.000000
G01 X68.829631 Y128.259573 Z2
G01 X68.889301 Y126.833336 Z2
G01 X68.524286 Y125.908955 Z2
G01 X67.500000 Y125.938582 Z2
G01 X65.923869 Y126.729940 Z2
G01 X65.766667 Y127.900000 Z2
G01 X66.075716 Y129.058232 Z2
G00 Z0.000000

(End cutting path id: path5)


(Start cutting path id: path5)
(Change tool to Default tool)

G00 Z0.000000
G00 X66.300000 Y121.100000

G01 Z2 F100.0(Penetrate)
G03 X67.630116 Y121.028668 Z2 I2.075395 J26.262483 F75.000000
G02 X68.754834 Y120.508846 Z2 I-0.044517 J-1.572985
G02 X69.291110 Y118.943069 Z2 I-1.566942 J-1.411400
G03 X69.233333 Y117.366667 Z2 I21.476677 J-1.576402
G00 Z0.000000

(End cutting path id: path5)


(Start cutting path id: path5)
(Change tool to Default tool)

G00 Z0.000000
G00 X59.366667 Y111.766667

G01 Z2 F100.0(Penetrate)
G01 X61.071606 Y111.476237 Z2 F75.000000
G01 X62.300000 Y109.233333 Z2
G00 Z0.000000

(End cutting path id: path5)


(Start cutting path id: path5)
(Change tool to Default tool)

G00 Z0.000000
G00 X51.500000 Y109.564193

G01 Z2 F100.0(Penetrate)
G02 X52.845552 Y109.027559 Z2 I0.264912 J-1.290992 F75.000000
G02 X53.607617 Y107.766667 Z2 I-9.187982 J-6.413819
G01 X53.873560 Y106.452572 Z2
G02 X52.957690 Y105.757134 Z2 I-1.115950 J0.518866
G03 X51.500000 Y105.513273 Z2 I48.919723 J-296.898429
G02 X50.274211 Y105.996291 Z2 I-0.213248 J1.255722
G02 X49.485392 Y107.233333 Z2 I6.934230 J5.291739
G01 X49.185803 Y108.538167 Z2
G02 X50.050570 Y109.270612 Z2 I1.094174 J-0.415126
G03 X51.500000 Y109.564193 Z2 I-57.087328 J285.568932
G00 Z0.000000

(End cutting path id: path5)


(Start cutting path id: path5)
(Change tool to Default tool)

G00 Z0.000000
G00 X55.366667 Y100.700000

G01 Z2 F100.0(Penetrate)
G03 X56.402331 Y100.918450 Z2 I-4.094412 J21.975732 F75.000000
G02 X57.366565 Y100.922323 Z2 I0.490481 J-2.080190
G02 X58.282451 Y100.262083 Z2 I-0.320514 J-1.409996
G03 X58.966667 Y99.233333 Z2 I12.640683 J7.665342
G00 Z0.000000

(End cutting path id: path5)


(Start cutting path id: path5)
(Change tool to Default tool)

G00 Z0.000000
G00 X53.900000 Y91.500000

G01 Z2 F100.0(Penetrate)
G01 X55.500000 Y91.500000 Z2 F75.000000
G00 Z0.000000

(End cutting path id: path5)


(Start cutting path id: path5)
(Change tool to Default tool)

G00 Z0.000000
G00 X48.566667 Y96.452163

G01 Z2 F100.0(Penetrate)
G02 X49.460810 Y96.348067 Z2 I0.339380 J-0.977078 F75.000000
G02 X50.148869 Y95.764606 Z2 I-1.768612 J-2.783109
G01 X50.587756 Y94.701951 Z2
G01 X50.019340 Y93.901951 Z2
G03 X49.031963 Y93.068913 Z2 I31.251514 J-38.043228
G02 X47.900000 Y92.492690 Z2 I-1.727804 J1.994234
G02 X46.797663 Y92.655649 Z2 I-0.343894 J1.483585
G02 X45.929012 Y93.302366 Z2 I2.277872 J3.966306
G01 X45.570886 Y94.287547 Z2
G01 X46.433435 Y95.099892 Z2
G03 X47.480338 Y95.860851 Z2 I-10.629832 J15.724803
G02 X48.566667 Y96.452163 Z2 I2.327996 J-2.983349
G00 Z0.000000

(End cutting path id: path5)


(Start cutting path id: path5)
(Change tool to Default tool)

G00 Z0.000000
G00 X38.166667 Y103.366667

G01 Z2 F100.0(Penetrate)
G03 X41.558188 Y102.471612 Z2 I6.036957 J16.002040 F75.000000
G02 X44.966667 Y101.633333 Z2 I-3.165853 J-20.221135
G00 Z0.000000

(End cutting path id: path5)


(Start cutting path id: path5)
(Change tool to Default tool)

G00 Z0.000000
G00 X30.433333 Y97.233333

G01 Z2 F100.0(Penetrate)
G01 X32.310701 Y99.364608 Z2 F75.000000
G01 X33.238066 Y100.051025 Z2
G01 X34.199487 Y99.364608 Z2
G01 X36.566667 Y96.433333 Z2
G00 Z0.000000

(End cutting path id: path5)


(Start cutting path id: path5)
(Change tool to Default tool)

G00 Z0.000000
G00 X35.233333 Y114.833333

G01 Z2 F100.0(Penetrate)
G01 X37.900000 Y116.193929 Z2 F75.000000
G01 X38.959363 Y116.409049 Z2
G01 X39.651542 Y115.499902 Z2
G01 X40.700000 Y112.300000 Z2
G00 Z0.000000

(End cutting path id: path5)


(Start cutting path id: path5)
(Change tool to Default tool)

G00 Z0.000000
G00 X44.166673 Y118.566663

G01 Z2 F100.0(Penetrate)
G02 X45.572658 Y117.871088 Z2 I-4.647478 J-11.162831 F75.000000
G03 X46.966673 Y117.081474 Z2 I44.768853 J77.411399
G03 X48.915162 Y116.074560 Z2 I18.073635 J32.585728
G02 X50.566673 Y115.099996 Z2 I-4.854539 J-10.113198
G00 Z0.000000

(End cutting path id: path5)


(Start cutting path id: path5)
(Change tool to Default tool)

G00 Z0.000000
G00 X57.766667 Y120.643416

G01 Z2 F100.0(Penetrate)
G01 X58.924280 Y120.486214 Z2 F75.000000
G01 X59.344031 Y118.966667 Z2
G02 X59.395338 Y118.130327 Z2 I-12.388261 J-1.179722
G02 X59.247531 Y117.385905 Z2 I-1.710697 J-0.047222
G01 X58.432716 Y116.873975 Z2
G02 X57.602905 Y116.747856 Z2 I-5.142191 J31.040432
G02 X56.760804 Y116.952975 Z2 I-0.161582 J1.167788
G02 X56.011809 Y118.012198 Z2 I1.122941 J1.588475
G03 X55.661215 Y119.233329 Z2 I-151.007687 J-42.694375
G01 X55.638995 Y120.257609 Z2
G01 X57.766673 Y120.643412 Z2
G00 Z0.000000

(End cutting path id: path5)


(Start cutting path id: path5)
(Change tool to Default tool)

G00 Z0.000000
G00 X54.966667 Y131.100000

G01 Z2 F100.0(Penetrate)
G01 X59.100000 Y127.233333 Z2 F75.000000
G00 Z0.000000

(End cutting path id: path5)


(Start cutting path id: path5)
(Change tool to Default tool)

G00 Z0.000000
G00 X45.366667 Y130.966667

G01 Z2 F100.0(Penetrate)
G01 X48.033333 Y131.232821 Z2 F75.000000
G01 X49.059570 Y131.096297 Z2
G01 X49.553292 Y129.900000 Z2
G01 X49.900000 Y127.366667 Z2
G00 Z0.000000

(End cutting path id: path5)


(Start cutting path id: path5)
(Change tool to Default tool)

G00 Z0.000000
G00 X59.900000 Y142.833333

G01 Z2 F100.0(Penetrate)
G03 X61.464458 Y142.765228 Z2 I1.730029 J21.738110 F75.000000
G02 X62.696297 Y142.108952 Z2 I-0.011432 J-1.505686
G01 X62.774787 Y140.966667 Z2
G02 X62.583881 Y139.970510 Z2 I-14.383500 J2.240121
G02 X62.299995 Y138.966667 Z2 I-9.896513 J2.256661
G00 Z0.000000

(End cutting path id: path5)


(Footer)
M5
M2
(Using default footer. To add your own footer create file "footer" in the output dir.)
(end)
%