%
(Header)
(Generated by gcodetools from Inkscape.)
(Using default header. To add your own header create file "header" in the output dir.)
M3
(Header end.)
G21 (All units in mm)

(Start cutting path id: path6)
(Change tool to Default tool)

G00 Z0.000000
G00 X94.433333 Y151.766667

G01 Z2 F100.0(Penetrate)
G03 X95.695646 Y150.697461 Z2 I7.085936 J7.085959 F75.000000
G02 X96.419239 Y149.366667 Z2 I-1.006406 J-1.409330
G02 X95.635929 Y147.788245 Z2 I-1.815845 J-0.082440
G03 X94.166667 Y146.700000 Z2 I15.558529 J-22.541858
G00 Z0.000000

(End cutting path id: path6)


(Start cutting path id: path6)
(Change tool to Default tool)

G00 Z0.000000
G00 X99.900000 Y144.433333

G01 Z2 F100.0(Penetrate)
G03 X99.320128 Y141.519176 Z2 I25.357986 J-6.560620 F75.000000
G03 X99.100000 Y138.433333 Z2 I22.393856 J-3.148231
G00 Z0.000000

(End cutting path id: path6)


(Start cutting path id: path6)
(Change tool to Default tool)

G00 Z0.000000
G00 X104.560800 Y134.978292

G01 Z2 F100.0(Penetrate)
G01 X105.492800 Y133.766667 Z2 F75.000000
G02 X105.811328 Y132.836569 Z2 I-25.645964 J-9.302480
G02 X105.958130 Y132.033333 Z2 I-2.971069 J-0.958036
G02 X105.799592 Y131.403410 Z2 I-1.111515 J-0.055167
G02 X105.359360 Y130.878703 Z2 I-1.895103 J1.142969
G01 X104.305760 Y130.387756 Z2
G01 X103.386730 Y131.500000 Z2
G03 X102.933496 Y132.475619 Z2 I-17.847504 J-7.698153
G02 X102.732200 Y133.499487 Z2 I1.760360 J0.877815
G02 X103.313829 Y134.594499 Z2 I1.536816 J-0.114323
G02 X104.560800 Y134.978292 Z2 I1.118329 J-1.415885
G00 Z0.000000

(End cutting path id: path6)


(Start cutting path id: path6)
(Change tool to Default tool)

G00 Z0.000000
G00 X97.633333 Y129.900000

G01 Z2 F100.0(Penetrate)
G02 X98.688165 Y128.271345 Z2 I-32.210330 J-22.017597 F75.000000
G02 X99.205350 Y126.433333 Z2 I-2.991412 J-1.833502
G02 X98.652297 Y124.952843 Z2 I-2.265918 J0.002914
G02 X97.500000 Y123.900000 Z2 I-5.065078 J4.386542
G00 Z0.000000

(End cutting path id: path6)


(Start cutting path id: path6)
(Change tool to Default tool)

G00 Z0.000000
G00 X91.500000 Y131.900000

G01 Z2 F100.0(Penetrate)
G01 X91.633333 Y131.900000 Z2 F75.000000
G00 Z0.000000

(End cutting path id: path6)


(Start cutting path id: path6)
(Change tool to Default tool)

G00 Z0.000000
G00 X91.500000 Y137.633333

G01 Z2 F100.0(Penetrate)
G02 X92.158289 Y136.921499 Z2 I-1.850449 J-2.371559 F75.000000
G02 X93.215226 Y135.233333 Z2 I-33.104586 J-21.901261
G03 X93.567664 Y134.691879 Z2 I6.508480 J3.851007
G02 X93.765021 Y134.033333 Z2 I-0.867124 J-0.618710
G02 X93.568324 Y133.419784 Z2 I-1.194706 J0.044705
G02 X93.144033 Y132.833846 Z2 I-6.917961 J4.562865
G02 X92.743134 Y132.381959 Z2 I-4.283284 J3.396206
G02 X92.302778 Y132.057202 Z2 I-1.263549 J1.252389
G02 X91.798437 Y131.914892 Z2 I-0.592629 J1.135417
G03 X91.633333 Y131.900000 Z2 I0.272535 J-3.944211
G00 Z0.000000

(End cutting path id: path6)


(Start cutting path id: path6)
(Change tool to Default tool)

G00 Z0.000000
G00 X108.566670 Y124.966667

G01 Z2 F100.0(Penetrate)
G03 X108.938531 Y123.282978 Z2 I6.250489 J0.497579 F75.000000
G02 X108.829630 Y121.639095 Z2 I-1.887846 J-0.700486
G02 X107.646183 Y120.587906 Z2 I-2.001298 J1.061329
G03 X106.166670 Y119.900000 Z2 I4.476456 J-11.562722
G00 Z0.000000

(End cutting path id: path6)


(Start cutting path id: path6)
(Change tool to Default tool)

G00 Z0.000000
G00 X118.300000 Y119.500000

G01 Z2 F100.0(Penetrate)
G03 X118.342545 Y117.489184 Z2 I10.053383 J-0.793149 F75.000000
G02 X117.819550 Y115.685905 Z2 I-2.374487 J-0.288821
G02 X117.064699 Y115.225696 Z2 I-1.032746 J0.844775
G02 X116.166670 Y115.048560 Z2 I-6.327453 J29.713432
G03 X115.128795 Y114.843835 Z2 I6.275797 J-34.548980
G02 X114.166670 Y114.700000 Z2 I-1.650513 J7.750640
G00 Z0.000000

(End cutting path id: path6)


(Start cutting path id: path6)
(Change tool to Default tool)

G00 Z0.000000
G00 X123.914510 Y118.962964

G01 Z2 F100.0(Penetrate)
G02 X124.811406 Y119.149577 Z2 I0.742990 J-1.322313 F75.000000
G03 X125.766670 Y119.100000 Z2 I0.975054 J9.559622
G01 X126.750930 Y118.962964 Z2
G01 X126.751340 Y117.233333 Z2
G01 X126.136210 Y115.637549 Z2
G01 X124.966670 Y115.611209 Z2
G03 X124.138858 Y115.669786 Z2 I-1.237211 J-11.605584
G02 X123.447120 Y115.978494 Z2 I0.035404 J1.008694
G01 X123.233540 Y116.966662 Z2
G02 X123.306410 Y118.066956 Z2 I8.165896 J0.011749
G02 X123.914510 Y118.962959 Z2 I1.202466 J-0.161737
G00 Z0.000000

(End cutting path id: path6)


(Start cutting path id: path6)
(Change tool to Default tool)

G00 Z0.000000
G00 X124.833330 Y110.433333

G01 Z2 F100.0(Penetrate)
G01 X123.759980 Y108.033333 Z2 F75.000000
G01 X123.047530 Y106.647119 Z2
G01 X121.900000 Y106.445264 Z2
G01 X120.566670 Y106.700000 Z2
G00 Z0.000000

(End cutting path id: path6)


(Start cutting path id: path6)
(Change tool to Default tool)

G00 Z0.000000
G00 X129.290640 Y108.162964

G01 Z2 F100.0(Penetrate)
G02 X130.247797 Y108.327419 Z2 I0.660392 J-0.975956 F75.000000
G03 X131.366670 Y108.088474 Z2 I3.261760 J12.534303
G01 X132.848040 Y107.591460 Z2
G01 X132.865740 Y106.566664 Z2
G02 X132.630879 Y105.735405 Z2 I-18.048878 J4.650665
G02 X132.136730 Y105.077674 Z2 I-1.159906 J0.356939
G01 X130.833330 Y105.158124 Z2
G02 X129.442914 Y105.843990 Z2 I2.364801 J6.546305
G02 X128.861630 Y107.233327 Z2 I0.714633 J1.115265
G01 X129.290640 Y108.162958 Z2
G00 Z0.000000

(End cutting path id: path6)


(Start cutting path id: path6)
(Change tool to Default tool)

G00 Z0.000000
G00 X128.566670 Y98.700000

G01 Z2 F100.0(Penetrate)
G03 X127.688897 Y97.511514 Z2 I6.805385 J-5.944601 F75.000000
G02 X126.433230 Y96.701546 Z2 I-1.480068 J0.916208
G02 X125.060159 Y96.984359 Z2 I-0.276918 J2.130116
G03 X123.766670 Y97.633333 Z2 I-5.240967 J-8.832397
G00 Z0.000000

(End cutting path id: path6)


(Start cutting path id: path6)
(Change tool to Default tool)

G00 Z0.000000
G00 X133.505760 Y96.405249

G01 Z2 F100.0(Penetrate)
G02 X134.555064 Y96.102913 Z2 I0.232390 J-1.165511 F75.000000
G03 X135.500000 Y95.289917 Z2 I9.044630 J9.556821
G01 X136.688990 Y93.633333 Z2
G02 X136.090013 Y92.641131 Z2 I-1.879839 J0.457932
G03 X135.461930 Y92.041154 Z2 I7.370136 J-8.344132
G01 X134.699900 Y91.584668 Z2
G01 X133.633330 Y92.211833 Z2
G03 X132.697154 Y92.836540 Z2 I-4.808090 J-6.191507
G02 X131.954940 Y93.900106 Z2 I0.744197 J1.310102
G02 X132.122017 Y94.736373 Z2 I1.189339 J0.197206
G02 X132.607920 Y95.499894 Z2 I47.664951 J-29.797452
G01 X133.505760 Y96.405249 Z2
G00 Z0.000000

(End cutting path id: path6)


(Start cutting path id: path6)
(Change tool to Default tool)

G00 Z0.000000
G00 X136.433330 Y101.500000

G01 Z2 F100.0(Penetrate)
G02 X139.658874 Y102.255061 Z2 I17.795039 J-68.751477 F75.000000
G02 X143.100000 Y102.833333 Z2 I8.921664 J-42.562490
G00 Z0.000000

(End cutting path id: path6)


(Start cutting path id: path6)
(Change tool to Default tool)

G00 Z0.000000
G00 X147.900000 Y111.500000

G01 Z2 F100.0(Penetrate)
G03 X147.168982 Y109.603569 Z2 I4.345596 J-2.764207 F75.000000
G02 X146.019340 Y108.288379 Z2 I-1.649712 J0.281995
G02 X145.407857 Y108.273684 Z2 I-0.331349 J1.058234
G02 X144.833330 Y108.446712 Z2 I2.041388 J7.818639
G02 X143.458099 Y108.979934 Z2 I5.936287 J17.350299
G02 X142.166670 Y109.633333 Z2 I4.953431 J11.393288
G00 Z0.000000

(End cutting path id: path6)


(Start cutting path id: path6)
(Change tool to Default tool)

G00 Z0.000000
G00 X138.300000 Y117.633333

G01 Z2 F100.0(Penetrate)
G01 X131.900000 Y114.566667 Z2 F75.000000
G00 Z0.000000

(End cutting path id: path6)


(Start cutting path id: path6)
(Change tool to Default tool)

G00 Z0.000000
G00 X140.166670 Y127.766667

G01 Z2 F100.0(Penetrate)
G01 X139.573460 Y124.833333 Z2 F75.000000
G01 X139.158130 Y123.744238 Z2
G01 X138.033330 Y123.643518 Z2
G01 X134.566670 Y124.300000 Z2
G00 Z0.000000

(End cutting path id: path6)


(Start cutting path id: path6)
(Change tool to Default tool)

G00 Z0.000000
G00 X128.566670 Y130.566667

G01 Z2 F100.0(Penetrate)
G01 X123.233330 Y125.500000 Z2 F75.000000
G00 Z0.000000

(End cutting path id: path6)


(Start cutting path id: path6)
(Change tool to Default tool)

G00 Z0.000000
G00 X117.336210 Y128.427572

G01 Z2 F100.0(Penetrate)
G01 X117.771910 Y126.966667 Z2 F75.000000
G01 X117.686110 Y125.407096 Z2
G01 X116.700000 Y124.949898 Z2
G03 X115.497462 Y124.554236 Z2 I2.427306 J-9.402588
G02 X114.307300 Y124.476237 Z2 I-0.713697 J1.770936
G01 X113.600000 Y125.366768 Z2
G02 X113.439372 Y125.959427 Z2 I12.631943 J3.741719
G02 X113.459050 Y126.560905 Z2 I1.079539 J0.265743
G02 X114.014969 Y127.205973 Z2 I1.031315 J-0.326707
G02 X114.833330 Y127.573043 Z2 I5.913289 J-12.087564
G03 X116.155650 Y128.246248 Z2 I-3.404591 J8.322612
G02 X117.336210 Y128.427572 Z2 I0.804054 J-1.301174
G00 Z0.000000

(End cutting path id: path6)


(Start cutting path id: path6)
(Change tool to Default tool)

G00 Z0.000000
G00 X115.100000 Y139.500000

G01 Z2 F100.0(Penetrate)
G01 X111.766670 Y133.366667 Z2 F75.000000
G00 Z0.000000

(End cutting path id: path6)


(Start cutting path id: path6)
(Change tool to Default tool)

G00 Z0.000000
G00 X111.366670 Y148.700000

G01 Z2 F100.0(Penetrate)
G01 X112.798460 Y146.033333 Z2 F75.000000
G01 X113.033950 Y144.972530 Z2
G01 X111.633330 Y144.040430 Z2
G01 X109.366670 Y143.100000 Z2
G00 Z0.000000

(End cutting path id: path6)


(Start cutting path id: path6)
(Change tool to Default tool)

G00 Z0.000000
G00 X127.233330 Y140.033333

G01 Z2 F100.0(Penetrate)
G03 X127.637877 Y138.748135 Z2 I22.788838 J6.467069 F75.000000
G02 X127.991360 Y137.366667 Z2 I-8.136503 J-2.817884
G01 X127.914860 Y136.470471 Z2
G01 X126.566710 Y136.011214 Z2
G03 X124.873024 Y135.799733 Z2 I5.349519 J-49.730458
G02 X123.366710 Y135.633333 Z2 I-3.413611 J24.000228
G00 Z0.000000

(End cutting path id: path6)


(Start cutting path id: path6)
(Change tool to Default tool)

G00 Z0.000000
G00 X151.633330 Y94.033333

G01 Z2 F100.0(Penetrate)
G02 X150.964335 Y93.007292 Z2 I-20.942926 J12.923998 F75.000000
G03 X150.425000 Y92.169238 Z2 I13.309972 J-9.158294
G02 X149.976943 Y91.747497 Z2 I-0.972389 J0.584186
G02 X148.966670 Y91.500000 Z2 I-1.010273 J1.938200
G02 X147.978833 Y91.700670 Z2 I-0.000000 J2.531749
G02 X147.477470 Y92.041154 Z2 I0.607891 J1.434489
G02 X146.864495 Y92.696140 Z2 I12.183422 J12.016302
G03 X146.033330 Y93.366667 Z2 I-2.417874 J-2.146716
G00 Z0.000000

(End cutting path id: path6)


(Footer)
M5
M2
(Using default footer. To add your own footer create file "footer" in the output dir.)
(end)
%