%
(Header)
(Generated by gcodetools from Inkscape.)
(Using default header. To add your own header create file "header" in the output dir.)
M3
(Header end.)
G21 (All units in mm)

(Start cutting path id: path8)
(Change tool to Default tool)

G00 Z0.000000
G00 X134.433330 Y91.100000

G01 Z2 F100.0(Penetrate)
G01 X134.966670 Y91.100000 Z2 F75.000000
G00 Z0.000000

(End cutting path id: path8)


(Start cutting path id: path8)
(Change tool to Default tool)

G00 Z0.000000
G00 X138.300000 Y87.366667

G01 Z2 F100.0(Penetrate)
G03 X141.073524 Y86.893431 Z2 I5.037368 J21.158718 F75.000000
G03 X144.166670 Y86.700000 Z2 I3.857929 J36.864089
G00 Z0.000000

(End cutting path id: path8)


(Start cutting path id: path8)
(Change tool to Default tool)

G00 Z0.000000
G00 X144.433330 Y77.100000

G01 Z2 F100.0(Penetrate)
G01 X145.675000 Y74.700000 Z2 F75.000000
G01 X146.445780 Y73.782820 Z2
G01 X147.766670 Y74.134770 Z2
G01 X150.566670 Y76.166670 Z2
G00 Z0.000000

(End cutting path id: path8)


(Start cutting path id: path8)
(Change tool to Default tool)

G00 Z0.000000
G00 X134.833330 Y73.233330

G01 Z2 F100.0(Penetrate)
G01 X140.700000 Y70.833330 Z2 F75.000000
G00 Z0.000000

(End cutting path id: path8)


(Start cutting path id: path8)
(Change tool to Default tool)

G00 Z0.000000
G00 X137.766670 Y61.633330

G01 Z2 F100.0(Penetrate)
G03 X137.896768 Y60.670800 Z2 I8.822292 J0.702383 F75.000000
G02 X138.089920 Y59.633330 Z2 I-100.043932 J-19.162528
G01 X139.366670 Y58.290430 Z2
G03 X141.061928 Y58.737955 Z2 I-1.340661 J8.513175
G02 X142.700000 Y59.233330 Z2 I4.547811 J-12.082358
G00 Z0.000000

(End cutting path id: path8)


(Start cutting path id: path8)
(Change tool to Default tool)

G00 Z0.000000
G00 X128.166670 Y61.500000

G01 Z2 F100.0(Penetrate)
G01 X132.966670 Y56.566670 Z2 F75.000000
G00 Z0.000000

(End cutting path id: path8)


(Start cutting path id: path8)
(Change tool to Default tool)

G00 Z0.000000
G00 X126.833270 Y50.033400

G01 Z2 F100.0(Penetrate)
G02 X126.769004 Y48.517037 Z2 I-18.203110 J0.011938 F75.000000
G03 X126.699940 Y46.833400 Z2 I19.503473 J-1.643279
G01 X126.913730 Y45.691220 Z2
G01 X128.033270 Y45.444000 Z2
G02 X129.492708 Y45.514772 Z2 I1.246533 J-10.622235
G03 X130.966610 Y45.500100 Z2 I1.473902 J74.025676
G00 Z0.000000

(End cutting path id: path8)


(Start cutting path id: path8)
(Change tool to Default tool)

G00 Z0.000000
G00 X117.099940 Y52.166740

G01 Z2 F100.0(Penetrate)
G01 X121.233270 Y46.166740 Z2 F75.000000
G00 Z0.000000

(End cutting path id: path8)


(Start cutting path id: path8)
(Change tool to Default tool)

G00 Z0.000000
G00 X113.633270 Y40.566770

G01 Z2 F100.0(Penetrate)
G02 X112.759305 Y38.892217 Z2 I-13.545576 J6.004224 F75.000000
G03 X112.705600 Y37.114090 Z2 I1.545513 J-0.936554
G03 X114.176306 Y36.008139 Z2 I1.905080 J1.002540
G02 X115.899940 Y35.500100 Z2 I-2.174627 J-10.555828
G00 Z0.000000

(End cutting path id: path8)


(Start cutting path id: path8)
(Change tool to Default tool)

G00 Z0.000000
G00 X104.833270 Y46.033430

G01 Z2 F100.0(Penetrate)
G02 X105.589284 Y42.807153 Z2 I-69.450474 J-17.976057 F75.000000
G03 X106.433270 Y39.366770 Z2 I51.771751 J10.876800
G00 Z0.000000

(End cutting path id: path8)


(Start cutting path id: path8)
(Change tool to Default tool)

G00 Z0.000000
G00 X97.633273 Y30.966770

G01 Z2 F100.0(Penetrate)
G03 X95.925469 Y31.931356 Z2 I-4.915989 J-6.709653 F75.000000
G02 X94.794899 Y33.233950 Z2 I0.749226 J1.792210
G01 X95.235845 Y34.300100 Z2
G02 X96.213364 Y35.423365 Z2 I19.379277 J-15.877795
G02 X97.366607 Y36.433430 Z2 I5.339862 J-4.933404
G00 Z0.000000

(End cutting path id: path8)


(Start cutting path id: path8)
(Change tool to Default tool)

G00 Z0.000000
G00 X96.701895 Y50.938650

G01 Z2 F100.0(Penetrate)
G01 X98.033273 Y50.394100 Z2 F75.000000
G03 X98.911953 Y49.826981 Z2 I8.075673 J11.547986
G02 X99.552306 Y49.076920 Z2 I-0.781533 J-1.315598
G02 X99.439501 Y47.806602 Z2 I-1.315754 J-0.523328
G03 X98.798294 Y46.700690 Z2 I17.947618 J-11.144861
G01 X98.152615 Y46.003770 Z2
G02 X97.249166 Y46.165478 Z2 I-0.285543 J1.009298
G03 X96.433273 Y46.756650 Z2 I-102.040253 J-139.969964
G02 X95.512862 Y47.422093 Z2 I178.007326 J247.181190
G02 X95.009611 Y48.300580 Z2 I0.724818 J0.998610
G02 X95.201128 Y49.183716 Z2 I1.469291 J0.143704
G02 X95.726072 Y50.033300 Z2 I14.975004 J-8.665848
G01 X96.701895 Y50.938650 Z2
G00 Z0.000000

(End cutting path id: path8)


(Start cutting path id: path8)
(Change tool to Default tool)

G00 Z0.000000
G00 X100.033330 Y59.366670

G01 Z2 F100.0(Penetrate)
G02 X99.443652 Y58.145739 Z2 I-7.923895 J3.074169 F75.000000
G03 X99.200926 Y56.833330 Z2 I1.693757 J-0.991906
G03 X99.995322 Y55.549743 Z2 I1.957778 J0.324030
G03 X101.233330 Y54.833330 Z2 I4.124252 J5.699088
G00 Z0.000000

(End cutting path id: path8)


(Start cutting path id: path8)
(Change tool to Default tool)

G00 Z0.000000
G00 X107.803810 Y54.924430

G01 Z2 F100.0(Penetrate)
G01 X109.233330 Y54.599130 Z2 F75.000000
G01 X110.962860 Y53.486060 Z2
G01 X110.945960 Y52.166720 Z2
G01 X110.280730 Y50.842340 Z2
G01 X108.966640 Y50.931340 Z2
G01 X107.237110 Y51.781140 Z2
G01 X107.288010 Y53.500070 Z2
G01 X107.803750 Y54.924450 Z2
G00 Z0.000000

(End cutting path id: path8)


(Start cutting path id: path8)
(Change tool to Default tool)

G00 Z0.000000
G00 X109.233330 Y64.033330

G01 Z2 F100.0(Penetrate)
G02 X109.169091 Y63.562176 Z2 I-24.467387 J3.096023 F75.000000
G03 X109.063890 Y62.833330 Z2 I202.426274 J-29.590053
G02 X108.767644 Y61.461548 Z2 I-9.782112 J1.394635
G03 X108.819650 Y60.172430 Z2 I1.944732 J-0.567153
G03 X109.843340 Y59.234897 Z2 I1.446474 J0.551753
G02 X111.100000 Y58.700000 Z2 I-1.486181 J-5.235173
G00 Z0.000000

(End cutting path id: path8)


(Start cutting path id: path8)
(Change tool to Default tool)

G00 Z0.000000
G00 X118.513790 Y61.229630

G01 Z2 F100.0(Penetrate)
G02 X119.377766 Y61.457934 Z2 I0.693551 J-0.875685 F75.000000
G03 X120.566670 Y61.366670 Z2 I1.189395 J7.704722
G01 X122.086210 Y61.057610 Z2
G02 X122.361982 Y60.163464 Z2 I-0.916647 J-0.772311
G03 X122.300000 Y58.966670 Z2 I11.908370 J-1.216732
G01 X121.975510 Y57.580450 Z2
G01 X120.566670 Y57.463890 Z2
G03 X119.324363 Y57.567331 Z2 I-1.505856 J-10.573423
G02 X118.475720 Y58.063790 Z2 I0.025090 J1.016450
G02 X118.281272 Y58.842452 Z2 I1.197400 J0.712626
G03 X118.300000 Y59.633330 Z2 I-16.648856 J0.789909
G01 X118.513790 Y61.229630 Z2
G00 Z0.000000

(End cutting path id: path8)


(Start cutting path id: path8)
(Change tool to Default tool)

G00 Z0.000000
G00 X117.500000 Y68.966670

G01 Z2 F100.0(Penetrate)
G02 X117.608183 Y67.796449 Z2 I-17.056215 J-2.166900 F75.000000
G03 X118.091050 Y66.775210 Z2 I1.506362 J0.087469
G03 X119.283093 Y66.305302 Z2 I1.201778 J1.301703
G03 X120.566670 Y66.300000 Z2 I2.584257 J470.291751
G00 Z0.000000

(End cutting path id: path8)


(Start cutting path id: path8)
(Change tool to Default tool)

G00 Z0.000000
G00 X128.166670 Y71.030860

G01 Z2 F100.0(Penetrate)
G02 X129.294470 Y70.526097 Z2 I0.212600 J-1.037295 F75.000000
G02 X129.810600 Y69.366670 Z2 I-5.080573 J-2.956261
G01 X129.896300 Y67.822530 Z2
G02 X129.043374 Y67.226704 Z2 I-1.180875 J0.782029
G02 X127.900100 Y67.005970 Z2 I-3.140211 J13.193356
G02 X126.776015 Y67.736326 Z2 I-0.149016 J1.000863
G03 X126.369240 Y69.100000 Z2 I-35.577204 J-9.869945
G01 X126.305640 Y70.247430 Z2
G02 X127.068373 Y70.793469 Z2 I1.031241 J-0.634755
G02 X128.166650 Y71.030860 Z2 I11.620622 J-51.102995
G00 Z0.000000

(End cutting path id: path8)


(Start cutting path id: path8)
(Change tool to Default tool)

G00 Z0.000000
G00 X122.300000 Y77.633330

G01 Z2 F100.0(Penetrate)
G01 X123.795060 Y74.951950 Z2 F75.000000
G01 X125.233330 Y75.056070 Z2
G01 X126.833330 Y75.633330 Z2
G00 Z0.000000

(End cutting path id: path8)


(Start cutting path id: path8)
(Change tool to Default tool)

G00 Z0.000000
G00 X132.966560 Y83.252165

G01 Z2 F100.0(Penetrate)
G01 X134.879320 Y81.900000 Z2 F75.000000
G01 X135.488990 Y80.572430 Z2
G02 X134.797937 Y79.687981 Z2 I-1.225375 J0.245233
G02 X133.500000 Y79.175110 Z2 I-4.559003 J9.638810
G02 X132.234176 Y79.465654 Z2 I-0.388603 J1.209661
G02 X131.361830 Y80.433330 Z2 I5.995903 J6.282263
G01 X130.926340 Y81.621300 Z2
G01 X131.633950 Y82.376640 Z2
G03 X132.287007 Y82.872132 Z2 I-21.278369 J28.722933
G02 X132.966560 Y83.252165 Z2 I1.591780 J-2.048743
G00 Z0.000000

(End cutting path id: path8)


(Start cutting path id: path8)
(Change tool to Default tool)

G00 Z0.000000
G00 X124.566670 Y88.166667

G01 Z2 F100.0(Penetrate)
G01 X125.661420 Y86.833439 Z2 F75.000000
G01 X126.701950 Y85.986214 Z2
G01 X127.633330 Y86.287240 Z2
G01 X129.900000 Y87.766667 Z2
G00 Z0.000000

(End cutting path id: path8)


(Footer)
M5
M2
(Using default footer. To add your own footer create file "footer" in the output dir.)
(end)
%