%
(Header)
(Generated by gcodetools from Inkscape.)
(Using default header. To add your own header create file "header" in the output dir.)
M3
(Header end.)
G21 (All units in mm)

(Start cutting path id: path7)
(Change tool to Default tool)

G00 Z0.000000
G00 X52.700000 Y89.500000

G01 Z2 F100.0(Penetrate)
G01 X53.766667 Y90.570679 Z2 F75.000000
G01 X54.966667 Y90.955037 Z2
G01 X56.033333 Y90.598047 Z2
G01 X57.500000 Y89.500000 Z2
G00 Z0.000000

(End cutting path id: path7)


(Start cutting path id: path7)
(Change tool to Default tool)

G00 Z0.000000
G00 X48.833333 Y84.180241

G01 Z2 F100.0(Penetrate)
G02 X49.801893 Y84.117237 Z2 I0.411166 J-1.155489 F75.000000
G03 X50.699898 Y83.689811 Z2 I8.207740 J16.087065
G01 X51.627572 Y82.952680 Z2
G01 X51.147327 Y81.633330 Z2
G03 X50.428324 Y80.572400 Z2 I21.873119 J-15.597727
G02 X49.499487 Y79.888790 Z2 I-1.360059 J0.875124
G02 X48.654573 Y79.946679 Z2 I-0.340190 J1.229655
G02 X47.766667 Y80.341150 Z2 I16.919350 J39.279941
G01 X46.352677 Y81.502060 Z2
G01 X46.972428 Y82.566670 Z2
G03 X47.815388 Y83.491697 Z2 I-28.888498 J27.172151
G02 X48.833333 Y84.180241 Z2 I1.841412 J-1.625611
G00 Z0.000000

(End cutting path id: path7)


(Start cutting path id: path7)
(Change tool to Default tool)

G00 Z0.000000
G00 X54.833333 Y78.966670

G01 Z2 F100.0(Penetrate)
G03 X55.513626 Y80.079239 Z2 I-7.293709 J5.224095 F75.000000
G02 X56.343416 Y80.962960 Z2 I1.963916 J-1.012627
G02 X58.000054 Y80.995295 Z2 I0.856591 J-1.432262
G03 X59.500000 Y80.300000 Z2 I6.017477 J11.015825
G00 Z0.000000

(End cutting path id: path7)


(Start cutting path id: path7)
(Change tool to Default tool)

G00 Z0.000000
G00 X52.980660 Y72.295780

G01 Z2 F100.0(Penetrate)
G02 X53.757015 Y72.389947 Z2 I0.507670 J-0.938074 F75.000000
G03 X54.566667 Y72.183540 Z2 I20.936024 J80.432604
G01 X56.519649 Y71.459570 Z2
G01 X56.327677 Y70.300000 Z2
G03 X55.812818 Y69.121779 Z2 I44.163869 J-20.000328
G02 X54.960905 Y68.190540 Z2 I-1.732973 J0.730061
G02 X53.753124 Y68.007160 Z2 I-0.865620 J1.632114
G03 X52.433333 Y68.178640 Z2 I-2.160469 J-11.463366
G01 X51.277059 Y68.608580 Z2
G01 X51.447839 Y69.766710 Z2
G02 X52.046038 Y71.253147 Z2 I174.995566 J-69.561320
G02 X52.980660 Y72.295820 Z2 I1.922815 J-0.783336
G00 Z0.000000

(End cutting path id: path7)


(Start cutting path id: path7)
(Change tool to Default tool)

G00 Z0.000000
G00 X46.833333 Y74.433330

G01 Z2 F100.0(Penetrate)
G01 X40.966667 Y71.900000 Z2 F75.000000
G00 Z0.000000

(End cutting path id: path7)


(Start cutting path id: path7)
(Change tool to Default tool)

G00 Z0.000000
G00 X37.233333 Y62.433370

G01 Z2 F100.0(Penetrate)
G01 X38.223250 Y65.233370 Z2 F75.000000
G01 X38.984363 Y66.257140 Z2
G01 X40.166667 Y66.108060 Z2
G01 X42.700000 Y65.100000 Z2
G00 Z0.000000

(End cutting path id: path7)


(Start cutting path id: path7)
(Change tool to Default tool)

G00 Z0.000000
G00 X53.900000 Y61.766710

G01 Z2 F100.0(Penetrate)
G02 X51.546133 Y59.878636 Z2 I-24.497308 J28.129539 F75.000000
G03 X49.100000 Y58.033370 Z2 I84.877239 J-115.059449
G00 Z0.000000

(End cutting path id: path7)


(Start cutting path id: path7)
(Change tool to Default tool)

G00 Z0.000000
G00 X48.300000 Y47.900000

G01 Z2 F100.0(Penetrate)
G02 X47.992072 Y49.404732 Z2 I3.294009 J1.457958 F75.000000
G02 X48.110185 Y50.966670 Z2 I12.540133 J-0.162844
G01 X48.380452 Y51.896300 Z2
G01 X49.500000 Y52.033230 Z2
G02 X51.009461 Y51.928337 Z2 I-0.047756 J-11.600623
G02 X52.433333 Y51.633330 Z2 I-1.402264 J-10.351836
G00 Z0.000000

(End cutting path id: path7)


(Start cutting path id: path7)
(Change tool to Default tool)

G00 Z0.000000
G00 X63.900000 Y51.766670

G01 Z2 F100.0(Penetrate)
G01 X60.566667 Y46.433330 Z2 F75.000000
G00 Z0.000000

(End cutting path id: path7)


(Start cutting path id: path7)
(Change tool to Default tool)

G00 Z0.000000
G00 X63.100000 Y37.633330

G01 Z2 F100.0(Penetrate)
G01 X62.582096 Y39.500000 Z2 F75.000000
G01 X62.438989 Y40.946920 Z2
G01 X63.500000 Y41.448050 Z2
G01 X65.233333 Y41.766670 Z2
G00 Z0.000000

(End cutting path id: path7)


(Start cutting path id: path7)
(Change tool to Default tool)

G00 Z0.000000
G00 X76.700000 Y46.300000

G01 Z2 F100.0(Penetrate)
G03 X75.543141 Y42.944708 Z2 I18.665392 J-8.312654 F75.000000
G02 X74.433333 Y40.033330 Z2 I-12.716554 J3.180293
G00 Z0.000000

(End cutting path id: path7)


(Start cutting path id: path7)
(Change tool to Default tool)

G00 Z0.000000
G00 X80.433333 Y31.500000

G01 Z2 F100.0(Penetrate)
G01 X78.222526 Y33.900000 Z2 F75.000000
G01 X77.821501 Y35.094240 Z2
G01 X78.435905 Y35.821190 Z2
G01 X81.633333 Y37.766670 Z2
G00 Z0.000000

(End cutting path id: path7)


(Start cutting path id: path7)
(Change tool to Default tool)

G00 Z0.000000
G00 X90.700000 Y43.900000

G01 Z2 F100.0(Penetrate)
G01 X90.700000 Y37.100000 Z2 F75.000000
G00 Z0.000000

(End cutting path id: path7)


(Start cutting path id: path7)
(Change tool to Default tool)

G00 Z0.000000
G00 X84.164714 Y50.947320

G01 Z2 F100.0(Penetrate)
G01 X85.394759 Y49.900000 Z2 F75.000000
G03 X86.014536 Y49.144446 Z2 I19.899237 J15.691259
G02 X86.292594 Y48.300000 Z2 I-0.893483 J-0.762207
G02 X85.924915 Y47.547102 Z2 I-1.114966 J0.078269
G02 X85.233333 Y46.958020 Z2 I-11.343859 J12.617169
G01 X84.035392 Y46.370880 Z2
G02 X83.224094 Y46.938060 Z2 I0.095894 J1.000999
G03 X82.742700 Y47.900000 Z2 I-27.040911 J-12.930961
G02 X82.463102 Y48.487619 Z2 I7.623878 J3.987888
G02 X82.355143 Y49.100000 Z2 I1.243276 J0.534888
G02 X82.616831 Y49.766558 Z2 I1.147373 J-0.065806
G02 X83.102059 Y50.297530 Z2 I5.602662 J-4.632787
G01 X84.164714 Y50.947320 Z2
G00 Z0.000000

(End cutting path id: path7)


(Start cutting path id: path7)
(Change tool to Default tool)

G00 Z0.000000
G00 X80.033333 Y59.100000

G01 Z2 F100.0(Penetrate)
G02 X78.671808 Y58.137304 Z2 I-7.928743 J9.769357 F75.000000
G03 X77.715739 Y56.700000 Z2 I1.069791 J-1.748237
G03 X78.038881 Y55.256065 Z2 I2.009450 J-0.308426
G02 X78.833333 Y54.033330 Z2 I-36.784643 J-24.769672
G00 Z0.000000

(End cutting path id: path7)


(Start cutting path id: path7)
(Change tool to Default tool)

G00 Z0.000000
G00 X72.033333 Y54.351440

G01 Z2 F100.0(Penetrate)
G02 X73.393726 Y53.420150 Z2 I0.257617 J-1.082933 F75.000000
G03 X73.729012 Y51.500000 Z2 I26.663516 J3.666495
G01 X73.769552 Y50.447330 Z2
G02 X73.136609 Y49.823153 Z2 I-1.214110 J0.598156
G03 X72.300004 Y49.409880 Z2 I13.351720 J-28.081859
G02 X71.658123 Y49.137975 Z2 I-2.176151 J4.243610
G02 X71.105863 Y49.045060 Z2 I-0.562451 J1.655352
G01 X70.303918 Y49.900100 Z2
G03 X69.700940 Y51.411071 Z2 I-12.139119 J-3.968513
G02 X69.592493 Y52.960900 Z2 I1.922689 J0.913247
G02 X70.583184 Y53.951953 Z2 I1.443680 J-0.452461
G02 X72.033337 Y54.351440 Z2 I6.386644 J-20.351978
G00 Z0.000000

(End cutting path id: path7)


(Start cutting path id: path7)
(Change tool to Default tool)

G00 Z0.000000
G00 X67.900000 Y60.700000

G01 Z2 F100.0(Penetrate)
G03 X67.848744 Y61.969483 Z2 I-15.746579 J0.000000 F75.000000
G02 X68.053084 Y63.225620 Z2 I2.646981 J0.214095
G02 X69.361190 Y64.040777 Z2 I1.236839 J-0.527635
G03 X70.833333 Y64.033330 Z2 I0.813644 J15.330427
G00 Z0.000000

(End cutting path id: path7)


(Start cutting path id: path7)
(Change tool to Default tool)

G00 Z0.000000
G00 X60.700000 Y61.843310

G01 Z2 F100.0(Penetrate)
G01 X62.578394 Y61.686210 Z2 F75.000000
G02 X62.774124 Y60.761923 Z2 I-0.783346 J-0.648752
G03 X62.578601 Y59.633330 Z2 I5.372909 J-1.512063
G03 X62.559836 Y58.900614 Z2 I8.477084 J-0.583695
G02 X62.334363 Y58.186320 Z2 I-1.178674 J-0.020674
G02 X61.250526 Y57.543905 Z2 I-1.287686 J0.936997
G02 X59.635905 Y57.412550 Z2 I-2.198273 J17.032146
G01 X58.968620 Y58.833330 Z2
G02 X59.014012 Y60.232623 Z2 I87.485859 J-2.137570
G02 X59.480554 Y61.442180 Z2 I2.012238 J-0.081393
G01 X60.700000 Y61.843310 Z2
G00 Z0.000000

(End cutting path id: path7)


(Start cutting path id: path7)
(Change tool to Default tool)

G00 Z0.000000
G00 X61.233333 Y69.366710

G01 Z2 F100.0(Penetrate)
G02 X62.395809 Y70.904974 Z2 I2.560539 J-0.726638 F75.000000
G02 X64.166667 Y71.366710 Z2 I1.637189 J-2.652293
G00 Z0.000000

(End cutting path id: path7)


(Start cutting path id: path7)
(Change tool to Default tool)

G00 Z0.000000
G00 X89.766667 Y58.433330

G01 Z2 F100.0(Penetrate)
G02 X88.766546 Y57.234449 Z2 I-25.037655 J19.870133 F75.000000
G03 X88.207609 Y55.900000 Z2 I1.713701 J-1.502067
G03 X88.460834 Y54.919813 Z2 I1.574233 J-0.116110
G02 X89.020785 Y54.033330 Z2 I-27.621980 J-18.067642
G02 X89.367993 Y53.423887 Z2 I-10.104547 J-6.160323
G03 X89.633333 Y52.966670 Z2 I6.206142 J3.296054
G00 Z0.000000

(End cutting path id: path7)


(Start cutting path id: path7)
(Change tool to Default tool)

G00 Z0.000000
G00 X37.766667 Y87.233333

G01 Z2 F100.0(Penetrate)
G02 X40.697412 Y87.530937 Z2 I7.534247 J-59.616211 F75.000000
G02 X43.366667 Y87.633333 Z2 I2.669255 J-34.739912
G00 Z0.000000

(End cutting path id: path7)


(Start cutting path id: path7)
(Change tool to Default tool)

G00 Z0.000000
G00 X31.100000 Y79.500000

G01 Z2 F100.0(Penetrate)
G02 X31.983860 Y80.783049 Z2 I7.941973 J-4.525065 F75.000000
G03 X32.994755 Y82.033230 Z2 I-72.292649 J59.489556
G01 X34.035286 Y82.909770 Z2
G02 X35.624188 Y82.364044 Z2 I0.262511 J-1.821626
G03 X36.966667 Y81.100000 Z2 I13.433412 J12.922051
G00 Z0.000000

(End cutting path id: path7)


(Footer)
M5
M2
(Using default footer. To add your own footer create file "footer" in the output dir.)
(end)
%