%
(Header)
(Generated by gcodetools from Inkscape.)
(Using default header. To add your own header create file "header" in the output dir.)
M3
(Header end.)
G21 (All units in mm)

(Start cutting path id: path9)
(Change tool to Default tool)

G00 Z0.000000
G00 X161.915150 Y142.202117

G01 Z2 F100.0(Penetrate)
G02 X161.829213 Y140.808755 Z2 I-17.053226 J0.352442 F75
G02 X161.541040 Y139.974920 Z2 I-1.922949 J0.197857
G02 X160.920200 Y139.300423 Z2 I-2.152949 J1.358706
G03 X160.385950 Y138.696772 Z2 I1.217651 J-1.615898
G02 X159.730414 Y137.620113 Z2 I-23.740898 J13.717026
G02 X158.905630 Y136.568680 Z2 I-5.913225 J3.789345
G02 X158.405325 Y136.055947 Z2 I-20.489408 J19.492340
G02 X157.909150 Y135.578481 Z2 I-12.936261 J12.946596
G02 X157.000327 Y134.826564 Z2 I-7.139566 J7.704221
G03 X156.487370 Y134.310378 Z2 I1.411502 J-1.915639
G01 X156.207430 Y133.564759 Z2
G01 X156.560590 Y132.923174 Z2
G02 X156.966753 Y132.544274 Z2 I-5.103030 J-5.877356
G02 X157.501130 Y131.811555 Z2 I-2.088308 J-2.084238
G02 X158.201749 Y130.236320 Z2 I-13.368463 J-6.889330
G02 X158.725960 Y128.556680 Z2 I-14.045468 J-5.305175
G02 X159.042164 Y127.063644 Z2 I-21.047335 J-5.237529
G03 X159.293560 Y125.802555 Z2 I27.233352 J4.773324
G03 X159.637018 Y125.111872 Z2 I1.574121 J0.352030
G03 X159.912150 Y124.801055 Z2 I7.310736 J6.194217
G02 X160.386301 Y125.163827 Z2 I4.606969 J-5.530156
G03 X160.993340 Y125.807964 Z2 I-1.257774 J1.793443
G03 X161.453224 Y126.768058 Z2 I-4.297946 J2.648901
G02 X161.948960 Y127.930742 Z2 I9.619678 J-3.414535
G02 X162.659455 Y129.059287 Z2 I6.160413 J-3.090470
G02 X163.544430 Y130.054003 Z2 I7.712320 J-5.970437
G02 X164.671219 Y131.004503 Z2 I6.915464 J-7.054938
G02 X165.670290 Y131.698056 Z2 I18.525152 J-25.619327
G03 X166.197570 Y132.129286 Z2 I-1.930674 J2.898680
G03 X166.638370 Y132.938242 Z2 I-1.142953 J1.147369
G03 X166.445022 Y133.940857 Z2 I-1.279008 J0.273302
G03 X165.670200 Y134.733465 Z2 I-2.534473 J-1.702579
G02 X165.025791 Y135.195475 Z2 I29.311541 J41.564008
G02 X164.430110 Y135.703668 Z2 I3.017165 J4.139795
G02 X163.148082 Y137.334158 Z2 I6.026115 J6.057499
G02 X162.309740 Y138.947049 Z2 I11.912405 J7.216105
G03 X161.912882 Y139.555314 Z2 I-2.035646 J-0.894546
G03 X161.664780 Y139.823555 Z2 I-31.512981 J-28.898219
G00 Z0.000000

(End cutting path id: path9)


(Start cutting path id: path9)
(Change tool to Default tool)

G00 Z0.000000
G00 X154.403900 Y133.689367

G01 Z2 F100.0(Penetrate)
G01 X156.031340 Y133.564180 Z2 F75
G00 Z0.000000

(End cutting path id: path9)


(Start cutting path id: path9)
(Change tool to Default tool)

G00 Z0.000000
G00 X166.797470 Y133.063430

G01 Z2 F100.0(Penetrate)
G01 X168.174530 Y132.938242 Z2 F75
G00 Z0.000000

(End cutting path id: path9)


(Start cutting path id: path9)
(Change tool to Default tool)

G00 Z0.000000
G00 X145.640780 Y124.801055

G01 Z2 F100.0(Penetrate)
G03 X145.932162 Y124.739410 Z2 I0.548385 J1.872622 F75
G02 X146.928100 Y123.922809 Z2 I-0.161042 J-1.212039
G02 X146.865134 Y123.101827 Z2 I-0.986669 J-0.337233
G02 X146.588760 Y122.680208 Z2 I-2.286728 J1.197575
G02 X146.010622 Y122.254648 Z2 I-1.094661 J0.881644
G02 X145.765970 Y122.172117 Z2 I-0.931503 J2.357431
G00 Z0.000000

(End cutting path id: path9)


(Start cutting path id: path9)
(Change tool to Default tool)

G00 Z0.000000
G00 X159.786970 Y124.675867

G01 Z2 F100.0(Penetrate)
G02 X159.572836 Y122.931682 Z2 I-8.666581 J0.178761 F75
G03 X159.180440 Y120.669867 Z2 I21.567251 J-4.906587
G02 X159.022295 Y119.774324 Z2 I-8.225792 J0.990869
G02 X158.785470 Y118.917242 Z2 I-10.855481 J2.538275
G00 Z0.000000

(End cutting path id: path9)


(Start cutting path id: path9)
(Change tool to Default tool)

G00 Z0.000000
G00 X147.143030 Y123.674367

G01 Z2 F100.0(Penetrate)
G01 X147.393400 Y123.674367 Z2 F75
G00 Z0.000000

(End cutting path id: path9)


(Start cutting path id: path9)
(Change tool to Default tool)

G00 Z0.000000
G00 X152.651280 Y116.288304

G01 Z2 F100.0(Penetrate)
G03 X153.527607 Y115.276929 Z2 I1.252236 J0.199682 F75
G02 X155.369180 Y114.153838 Z2 I-1.309397 J-4.218458
G03 X156.916068 Y112.697659 Z2 I19.386874 J19.044818
G02 X158.535090 Y111.259555 Z2 I-69.804078 J-80.216049
G02 X159.095982 Y110.710868 Z2 I-6.950807 J-7.666451
G02 X159.430910 Y110.279885 Z2 I-2.027978 J-1.921625
G02 X159.691410 Y109.757667 Z2 I-2.469145 J-1.557775
G03 X159.786970 Y109.528179 Z2 I3.635813 J1.379333
G00 Z0.000000

(End cutting path id: path9)


(Start cutting path id: path9)
(Change tool to Default tool)

G00 Z0.000000
G00 X145.765970 Y110.654867

G01 Z2 F100.0(Penetrate)
G03 X145.981784 Y110.731864 Z2 I-1.037633 J3.249303 F75
G03 X146.642470 Y111.092251 Z2 I-1.126442 J2.850874
G03 X147.627886 Y111.863237 Z2 I-8.795205 J12.256603
G03 X148.884450 Y113.038358 Z2 I-11.992099 J14.082609
G02 X150.995752 Y114.731761 Z2 I7.936071 J-7.731676
G02 X152.651280 Y115.537179 Z2 I4.810800 J-7.784372
G00 Z0.000000

(End cutting path id: path9)


(Start cutting path id: path9)
(Change tool to Default tool)

G00 Z0.000000
G00 X153.527590 Y111.781554

G01 Z2 F100.0(Penetrate)
G02 X154.834518 Y110.017578 Z2 I-6.323137 J-6.050946 F75
G02 X155.029840 Y109.528179 Z2 I-1.743051 J-0.979337
G00 Z0.000000

(End cutting path id: path9)


(Footer)
M5
G00 X0.0000 Y0.0000
M2
(Using default footer. To add your own footer create file "footer" in the output dir.)
(end)
%