%
(Header)
(Generated by gcodetools from Inkscape.)
(Using default header. To add your own header create file "header" in the output dir.)
M3
(Header end.)
G21 (All units in mm)

(Start cutting path id: path14)
(Change tool to Default tool)

G00 Z0.000000
G00 X155.696900 Y108.901234

G01 Z2 F100.0(Penetrate)
G02 X157.347138 Y106.605868 Z2 I-13.052296 J-11.124759 F75
G03 X159.065180 Y104.144109 Z2 I18.800847 J11.290576
G02 X160.959371 Y101.352431 Z2 I-16.110833 J-12.969869
G03 X162.816750 Y98.510671 Z2 I22.964560 J12.981804
G03 X166.998050 Y92.961983 Z2 I1119.368400 J839.167671
G02 X171.126750 Y87.368983 Z2 I-224.139062 J-169.777728
G02 X172.650331 Y84.964108 Z2 I-19.657430 J-14.138806
G03 X174.236540 Y82.611860 Z2 I14.215962 J7.875408
G02 X174.980983 Y81.626425 Z2 I-14.240324 J-11.531709
G03 X175.726910 Y80.608860 Z2 I26.740234 J18.819768
G00 Z0.000000

(End cutting path id: path14)


(Start cutting path id: path14)
(Change tool to Default tool)

G00 Z0.000000
G00 X160.829590 Y108.776046

G01 Z2 F100.0(Penetrate)
G02 X162.115578 Y107.762382 Z2 I-8.760308 J-12.436361 F75
G02 X163.726290 Y106.021921 Z2 I-7.636560 J-8.682814
G03 X164.180789 Y105.465915 Z2 I6.955536 J5.221940
G03 X164.705580 Y104.895234 Z2 I17.091037 J15.190054
G02 X165.094924 Y104.461343 Z2 I-7.246999 J-6.894587
G03 X165.482780 Y104.040172 Z2 I5.199132 J4.398704
G03 X166.525750 Y103.100145 Z2 I9.734287 J9.751717
G02 X167.589720 Y102.141109 Z2 I-8.859284 J-10.898371
G02 X168.815252 Y100.916052 Z2 I-1009.065597 J-1010.683115
G03 X169.968280 Y99.762546 Z2 I2807.218359 J2804.907056
G02 X170.539179 Y99.187940 Z2 I-88.609708 J-88.609071
G03 X171.094970 Y98.657207 Z2 I9.263072 J9.144024
G03 X171.589442 Y98.241998 Z2 I6.290690 J6.989536
G02 X172.096470 Y97.829771 Z2 I-10.894601 J-13.917997
G02 X173.693888 Y96.418836 Z2 I-30.728894 J-36.400088
G03 X175.226160 Y95.005421 Z2 I894.984728 J968.708013
G00 Z0.000000

(End cutting path id: path14)


(Start cutting path id: path14)
(Change tool to Default tool)

G00 Z0.000000
G00 X145.681900 Y104.519671

G01 Z2 F100.0(Penetrate)
G03 X145.872388 Y104.533274 Z2 I-0.251090 J4.856719 F75
G03 X146.683400 Y104.744545 Z2 I-0.233168 J2.557331
G03 X147.374449 Y105.084444 Z2 I-4.082398 J9.172357
G03 X148.037380 Y105.562321 Z2 I-1.508916 J2.791995
G03 X148.911044 Y106.854953 Z2 I-2.416613 J2.574901
G02 X150.063470 Y107.620186 Z2 I1.120147 J-0.436538
G02 X151.354269 Y107.129290 Z2 I-0.056139 J-2.090128
G02 X152.430340 Y106.135904 Z2 I-10.372514 J-12.315383
G02 X152.940734 Y105.524879 Z2 I-3.376103 J-3.338765
G03 X153.455220 Y104.900160 Z2 I4.307490 J3.023214
G03 X154.130111 Y104.269497 Z2 I6.239992 J6.001164
G02 X154.820590 Y103.643359 Z2 I-7.801968 J-9.297460
G00 Z0.000000

(End cutting path id: path14)


(Start cutting path id: path14)
(Change tool to Default tool)

G00 Z0.000000
G00 X145.556720 Y104.519671

G01 Z2 F100.0(Penetrate)
G01 X145.681900 Y104.519671 Z2 F75
G00 Z0.000000

(End cutting path id: path14)


(Start cutting path id: path14)
(Change tool to Default tool)

G00 Z0.000000
G00 X145.681900 Y99.887734

G01 Z2 F100.0(Penetrate)
G03 X146.085299 Y99.951971 Z2 I-0.083255 J1.821589 F75
G02 X147.684900 Y100.241466 Z2 I2.384052 J-8.609017
G02 X148.144519 Y100.237365 Z2 I0.208708 J-2.367302
G02 X148.561220 Y100.193076 Z2 I-200.146991 J-1885.078763
G03 X149.063028 Y100.194451 Z2 I0.244610 J2.298427
G02 X149.687900 Y100.252196 Z2 I1.804035 J-16.111953
G02 X150.296971 Y100.296268 Z2 I40.525701 J-555.830130
G03 X150.814590 Y100.375839 Z2 I-0.232237 J3.234107
G03 X152.076846 Y100.684662 Z2 I-22.904511 J96.351829
G02 X153.693900 Y100.653839 Z2 I0.751864 J-2.988041
G02 X155.345174 Y99.311931 Z2 I-0.771180 J-2.635905
G03 X156.596300 Y97.692903 Z2 I5.418914 J2.894611
G03 X159.027693 Y96.096699 Z2 I6.019060 J6.518547
G03 X161.705810 Y94.936364 Z2 I79.439075 J179.678960
G02 X162.431969 Y94.417157 Z2 I-0.801665 J-1.888606
G02 X162.957780 Y93.628367 Z2 I-2.479950 J-2.222794
G00 Z0.000000

(End cutting path id: path14)


(Start cutting path id: path14)
(Change tool to Default tool)

G00 Z0.000000
G00 X145.556720 Y99.887742

G01 Z2 F100.0(Penetrate)
G01 X145.681900 Y99.887742 Z2 F75
G00 Z0.000000

(End cutting path id: path14)


(Start cutting path id: path14)
(Change tool to Default tool)

G00 Z0.000000
G00 X145.681900 Y86.367491

G01 Z2 F100.0(Penetrate)
G03 X145.887784 Y86.414039 Z2 I-0.397375 J2.236189 F75
G03 X146.683400 Y86.690409 Z2 I-1.709210 J6.203888
G03 X147.394625 Y86.991736 Z2 I-160.386329 J379.551863
G03 X148.185650 Y87.340109 Z2 I-12.834722 J30.215077
G02 X149.683817 Y87.974701 Z2 I12.350675 J-27.072152
G03 X151.190150 Y88.585417 Z2 I-24.999308 J63.823906
G03 X153.495518 Y89.598080 Z2 I-28.882387 J68.882390
G02 X155.822090 Y90.461296 Z2 I6.871778 J-14.954128
G02 X156.558097 Y90.594122 Z2 I1.021566 J-3.555059
G02 X157.324340 Y90.623867 Z2 I0.769444 J-9.937059
G02 X158.847815 Y90.508306 Z2 I0.003238 J-10.057323
G02 X160.454030 Y90.043715 Z2 I-0.976156 J-6.383681
G02 X163.237766 Y88.555609 Z2 I-7.943323 J-18.206993
G02 X165.448010 Y86.367491 Z2 I-4.030116 J-6.281223
G02 X166.033503 Y85.025189 Z2 I-3.635904 J-2.384773
G03 X166.642020 Y83.739037 Z2 I3.479654 J0.859298
G03 X167.348945 Y83.008506 Z2 I3.208788 J2.397795
G02 X167.936780 Y82.235818 Z2 I-1.245722 J-1.557649
G02 X168.107523 Y81.642381 Z2 I-2.288198 J-0.979639
G02 X168.194890 Y80.984428 Z2 I-13.791378 J-2.166080
G03 X168.289944 Y80.114162 Z2 I897.595550 J97.598746
G03 X168.592280 Y79.233638 Z2 I2.106478 J0.231112
G03 X170.309294 Y78.018016 Z2 I2.285945 J1.408384
G02 X172.025860 Y76.951768 Z2 I-0.637814 J-2.941708
G02 X172.301703 Y76.285690 Z2 I-1.020164 J-0.812637
G03 X172.404410 Y75.601368 Z2 I9.455535 J1.069276
G03 X172.493174 Y75.174374 Z2 I10.849369 J2.032669
G03 X172.608420 Y74.725058 Z2 I8.578732 J1.960929
G01 X173.251170 Y73.673908 Z2
G03 X173.983843 Y73.543296 Z2 I0.633630 J1.434088
G02 X175.726910 Y73.598408 Z2 I1.743067 J-27.537215
G00 Z0.000000

(End cutting path id: path14)


(Start cutting path id: path14)
(Change tool to Default tool)

G00 Z0.000000
G00 X145.556720 Y86.367483

G01 Z2 F100.0(Penetrate)
G01 X145.681900 Y86.367483 Z2 F75
G00 Z0.000000

(End cutting path id: path14)


(Start cutting path id: path14)
(Change tool to Default tool)

G00 Z0.000000
G00 X153.819090 Y78.105110

G01 Z2 F100.0(Penetrate)
G02 X154.646772 Y78.635870 Z2 I2.659186 J-3.236071 F75
G03 X155.571720 Y79.186400 Z2 I-2.794268 J5.746935
G02 X157.118636 Y80.074318 Z2 I5.192673 J-7.255126
G02 X159.075130 Y79.882370 Z2 I0.810136 J-1.809495
G02 X159.987126 Y78.961443 Z2 I-2.167787 J-3.058804
G03 X160.831430 Y78.003010 Z2 I4.557272 J3.163498
G03 X162.429158 Y76.856873 Z2 I5.941376 J6.595651
G02 X163.959180 Y75.721620 Z2 I-3.678562 J-6.556391
G02 X164.612354 Y75.044440 Z2 I-8.567767 J-8.917641
G03 X165.093690 Y74.510410 Z2 I63.181027 J56.462863
G01 X165.978890 Y73.638160 Z2
G03 X166.705453 Y73.559563 Z2 I0.593143 J2.085583
G02 X167.965280 Y73.598360 Z2 I1.259827 J-20.435415
G00 Z0.000000

(End cutting path id: path14)


(Footer)
M5
G00 X0.0000 Y0.0000
M2
(Using default footer. To add your own footer create file "footer" in the output dir.)
(end)
%