%
(Header)
(Generated by gcodetools from Inkscape.)
(Using default header. To add your own header create file "header" in the output dir.)
M3
(Header end.)
G21 (All units in mm)

(Start cutting path id: path10)
(Change tool to Default tool)

G00 Z0.000000
G00 X26.223852 Y108.716954

G01 Z2 F100.0(Penetrate)
G03 X26.584298 Y108.172220 Z2 I35.861012 J23.337332 F75
G03 X27.475148 Y107.675175 Z2 I0.935051 J0.629031
G01 X28.226852 Y108.591766 Z2
G00 Z0.000000

(End cutting path id: path10)


(Start cutting path id: path10)
(Change tool to Default tool)

G00 Z0.000000
G00 X27.600914 Y107.339891

G01 Z2 F100.0(Penetrate)
G01 X27.475727 Y105.962829 Z2 F75
G00 Z0.000000

(End cutting path id: path10)


(Start cutting path id: path10)
(Change tool to Default tool)

G00 Z0.000000
G00 X5.317539 Y80.925330

G01 Z2 F100.0(Penetrate)
G02 X7.956206 Y82.526775 Z2 I10.968386 J-15.097825 F75
G03 X10.700601 Y83.968949 Z2 I-32.725687 J65.607865
G03 X13.351795 Y85.634282 Z2 I-13.561589 J24.532921
G02 X15.958476 Y87.396538 Z2 I40.884042 J-57.665571
G02 X19.843430 Y89.838765 Z2 I112.911177 J-175.301492
G03 X23.720102 Y92.279718 Z2 I-102.101313 J166.454147
G03 X26.244879 Y94.093856 Z2 I-17.088348 J26.446205
G02 X28.852789 Y95.775793 Z2 I9.716185 J-12.202529
G03 X31.548731 Y97.264639 Z2 I-22.349038 J43.654000
G02 X34.235852 Y98.788503 Z2 I39.245150 J-66.072232
G02 X35.331663 Y99.356744 Z2 I16.880484 J-31.212088
G03 X36.238852 Y99.825067 Z2 I-14.590958 J29.376944
G02 X37.009286 Y100.142215 Z2 I1.940546 J-3.619719
G02 X37.240352 Y100.204203 Z2 I1.271506 J-4.278010
G00 Z0.000000

(End cutting path id: path10)


(Start cutting path id: path10)
(Change tool to Default tool)

G00 Z0.000000
G00 X37.240352 Y95.196703

G01 Z2 F100.0(Penetrate)
G03 X37.001232 Y95.076472 Z2 I9.009529 J-18.216337 F75
G03 X36.113664 Y94.517058 Z2 I2.658840 J-5.202343
G03 X35.451442 Y93.995559 Z2 I17.311015 J-22.663477
G02 X34.736602 Y93.419060 Z2 I-91.132212 J112.269569
G03 X32.961643 Y91.950718 Z2 I46.050959 J-57.474215
G03 X31.231352 Y90.445857 Z2 I82.279628 J-96.352408
G02 X29.590404 Y89.101006 Z2 I-18.356950 J20.725082
G02 X27.851289 Y87.851886 Z2 I-25.494917 J33.660626
G03 X27.135496 Y87.295142 Z2 I4.016841 J-5.902869
G03 X26.474227 Y86.688782 Z2 I16.986913 J-19.188928
G02 X25.745854 Y86.078211 Z2 I-5.284126 J5.563895
G03 X24.971977 Y85.494672 Z2 I27.628906 J-37.445783
G03 X23.710811 Y84.521086 Z2 I530.061147 J-687.935373
G03 X22.468227 Y83.523354 Z2 I26.780967 J-34.625877
G03 X19.860647 Y81.233134 Z2 I42.806289 J-51.367611
G02 X17.335539 Y78.943960 Z2 I-113.294886 J122.434351
G02 X15.359604 Y77.258621 Z2 I-43.086815 J48.515094
G03 X13.329539 Y75.558690 Z2 I76.676547 J-93.629613
G02 X12.661768 Y75.014613 Z2 I-11.484916 J13.414137
G03 X12.079982 Y74.519420 Z2 I5.102150 J-6.583706
G02 X11.351399 Y73.854962 Z2 I-28.903776 J30.961552
G02 X10.199851 Y73.414080 Z2 I-1.157694 J1.299485
G00 Z0.000000

(End cutting path id: path10)


(Start cutting path id: path10)
(Change tool to Default tool)

G00 Z0.000000
G00 X37.240352 Y90.314391

G01 Z2 F100.0(Penetrate)
G03 X37.289989 Y88.808800 Z2 I22.858567 J0.000000 F75
G02 X37.164812 Y88.087676 Z2 I-1.550227 J-0.102329
G01 X36.037738 Y87.054106 Z2
G03 X35.064552 Y85.664779 Z2 I8.484282 J-6.978518
G02 X33.735099 Y84.299305 Z2 I-3.475676 J2.054061
G02 X30.519034 Y82.460235 Z2 I-24.002228 J38.242204
G03 X27.225349 Y80.713590 Z2 I93.517942 J-180.327568
G03 X24.738138 Y79.292670 Z2 I30.647168 J-56.532788
G03 X22.582303 Y77.545170 Z2 I5.129107 J-8.531160
G03 X21.523285 Y76.350156 Z2 I23.713944 J-22.081971
G02 X20.339941 Y75.150380 Z2 I-8.266122 J6.969458
G02 X19.883275 Y74.765444 Z2 I-14.071013 J16.229698
G03 X19.539261 Y74.394330 Z2 I1.175880 J-1.435017
G03 X19.331274 Y73.630846 Z2 I0.959091 J-0.671346
G02 X19.338536 Y73.414080 Z2 I-2.387551 J-0.188492
G00 Z0.000000

(End cutting path id: path10)


(Start cutting path id: path10)
(Change tool to Default tool)

G00 Z0.000000
G00 X32.107661 Y75.917830

G01 Z2 F100.0(Penetrate)
G01 X35.237349 Y77.795740 Z2 F75
G01 X36.363845 Y78.613420 Z2
G01 X37.240349 Y79.047520 Z2
G00 Z0.000000

(End cutting path id: path10)


(Footer)
M5
G00 X0.0000 Y0.0000
M2
(Using default footer. To add your own footer create file "footer" in the output dir.)
(end)
%