%
(Header)
(Generated by gcodetools from Inkscape.)
(Using default header. To add your own header create file "header" in the output dir.)
M3
(Header end.)
G21 (All units in mm)

(Start cutting path id: path18)
(Change tool to Default tool)

G00 Z0.000000
G00 X113.135200 Y67.397360

G01 Z2 F100.0(Penetrate)
G02 X115.048838 Y68.413621 Z2 I5.577427 J-8.192558 F75
G03 X117.266390 Y69.361720 Z2 I-17.575979 J44.176679
G02 X120.013731 Y70.310718 Z2 I6.260148 J-13.671811
G03 X122.774640 Y70.997660 Z2 I-41.196703 J171.466594
G03 X125.059096 Y71.727436 Z2 I-5.221339 J20.285097
G02 X127.156200 Y72.502810 Z2 I32.472700 J-84.603168
G02 X129.549126 Y73.104030 Z2 I4.329474 J-12.169137
G02 X130.786640 Y73.281170 Z2 I11.262008 J-74.266103
G00 Z0.000000

(End cutting path id: path18)


(Start cutting path id: path18)
(Change tool to Default tool)

G00 Z0.000000
G00 X131.788140 Y68.398860

G01 Z2 F100.0(Penetrate)
G01 X133.916320 Y69.585920 Z2 F75
G01 X135.279860 Y69.771960 Z2
G01 X137.171300 Y67.557420 Z2
G01 X138.423080 Y67.307910 Z2
G01 X141.052010 Y66.646230 Z2
G00 Z0.000000

(End cutting path id: path18)


(Start cutting path id: path18)
(Change tool to Default tool)

G00 Z0.000000
G00 X143.680950 Y58.383860

G01 Z2 F100.0(Penetrate)
G02 X144.926169 Y58.932299 Z2 I3.074212 J-5.292085 F75
G02 X145.183200 Y59.009800 Z2 I3.773748 J-12.050709
G00 Z0.000000

(End cutting path id: path18)


(Start cutting path id: path18)
(Change tool to Default tool)

G00 Z0.000000
G00 X109.254390 Y48.494050

G01 Z2 F100.0(Penetrate)
G02 X109.496991 Y48.434104 Z2 I-0.961839 J-4.413410 F75
G02 X110.381070 Y47.986440 Z2 I-0.668930 J-2.417855
G02 X112.013452 Y46.631120 Z2 I-25.883424 J-32.835378
G02 X113.635950 Y45.113980 Z2 I-21.790352 J-24.929728
G02 X114.298226 Y44.426101 Z2 I-17.805983 J-17.805983
G03 X114.923080 Y43.772660 Z2 I21.304550 J19.747043
G02 X115.718608 Y42.942144 Z2 I-27.790206 J-27.415713
G03 X116.514880 Y42.109480 Z2 I30.331461 J28.208752
G02 X117.261156 Y41.310082 Z2 I-15.037485 J-14.786242
G03 X118.006690 Y40.482050 Z2 I52.736784 J46.732916
G02 X119.001314 Y39.376518 Z2 I-66.086149 J-60.456479
G02 X119.860450 Y38.354050 Z2 I-19.594853 J-17.336906
G02 X120.207582 Y37.699056 Z2 I-1.567250 J-1.250090
G02 X120.270890 Y37.477550 Z2 I-4.782918 J-1.486795
G00 Z0.000000

(End cutting path id: path18)


(Footer)
M5
;G00 X0.0000 Y0.0000
M2
(Using default footer. To add your own footer create file "footer" in the output dir.)
(end)
%