%
(Header)
(Generated by gcodetools from Inkscape.)
(Using default header. To add your own header create file "header" in the output dir.)
M3
(Header end.)
G21 (All units in mm)

(Start cutting path id: path11)
(Change tool to Default tool)

G00 Z0.000000
G00 X38.355175 Y108.827752

G01 Z2 F100.0(Penetrate)
G01 X38.730738 Y108.827752 Z2 F75
G00 Z0.000000

(End cutting path id: path11)


(Start cutting path id: path11)
(Change tool to Default tool)

G00 Z0.000000
G00 X59.261488 Y108.577377

G01 Z2 F100.0(Penetrate)
G03 X57.398845 Y104.999373 Z2 I21.446993 J-13.438740 F75
G02 X55.619845 Y101.441689 Z2 I-28.873905 J12.214604
G02 X53.795373 Y98.685303 Z2 I-24.838608 J14.458852
G03 X51.875426 Y96.058627 Z2 I117.924192 J-88.210702
G00 Z0.000000

(End cutting path id: path11)


(Start cutting path id: path11)
(Change tool to Default tool)

G00 Z0.000000
G00 X71.154301 Y108.452190

G01 Z2 F100.0(Penetrate)
G01 X71.449593 Y107.075127 Z2 F75
G01 X72.509339 Y104.947518 Z2
G01 X73.367879 Y103.804120 Z2
G01 X73.407679 Y101.566877 Z2
G00 Z0.000000

(End cutting path id: path11)


(Start cutting path id: path11)
(Change tool to Default tool)

G00 Z0.000000
G00 X63.267491 Y105.572877

G01 Z2 F100.0(Penetrate)
G02 X64.636996 Y105.961502 Z2 I2.259142 J-5.353804 F75
G02 X65.994860 Y105.622527 Z2 I0.276194 J-1.782775
G02 X66.963780 Y104.326381 Z2 I-1.720256 J-2.296184
G03 X67.904453 Y102.818752 Z2 I4.154760 J1.545053
G02 X68.994606 Y101.608759 Z2 I-22.449796 J-21.322415
G02 X69.986467 Y100.315002 Z2 I-11.705503 J-10.001128
G02 X70.917697 Y98.775068 Z2 I-12.975440 J-8.898052
G03 X72.155804 Y97.461286 Z2 I3.000992 J1.587846
G01 X73.279015 Y96.747351 Z2
G01 X73.407679 Y95.307502 Z2
G00 Z0.000000

(End cutting path id: path11)


(Start cutting path id: path11)
(Change tool to Default tool)

G00 Z0.000000
G00 X37.604050 Y100.565377

G01 Z2 F100.0(Penetrate)
G03 X37.975047 Y100.571323 Z2 I-0.498166 J42.658544 F75
G03 X38.469351 Y100.691626 Z2 I-0.023922 J1.173951
G01 X39.016853 Y101.053860 Z2
G01 X39.732334 Y101.086320 Z2
G02 X40.245204 Y101.037972 Z2 I-4.129465 J-46.549614
G02 X41.234488 Y100.920949 Z2 I-2.712696 J-27.172490
G02 X42.490727 Y100.346909 Z2 I-0.324539 J-2.371831
G03 X43.487863 Y99.474917 Z2 I161.413497 J183.572812
G03 X45.104068 Y98.187383 Z2 I15.719316 J18.073860
G02 X46.742738 Y96.900556 Z2 I-16.964949 J-23.290256
G03 X50.942238 Y94.061355 Z2 I15.269691 J18.060232
G02 X55.380676 Y91.638333 Z2 I-94.017652 J-177.496098
G02 X58.148492 Y89.710067 Z2 I-8.607498 J-15.305708
G03 X60.888926 Y87.682369 Z2 I16.329343 J19.203412
G03 X63.629165 Y86.209102 Z2 I11.038780 J17.246834
G02 X66.397176 Y84.738629 Z2 I-8.945255 J-20.178979
G02 X68.610335 Y83.332161 Z2 I-103.370449 J-165.103896
G02 X70.778739 Y81.858934 Z2 I-29.700279 J-46.047482
G02 X71.656407 Y81.206315 Z2 I-17.027630 J-23.815918
G03 X72.406176 Y80.646654 Z2 I16.991241 J21.980824
G03 X73.177505 Y80.230709 Z2 I1.978766 J2.746272
G03 X73.407676 Y80.159814 Z2 I0.651711 J1.706799
G00 Z0.000000

(End cutting path id: path11)


(Start cutting path id: path11)
(Change tool to Default tool)

G00 Z0.000000
G00 X37.478863 Y100.565377

G01 Z2 F100.0(Penetrate)
G01 X37.604050 Y100.565377 Z2 F75
G00 Z0.000000

(End cutting path id: path11)


(Start cutting path id: path11)
(Change tool to Default tool)

G00 Z0.000000
G00 X39.982613 Y97.686064

G01 Z2 F100.0(Penetrate)
G03 X38.148777 Y96.344096 Z2 I78.411133 J-109.074978 F75
G02 X37.604050 Y96.058627 Z2 I-1.171180 J1.572370
G00 Z0.000000

(End cutting path id: path11)


(Start cutting path id: path11)
(Change tool to Default tool)

G00 Z0.000000
G00 X61.389676 Y97.435689

G01 Z2 F100.0(Penetrate)
G02 X65.745219 Y95.409547 Z2 I0.245268 J-5.167321 F75
G03 X69.151301 Y91.953810 Z2 I15.385528 J11.758018
G03 X70.128284 Y91.339018 Z2 I3.395582 J4.312344
G03 X71.154301 Y90.993459 Z2 I1.819791 J3.707252
G02 X71.712158 Y90.844414 Z2 I-0.820794 J-4.190648
G02 X72.246697 Y90.515506 Z2 I-0.458383 J-1.343780
G02 X73.045002 Y89.495129 Z2 I-3.430703 J-3.506526
G02 X73.407676 Y88.171814 Z2 I-2.266798 J-1.332605
G00 Z0.000000

(End cutting path id: path11)


(Start cutting path id: path11)
(Change tool to Default tool)

G00 Z0.000000
G00 X43.237488 Y90.300002

G01 Z2 F100.0(Penetrate)
G03 X44.688345 Y90.341632 Z2 I0.000000 J25.302733 F75
G02 X46.241988 Y90.420263 Z2 I6.554995 J-114.130034
G02 X47.083227 Y90.433227 Z2 I0.649264 J-14.830032
G03 X47.994613 Y90.425063 Z2 I1.482609 J114.631337
G02 X48.637451 Y90.397973 Z2 I-0.042951 J-8.659941
G02 X49.241078 Y90.228298 Z2 I-0.128291 J-1.614958
G02 X49.833138 Y89.560565 Z2 I-0.548123 J-1.082353
G03 X50.213793 Y88.797816 Z2 I3.517831 J1.279238
G03 X50.915563 Y88.039296 Z2 I2.566332 J1.670433
G02 X51.750238 Y87.394771 Z2 I-112.491800 J-146.542332
G03 X53.552873 Y86.125761 Z2 I14.387582 J18.522801
G03 X55.505863 Y85.095608 Z2 I7.322331 J11.515518
G02 X57.496461 Y84.225541 Z2 I-55.710223 J-130.169763
G02 X59.250283 Y83.027407 Z2 I-2.422801 J-5.429168
G02 X61.002723 Y81.014187 Z2 I-12.410663 J-12.572389
G03 X62.391176 Y79.408659 Z2 I11.765786 J8.771872
G00 Z0.000000

(End cutting path id: path11)


(Start cutting path id: path11)
(Change tool to Default tool)

G00 Z0.000000
G00 X38.480363 Y90.174814

G01 Z2 F100.0(Penetrate)
G01 X37.604050 Y89.423689 Z2 F75
G00 Z0.000000

(End cutting path id: path11)


(Start cutting path id: path11)
(Change tool to Default tool)

G00 Z0.000000
G00 X37.604050 Y79.408690

G01 Z2 F100.0(Penetrate)
G03 X37.810871 Y79.434226 Z2 I-0.515183 J5.022867 F75
G03 X38.480556 Y79.637140 Z2 I-0.333197 J2.306214
G03 X39.914906 Y80.457056 Z2 I-4.786664 J10.038299
G03 X41.473658 Y81.698290 Z2 I-7.076663 J10.486295
G03 X42.558932 Y83.069282 Z2 I-3.996344 J4.278541
G02 X43.865261 Y83.995710 Z2 I1.652012 J-0.945232
G02 X46.231000 Y83.253280 Z2 I0.481396 J-2.606447
G02 X47.869426 Y81.536880 Z2 I-47.347606 J-46.836859
G00 Z0.000000

(End cutting path id: path11)


(Start cutting path id: path11)
(Change tool to Default tool)

G00 Z0.000000
G00 X69.652051 Y73.399690

G01 Z2 F100.0(Penetrate)
G01 X70.152801 Y73.399690 Z2 F75
G00 Z0.000000

(End cutting path id: path11)


(Footer)
M5
G00 X0.0000 Y0.0000
M2
(Using default footer. To add your own footer create file "footer" in the output dir.)
(end)
%