%
(Header)
(Generated by gcodetools from Inkscape.)
(Using default header. To add your own header create file "header" in the output dir.)
M3
(Header end.)
G21 (All units in mm)

(Start cutting path id: path22)
(Change tool to Default tool)

G00 Z0.000000
G00 X109.243890 Y37.508010

G01 Z2 F100.0(Penetrate)
G01 X109.243890 Y37.132450 Z2 F75
G00 Z0.000000

(End cutting path id: path22)


(Start cutting path id: path22)
(Change tool to Default tool)

G00 Z0.000000
G00 X74.692141 Y37.007260

G01 Z2 F100.0(Penetrate)
G02 X73.694359 Y35.921222 Z2 I-3.899175 J2.580945 F75
G02 X73.440266 Y35.755390 Z2 I-1.034360 J1.307295
G00 Z0.000000

(End cutting path id: path22)


(Start cutting path id: path22)
(Change tool to Default tool)

G00 Z0.000000
G00 X80.826329 Y37.007260

G01 Z2 F100.0(Penetrate)
G02 X80.062761 Y35.898141 Z2 I-59.603199 J40.216131 F75
G03 X79.198505 Y34.628700 Z2 I43.164667 J-30.316142
G02 X77.575689 Y32.247435 Z2 I-80.084680 J52.833569
G03 X75.944113 Y29.871570 Z2 I102.915464 J-72.423213
G03 X75.092334 Y28.598278 Z2 I873.728293 J-585.409074
G02 X74.297067 Y27.498420 Z2 I-15.182290 J10.140316
G02 X73.667060 Y26.897466 Z2 I-2.361589 J1.845052
G02 X73.440266 Y26.741890 Z2 I-5.380474 J7.600373
G00 Z0.000000

(End cutting path id: path22)


(Start cutting path id: path22)
(Change tool to Default tool)

G00 Z0.000000
G00 X73.440266 Y7.713390

G01 Z2 F100.0(Penetrate)
G03 X73.649132 Y7.714882 Z2 I0.029412 J10.500356 F75
G02 X74.316772 Y7.677190 Z2 I0.077827 J-4.553212
G02 X75.180358 Y7.519502 Z2 I-1.124779 J-8.603500
G02 X76.319579 Y7.209480 Z2 I-3.923602 J-16.665957
G02 X78.173347 Y6.351587 Z2 I-2.273209 J-7.343831
G03 X79.950016 Y5.539440 Z2 I3.813832 J5.993801
G03 X80.903148 Y5.359863 Z2 I1.331849 J4.449751
G03 X81.953016 Y5.339780 Z2 I0.685387 J8.377959
G03 X83.701087 Y5.522009 Z2 I-0.631363 J14.531953
G02 X85.458267 Y5.705490 Z2 I2.398607 J-14.465347
G02 X86.120175 Y5.712113 Z2 I0.428788 J-9.774646
G03 X86.835329 Y5.712490 Z2 I0.349835 J14.678417
G03 X87.479826 Y5.770433 Z2 I-0.122251 J4.973103
G02 X88.087204 Y5.830920 Z2 I0.848157 J-5.437024
G02 X88.632877 Y5.839498 Z2 I0.425788 J-9.725927
G03 X89.213892 Y5.835920 Z2 I0.581015 J47.177947
G02 X92.043187 Y5.793352 Z2 I0.000000 J-94.046719
G03 X94.847329 Y5.847120 Z2 I0.856763 J28.466210
G03 X95.763785 Y5.950914 Z2 I-0.712936 J10.392715
G03 X96.725142 Y6.119030 Z2 I-4.751819 J30.005738
G03 X98.573005 Y7.283236 Z2 I-0.563584 J2.943133
G02 X100.355580 Y8.317930 Z2 I2.083905 J-1.537299
G02 X102.987526 Y8.399181 Z2 I1.788514 J-15.266387
G02 X105.613450 Y8.142420 Z2 I-1.701008 J-30.952662
G03 X106.998771 Y7.947366 Z2 I643.651162 J4566.361427
G03 X108.242390 Y7.837560 Z2 I1.683612 J11.970605
G02 X109.031046 Y7.752640 Z2 I-0.203494 J-5.594428
G02 X109.243890 Y7.713730 Z2 I-7.259856 J-40.314703
G00 Z0.000000

(End cutting path id: path22)


(Start cutting path id: path22)
(Change tool to Default tool)

G00 Z0.000000
G00 X73.315079 Y7.713730

G01 Z2 F100.0(Penetrate)
G01 X73.440266 Y7.713730 Z2 F75
G00 Z0.000000

(End cutting path id: path22)


(Footer)
M5
G00 X0.0000 Y0.0000
M2
(Using default footer. To add your own footer create file "footer" in the output dir.)
(end)
%