%
(Header)
(Generated by gcodetools from Inkscape.)
(Using default header. To add your own header create file "header" in the output dir.)
M3
(Header end.)
G21 (All units in mm)

(Start cutting path id: path15)
(Change tool to Default tool)

G00 Z0.000000
G00 X4.829072 Y67.716600

G01 Z2 F100.0(Penetrate)
G02 X5.855570 Y68.820157 Z2 I6.503928 J-5.020582 F75
G03 X6.957260 Y69.846520 Z2 I-24.721413 J27.640222
G02 X7.769780 Y70.601576 Z2 I17.905650 J-18.453672
G03 X8.584214 Y71.337670 Z2 I-47.204537 J53.046990
G02 X9.771959 Y72.388358 Z2 I29.162741 J-31.770165
G02 X10.462510 Y72.724100 Z2 I0.993729 J-1.165863
G00 Z0.000000

(End cutting path id: path15)


(Start cutting path id: path15)
(Change tool to Default tool)

G00 Z0.000000
G00 X13.216635 Y67.215850

G01 Z2 F100.0(Penetrate)
G02 X14.773987 Y66.858761 Z2 I-0.000380 J-3.576200 F75
G02 X15.583992 Y65.463220 Z2 I-0.627707 J-1.297179
G02 X15.396566 Y64.390655 Z2 I-5.197961 J0.355663
G03 X15.224561 Y63.335040 Z2 I4.437440 J-1.264870
G03 X15.265812 Y62.181882 Z2 I7.112779 J-0.322878
G02 X15.126711 Y61.082140 Z2 I-2.290592 J-0.268942
G02 X14.510655 Y60.137024 Z2 I-2.534469 J0.978704
G03 X14.222192 Y58.953470 Z2 I0.825895 J-0.828222
G03 X14.662804 Y58.135336 Z2 I2.402107 J0.765958
G02 X15.164673 Y57.326040 Z2 I-2.988620 J-2.413593
G02 X15.720978 Y55.837474 Z2 I-9.874962 J-4.538694
G03 X16.494693 Y54.448560 Z2 I3.438202 J1.005339
G03 X17.583046 Y53.614869 Z2 I2.770467 J2.489494
G02 X18.542610 Y52.682800 Z2 I-1.014659 J-2.004560
G02 X18.780396 Y51.478149 Z2 I-1.809429 J-0.982957
G03 X18.726722 Y50.190350 Z2 I9.683272 J-1.048606
G03 X18.766724 Y49.679602 Z2 I4.780752 J0.117492
G03 X18.851909 Y49.188850 Z2 I6.155944 J0.815780
G03 X19.106338 Y48.177428 Z2 I14.795937 J3.184291
G03 X19.492916 Y47.185850 Z2 I5.636603 J1.626349
G03 X19.995877 Y46.455595 Z2 I2.831894 J1.412124
G03 X20.591493 Y45.808790 Z2 I621.243725 J571.480238
G03 X21.701514 Y44.752549 Z2 I8.607999 J7.934895
G02 X22.372519 Y43.429740 Z2 I-1.201923 J-1.441275
G02 X21.672688 Y42.120469 Z2 I-1.408009 J-0.089063
G03 X20.645781 Y40.926470 Z2 I1.203519 J-2.073693
G03 X20.722084 Y39.142364 Z2 I2.044214 J-0.806258
G03 X21.265438 Y38.172440 Z2 I10.064635 J5.001081
G03 X21.607995 Y37.731175 Z2 I2.370502 J1.486640
G03 X22.605699 Y37.296040 Z2 I1.014286 J0.964250
G00 Z0.000000

(End cutting path id: path15)


(Footer)
M5
G00 X0.0000 Y0.0000
M2
(Using default footer. To add your own footer create file "footer" in the output dir.)
(end)
%