%
(Header)
(Generated by gcodetools from Inkscape.)
(Using default header. To add your own header create file "header" in the output dir.)
M3
(Header end.)
G21 (All units in mm)

(Start cutting path id: path16)
(Change tool to Default tool)

G00 Z0.000000
G00 X69.980852 Y72.655240

G01 Z2 F100.0(Penetrate)
G01 X67.495165 Y70.401760 Z2 F75
G01 X67.048123 Y69.151820 Z2
G01 X67.724870 Y68.137280 Z2
G01 X68.542453 Y67.021800 Z2
G01 X69.873342 Y62.515050 Z2
G01 X70.348300 Y60.887610 Z2
G01 X70.356400 Y59.760920 Z2
G00 Z0.000000

(End cutting path id: path16)


(Start cutting path id: path16)
(Change tool to Default tool)

G00 Z0.000000
G00 X50.701977 Y70.401860

G01 Z2 F100.0(Penetrate)
G03 X52.230475 Y69.241689 Z2 I3.154755 J2.569351 F75
G03 X54.082040 Y68.765050 Z2 I2.409738 J5.526290
G02 X54.516966 Y68.710423 Z2 I-0.629580 J-6.771274
G03 X54.958352 Y68.660440 Z2 I0.782950 J4.940126
G02 X56.481484 Y68.548212 Z2 I-10.157453 J-148.246389
G02 X57.957926 Y67.970850 Z2 I-0.214963 J-2.726183
G02 X58.870308 Y66.971971 Z2 I-2.565457 J-3.259432
G02 X59.488865 Y65.769920 Z2 I-5.614150 J-3.649130
G03 X60.450066 Y63.656891 Z2 I20.476381 J8.039418
G03 X61.855351 Y61.787100 Z2 I6.323956 J3.289932
G03 X63.683368 Y60.775072 Z2 I2.848355 J2.987980
G02 X65.599290 Y59.917500 Z2 I-1.523581 J-5.972856
G02 X66.435410 Y59.291979 Z2 I-5.788131 J-8.608439
G02 X67.138730 Y58.509050 Z2 I-2.305734 J-2.778651
G02 X67.441933 Y57.819875 Z2 I-1.842094 J-1.221716
G02 X67.530327 Y57.131980 Z2 I-2.919936 J-0.724835
G02 X67.389610 Y55.890173 Z2 I-5.004994 J-0.061728
G03 X67.249717 Y54.628230 Z2 I4.848157 J-1.176168
G03 X68.051956 Y53.530425 Z2 I1.180017 J0.020290
G03 X68.979352 Y53.376360 Z2 I0.937388 J2.774345
G00 Z0.000000

(End cutting path id: path16)


(Start cutting path id: path16)
(Change tool to Default tool)

G00 Z0.000000
G00 X45.694477 Y67.397360

G01 Z2 F100.0(Penetrate)
G03 X47.012140 Y67.504601 Z2 I0.000000 J8.148623 F75
G02 X48.401173 Y67.164850 Z2 I0.295288 J-1.802073
G02 X49.475437 Y66.037454 Z2 I-2.799808 J-3.743376
G03 X50.370365 Y64.763500 Z2 I34.940264 J23.593532
G02 X50.733747 Y64.042269 Z2 I-1.995633 J-1.457629
G03 X51.229484 Y63.389910 Z2 I1.149160 J0.358725
G03 X53.893228 Y62.822928 Z2 I2.075965 J3.212340
G02 X56.572170 Y62.253560 Z2 I0.591565 J-3.803667
G02 X57.015157 Y61.658089 Z2 I-0.574145 J-0.889633
G02 X57.158600 Y61.012800 Z2 I-5.059969 J-1.463380
G02 X57.281654 Y60.163458 Z2 I-35.109204 J-5.520248
G03 X57.651526 Y59.271860 Z2 I1.851146 J0.245415
G03 X59.276045 Y58.203790 Z2 I2.348620 J1.802748
G02 X61.092540 Y57.507550 Z2 I-2.004740 J-7.948123
G00 Z0.000000

(End cutting path id: path16)


(Start cutting path id: path16)
(Change tool to Default tool)

G00 Z0.000000
G00 X73.486102 Y66.896610

G01 Z2 F100.0(Penetrate)
G01 X73.486102 Y66.020300 Z2 F75
G00 Z0.000000

(End cutting path id: path16)


(Start cutting path id: path16)
(Change tool to Default tool)

G00 Z0.000000
G00 X73.486102 Y60.637230

G01 Z2 F100.0(Penetrate)
G03 X73.554346 Y59.023514 Z2 I19.113281 J-0.000000 F75
G02 X73.410562 Y58.161500 Z2 I-1.761201 J-0.149229
G01 X72.751104 Y57.570820 Z2
G03 X72.390019 Y57.090720 Z2 I0.952887 J-1.092505
G03 X72.109037 Y56.380860 Z2 I5.844483 J-2.723949
G00 Z0.000000

(End cutting path id: path16)


(Start cutting path id: path16)
(Change tool to Default tool)

G00 Z0.000000
G00 X60.216224 Y42.860610

G01 Z2 F100.0(Penetrate)
G03 X60.497493 Y41.917525 Z2 I3.481954 J0.524985 F75
G02 X60.770005 Y40.982800 Z2 I-3.034049 J-1.391640
G02 X60.965326 Y39.410505 Z2 I-57.191935 J-7.903045
G03 X61.212700 Y38.229250 Z2 I6.221288 J0.686309
G01 X61.278100 Y37.983900 Z2
G01 X61.320120 Y37.747820 Z2
G01 X61.342920 Y37.477550 Z2
G00 Z0.000000

(End cutting path id: path16)


(Start cutting path id: path16)
(Change tool to Default tool)

G00 Z0.000000
G00 X56.710982 Y37.477550

G01 Z2 F100.0(Penetrate)
G02 X56.788512 Y37.718960 Z2 I8.018420 J-2.442011 F75
G02 X57.108858 Y38.479050 Z2 I5.357770 J-1.810522
G03 X57.845119 Y40.075803 Z2 I-19.671373 J10.038569
G02 X59.127120 Y41.771590 Z2 I3.892373 J-1.610118
G02 X59.752242 Y42.111344 Z2 I1.298976 J-1.645053
G03 X60.091045 Y42.234670 Z2 I-2.658697 J7.831063
G00 Z0.000000

(End cutting path id: path16)


(Footer)
M5
;G00 X0.0000 Y0.0000
M2
(Using default footer. To add your own footer create file "footer" in the output dir.)
(end)
%