%
(Header)
(Generated by gcodetools from Inkscape.)
(Using default header. To add your own header create file "header" in the output dir.)
M3
(Header end.)
G21 (All units in mm)

(Start cutting path id: path5)
(Change tool to Default tool)

G00 Z0.000000
G00 X27.040983 Y138.391859

G01 Z2 F100.0(Penetrate)
G03 X27.061304 Y137.680656 Z2 I12.455398 J-0.000000 F75
G02 X26.912414 Y137.037883 Z2 I-1.172417 J-0.067054
G02 X26.311701 Y136.301244 Z2 I-2.424024 J1.363485
G03 X25.394032 Y135.387359 Z2 I6.214032 J-7.157439
G03 X22.577388 Y131.732607 Z2 I27.797427 J-24.335660
G02 X19.758759 Y128.126483 Z2 I-27.379591 J18.495900
G02 X19.342327 Y127.690257 Z2 I-7.615982 J6.853521
G03 X18.915000 Y127.250171 Z2 I10.296515 J-10.425511
G03 X18.527050 Y126.810637 Z2 I8.063112 J-7.507804
G02 X18.141465 Y126.373858 Z2 I-8.371777 J7.001958
G02 X17.306481 Y125.521908 Z2 I-17.173368 J15.996223
G03 X16.656602 Y124.621233 Z2 I2.211476 J-2.280479
G03 X16.330898 Y123.945664 Z2 I4096.806178 J-1975.559566
G02 X15.648920 Y123.369358 Z2 I-0.986199 J0.475364
G00 Z0.000000

(End cutting path id: path5)


(Start cutting path id: path5)
(Change tool to Default tool)

G00 Z0.000000
G00 X27.040983 Y136.889609

G01 Z2 F100.0(Penetrate)
G03 X27.260903 Y136.704509 Z2 I4.156213 J4.714884 F75
G02 X27.745258 Y136.241841 Z2 I-2.449419 J-3.049091
G02 X28.692214 Y134.816494 Z2 I-4.728685 J-4.168827
G03 X29.589649 Y133.259171 Z2 I11.166368 J5.397576
G03 X31.551152 Y130.631331 Z2 I29.584698 J20.036977
G03 X33.621441 Y128.126483 Z2 I350.563172 J287.636903
G03 X34.505198 Y127.197466 Z2 I7.453293 J6.205323
G03 X35.423136 Y126.405251 Z2 I12.759239 J13.856191
G02 X35.878829 Y125.946801 Z2 I-1.874812 J-2.319235
G02 X36.103552 Y125.372358 Z2 I-0.813215 J-0.649309
G02 X35.821357 Y124.551990 Z2 I-1.102385 J-0.079514
G02 X35.177689 Y123.870108 Z2 I-15.846162 J14.313364
G03 X33.499680 Y122.063589 Z2 I29.261385 J-28.862405
G03 X31.999026 Y119.989296 Z2 I10.461528 J-9.148399
G03 X30.510083 Y116.451835 Z2 I12.214124 J-7.223098
G03 X29.588490 Y112.728421 Z2 I92.103743 J-24.772623
G03 X29.306018 Y111.309767 Z2 I27.149954 J-6.143347
G03 X29.135264 Y110.224670 Z2 I37.396523 J-6.440812
G03 X29.050698 Y109.336029 Z2 I9.458361 J-1.348433
G03 X29.043984 Y109.097983 Z2 I5.962754 J-0.287295
G00 Z0.000000

(End cutting path id: path5)


(Start cutting path id: path5)
(Change tool to Default tool)

G00 Z0.000000
G00 X16.274857 Y123.494546

G01 Z2 F100.0(Penetrate)
G03 X17.784535 Y122.185657 Z2 I22.518344 J24.447669 F75
G02 X20.514908 Y119.363358 Z2 I-10.565380 J-12.953122
G02 X22.797196 Y116.167283 Z2 I-50.407860 J-38.408706
G02 X24.750418 Y112.728421 Z2 I-22.670760 J-15.150785
G03 X25.488618 Y111.259052 Z2 I34.380280 J16.352266
G02 X26.066820 Y110.099483 Z2 I-23.272843 J-12.328611
G02 X26.354828 Y109.328757 Z2 I-4.642601 J-2.174044
G02 X26.415045 Y109.097983 Z2 I-5.204378 J-1.481237
G00 Z0.000000

(End cutting path id: path5)


(Start cutting path id: path5)
(Change tool to Default tool)

G00 Z0.000000
G00 X37.932295 Y110.099483

G01 Z2 F100.0(Penetrate)
G02 X37.994986 Y112.020645 Z2 I29.468213 J-0.000000 F75
G03 X37.856755 Y112.827431 Z2 I-1.754495 J0.114627
G01 X37.056366 Y113.591597 Z2
G03 X36.611879 Y113.910747 Z2 I-4.054991 J-5.178376
G02 X36.106449 Y114.608166 Z2 I0.666542 J1.014908
G02 X36.447756 Y115.666307 Z2 I0.984262 J0.266638
G02 X36.931373 Y115.995177 Z2 I2.171273 J-2.672922
G02 X37.656949 Y116.289682 Z2 I1.519705 J-2.703063
G02 X37.932292 Y116.358858 Z2 I2.832788 J-10.692814
G00 Z0.000000

(End cutting path id: path5)


(Start cutting path id: path5)
(Change tool to Default tool)

G00 Z0.000000
G00 X35.678917 Y114.731421

G01 Z2 F100.0(Penetrate)
G01 X35.929292 Y114.731421 Z2 F75
G00 Z0.000000

(End cutting path id: path5)


(Footer)
M5
G00 X0.0000 Y0.0000
M2
(Using default footer. To add your own footer create file "footer" in the output dir.)
(end)
%