%
(Header)
(Generated by gcodetools from Inkscape.)
(Using default header. To add your own header create file "header" in the output dir.)
M3
(Header end.)
G21 (All units in mm)

(Start cutting path id: path13)
(Change tool to Default tool)

G00 Z0.000000
G00 X118.017510 Y109.345668

G01 Z2 F100.0(Penetrate)
G03 X118.948441 Y109.106211 Z2 I1.559688 J4.134250 F75
G02 X120.521260 Y108.506544 Z2 I-0.545184 J-3.792363
G02 X122.226189 Y106.789704 Z2 I-3.314745 J-4.996716
G02 X123.569810 Y104.725031 Z2 I-557.272617 J-364.124316
G01 X124.527260 Y104.099384 Z2
G03 X125.023161 Y104.262796 Z2 I-0.065543 J1.033054
G03 X125.433610 Y104.615299 Z2 I-1.079726 J1.672428
G03 X126.193134 Y105.650947 Z2 I-5.225373 J4.628518
G03 X126.796090 Y106.841918 Z2 I-7.954457 J4.775242
G03 X127.056006 Y107.707929 Z2 I-3.975895 J1.665294
G02 X127.345720 Y108.295290 Z2 I1.198918 J-0.226232
G02 X128.006303 Y108.811158 Z2 I1.765298 J-1.579629
G02 X129.034010 Y109.060424 Z2 I1.007703 J-1.911478
G02 X130.005161 Y108.896270 Z2 I-0.028988 J-3.126292
G02 X130.790890 Y108.327458 Z2 I-0.523350 J-1.550019
G02 X131.314546 Y107.442425 Z2 I-3.785021 J-2.836954
G03 X131.826870 Y106.466356 Z2 I8.662030 J3.924081
G03 X132.997293 Y104.726068 Z2 I17.731857 J10.661760
G02 X134.128060 Y102.961106 Z2 I-11.506292 J-8.616499
G03 X134.789205 Y101.787924 Z2 I36.174680 J19.613298
G02 X134.849240 Y100.582543 Z2 I-1.128253 J-0.660380
G02 X134.100588 Y99.587569 Z2 I-2.651960 J1.216281
G03 X133.176410 Y98.704247 Z2 I8.006731 J-9.302188
G03 X131.316852 Y96.694223 Z2 I106.375475 J-100.277632
G02 X129.284390 Y94.574026 Z2 I-40.115966 J36.421665
G02 X128.720043 Y94.054164 Z2 I-7.701245 J7.794007
G03 X128.168910 Y93.550792 Z2 I7.901977 J-9.205120
G03 X127.230028 Y92.509064 Z2 I7.365463 J-7.582260
G02 X126.279400 Y91.445691 Z2 I-8.993170 J7.083053
G02 X125.091567 Y90.316768 Z2 I-30.284640 J30.675603
G03 X123.901320 Y89.192316 Z2 I34.509423 J-37.720836
G02 X123.405587 Y88.741599 Z2 I-6.658373 J6.825405
G03 X122.911030 Y88.292917 Z2 I6.334915 J-7.479525
G03 X122.404037 Y87.747971 Z2 I5.127299 J-5.278520
G02 X121.896490 Y87.187480 Z2 I-7.798471 J6.551780
G02 X119.841551 Y85.118822 Z2 I-115.022325 J112.204523
G03 X117.767140 Y83.056293 Z2 I357.781110 J-361.916719
G02 X117.127446 Y82.421166 Z2 I-88.870795 J88.870188
G03 X116.536510 Y81.804420 Z2 I10.507450 J-10.659196
G03 X116.153883 Y81.366973 Z2 I12.819922 J-11.599413
G02 X115.759210 Y80.928110 Z2 I-7.367977 J6.229184
G03 X113.898912 Y78.814878 Z2 I24.710565 J-23.628375
G02 X112.093520 Y76.682940 Z2 I-49.330868 J39.944532
G02 X111.067860 Y75.586755 Z2 I-20.424364 J18.082401
G03 X110.202950 Y74.673850 Z2 I21.009732 J-20.771335
G02 X109.602390 Y74.101009 Z2 I-4.276727 J3.882441
G02 X109.379570 Y73.917600 Z2 I-77.126581 J93.472531
G00 Z0.000000

(End cutting path id: path13)


(Start cutting path id: path13)
(Change tool to Default tool)

G00 Z0.000000
G00 X135.293390 Y101.333668

G01 Z2 F100.0(Penetrate)
G03 X135.917236 Y101.624525 Z2 I-11.768452 J26.056079 F75
G03 X136.795150 Y102.221765 Z2 I-1.549404 J3.221416
G03 X137.923777 Y103.394920 Z2 I-9.484453 J10.253932
G02 X139.174300 Y104.702525 Z2 I12.427585 J-10.633306
G02 X139.740660 Y105.207505 Z2 I10.713462 J-11.445587
G03 X140.300890 Y105.717064 Z2 I-7.187913 J8.465435
G02 X141.628885 Y106.951128 Z2 I27.005956 J-27.729938
G03 X142.965570 Y108.218400 Z2 I-18.287378 J20.627636
G02 X144.259354 Y108.983164 Z2 I2.094109 J-2.065939
G02 X145.183200 Y109.220481 Z2 I5.385537 J-19.048334
G00 Z0.000000

(End cutting path id: path13)


(Start cutting path id: path13)
(Change tool to Default tool)

G00 Z0.000000
G00 X126.405070 Y108.594543

G01 Z2 F100.0(Penetrate)
G01 X127.156200 Y108.344168 Z2 F75
G00 Z0.000000

(End cutting path id: path13)


(Start cutting path id: path13)
(Change tool to Default tool)

G00 Z0.000000
G00 X124.276890 Y103.962606

G01 Z2 F100.0(Penetrate)
G02 X124.201365 Y103.490816 Z2 I-9.540655 J1.285345 F75
G02 X124.010280 Y102.835918 Z2 I-3.347860 J0.621507
G02 X123.458865 Y101.888772 Z2 I-3.563912 J1.440773
G03 X122.757060 Y100.958106 Z2 I18.919373 J-14.996837
G02 X121.492978 Y99.342704 Z2 I-19.843823 J14.225868
G02 X120.134490 Y97.828901 Z2 I-30.507203 J26.010742
G02 X119.529079 Y97.300994 Z2 I-3.017096 J2.848950
G03 X118.958160 Y96.779973 Z2 I1.883167 J-2.636823
G03 X118.680828 Y96.213988 Z2 I0.942944 J-0.812981
G02 X118.545120 Y95.700230 Z2 I-4.451143 J0.900955
G02 X118.017434 Y94.638551 Z2 I-3.912627 J1.282716
G03 X117.304930 Y93.572043 Z2 I31.448945 J-21.781398
G03 X114.901476 Y89.661050 Z2 I91.139046 J-58.702417
G02 X112.401650 Y85.810418 Z2 I-43.125331 J25.260158
G02 X111.210385 Y84.238081 Z2 I-30.121724 J21.583972
G02 X110.201120 Y83.069527 Z2 I-16.122201 J12.904416
G02 X109.611046 Y82.578297 Z2 I-2.222160 J2.069279
G03 X109.379570 Y82.430360 Z2 I61.226190 J-96.055166
G00 Z0.000000

(End cutting path id: path13)


(Start cutting path id: path13)
(Change tool to Default tool)

G00 Z0.000000
G00 X144.181700 Y103.461856

G01 Z2 F100.0(Penetrate)
G01 X145.183200 Y103.837418 Z2 F75
G00 Z0.000000

(End cutting path id: path13)


(Start cutting path id: path13)
(Change tool to Default tool)

G00 Z0.000000
G00 X120.646450 Y92.194980

G01 Z2 F100.0(Penetrate)
G03 X121.936599 Y93.454811 Z2 I-2.932570 J4.293658 F75
G02 X123.062680 Y94.800831 Z2 I9.683277 J-6.956982
G02 X124.102996 Y95.617225 Z2 I3.523391 J-3.418767
G03 X125.130110 Y96.453191 Z2 I-2.199298 J3.751147
G03 X126.863786 Y98.580549 Z2 I-19.979128 J18.051957
G02 X128.908820 Y100.332168 Z2 I4.767682 J-3.496712
G00 Z0.000000

(End cutting path id: path13)


(Start cutting path id: path13)
(Change tool to Default tool)

G00 Z0.000000
G00 X120.020510 Y78.424350

G01 Z2 F100.0(Penetrate)
G03 X121.228623 Y78.802090 Z2 I-1.886599 J8.154656 F75
G03 X122.272050 Y79.449040 Z2 I-1.294164 J3.252194
G03 X123.645273 Y80.868307 Z2 I-9.349809 J10.420453
G02 X125.153200 Y82.250300 Z2 I6.013785 J-5.048124
G02 X127.305628 Y83.757814 Z2 I3033.646074 J-4329.149560
G02 X129.534760 Y85.100635 Z2 I10.893487 J-15.561951
G02 X130.511375 Y85.381907 Z2 I1.207136 J-2.355235
G03 X131.391320 Y85.677501 Z2 I-0.172279 J1.970387
G03 X131.918359 Y86.134354 Z2 I-1.215475 J1.934637
G02 X132.414560 Y86.631768 Z2 I3.319416 J-2.815119
G02 X133.569737 Y87.514654 Z2 I8.862225 J-10.398257
G02 X134.792640 Y88.331554 Z2 I39.799900 J-58.256851
G02 X136.899804 Y89.546844 Z2 I12.017777 J-18.402935
G03 X138.785600 Y90.948129 Z2 I-3.107759 J6.151861
G03 X140.010249 Y93.500998 Z2 I-3.329312 J3.167296
G02 X140.985460 Y96.075793 Z2 I6.037284 J-0.814559
G02 X141.628988 Y96.884809 Z2 I5.246391 J-3.512765
G02 X142.303890 Y97.577560 Z2 I19.124902 J-17.957005
G02 X143.201811 Y98.348214 Z2 I5.885986 J-5.949575
G02 X144.181700 Y98.912796 Z2 I2.916623 J-3.929455
G02 X144.952228 Y99.157063 Z2 I1.603545 J-3.720871
G02 X145.183200 Y99.205480 Z2 I54.738099 J-260.551956
G00 Z0.000000

(End cutting path id: path13)


(Start cutting path id: path13)
(Change tool to Default tool)

G00 Z0.000000
G00 X109.379570 Y97.202480

G01 Z2 F100.0(Penetrate)
G02 X109.681990 Y97.199783 Z2 I0.000000 J-16.956302 F75
G03 X111.007010 Y97.274540 Z2 I0.159654 J8.950170
G02 X111.749864 Y97.325366 Z2 I0.779173 J-5.934080
G02 X112.509260 Y97.327670 Z2 I0.759396 J-125.136854
G03 X114.284952 Y97.356501 Z2 I0.000000 J54.696309
G02 X115.889320 Y97.306420 Z2 I0.409464 J-12.605978
G02 X116.481509 Y97.240519 Z2 I-1.769820 J-18.597453
G03 X117.016010 Y97.202967 Z2 I0.598435 J4.695125
G02 X118.293450 Y97.024316 Z2 I-0.069590 J-5.154079
G02 X118.768640 Y96.826921 Z2 I-0.521378 J-1.925777
G00 Z0.000000

(End cutting path id: path13)


(Start cutting path id: path13)
(Change tool to Default tool)

G00 Z0.000000
G00 X109.254390 Y97.202483

G01 Z2 F100.0(Penetrate)
G01 X109.379570 Y97.202483 Z2 F75
G00 Z0.000000

(End cutting path id: path13)


(Start cutting path id: path13)
(Change tool to Default tool)

G00 Z0.000000
G00 X127.281390 Y73.416853

G01 Z2 F100.0(Penetrate)
G01 X128.408070 Y73.416853 Z2 F75
G02 X129.264180 Y73.389910 Z2 I0.000000 J-13.615091
G03 X129.896800 Y73.456653 Z2 I0.119584 J1.898038
G01 X130.798330 Y74.418263 Z2
G02 X131.761801 Y75.444769 Z2 I9.580059 J-8.026365
G02 X133.040010 Y76.599193 Z2 I22.702883 J-23.852396
G02 X137.498300 Y79.443867 Z2 I12.289249 J-14.344272
G03 X141.927840 Y82.328253 Z2 I-7.346250 J16.125011
G03 X143.039914 Y83.611931 Z2 I-4.353499 J4.895060
G02 X144.181700 Y84.917398 Z2 I5.386721 J-3.559281
G02 X144.964415 Y85.369028 Z2 I1.539967 J-1.764827
G02 X145.183200 Y85.434858 Z2 I0.999936 J-2.926789
G00 Z0.000000

(End cutting path id: path13)


(Footer)
M5
G00 X0.0000 Y0.0000
M2
(Using default footer. To add your own footer create file "footer" in the output dir.)
(end)
%