%
(Header)
(Generated by gcodetools from Inkscape.)
(Using default header. To add your own header create file "header" in the output dir.)
M3
(Header end.)
G21 (All units in mm)

(Start cutting path id: path23)
(Change tool to Default tool)

G00 Z0.000000
G00 X109.435900 Y37.257640

G01 Z2 F100.0(Penetrate)
G02 X109.713359 Y37.205552 Z2 I-1.671465 J-9.668488 F75
G02 X110.658700 Y36.615080 Z2 I-0.315604 J-1.557257
G02 X111.229600 Y35.796998 Z2 I-8.833405 J-6.772650
G02 X111.775820 Y34.879070 Z2 I-16.304510 J-10.323604
G03 X112.942497 Y32.810921 Z2 I230.146466 J128.466238
G03 X114.120580 Y30.747890 Z2 I1402.331355 J799.426304
G02 X115.988352 Y27.348075 Z2 I-97.735236 J-55.906219
G02 X117.680890 Y23.862570 Z2 I-51.816979 J-27.315674
G03 X118.525367 Y22.075005 Z2 I40.381970 J17.983900
G03 X119.476500 Y20.357320 Z2 I20.912478 J10.457677
G03 X120.002993 Y19.704831 Z2 I2.735000 J1.668212
G02 X120.513830 Y19.173650 Z2 I-5.737650 J-6.029128
G02 X120.801116 Y18.617578 Z2 I-0.969780 J-0.853269
G03 X120.950350 Y18.103950 Z2 I5.145176 J1.216429
G03 X121.504339 Y16.984115 Z2 I4.695638 J1.626010
G02 X122.248010 Y15.850570 Z2 I-117.059023 J-77.608225
G02 X123.806832 Y13.256183 Z2 I-36.530211 J-23.714458
G02 X125.082500 Y10.592700 Z2 I-21.672284 J-12.017112
G02 X125.334172 Y9.946232 Z2 I-20.337969 J-8.289873
G03 X125.600930 Y9.340820 Z2 I5.208910 J1.933682
G02 X125.903621 Y8.634174 Z2 I-4.896729 J-2.515663
G02 X125.992430 Y7.840990 Z2 I-1.701815 J-0.592107
G01 X125.084340 Y7.215050 Z2
G03 X123.362368 Y7.094705 Z2 I1.557890 J-34.671026
G03 X121.579090 Y6.890200 Z2 I4.341976 J-45.739195
G02 X119.828149 Y6.662681 Z2 I-26.206959 J194.832075
G02 X118.073840 Y6.591630 Z2 I-1.297834 J10.351436
G02 X117.032824 Y6.697188 Z2 I0.399154 J9.122542
G02 X115.945650 Y6.893290 Z2 I4.338926 J27.166261
G02 X114.536962 Y7.188995 Z2 I16.972511 J84.357246
G03 X113.191520 Y7.337920 Z2 I-1.379035 J-6.306650
G02 X111.695917 Y7.457989 Z2 I0.058366 J10.101837
G03 X110.437590 Y7.583270 Z2 I-1.762678 J-11.322389
G03 X109.749665 Y7.590453 Z2 I-0.450838 J-10.232122
G02 X109.561090 Y7.588270 Z2 I-0.188575 J8.144165
G00 Z0.000000

(End cutting path id: path23)


(Start cutting path id: path23)
(Change tool to Default tool)

G00 Z0.000000
G00 X121.579090 Y37.007330

G01 Z2 F100.0(Penetrate)
G02 X122.633484 Y35.821411 Z2 I-33.186222 J-30.567371 F75
G03 X123.696160 Y34.628770 Z2 I32.476098 J27.867342
G02 X124.917762 Y33.139205 Z2 I-11.864555 J-10.975901
G03 X126.122060 Y31.624270 Z2 I17.649997 J12.794727
G03 X126.530235 Y31.185258 Z2 I6.862636 J5.971334
G02 X126.960310 Y30.747960 Z2 I-44.423112 J-44.119493
G02 X128.080035 Y29.458450 Z2 I-10.714498 J-10.434665
G03 X129.236870 Y28.140270 Z2 I11.129730 J8.600742
G02 X130.761374 Y26.545722 Z2 I-39.612100 J-39.398096
G03 X132.343860 Y24.864140 Z2 I71.757861 J65.943746
G02 X132.740957 Y24.430177 Z2 I-8.196783 J-7.899111
G03 X133.132080 Y23.999040 Z2 I10.199051 J8.859495
G03 X135.730580 Y21.757299 Z2 I12.396568 J11.742512
G02 X138.479400 Y19.585400 Z2 I-17.482462 J-24.951774
G03 X139.268319 Y18.906026 Z2 I22.632739 J25.484399
G02 X139.953540 Y18.227370 Z2 I-3.643164 J-4.363656
G02 X140.257420 Y17.714867 Z2 I-1.340203 J-1.140993
G03 X140.587880 Y17.208100 Z2 I1.338410 J0.511640
G03 X141.088419 Y16.935640 Z2 I0.720913 J0.728393
G02 X141.734270 Y16.692660 Z2 I-0.520204 J-2.362564
G02 X142.475755 Y16.179146 Z2 I-2.118839 J-3.851572
G02 X143.106410 Y15.595340 Z2 I-7.289474 J-8.506968
G02 X143.827288 Y14.805435 Z2 I-8.245057 J-8.248439
G03 X144.488300 Y14.104970 Z2 I5.922275 J4.926590
G03 X145.115274 Y13.622181 Z2 I2.830868 J3.027802
G03 X145.364710 Y13.472080 Z2 I4.098236 J6.528096
G00 Z0.000000

(End cutting path id: path23)


(Start cutting path id: path23)
(Change tool to Default tool)

G00 Z0.000000
G00 X142.235020 Y21.108520

G01 Z2 F100.0(Penetrate)
G02 X142.485384 Y23.410952 Z2 I3.834498 J0.747870 F75
G03 X143.289750 Y25.615270 Z2 I-18.145045 J7.870133
G02 X143.729864 Y26.514309 Z2 I2.924571 J-0.874443
G02 X144.363310 Y27.035800 Z2 I1.288731 J-0.919936
G02 X145.136296 Y27.226771 Z2 I0.898216 J-1.975795
G03 X145.364710 Y27.242710 Z2 I-0.553423 J9.575483
G00 Z0.000000

(End cutting path id: path23)


(Start cutting path id: path23)
(Change tool to Default tool)

G00 Z0.000000
G00 X120.702770 Y19.230710

G01 Z2 F100.0(Penetrate)
G03 X121.431841 Y19.847619 Z2 I-1.610453 J2.642520 F75
G02 X122.831440 Y21.198930 Z2 I8.242250 J-7.136320
G01 X123.945960 Y21.581840 Z2
G01 X124.933070 Y20.357390 Z2
G03 X125.571141 Y19.481191 Z2 I3.746903 J2.058162
G02 X126.253040 Y18.727350 Z2 I-17.433004 J-16.454646
G01 X127.214360 Y18.059590 Z2
G03 X128.574570 Y18.503942 Z2 I0.114801 J1.952632
G03 X129.769400 Y19.605690 Z2 I-9.469911 J11.468746
G01 X131.341880 Y20.204770 Z2
G02 X131.747108 Y19.909005 Z2 I-0.536426 J-1.160444
G02 X132.125650 Y19.480600 Z2 I-11.008541 J-10.108659
G02 X133.670861 Y17.379237 Z2 I-14.108670 J-11.993441
G03 X135.474900 Y15.340430 Z2 I7.186137 J4.541100
G03 X136.969840 Y14.617530 Z2 I2.255873 J2.757894
G02 X137.563290 Y14.349940 Z2 I-0.336016 J-1.537060
G01 X137.781300 Y12.846140 Z2
G02 X137.698171 Y12.239353 Z2 I-539.941734 J73.661901
G02 X137.517410 Y11.594270 Z2 I-2.438717 J0.335496
G02 X136.670739 Y10.603038 Z2 I-2.041076 J0.886194
G02 X135.602400 Y9.993690 Z2 I-6.842392 J10.755210
G03 X134.964531 Y9.379005 Z2 I0.686076 J-1.350258
G03 X134.854280 Y8.597110 Z2 I0.961730 J-0.534330
G01 X135.475570 Y8.096260 Z2
G03 X136.301274 Y7.914867 Z2 I6.881167 J29.353222
G02 X137.352710 Y7.597160 Z2 I-1.210977 J-5.906361
G02 X138.517831 Y6.943533 Z2 I-1.985602 J-4.904682
G03 X139.731270 Y6.298720 Z2 I2.748996 J3.709031
G03 X140.788373 Y6.036350 Z2 I1.894019 J5.370357
G03 X141.859460 Y5.967590 Z2 I0.946850 J6.372626
G03 X143.056155 Y6.100213 Z2 I-0.127418 J6.615077
G02 X144.238020 Y6.336300 Z2 I27.871944 J-136.452535
G02 X145.122248 Y6.451138 Z2 I1.342636 J-6.876425
G02 X145.364710 Y6.461580 Z2 I0.353930 J-5.397840
G00 Z0.000000

(End cutting path id: path23)


(Start cutting path id: path23)
(Change tool to Default tool)

G00 Z0.000000
G00 X140.482400 Y17.102520

G01 Z2 F100.0(Penetrate)
G02 X139.031375 Y15.771754 Z2 I-6.722588 J5.873638 F75
G03 X137.728270 Y14.473580 Z2 I3.591276 J-4.908032
G00 Z0.000000

(End cutting path id: path23)


(Start cutting path id: path23)
(Change tool to Default tool)

G00 Z0.000000
G00 X145.364710 Y16.351390

G01 Z2 F100.0(Penetrate)
G01 X145.364710 Y15.349890 Z2 F75
G00 Z0.000000

(End cutting path id: path23)


(Start cutting path id: path23)
(Change tool to Default tool)

G00 Z0.000000
G00 X126.085840 Y7.463080

G01 Z2 F100.0(Penetrate)
G03 X127.454645 Y7.121860 Z2 I1.364137 J2.556150 F75
G03 X130.091840 Y7.583540 Z2 I-0.012623 J7.835008
G03 X130.904182 Y7.945890 Z2 I-2.019045 J5.618203
G02 X131.719270 Y8.294380 Z2 I2.336070 J-4.336405
G02 X132.276234 Y8.420337 Z2 I0.964730 J-2.971521
G02 X132.845960 Y8.464580 Z2 I0.698806 J-5.308278
G02 X133.926131 Y8.464170 Z2 I0.531709 J-22.080731
G02 X134.598590 Y8.339390 Z2 I-0.053754 J-2.164068
G00 Z0.000000

(End cutting path id: path23)


(Start cutting path id: path23)
(Change tool to Default tool)

G00 Z0.000000
G00 X109.435900 Y7.588270

G01 Z2 F100.0(Penetrate)
G01 X109.561090 Y7.588270 Z2 F75
G00 Z0.000000

(End cutting path id: path23)


(Footer)
M5
G00 X0.0000 Y0.0000
M2
(Using default footer. To add your own footer create file "footer" in the output dir.)
(end)
%