%
(Header)
(Generated by gcodetools from Inkscape.)
(Using default header. To add your own header create file "header" in the output dir.)
M3
(Header end.)
G21 (All units in mm)

(Start cutting path id: path7)
(Change tool to Default tool)

G00 Z0.000000
G00 X106.950280 Y119.918730

G01 Z2 F100.0(Penetrate)
G02 X106.440417 Y119.748472 Z2 I-0.758657 J1.423347 F75
G02 X105.698410 Y119.740512 Z2 I-0.398422 J2.552022
G03 X103.371771 Y119.906792 Z2 I-2.501108 J-18.635625
G03 X100.816100 Y119.918730 Z2 I-2.573259 J-277.310167
G01 X99.232417 Y120.433100 Z2
G02 X99.266137 Y120.970514 Z2 I1.240668 J0.191919
G03 X99.429377 Y121.671356 Z2 I-6.926594 J1.982772
G02 X99.721038 Y123.130053 Z2 I39.639016 J-7.167171
G02 X100.468640 Y124.171629 Z2 I1.582808 J-0.346989
G02 X101.149250 Y124.331777 Z2 I0.589931 J-0.980807
G03 X101.942780 Y124.300293 Z2 I0.793530 J9.984415
G02 X103.527166 Y124.297339 Z2 I0.000000 J-424.828526
G02 X104.947280 Y124.210843 Z2 I-0.046486 J-12.464445
G03 X105.417906 Y124.193544 Z2 I0.341666 J2.884804
G02 X105.930720 Y124.099565 Z2 I0.051720 J-1.163897
G01 X106.491460 Y123.048415 Z2
G02 X106.710147 Y121.881528 Z2 I-25.001819 J-5.289546
G02 X106.834470 Y120.920227 Z2 I-14.315569 J-2.340089
G02 X106.866445 Y120.529841 Z2 I-14.480093 J-1.382495
G03 X107.074020 Y119.982964 Z2 I1.005243 J0.068723
G01 X107.826690 Y119.621503 Z2
G02 X108.295174 Y119.466180 Z2 I-1.457808 J-5.181216
G02 X108.702910 Y119.293273 Z2 I-2.259903 J-5.896321
G03 X109.469200 Y119.065505 Z2 I1.151039 J2.469579
G03 X109.704410 Y119.042415 Z2 I0.380850 J2.670008
G00 Z0.000000

(End cutting path id: path7)


(Start cutting path id: path7)
(Change tool to Default tool)

G00 Z0.000000
G00 X84.792097 Y118.666852

G01 Z2 F100.0(Penetrate)
G03 X84.851938 Y119.227597 Z2 I-14.417846 J1.822194 F75
G02 X84.938535 Y120.169102 Z2 I97.951055 J-8.534529
G03 X85.033256 Y121.405737 Z2 I-30.726358 J2.975447
G02 X85.472224 Y122.358145 Z2 I1.427401 J-0.080529
G01 X86.669909 Y122.708593 Z2
G03 X88.057543 Y122.925541 Z2 I-7.164052 J50.368597
G03 X89.424034 Y123.188091 Z2 I-5.588259 J32.772533
G02 X90.157650 Y123.336366 Z2 I6.918550 J-32.341816
G02 X90.772505 Y123.259571 Z2 I0.188529 J-0.990360
G01 X91.212785 Y122.046913 Z2
G03 X91.338572 Y121.318090 Z2 I10.028999 J1.355629
G02 X91.440076 Y120.795038 Z2 I-16.525856 J-3.478403
G01 X91.482866 Y120.060623 Z2
G01 X90.049972 Y119.507423 Z2
G03 X89.362704 Y119.389420 Z2 I1.028493 J-8.050495
G03 X88.672909 Y119.220632 Z2 I2.784226 J-12.872336
G02 X87.334484 Y118.882648 Z2 I-9.293075 J33.981675
G02 X86.043972 Y118.660572 Z2 I-2.579442 J11.128784
G02 X85.348576 Y118.599596 Z2 I-1.538115 J13.545439
G03 X84.666909 Y118.457142 Z2 I0.149831 J-2.419147
G03 X84.010033 Y118.147667 Z2 I1.384018 J-3.789506
G02 X83.665409 Y117.990587 Z2 I-0.934100 J1.592780
G02 X83.071877 Y117.815371 Z2 I-2.608724 J7.743993
G03 X82.163159 Y117.501525 Z2 I1.423614 J-5.594454
G02 X81.352432 Y117.193327 Z2 I-3.330288 J7.540032
G02 X80.660909 Y117.003190 Z2 I-2.590919 J8.070504
G03 X80.259524 Y116.881784 Z2 I0.694371 J-3.019912
G03 X79.836565 Y116.611400 Z2 I0.431120 J-1.140404
G03 X79.374438 Y115.991386 Z2 I1.764364 J-1.797296
G02 X78.778074 Y115.291812 Z2 I-1.865817 J0.986572
G02 X77.303179 Y114.281485 Z2 I-12.020275 J15.965731
G03 X75.778597 Y113.231242 Z2 I10.316534 J-16.607660
G02 X75.242669 Y112.864950 Z2 I-3.852930 J5.062085
G02 X74.777290 Y112.645778 Z2 I-1.240031 J2.029349
G02 X74.096913 Y112.452163 Z2 I-2.112955 J6.132814
G03 X73.900784 Y112.407475 Z2 I16.617745 J-73.385900
G00 Z0.000000

(End cutting path id: path7)


(Start cutting path id: path7)
(Change tool to Default tool)

G00 Z0.000000
G00 X91.677410 Y120.169100

G01 Z2 F100.0(Penetrate)
G01 X92.929285 Y120.043913 Z2 F75
G01 X94.932285 Y119.909163 Z2
G01 X97.561222 Y120.169100 Z2
G01 X99.063472 Y120.294288 Z2
G00 Z0.000000

(End cutting path id: path7)


(Start cutting path id: path7)
(Change tool to Default tool)

G00 Z0.000000
G00 X73.900784 Y116.413480

G01 Z2 F100.0(Penetrate)
G03 X74.102329 Y116.485036 Z2 I-1.010390 J3.165494 F75
G03 X74.777290 Y116.844584 Z2 I-1.203755 J3.073054
G03 X75.670574 Y117.616403 Z2 I-3.146100 J4.544056
G02 X77.280847 Y118.256325 Z2 I1.482453 J-1.384410
G02 X78.112375 Y117.921923 Z2 I-0.089972 J-1.424770
G03 X78.782904 Y117.373154 Z2 I17.710049 J20.955486
G02 X79.370691 Y116.904468 Z2 I-76.266944 J-96.250502
G02 X79.659409 Y116.663855 Z2 I-6.333908 J-7.893765
G00 Z0.000000

(End cutting path id: path7)


(Start cutting path id: path7)
(Change tool to Default tool)

G00 Z0.000000
G00 X78.657909 Y109.528168

G01 Z2 F100.0(Penetrate)
G02 X79.750932 Y109.495676 Z2 I-0.000000 J-18.400475 F75
G03 X80.394403 Y109.603708 Z2 I0.086567 J1.454743
G01 X81.293608 Y110.445923 Z2
G02 X81.791329 Y110.816307 Z2 I3.322527 J-3.945193
G02 X82.413534 Y111.205163 Z2 I9.567933 J-14.617339
G02 X84.052157 Y112.100721 Z2 I12.789025 J-21.453476
G02 X85.793597 Y112.797437 Z2 I5.098667 J-10.219389
G02 X89.288730 Y113.585287 Z2 I6.876087 J-22.357682
G03 X92.804097 Y114.129295 Z2 I-30.296359 J207.404595
G03 X94.258009 Y114.385247 Z2 I-9.727990 J59.516395
G02 X95.683410 Y114.535671 Z2 I1.635140 J-8.665712
G03 X96.173053 Y114.567589 Z2 I-0.141300 J5.939347
G03 X96.684910 Y114.625121 Z2 I-4.948280 J46.330001
G02 X98.730925 Y114.702181 Z2 I1.504795 J-12.753326
G03 X100.690910 Y114.660861 Z2 I1.959985 J46.464208
G03 X101.457056 Y114.667838 Z2 I-0.000000 J42.067733
G02 X102.193160 Y114.639611 Z2 I0.118702 J-6.516627
G02 X102.626052 Y114.585206 Z2 I-0.685719 J-7.205610
G03 X103.069470 Y114.540601 Z2 I0.627478 J4.011427
G02 X104.031062 Y114.476700 Z2 I-1.040773 J-22.928765
G03 X104.947280 Y114.399765 Z2 I11.211263 J128.020630
G02 X105.429513 Y114.342421 Z2 I-0.509754 J-6.343062
G03 X105.948780 Y114.290226 Z2 I0.722307 J4.576886
G03 X106.383475 Y114.284924 Z2 I0.301178 J6.870583
G02 X106.825100 Y114.274096 Z2 I0.097648 J-5.028677
G02 X107.255587 Y114.223652 Z2 I-0.306728 J-4.479701
G03 X107.701410 Y114.171319 Z2 I0.766715 J4.606493
G03 X108.131016 Y114.158297 Z2 I0.384031 J5.576257
G02 X108.577720 Y114.138859 Z2 I0.035316 J-4.331064
G02 X109.489669 Y114.048228 Z2 I-10.693675 J-112.235562
G03 X109.704410 Y114.034923 Z2 I0.268587 J2.595349
G00 Z0.000000

(End cutting path id: path7)


(Footer)
M5
;G00 X0.0000 Y0.0000
M2
(Using default footer. To add your own footer create file "footer" in the output dir.)
(end)
%