%
(Header)
(Generated by gcodetools from Inkscape.)
(Using default header. To add your own header create file "header" in the output dir.)
M3
(Header end.)
G21 (All units in mm)

(Start cutting path id: path24)
(Change tool to Default tool)

G00 Z0.000000
G00 X155.502850 Y36.756900

G01 Z2 F100.0(Penetrate)
G02 X154.699149 Y35.492416 Z2 I-1.629148 J0.147824 F75
G03 X153.539740 Y34.251220 Z2 I1.495910 J-2.559443
G03 X153.413758 Y32.808922 Z2 I1.776177 J-0.881797
G02 X152.972340 Y31.328440 Z2 I-1.359673 J-0.400649
G02 X151.922358 Y30.630042 Z2 I-3.476604 J4.088302
G03 X150.872740 Y29.869750 Z2 I1.865892 J-3.680617
G03 X150.053512 Y28.903679 Z2 I5.404196 J-5.413149
G02 X149.116450 Y28.063610 Z2 I-2.351441 J1.680271
G02 X147.778987 Y27.637670 Z2 I-1.703020 J3.034726
G03 X146.739910 Y27.509350 Z2 I3.119234 J-29.529245
G03 X146.066604 Y27.404153 Z2 I3.290985 J-23.271011
G03 X145.863410 Y27.367840 Z2 I2.365833 J-13.825032
G00 Z0.000000

(End cutting path id: path24)


(Start cutting path id: path24)
(Change tool to Default tool)

G00 Z0.000000
G00 X173.404660 Y33.502030

G01 Z2 F100.0(Penetrate)
G02 X174.353326 Y32.779516 Z2 I-0.083381 J-1.093540 F75
G03 X175.395970 Y30.998280 Z2 I5.294696 J1.903470
G02 X176.114239 Y29.519852 Z2 I-2.399768 J-2.079580
G03 X176.784720 Y27.993780 Z2 I3.692214 J0.711852
G00 Z0.000000

(End cutting path id: path24)


(Start cutting path id: path24)
(Change tool to Default tool)

G00 Z0.000000
G00 X145.863410 Y15.850590

G01 Z2 F100.0(Penetrate)
G02 X146.055901 Y15.849046 Z2 I0.000000 J-12.003601 F75
G03 X146.864910 Y15.852590 Z2 I0.317738 J19.811325
G03 X147.650720 Y15.908691 Z2 I-0.202471 J8.367528
G03 X148.606330 Y16.297990 Z2 I-0.229630 J1.931186
G03 X150.307135 Y18.084286 Z2 I-4.882447 J6.351626
G02 X152.623530 Y19.459450 Z2 I2.662540 J-1.846409
G02 X153.649058 Y19.496843 Z2 I0.777386 J-7.238720
G02 X154.597940 Y19.142810 Z2 I-0.054373 J-1.594348
G01 X155.058220 Y18.104120 Z2
G01 X155.880820 Y16.810040 Z2
G03 X157.860889 Y17.485671 Z2 I0.436179 J1.960998
G02 X159.508850 Y18.716540 Z2 I3.394424 J-2.826030
G02 X160.269474 Y18.920564 Z2 I1.081570 J-2.512352
G02 X161.011100 Y18.991550 Z2 I1.970650 J-16.678888
G02 X162.258222 Y19.081591 Z2 I38.804128 J-528.780327
G03 X163.514360 Y19.384590 Z2 I-0.277299 J3.904866
G03 X164.342749 Y20.302312 Z2 I-0.575797 J1.352485
G03 X164.590140 Y21.359000 Z2 I-7.381429 J2.285435
G02 X164.748306 Y22.223331 Z2 I20.315977 J-3.271030
G02 X165.177150 Y23.100420 Z2 I1.914735 J-0.392806
G02 X166.142476 Y23.899286 Z2 I2.778050 J-2.374245
G02 X167.270470 Y24.316460 Z2 I1.818253 J-3.182789
G02 X167.755430 Y24.359848 Z2 I0.457936 J-2.386534
G03 X168.271970 Y24.374760 Z2 I0.071883 J6.463655
G03 X168.850707 Y24.435085 Z2 I-0.573103 J8.304367
G03 X169.398660 Y24.528050 Z2 I-1.315333 J9.414202
G03 X170.172566 Y24.774832 Z2 I-0.715829 J3.581708
G03 X170.898980 Y25.158720 Z2 I-2.538533 J5.682772
G03 X171.781927 Y26.404079 Z2 I-1.023816 J1.661555
G02 X172.779200 Y27.390940 Z2 I1.258813 J-0.274766
G02 X173.563931 Y27.277863 Z2 I0.236281 J-1.139737
G02 X174.144100 Y26.853780 Z2 I-1.208424 J-2.262084
G02 X174.807536 Y25.844568 Z2 I-1.952200 J-2.006008
G03 X175.388920 Y24.740950 Z2 I4.838100 J1.843758
G03 X176.208706 Y24.011850 Z2 I1.910770 J1.323008
G02 X177.160280 Y23.487240 Z2 I-16.770620 J-31.545029
G00 Z0.000000

(End cutting path id: path24)


(Start cutting path id: path24)
(Change tool to Default tool)

G00 Z0.000000
G00 X145.738220 Y27.368050

G01 Z2 F100.0(Penetrate)
G01 X145.863410 Y27.368050 Z2 F75
G00 Z0.000000

(End cutting path id: path24)


(Start cutting path id: path24)
(Change tool to Default tool)

G00 Z0.000000
G00 X169.398660 Y19.856800

G01 Z2 F100.0(Penetrate)
G03 X170.437882 Y19.404381 Z2 I2.725552 J4.840915 F75
G02 X171.373550 Y18.828640 Z2 I-0.692406 J-2.173440
G02 X171.850214 Y18.094297 Z2 I-1.570912 J-1.541557
G02 X172.147370 Y17.227860 Z2 I-9.444345 J-3.723235
G02 X172.269006 Y16.612280 Z2 I-3.341769 J-0.980125
G02 X172.294880 Y15.975990 Z2 I-4.933604 J-0.519293
G02 X172.082438 Y14.582902 Z2 I-5.530506 J0.130644
G03 X172.207080 Y13.098610 Z2 I2.017251 J-0.577983
G03 X173.412905 Y12.288673 Z2 I1.289766 J0.617611
G02 X174.461230 Y11.581290 Z2 I-0.072819 J-1.238403
G02 X174.654231 Y11.053358 Z2 I-2.769375 J-1.311671
G03 X174.830510 Y10.592920 Z2 I2.231552 J0.590389
G03 X175.263783 Y9.848149 Z2 I7.076883 J3.618580
G03 X175.783230 Y9.090670 Z2 I19.211938 J12.617903
G00 Z0.000000

(End cutting path id: path24)


(Start cutting path id: path24)
(Change tool to Default tool)

G00 Z0.000000
G00 X145.738230 Y15.850800

G01 Z2 F100.0(Penetrate)
G01 X145.863420 Y15.850800 Z2 F75
G00 Z0.000000

(End cutting path id: path24)


(Start cutting path id: path24)
(Change tool to Default tool)

G00 Z0.000000
G00 X145.738230 Y12.721110

G01 Z2 F100.0(Penetrate)
G02 X145.962362 Y12.660022 Z2 I-2.721293 J-10.426159 F75
G02 X146.489930 Y12.406410 Z2 I-0.469504 J-1.652205
G02 X148.178855 Y10.977990 Z2 I-7.772653 J-10.902849
G03 X150.495260 Y8.823970 Z2 I31.373146 J31.415756
G02 X151.269970 Y7.699959 Z2 I-1.778593 J-2.054857
G03 X151.822670 Y6.766400 Z2 I2.771303 J1.010321
G01 X153.374670 Y6.461740 Z2
G03 X156.313883 Y6.792872 Z2 I0.000898 J13.202185
G02 X159.133290 Y7.311870 Z2 I7.526293 J-32.968319
G02 X159.975655 Y7.362167 Z2 I0.734821 J-5.227632
G02 X160.760730 Y7.316870 Z2 I-0.215026 J-10.552843
G02 X162.208736 Y7.092270 Z2 I-1.180260 J-12.389157
G02 X163.640040 Y6.729760 Z2 I-4.421619 J-20.464836
G02 X164.901035 Y6.336234 Z2 I-9.627848 J-33.068130
G03 X166.143790 Y6.050990 Z2 I2.101551 J6.306212
G03 X166.781386 Y5.985251 Z2 I1.545690 J11.866618
G03 X167.395670 Y5.961090 Z2 I0.636651 J8.365589
G03 X167.393930 Y6.395212 Z2 I-54.142264 J0.000000
G02 X167.396250 Y6.837590 Z2 I16.676504 J0.133719
G01 X167.896420 Y7.838900 Z2
G00 Z0.000000

(End cutting path id: path24)


(Start cutting path id: path24)
(Change tool to Default tool)

G00 Z0.000000
G00 X159.008110 Y11.218960

G01 Z2 F100.0(Penetrate)
G02 X161.034998 Y10.948408 Z2 I-0.024418 J-7.910601 F75
G02 X163.014110 Y10.049680 Z2 I-1.726594 J-6.430668
G02 X164.979180 Y8.663080 Z2 I-27.589616 J-41.185350
G03 X167.270480 Y7.838900 Z2 I2.509348 J3.379123
G00 Z0.000000

(End cutting path id: path24)


(Start cutting path id: path24)
(Change tool to Default tool)

G00 Z0.000000
G00 X151.622040 Y6.837400

G01 Z2 F100.0(Penetrate)
G01 X151.115690 Y6.531680 Z2 F75
G02 X149.011065 Y6.352386 Z2 I-1.541261 J5.649818
G03 X146.739920 Y6.461880 Z2 I-2.271145 J-23.499475
G01 X145.863420 Y6.461880 Z2
G00 Z0.000000

(End cutting path id: path24)


(Start cutting path id: path24)
(Change tool to Default tool)

G00 Z0.000000
G00 X167.520860 Y5.835940

G01 Z2 F100.0(Penetrate)
G01 X170.650540 Y6.706840 Z2 F75
G01 X173.154290 Y6.723440 Z2
G01 X174.781730 Y6.461860 Z2
G00 Z0.000000

(End cutting path id: path24)


(Start cutting path id: path24)
(Change tool to Default tool)

G00 Z0.000000
G00 X145.738230 Y6.461860

G01 Z2 F100.0(Penetrate)
G01 X145.863420 Y6.461860 Z2 F75
G00 Z0.000000

(End cutting path id: path24)


(Footer)
M5
;G00 X0.0000 Y0.0000
M2
(Using default footer. To add your own footer create file "footer" in the output dir.)
(end)
%