%
(Header)
(Generated by gcodetools from Inkscape.)
(Using default header. To add your own header create file "header" in the output dir.)
M3
(Header end.)
G21 (All units in mm)

(Start cutting path id: path14)
(Change tool to Default tool)

G00 Z0.000000
G00 X11.956932 Y77.341270

G01 Z2 F100.0(Penetrate)
G01 X11.831745 Y77.090890 Z2 F75
G00 Z0.000000

(End cutting path id: path14)


(Start cutting path id: path14)
(Change tool to Default tool)

G00 Z0.000000
G00 X13.333995 Y70.581140

G01 Z2 F100.0(Penetrate)
G01 X13.834745 Y70.330770 Z2 F75
G00 Z0.000000

(End cutting path id: path14)


(Start cutting path id: path15)
(Change tool to Default tool)

G00 Z0.000000
G00 X73.501281 Y88.397440

G01 Z2 F100.0(Penetrate)
G01 X73.501281 Y87.020380 Z2 F75
G00 Z0.000000

(End cutting path id: path15)


(Start cutting path id: path15)
(Change tool to Default tool)

G00 Z0.000000
G00 X60.982531 Y87.020380

G01 Z2 F100.0(Penetrate)
G03 X61.565634 Y87.171021 Z2 I-1.233765 J5.979516 F75
G02 X62.101877 Y87.244960 Z2 I0.489951 J-1.571861
G01 X62.234406 Y85.518130 Z2
G02 X62.031736 Y85.656683 Z2 I9.159211 J13.615300
G02 X61.554182 Y86.074130 Z2 I1.630462 J2.347105
G01 X61.085308 Y86.578740 Z2
G01 X59.855843 Y86.144070 Z2
G00 Z0.000000

(End cutting path id: path15)


(Start cutting path id: path15)
(Change tool to Default tool)

G00 Z0.000000
G00 X71.748656 Y87.145570

G01 Z2 F100.0(Penetrate)
G01 X72.249406 Y86.018880 Z2 F75
G00 Z0.000000

(End cutting path id: path15)


(Start cutting path id: path15)
(Change tool to Default tool)

G00 Z0.000000
G00 X64.612968 Y83.640320

G01 Z2 F100.0(Penetrate)
G01 X63.987031 Y83.139570 Z2 F75
G00 Z0.000000

(End cutting path id: path15)


(Start cutting path id: path15)
(Change tool to Default tool)

G00 Z0.000000
G00 X71.623469 Y82.263250

G01 Z2 F100.0(Penetrate)
G01 X72.249406 Y81.386940 Z2 F75
G00 Z0.000000

(End cutting path id: path15)


(Start cutting path id: path15)
(Change tool to Default tool)

G00 Z0.000000
G00 X64.988531 Y81.136560

G01 Z2 F100.0(Penetrate)
G01 X65.489281 Y81.386940 Z2 F75
G00 Z0.000000

(End cutting path id: path15)


(Start cutting path id: path15)
(Change tool to Default tool)

G00 Z0.000000
G00 X47.337093 Y81.011380

G01 Z2 F100.0(Penetrate)
G01 X47.837843 Y80.761000 Z2 F75
G00 Z0.000000

(End cutting path id: path15)


(Start cutting path id: path15)
(Change tool to Default tool)

G00 Z0.000000
G00 X49.590468 Y78.632810

G01 Z2 F100.0(Penetrate)
G01 X49.590468 Y78.507630 Z2 F75
G00 Z0.000000

(End cutting path id: path15)


(Start cutting path id: path15)
(Change tool to Default tool)

G00 Z0.000000
G00 X53.846843 Y77.005380

G01 Z2 F100.0(Penetrate)
G01 X53.846843 Y76.880190 Z2 F75
G00 Z0.000000

(End cutting path id: path15)


(Start cutting path id: path15)
(Change tool to Default tool)

G00 Z0.000000
G00 X56.475781 Y75.127560

G01 Z2 F100.0(Penetrate)
G01 X56.726156 Y75.002380 Z2 F75
G00 Z0.000000

(End cutting path id: path15)


(Start cutting path id: path15)
(Change tool to Default tool)

G00 Z0.000000
G00 X59.104718 Y73.124560

G01 Z2 F100.0(Penetrate)
G01 X59.229906 Y72.999380 Z2 F75
G00 Z0.000000

(End cutting path id: path15)


(Start cutting path id: path15)
(Change tool to Default tool)

G00 Z0.000000
G00 X67.617469 Y54.346440

G01 Z2 F100.0(Penetrate)
G01 X70.747156 Y54.346440 Z2 F75
G00 Z0.000000

(End cutting path id: path15)


(Start cutting path id: path16)
(Change tool to Default tool)

G00 Z0.000000
G00 X96.197825 Y90.730170

G01 Z2 F100.0(Penetrate)
G01 X99.327513 Y90.334710 Z2 F75
G01 X100.329010 Y90.217150 Z2
G01 X101.455700 Y90.715390 Z2
G01 X102.582390 Y90.730190 Z2
G00 Z0.000000

(End cutting path id: path16)


(Start cutting path id: path16)
(Change tool to Default tool)

G00 Z0.000000
G00 X91.941450 Y90.605000

G01 Z2 F100.0(Penetrate)
G02 X93.263923 Y90.489829 Z2 I-0.649271 J-15.105697 F75
G02 X94.570388 Y90.071210 Z2 I-0.501582 J-3.813362
G02 X96.399708 Y88.818902 Z2 I-4.707297 J-8.838478
G03 X98.200825 Y87.350120 Z2 I27.986387 J32.480029
G00 Z0.000000

(End cutting path id: path16)


(Start cutting path id: path16)
(Change tool to Default tool)

G00 Z0.000000
G00 X74.665575 Y89.853870

G01 Z2 F100.0(Penetrate)
G01 X73.664075 Y88.351620 Z2 F75
G00 Z0.000000

(End cutting path id: path16)


(Start cutting path id: path16)
(Change tool to Default tool)

G00 Z0.000000
G00 X77.795262 Y88.727190

G01 Z2 F100.0(Penetrate)
G03 X77.158189 Y88.317009 Z2 I9.540735 J-15.518018 F75
G03 X76.543387 Y87.850870 Z2 I3.858869 J-5.728066
G00 Z0.000000

(End cutting path id: path16)


(Start cutting path id: path16)
(Change tool to Default tool)

G00 Z0.000000
G00 X73.538887 Y88.351620

G01 Z2 F100.0(Penetrate)
G01 X73.664075 Y88.351620 Z2 F75
G00 Z0.000000

(End cutting path id: path16)


(Start cutting path id: path16)
(Change tool to Default tool)

G00 Z0.000000
G00 X93.819263 Y87.224940

G01 Z2 F100.0(Penetrate)
G03 X94.418266 Y86.648081 Z2 I16.820006 J16.866243 F75
G03 X94.945371 Y86.170310 Z2 I18.971158 J20.400454
G02 X95.292660 Y85.837764 Z2 I-3.967316 J-4.490828
G02 X95.694563 Y85.347030 Z2 I-2.831350 J-2.728767
G02 X95.952822 Y84.770860 Z2 I-1.418213 J-0.981658
G02 X95.822263 Y83.970060 Z2 I-1.015157 J-0.245536
G00 Z0.000000

(End cutting path id: path16)


(Start cutting path id: path16)
(Change tool to Default tool)

G00 Z0.000000
G00 X81.801262 Y83.719690

G01 Z2 F100.0(Penetrate)
G01 X84.305012 Y84.971560 Z2 F75
G00 Z0.000000

(End cutting path id: path16)


(Start cutting path id: path16)
(Change tool to Default tool)

G00 Z0.000000
G00 X84.805762 Y82.593000

G01 Z2 F100.0(Penetrate)
G01 X82.927950 Y81.591500 Z2 F75
G01 X83.137175 Y81.382270 Z2
G03 X83.767520 Y80.778223 Z2 I14.449168 J14.447321
G02 X84.229475 Y80.089250 Z2 I-1.192648 J-1.299024
G02 X84.301514 Y79.667855 Z2 I-1.096672 J-0.404334
G03 X84.307235 Y79.213510 Z2 I8.356039 J-0.121984
G03 X84.411821 Y78.717281 Z2 I1.515909 J0.060358
G03 X84.555388 Y78.461810 Z2 I1.002838 J0.395492
G00 Z0.000000

(End cutting path id: path16)


(Start cutting path id: path16)
(Change tool to Default tool)

G00 Z0.000000
G00 X82.552388 Y81.466310

G01 Z2 F100.0(Penetrate)
G01 X82.927951 Y81.591500 Z2 F75
G00 Z0.000000

(End cutting path id: path16)


(Start cutting path id: path16)
(Change tool to Default tool)

G00 Z0.000000
G00 X77.544888 Y77.710690

G01 Z2 F100.0(Penetrate)
G01 X76.042638 Y76.208440 Z2 F75
G00 Z0.000000

(End cutting path id: path16)


(Start cutting path id: path16)
(Change tool to Default tool)

G00 Z0.000000
G00 X78.421201 Y75.582500

G01 Z2 F100.0(Penetrate)
G01 X80.424201 Y77.335120 Z2 F75
G00 Z0.000000

(End cutting path id: path16)


(Start cutting path id: path16)
(Change tool to Default tool)

G00 Z0.000000
G00 X82.051638 Y75.707690

G01 Z2 F100.0(Penetrate)
G01 X80.924951 Y74.581000 Z2 F75
G00 Z0.000000

(End cutting path id: path16)


(Start cutting path id: path16)
(Change tool to Default tool)

G00 Z0.000000
G00 X96.698576 Y72.953560

G01 Z2 F100.0(Penetrate)
G01 X96.698576 Y67.695690 Z2 F75
G03 X96.699292 Y67.069634 Z2 I273.580914 J0.000003
G02 X96.698481 Y66.443810 Z2 I-87.288649 J-0.199750
G02 X96.635478 Y65.212808 Z2 I-13.300047 J0.063583
G03 X96.573389 Y63.940060 Z2 I13.013764 J-1.272748
G01 X96.573389 Y62.688190 Z2
G03 X96.638712 Y60.989092 Z2 I22.129954 J-0.000006
G02 X96.698576 Y59.433310 Z2 I-20.220565 J-1.557090
G01 X96.698576 Y55.322210 Z2
G01 X96.698576 Y54.926560 Z2
G00 Z0.000000

(End cutting path id: path16)


(Start cutting path id: path17)
(Change tool to Default tool)

G00 Z0.000000
G00 X135.583980 Y90.565300

G01 Z2 F100.0(Penetrate)
G02 X134.891441 Y90.393601 Z2 I-1.373412 J4.057074 F75
G02 X133.956540 Y90.314920 Z2 I-0.986301 J6.125729
G00 Z0.000000

(End cutting path id: path17)


(Start cutting path id: path17)
(Change tool to Default tool)

G00 Z0.000000
G00 X116.179920 Y89.939360

G01 Z2 F100.0(Penetrate)
G01 X117.306610 Y88.562300 Z2 F75
G00 Z0.000000

(End cutting path id: path17)


(Start cutting path id: path17)
(Change tool to Default tool)

G00 Z0.000000
G00 X138.212920 Y89.814170

G01 Z2 F100.0(Penetrate)
G01 X137.086230 Y89.313420 Z2 F75
G00 Z0.000000

(End cutting path id: path17)


(Start cutting path id: path17)
(Change tool to Default tool)

G00 Z0.000000
G00 X112.299110 Y89.438610

G01 Z2 F100.0(Penetrate)
G01 X112.367210 Y88.352200 Z2 F75
G01 X111.422790 Y88.186740 Z2
G00 Z0.000000

(End cutting path id: path17)


(Start cutting path id: path17)
(Change tool to Default tool)

G00 Z0.000000
G00 X112.549480 Y88.186740

G01 Z2 F100.0(Penetrate)
G01 X113.425790 Y87.435610 Z2 F75
G00 Z0.000000

(End cutting path id: path17)


(Start cutting path id: path17)
(Change tool to Default tool)

G00 Z0.000000
G00 X138.588480 Y87.185240

G01 Z2 F100.0(Penetrate)
G01 X138.838860 Y87.310420 Z2 F75
G00 Z0.000000

(End cutting path id: path17)


(Start cutting path id: path18)
(Change tool to Default tool)

G00 Z0.000000
G00 X162.451400 Y89.899690

G01 Z2 F100.0(Penetrate)
G01 X163.202520 Y89.899690 Z2 F75
G00 Z0.000000

(End cutting path id: path18)


(Start cutting path id: path18)
(Change tool to Default tool)

G00 Z0.000000
G00 X151.560080 Y70.495630

G01 Z2 F100.0(Penetrate)
G01 X152.686770 Y70.945760 Z2 F75
G01 X154.689770 Y71.371940 Z2
G00 Z0.000000

(End cutting path id: path18)


(Start cutting path id: path18)
(Change tool to Default tool)

G00 Z0.000000
G00 X151.935650 Y70.370440

G01 Z2 F100.0(Penetrate)
G01 X151.935650 Y69.243750 Z2 F75
G00 Z0.000000

(End cutting path id: path18)


(Start cutting path id: path18)
(Change tool to Default tool)

G00 Z0.000000
G00 X152.311210 Y66.865190

G01 Z2 F100.0(Penetrate)
G01 X152.311210 Y66.740000 Z2 F75
G00 Z0.000000

(End cutting path id: path18)


(Start cutting path id: path18)
(Change tool to Default tool)

G00 Z0.000000
G00 X173.467900 Y59.854690

G01 Z2 F100.0(Penetrate)
G01 X173.593080 Y59.854690 Z2 F75
G00 Z0.000000

(End cutting path id: path18)


(Start cutting path id: path18)
(Change tool to Default tool)

G00 Z0.000000
G00 X158.695770 Y59.604310

G01 Z2 F100.0(Penetrate)
G01 X158.820960 Y59.479130 Z2 F75
G00 Z0.000000

(End cutting path id: path18)


(Start cutting path id: path18)
(Change tool to Default tool)

G00 Z0.000000
G00 X175.846460 Y57.851690

G01 Z2 F100.0(Penetrate)
G01 X175.846460 Y57.726500 Z2 F75
G00 Z0.000000

(End cutting path id: path18)


(Start cutting path id: path18)
(Change tool to Default tool)

G00 Z0.000000
G00 X158.320210 Y54.972380

G01 Z2 F100.0(Penetrate)
G01 X158.320210 Y54.346440 Z2 F75
G00 Z0.000000

(End cutting path id: path18)


(Footer)
M5
G00 X0.0000 Y0.0000
M2
(Using default footer. To add your own footer create file "footer" in the output dir.)
(end)
%