%
(Header)
(Generated by gcodetools from Inkscape.)
(Using default header. To add your own header create file "header" in the output dir.)
M3
(Header end.)
G21 (All units in mm)

(Start cutting path id: path7)
(Change tool to Default tool)

G00 Z0.000000
G00 X131.202420 Y136.340646

G01 Z2 F100.0(Penetrate)
G02 X134.104260 Y134.704668 Z2 I-4.219554 J-10.876073 F75
G02 X136.710670 Y132.615932 Z2 I-53.765060 J-69.760815
G03 X137.871671 Y131.671382 Z2 I41.322999 J49.606693
G02 X138.964040 Y130.707208 Z2 I-8.756323 J-11.021439
G00 Z0.000000

(End cutting path id: path7)


(Start cutting path id: path7)
(Change tool to Default tool)

G00 Z0.000000
G00 X145.724170 Y130.707208

G01 Z2 F100.0(Penetrate)
G01 X145.724170 Y129.705708 Z2 F75
G00 Z0.000000

(End cutting path id: path7)


(Start cutting path id: path7)
(Change tool to Default tool)

G00 Z0.000000
G00 X135.333610 Y129.204958

G01 Z2 F100.0(Penetrate)
G01 X136.710670 Y128.078271 Z2 F75
G00 Z0.000000

(End cutting path id: path7)


(Start cutting path id: path8)
(Change tool to Default tool)

G00 Z0.000000
G00 X152.231850 Y145.228958

G01 Z2 F100.0(Penetrate)
G01 X154.223650 Y143.100771 Z2 F75
G01 X154.997180 Y142.224458 Z2
G01 X157.239350 Y139.345146 Z2
G00 Z0.000000

(End cutting path id: path8)


(Start cutting path id: path8)
(Change tool to Default tool)

G00 Z0.000000
G00 X174.139660 Y144.853396

G01 Z2 F100.0(Penetrate)
G03 X170.430523 Y141.776187 Z2 I35.236149 J-46.246174 F75
G02 X166.378040 Y138.594021 Z2 I-25.274634 J28.015709
G00 Z0.000000

(End cutting path id: path8)


(Start cutting path id: path8)
(Change tool to Default tool)

G00 Z0.000000
G00 X157.489730 Y143.601521

G01 Z2 F100.0(Penetrate)
G01 X158.240850 Y142.474833 Z2 F75
G00 Z0.000000

(End cutting path id: path8)


(Start cutting path id: path8)
(Change tool to Default tool)

G00 Z0.000000
G00 X164.750600 Y140.221458

G01 Z2 F100.0(Penetrate)
G01 X165.626910 Y140.722208 Z2 F75
G00 Z0.000000

(End cutting path id: path8)


(Start cutting path id: path8)
(Change tool to Default tool)

G00 Z0.000000
G00 X153.859290 Y138.343646

G01 Z2 F100.0(Penetrate)
G03 X154.343272 Y137.973179 Z2 I1.386180 J1.309549 F75
G03 X155.111160 Y137.717708 Z2 I1.120800 J2.087084
G00 Z0.000000

(End cutting path id: path8)


(Start cutting path id: path8)
(Change tool to Default tool)

G00 Z0.000000
G00 X169.132160 Y137.342146

G01 Z2 F100.0(Penetrate)
G01 X170.509230 Y137.968083 Z2 F75
G00 Z0.000000

(End cutting path id: path8)


(Start cutting path id: path8)
(Change tool to Default tool)

G00 Z0.000000
G00 X150.604410 Y135.714708

G01 Z2 F100.0(Penetrate)
G03 X149.137310 Y133.969321 Z2 I9.859645 J-9.776894 F75
G02 X147.724710 Y132.084271 Z2 I-36.525341 J25.899191
G03 X147.161505 Y131.240593 Z2 I4.929639 J-3.900650
G02 X146.570400 Y130.511119 Z2 I-2.380913 J1.325066
G02 X145.821374 Y130.216333 Z2 I-0.788941 J0.905633
G03 X145.596910 Y130.206458 Z2 I0.348029 J-10.466878
G00 Z0.000000

(End cutting path id: path8)


(Start cutting path id: path8)
(Change tool to Default tool)

G00 Z0.000000
G00 X145.471730 Y130.206458

G01 Z2 F100.0(Penetrate)
G01 X145.596910 Y130.206458 Z2 F75
G00 Z0.000000

(End cutting path id: path8)


(Start cutting path id: path8)
(Change tool to Default tool)

G00 Z0.000000
G00 X148.851790 Y128.954583

G01 Z2 F100.0(Penetrate)
G01 X148.100660 Y128.078271 Z2 F75
G00 Z0.000000

(End cutting path id: path8)


(Start cutting path id: path8)
(Change tool to Default tool)

G00 Z0.000000
G00 X167.629910 Y128.704208

G01 Z2 F100.0(Penetrate)
G01 X169.006980 Y126.701208 Z2 F75
G00 Z0.000000

(End cutting path id: path8)


(Start cutting path id: path8)
(Change tool to Default tool)

G00 Z0.000000
G00 X165.501730 Y128.078271

G01 Z2 F100.0(Penetrate)
G02 X166.455481 Y125.776584 Z2 I-11.408982 J-6.075993 F75
G03 X167.352200 Y123.446333 Z2 I16.821863 J5.135666
G03 X168.889774 Y120.677202 Z2 I20.956030 J9.824506
G03 X170.759600 Y118.188458 Z2 I18.942503 J12.284963
G00 Z0.000000

(End cutting path id: path8)


(Start cutting path id: path8)
(Change tool to Default tool)

G00 Z0.000000
G00 X163.373540 Y126.200458

G01 Z2 F100.0(Penetrate)
G01 X163.874290 Y124.072270 Z2 F75
G00 Z0.000000

(End cutting path id: path8)


(Start cutting path id: path8)
(Change tool to Default tool)

G00 Z0.000000
G00 X150.228850 Y109.926083

G01 Z2 F100.0(Penetrate)
G01 X150.979980 Y111.052770 Z2 F75
G00 Z0.000000

(End cutting path id: path8)


(Start cutting path id: path8)
(Change tool to Default tool)

G00 Z0.000000
G00 X157.364540 Y109.926083

G01 Z2 F100.0(Penetrate)
G01 X158.115660 Y109.926083 Z2 F75
G00 Z0.000000

(End cutting path id: path8)


(Start cutting path id: path11)
(Change tool to Default tool)

G00 Z0.000000
G00 X75.831941 Y93.488914

G01 Z2 F100.0(Penetrate)
G03 X75.266487 Y92.895710 Z2 I12.860728 J-12.825201 F75
G02 X74.777507 Y92.375846 Z2 I-16.585786 J15.110573
G02 X74.175446 Y91.950039 Z2 I-1.441735 J1.399970
G02 X73.954129 Y91.861476 Z2 I-0.988348 J2.149053
G00 Z0.000000

(End cutting path id: path11)


(Start cutting path id: path11)
(Change tool to Default tool)

G00 Z0.000000
G00 X73.828941 Y91.861476

G01 Z2 F100.0(Penetrate)
G01 X73.954129 Y91.861476 Z2 F75
G00 Z0.000000

(End cutting path id: path11)


(Start cutting path id: path11)
(Change tool to Default tool)

G00 Z0.000000
G00 X77.083816 Y91.360726

G01 Z2 F100.0(Penetrate)
G01 X75.957129 Y89.858476 Z2 F75
G00 Z0.000000

(End cutting path id: path11)


(Start cutting path id: path11)
(Change tool to Default tool)

G00 Z0.000000
G00 X78.460879 Y89.482914

G01 Z2 F100.0(Penetrate)
G01 X77.834941 Y88.856976 Z2 F75
G00 Z0.000000

(End cutting path id: path11)


(Start cutting path id: path11)
(Change tool to Default tool)

G00 Z0.000000
G00 X98.115317 Y82.847980

G01 Z2 F100.0(Penetrate)
G02 X101.971326 Y84.795462 Z2 I17.966022 J-30.781495 F75
G03 X105.876940 Y86.635865 Z2 I-25.654552 J59.507191
G02 X107.424738 Y87.407267 Z2 I34.838314 J-67.963623
G02 X108.756250 Y87.989840 Z2 I8.208095 J-16.947278
G02 X109.514342 Y88.195448 Z2 I1.318635 J-3.361529
G02 X109.757750 Y88.231039 Z2 I1.788535 J-11.381732
G00 Z0.000000

(End cutting path id: path11)


(Start cutting path id: path11)
(Change tool to Default tool)

G00 Z0.000000
G00 X84.344692 Y87.980664

G01 Z2 F100.0(Penetrate)
G03 X88.533873 Y85.396325 Z2 I33.805762 J50.111244 F75
G03 X92.857442 Y83.102023 Z2 I49.619028 J88.285127
G02 X94.405924 Y82.214793 Z2 I-7.054003 J-14.106249
G03 X95.611567 Y81.470910 Z2 I16.041690 J24.650483
G00 Z0.000000

(End cutting path id: path11)


(Start cutting path id: path11)
(Change tool to Default tool)

G00 Z0.000000
G00 X79.337191 Y87.605101

G01 Z2 F100.0(Penetrate)
G01 X79.337191 Y87.479914 Z2 F75
G00 Z0.000000

(End cutting path id: path11)


(Start cutting path id: path11)
(Change tool to Default tool)

G00 Z0.000000
G00 X75.080816 Y84.099851

G01 Z2 F100.0(Penetrate)
G02 X74.224898 Y83.573425 Z2 I-2.363347 J2.883541 F75
G02 X73.954129 Y83.473914 Z2 I-0.911188 J2.061204
G00 Z0.000000

(End cutting path id: path11)


(Start cutting path id: path11)
(Change tool to Default tool)

G00 Z0.000000
G00 X86.598067 Y83.599101

G01 Z2 F100.0(Penetrate)
G02 X90.607761 Y81.206817 Z2 I-12.377370 J-25.302093 F75
G03 X94.484879 Y78.591600 Z2 I49.497468 J69.199554
G01 X93.856430 Y77.963150 Z2
G01 X93.107817 Y77.214540 Z2
G02 X94.927857 Y76.051896 Z2 I-32.805645 J-53.360891
G02 X96.349651 Y74.923590 Z2 I-5.901547 J-8.896587
G01 X97.369602 Y73.999460 Z2
G03 X97.864494 Y73.945912 Z2 I0.422618 J1.592184
G02 X98.490879 Y73.959660 Z2 I0.626385 J-14.263288
G02 X100.331611 Y73.923865 Z2 I-0.000000 J-47.346598
G03 X101.620570 Y74.084850 Z2 I0.155468 J3.995855
G01 X101.165120 Y74.948320 Z2
G01 X99.867942 Y75.890600 Z2
G01 X95.987129 Y78.090850 Z2
G01 X96.611810 Y78.842560 Z2
G01 X97.619493 Y79.868490 Z2
G01 X100.493880 Y80.946500 Z2
G01 X105.125820 Y82.772820 Z2
G01 X107.754750 Y83.724289 Z2
G00 Z0.000000

(End cutting path id: path11)


(Start cutting path id: path11)
(Change tool to Default tool)

G00 Z0.000000
G00 X77.584566 Y82.347230

G01 Z2 F100.0(Penetrate)
G01 X77.459379 Y82.222040 Z2 F75
G00 Z0.000000

(End cutting path id: path11)


(Start cutting path id: path11)
(Change tool to Default tool)

G00 Z0.000000
G00 X100.118320 Y78.591600

G01 Z2 F100.0(Penetrate)
G01 X105.376190 Y80.219040 Z2 F75
G00 Z0.000000

(End cutting path id: path11)


(Start cutting path id: path11)
(Change tool to Default tool)

G00 Z0.000000
G00 X82.341692 Y79.092350

G01 Z2 F100.0(Penetrate)
G01 X82.466879 Y79.092350 Z2 F75
G00 Z0.000000

(End cutting path id: path11)


(Start cutting path id: path11)
(Change tool to Default tool)

G00 Z0.000000
G00 X89.477379 Y79.092350

G01 Z2 F100.0(Penetrate)
G01 X92.481879 Y77.607100 Z2 F75
G01 X93.608567 Y77.965660 Z2
G00 Z0.000000

(End cutting path id: path11)


(Start cutting path id: path11)
(Change tool to Default tool)

G00 Z0.000000
G00 X96.487879 Y78.967160

G01 Z2 F100.0(Penetrate)
G01 X95.861942 Y78.090850 Z2 F75
G00 Z0.000000

(End cutting path id: path11)


(Start cutting path id: path11)
(Change tool to Default tool)

G00 Z0.000000
G00 X94.109317 Y78.716790

G01 Z2 F100.0(Penetrate)
G01 X93.608567 Y78.216040 Z2 F75
G00 Z0.000000

(End cutting path id: path11)


(Start cutting path id: path11)
(Change tool to Default tool)

G00 Z0.000000
G00 X94.484879 Y78.591600

G01 Z2 F100.0(Penetrate)
G01 X95.736754 Y78.216040 Z2 F75
G00 Z0.000000

(End cutting path id: path11)


(Start cutting path id: path11)
(Change tool to Default tool)

G00 Z0.000000
G00 X92.732254 Y77.464910

G01 Z2 F100.0(Penetrate)
G01 X92.982629 Y77.214540 Z2 F75
G00 Z0.000000

(End cutting path id: path11)


(Start cutting path id: path11)
(Change tool to Default tool)

G00 Z0.000000
G00 X103.748750 Y77.464910

G01 Z2 F100.0(Penetrate)
G01 X103.122820 Y77.214540 Z2 F75
G00 Z0.000000

(End cutting path id: path11)


(Start cutting path id: path11)
(Change tool to Default tool)

G00 Z0.000000
G00 X74.580066 Y73.959660

G01 Z2 F100.0(Penetrate)
G01 X75.331191 Y73.959660 Z2 F75
G00 Z0.000000

(End cutting path id: path11)


(Start cutting path id: path11)
(Change tool to Default tool)

G00 Z0.000000
G00 X92.732254 Y73.959660

G01 Z2 F100.0(Penetrate)
G01 X95.110817 Y73.959660 Z2 F75
G00 Z0.000000

(End cutting path id: path11)


(Start cutting path id: path12)
(Change tool to Default tool)

G00 Z0.000000
G00 X144.722670 Y95.742289

G01 Z2 F100.0(Penetrate)
G02 X144.583375 Y94.348651 Z2 I-7.694934 J0.065335 F75
G03 X144.313200 Y92.737789 Z2 I32.631927 J-6.301134
G03 X144.087932 Y90.186901 Z2 I23.697940 J-3.378148
G02 X143.846360 Y87.980664 Z2 I-14.901424 J0.515288
G00 Z0.000000

(End cutting path id: path12)


(Start cutting path id: path12)
(Change tool to Default tool)

G00 Z0.000000
G00 X118.558480 Y90.985164

G01 Z2 F100.0(Penetrate)
G01 X120.060730 Y88.982164 Z2 F75
G00 Z0.000000

(End cutting path id: path12)


(Start cutting path id: path12)
(Change tool to Default tool)

G00 Z0.000000
G00 X109.920540 Y88.731789

G01 Z2 F100.0(Penetrate)
G01 X110.672250 Y88.901024 Z2 F75
G01 X113.050230 Y89.983664 Z2
G00 Z0.000000

(End cutting path id: path12)


(Start cutting path id: path12)
(Change tool to Default tool)

G00 Z0.000000
G00 X141.342610 Y89.482914

G01 Z2 F100.0(Penetrate)
G03 X141.389343 Y87.522237 Z2 I41.153595 J0.000000 F75
G03 X141.843360 Y85.602101 Z2 I5.370733 J0.256168
G00 Z0.000000

(End cutting path id: path12)


(Start cutting path id: path12)
(Change tool to Default tool)

G00 Z0.000000
G00 X109.795360 Y88.731789

G01 Z2 F100.0(Penetrate)
G01 X109.920540 Y88.731789 Z2 F75
G00 Z0.000000

(End cutting path id: path12)


(Start cutting path id: path12)
(Change tool to Default tool)

G00 Z0.000000
G00 X117.181420 Y88.731789

G01 Z2 F100.0(Penetrate)
G01 X118.057730 Y87.479914 Z2 F75
G00 Z0.000000

(End cutting path id: path12)


(Start cutting path id: path12)
(Change tool to Default tool)

G00 Z0.000000
G00 X115.679170 Y86.853976

G01 Z2 F100.0(Penetrate)
G01 X116.305110 Y85.852476 Z2 F75
G00 Z0.000000

(End cutting path id: path12)


(Start cutting path id: path12)
(Change tool to Default tool)

G00 Z0.000000
G00 X137.712170 Y86.353226

G01 Z2 F100.0(Penetrate)
G01 X138.212920 Y83.974664 Z2 F75
G00 Z0.000000

(End cutting path id: path12)


(Start cutting path id: path12)
(Change tool to Default tool)

G00 Z0.000000
G00 X134.457290 Y84.725789

G01 Z2 F100.0(Penetrate)
G01 X135.333610 Y82.847980 Z2 F75
G00 Z0.000000

(End cutting path id: path12)


(Start cutting path id: path12)
(Change tool to Default tool)

G00 Z0.000000
G00 X114.427290 Y84.350226

G01 Z2 F100.0(Penetrate)
G01 X114.552480 Y84.225039 Z2 F75
G00 Z0.000000

(End cutting path id: path12)


(Start cutting path id: path12)
(Change tool to Default tool)

G00 Z0.000000
G00 X131.202420 Y82.597600

G01 Z2 F100.0(Penetrate)
G01 X132.704670 Y80.719790 Z2 F75
G00 Z0.000000

(End cutting path id: path12)


(Start cutting path id: path12)
(Change tool to Default tool)

G00 Z0.000000
G00 X128.823860 Y80.970160

G01 Z2 F100.0(Penetrate)
G02 X129.803108 Y79.470794 Z2 I-49.715445 J-33.539012 F75
G03 X131.077230 Y77.840480 Z2 I8.782378 J5.550567
G00 Z0.000000

(End cutting path id: path12)


(Start cutting path id: path12)
(Change tool to Default tool)

G00 Z0.000000
G00 X111.297610 Y80.844980

G01 Z2 F100.0(Penetrate)
G01 X111.297610 Y80.719790 Z2 F75
G00 Z0.000000

(End cutting path id: path12)


(Start cutting path id: path12)
(Change tool to Default tool)

G00 Z0.000000
G00 X116.931040 Y78.216040

G01 Z2 F100.0(Penetrate)
G02 X118.952672 Y77.215937 Z2 I-3.500611 J-9.619558 F75
G02 X121.062230 Y75.837480 Z2 I-75.559700 J-117.938204
G03 X121.896973 Y75.346151 Z2 I4.816759 J7.228666
G02 X122.513480 Y74.881760 Z2 I-1.049524 J-2.034729
G01 X122.689670 Y73.959660 Z2
G00 Z0.000000

(End cutting path id: path12)


(Start cutting path id: path12)
(Change tool to Default tool)

G00 Z0.000000
G00 X124.567480 Y77.590100

G01 Z2 F100.0(Penetrate)
G01 X125.931500 Y76.584740 Z2 F75
G01 X126.820860 Y75.587100 Z2
G00 Z0.000000

(End cutting path id: path12)


(Start cutting path id: path12)
(Change tool to Default tool)

G00 Z0.000000
G00 X138.212920 Y76.087850

G01 Z2 F100.0(Penetrate)
G02 X136.799773 Y75.390205 Z2 I-5.700302 J9.766458 F75
G03 X135.610160 Y74.715140 Z2 I2.042066 J-4.984281
G03 X135.137265 Y74.296788 Z2 I2.346459 J-3.128825
G02 X134.582480 Y73.959660 Z2 I-0.913487 J0.878209
G00 Z0.000000

(End cutting path id: path12)


(Start cutting path id: path12)
(Change tool to Default tool)

G00 Z0.000000
G00 X114.427290 Y75.086350

G01 Z2 F100.0(Penetrate)
G02 X114.943000 Y74.274935 Z2 I-2.460066 J-2.133132 F75
G02 X115.053230 Y73.959660 Z2 I-1.871504 J-0.831245
G00 Z0.000000

(End cutting path id: path12)


(Start cutting path id: path12)
(Change tool to Default tool)

G00 Z0.000000
G00 X138.087730 Y73.959660

G01 Z2 F100.0(Penetrate)
G01 X138.463290 Y73.959660 Z2 F75
G00 Z0.000000

(End cutting path id: path12)


(Start cutting path id: path13)
(Change tool to Default tool)

G00 Z0.000000
G00 X158.155340 Y108.682431

G01 Z2 F100.0(Penetrate)
G02 X159.053528 Y108.124491 Z2 I-0.513671 J-1.828857 F75
G02 X160.012390 Y107.054993 Z2 I-266.486542 J-239.884013
G02 X161.592298 Y105.227339 Z2 I-56.033912 J-50.034991
G02 X163.162460 Y103.299368 Z2 I-71.833291 J-60.105225
G02 X167.121040 Y98.029063 Z2 I-99.429435 J-78.804283
G03 X171.107230 Y92.783618 Z2 I84.971653 J60.435474
G03 X173.791913 Y89.536354 Z2 I173.733209 J140.900945
G03 X176.557910 Y86.524243 Z2 I36.740270 J30.962232
G00 Z0.000000

(End cutting path id: path13)


(Start cutting path id: path13)
(Change tool to Default tool)

G00 Z0.000000
G00 X153.273030 Y97.665930

G01 Z2 F100.0(Penetrate)
G03 X151.880126 Y94.216237 Z2 I16.288551 J-8.582988 F75
G03 X151.019650 Y90.655430 Z2 I38.718167 J-11.240690
G00 Z0.000000

(End cutting path id: path13)


(Start cutting path id: path13)
(Change tool to Default tool)

G00 Z0.000000
G00 X148.140340 Y95.412555

G01 Z2 F100.0(Penetrate)
G01 X148.265530 Y91.656930 Z2 F75
G01 X148.140340 Y89.779118 Z2
G00 Z0.000000

(End cutting path id: path13)


(Start cutting path id: path13)
(Change tool to Default tool)

G00 Z0.000000
G00 X155.025660 Y94.661430

G01 Z2 F100.0(Penetrate)
G01 X153.898970 Y92.533243 Z2 F75
G00 Z0.000000

(End cutting path id: path13)


(Start cutting path id: path13)
(Change tool to Default tool)

G00 Z0.000000
G00 X156.778280 Y92.157680

G01 Z2 F100.0(Penetrate)
G01 X158.656090 Y93.159180 Z2 F75
G00 Z0.000000

(End cutting path id: path13)


(Start cutting path id: path13)
(Change tool to Default tool)

G00 Z0.000000
G00 X156.277530 Y76.509240

G01 Z2 F100.0(Penetrate)
G01 X156.402720 Y76.509240 Z2 F75
G00 Z0.000000

(End cutting path id: path13)


(Start cutting path id: path13)
(Change tool to Default tool)

G00 Z0.000000
G00 X162.411720 Y73.379550

G01 Z2 F100.0(Penetrate)
G01 X162.787280 Y73.379550 Z2 F75
G00 Z0.000000

(End cutting path id: path13)


(Footer)
M5
G00 X0.0000 Y0.0000
M2
(Using default footer. To add your own footer create file "footer" in the output dir.)
(end)
%