%
(Header)
(Generated by gcodetools from Inkscape.)
(Using default header. To add your own header create file "header" in the output dir.)
M3
(Header end.)
G21 (All units in mm)

(Start cutting path id: path21)
(Change tool to Default tool)

G00 Z0.000000
G00 X96.573388 Y53.432520

G01 Z2 F100.0(Penetrate)
G01 X96.573388 Y49.050950 Z2 F75
G01 X96.573388 Y47.799080 Z2
G01 X96.573388 Y46.797580 Z2
G01 X96.573388 Y43.918270 Z2
G01 X96.573388 Y42.666390 Z2
G01 X96.573388 Y40.538200 Z2
G00 Z0.000000

(End cutting path id: path21)


(Start cutting path id: path21)
(Change tool to Default tool)

G00 Z0.000000
G00 X94.320013 Y39.661890

G01 Z2 F100.0(Penetrate)
G01 X86.808762 Y35.944900 Z2 F75
G01 X79.422700 Y32.431640 Z2
G01 X75.917450 Y30.804490 Z2
G01 X74.540580 Y30.166960 Z2
G01 X73.664075 Y29.897270 Z2
G00 Z0.000000

(End cutting path id: path21)


(Start cutting path id: path21)
(Change tool to Default tool)

G00 Z0.000000
G00 X98.951950 Y39.661890

G01 Z2 F100.0(Penetrate)
G02 X102.551247 Y38.148427 Z2 I-7.245973 J-22.268900 F75
G02 X105.962450 Y36.223780 Z2 I-28.184744 J-53.939339
G03 X107.319668 Y35.411330 Z2 I63.316234 J104.231417
G03 X108.466200 Y34.762670 Z2 I18.535544 J31.424727
G03 X109.226705 Y34.458102 Z2 I1.688444 J3.114267
G03 X109.467700 Y34.404020 Z2 I0.730793 J2.692484
G00 Z0.000000

(End cutting path id: path21)


(Start cutting path id: path21)
(Change tool to Default tool)

G00 Z0.000000
G00 X73.664075 Y26.642390

G01 Z2 F100.0(Penetrate)
G03 X73.892298 Y26.714745 Z2 I-1.157333 J4.046601 F75
G03 X74.540580 Y26.965310 Z2 I-3.429584 J9.837210
G03 X75.121817 Y27.225054 Z2 I-6.905963 J16.233842
G03 X75.792262 Y27.549620 Z2 I-12.597342 J26.876695
G02 X77.168027 Y28.217265 Z2 I29.523169 J-59.084880
G03 X78.546387 Y28.868330 Z2 I-309.864079 J657.792839
G03 X84.569765 Y32.087856 Z2 I-30.131618 J63.617230
G02 X90.564387 Y35.374610 Z2 I46.364679 J-77.453201
G03 X93.247220 Y36.748074 Z2 I-70.853596 J141.707667
G03 X95.697075 Y38.034450 Z2 I-762.963161 J1456.010700
G00 Z0.000000

(End cutting path id: path21)


(Start cutting path id: path21)
(Change tool to Default tool)

G00 Z0.000000
G00 X84.805762 Y24.263830

G01 Z2 F100.0(Penetrate)
G03 X86.168259 Y25.436763 Z2 I-9.132750 J11.986566 F75
G02 X87.685075 Y26.714450 Z2 I9.814980 J-10.112729
G03 X90.108162 Y28.622404 Z2 I-24.282967 J33.331806
G02 X92.567387 Y30.470460 Z2 I16.619532 J-19.555481
G03 X94.640049 Y32.008228 Z2 I-13.231094 J19.999060
G03 X96.448200 Y33.652890 Z2 I-16.987505 J20.492438
G02 X96.318634 Y33.782445 Z2 I899.412333 J896.334137
G03 X95.819751 Y34.281340 Z2 R19687.497849
G01 X95.071138 Y35.029950 Z2
G01 X98.451200 Y37.283330 Z2
G00 Z0.000000

(End cutting path id: path21)


(Start cutting path id: path21)
(Change tool to Default tool)

G00 Z0.000000
G00 X101.080140 Y36.156640

G01 Z2 F100.0(Penetrate)
G03 X103.799785 Y34.582553 Z2 I33.310600 J54.416244 F75
G02 X106.463200 Y32.919350 Z2 I-12.948847 J-23.700151
G03 X107.532537 Y32.214453 Z2 I11.028120 J15.566241
G03 X108.466200 Y31.690460 Z2 I7.391838 J12.077139
G03 X109.228180 Y31.433224 Z2 I1.243581 J2.426535
G03 X109.467700 Y31.399520 Z2 I0.565820 J3.153089
G00 Z0.000000

(End cutting path id: path21)


(Start cutting path id: path21)
(Change tool to Default tool)

G00 Z0.000000
G00 X80.173825 Y24.764580

G01 Z2 F100.0(Penetrate)
G02 X81.926806 Y26.174158 Z2 I20.392713 J-23.566001 F75
G03 X83.929450 Y27.696920 Z2 I-83.896281 J112.413534
G02 X87.323337 Y30.107290 Z2 I30.697180 J-39.628183
G02 X90.814762 Y32.363250 Z2 I481.311360 J-741.069349
G03 X92.882243 Y33.788245 Z2 I-21.110919 J32.841508
G02 X95.071138 Y35.029950 Z2 I6.259730 J-8.484575
G00 Z0.000000

(End cutting path id: path21)


(Start cutting path id: path21)
(Change tool to Default tool)

G00 Z0.000000
G00 X99.327513 Y34.904770

G01 Z2 F100.0(Penetrate)
G02 X102.533617 Y32.468982 Z2 I-21.636091 J-31.806395 F75
G03 X105.837260 Y30.097700 Z2 I16.533494 J19.547337
G02 X107.290213 Y29.151290 Z2 I-13.072247 J-21.657350
G02 X108.466200 Y28.318900 Z2 I-95.343045 J-135.946082
G03 X109.210815 Y27.885355 Z2 I2.695583 J3.773462
G03 X109.467700 Y27.769080 Z2 I6.460894 J13.932068
G00 Z0.000000

(End cutting path id: path21)


(Start cutting path id: path21)
(Change tool to Default tool)

G00 Z0.000000
G00 X98.326013 Y32.401020

G01 Z2 F100.0(Penetrate)
G01 X102.206830 Y28.765650 Z2 F75
G01 X103.583890 Y27.393520 Z2
G00 Z0.000000

(End cutting path id: path21)


(Start cutting path id: path21)
(Change tool to Default tool)

G00 Z0.000000
G00 X96.573388 Y30.648390

G01 Z2 F100.0(Penetrate)
G02 X95.507748 Y29.603617 Z2 I-53.360842 J53.360766 F75
G02 X94.445200 Y28.670410 Z2 I-10.906643 J11.346773
G03 X91.972704 Y26.603665 Z2 I49.132418 J-61.290596
G02 X89.562887 Y24.639390 Z2 I-31.071685 J35.659101
G00 Z0.000000

(End cutting path id: path21)


(Start cutting path id: path21)
(Change tool to Default tool)

G00 Z0.000000
G00 X73.538887 Y29.897270

G01 Z2 F100.0(Penetrate)
G01 X73.664075 Y29.897270 Z2 F75
G00 Z0.000000

(End cutting path id: path21)


(Start cutting path id: path21)
(Change tool to Default tool)

G00 Z0.000000
G00 X98.200825 Y28.895770

G01 Z2 F100.0(Penetrate)
G01 X99.202325 Y26.767580 Z2 F75
G00 Z0.000000

(End cutting path id: path21)


(Start cutting path id: path21)
(Change tool to Default tool)

G00 Z0.000000
G00 X96.197825 Y27.268330

G01 Z2 F100.0(Penetrate)
G01 X94.695575 Y24.764580 Z2 F75
G00 Z0.000000

(End cutting path id: path21)


(Start cutting path id: path21)
(Change tool to Default tool)

G00 Z0.000000
G00 X73.538887 Y26.642390

G01 Z2 F100.0(Penetrate)
G01 X73.664075 Y26.642390 Z2 F75
G00 Z0.000000

(End cutting path id: path21)


(Footer)
M5
;G00 X0.0000 Y0.0000
M2
(Using default footer. To add your own footer create file "footer" in the output dir.)
(end)
%