%
(Header)
(Generated by gcodetools from Inkscape.)
(Using default header. To add your own header create file "header" in the output dir.)
M3
(Header end.)
G21 (All units in mm)

(Start cutting path id: path11)
(Change tool to Default tool)

G00 Z0.000000
G00 X75.831941 Y110.422214

G01 Z2 F100.0(Penetrate)
G03 X75.266487 Y109.829010 Z2 I12.860728 J-12.825201 F75
G02 X74.777507 Y109.309146 Z2 I-16.585786 J15.110573
G02 X74.175446 Y108.883339 Z2 I-1.441735 J1.399970
G02 X73.954129 Y108.794776 Z2 I-0.988348 J2.149053
G00 Z0.000000

(End cutting path id: path11)


(Start cutting path id: path11)
(Change tool to Default tool)

G00 Z0.000000
G00 X73.828941 Y108.794776

G01 Z2 F100.0(Penetrate)
G01 X73.954129 Y108.794776 Z2 F75
G00 Z0.000000

(End cutting path id: path11)


(Start cutting path id: path11)
(Change tool to Default tool)

G00 Z0.000000
G00 X77.083816 Y108.294026

G01 Z2 F100.0(Penetrate)
G01 X75.957129 Y106.791776 Z2 F75
G00 Z0.000000

(End cutting path id: path11)


(Start cutting path id: path11)
(Change tool to Default tool)

G00 Z0.000000
G00 X78.460879 Y106.416214

G01 Z2 F100.0(Penetrate)
G01 X77.834941 Y105.790276 Z2 F75
G00 Z0.000000

(End cutting path id: path11)


(Start cutting path id: path11)
(Change tool to Default tool)

G00 Z0.000000
G00 X98.115317 Y99.781280

G01 Z2 F100.0(Penetrate)
G02 X101.971326 Y101.728762 Z2 I17.966022 J-30.781495 F75
G03 X105.876940 Y103.569165 Z2 I-25.654552 J59.507191
G02 X107.424738 Y104.340567 Z2 I34.838314 J-67.963623
G02 X108.756250 Y104.923140 Z2 I8.208095 J-16.947278
G02 X109.514342 Y105.128748 Z2 I1.318635 J-3.361529
G02 X109.757750 Y105.164339 Z2 I1.788535 J-11.381732
G00 Z0.000000

(End cutting path id: path11)


(Start cutting path id: path11)
(Change tool to Default tool)

G00 Z0.000000
G00 X84.344692 Y104.913964

G01 Z2 F100.0(Penetrate)
G03 X88.533873 Y102.329625 Z2 I33.805762 J50.111244 F75
G03 X92.857442 Y100.035323 Z2 I49.619028 J88.285127
G02 X94.405924 Y99.148093 Z2 I-7.054003 J-14.106249
G03 X95.611567 Y98.404210 Z2 I16.041690 J24.650483
G00 Z0.000000

(End cutting path id: path11)


(Start cutting path id: path11)
(Change tool to Default tool)

G00 Z0.000000
G00 X79.337191 Y104.538401

G01 Z2 F100.0(Penetrate)
G01 X79.337191 Y104.413214 Z2 F75
G00 Z0.000000

(End cutting path id: path11)


(Start cutting path id: path11)
(Change tool to Default tool)

G00 Z0.000000
G00 X75.080816 Y101.033151

G01 Z2 F100.0(Penetrate)
G02 X74.224898 Y100.506725 Z2 I-2.363347 J2.883541 F75
G02 X73.954129 Y100.407214 Z2 I-0.911188 J2.061204
G00 Z0.000000

(End cutting path id: path11)


(Start cutting path id: path11)
(Change tool to Default tool)

G00 Z0.000000
G00 X86.598067 Y100.532401

G01 Z2 F100.0(Penetrate)
G02 X90.607761 Y98.140117 Z2 I-12.377370 J-25.302093 F75
G03 X94.484879 Y95.524900 Z2 I49.497468 J69.199554
G01 X93.856430 Y94.896450 Z2
G01 X93.107817 Y94.147840 Z2
G02 X94.927857 Y92.985196 Z2 I-32.805645 J-53.360891
G02 X96.349651 Y91.856890 Z2 I-5.901547 J-8.896587
G01 X97.369602 Y90.932760 Z2
G03 X97.864494 Y90.879212 Z2 I0.422618 J1.592184
G02 X98.490879 Y90.892960 Z2 I0.626385 J-14.263288
G02 X100.331611 Y90.857165 Z2 I-0.000000 J-47.346598
G03 X101.620570 Y91.018150 Z2 I0.155468 J3.995855
G01 X101.165120 Y91.881620 Z2
G01 X99.867942 Y92.823900 Z2
G01 X95.987129 Y95.024150 Z2
G01 X96.611810 Y95.775860 Z2
G01 X97.619493 Y96.801790 Z2
G01 X100.493880 Y97.879800 Z2
G01 X105.125820 Y99.706120 Z2
G01 X107.754750 Y100.657589 Z2
G00 Z0.000000

(End cutting path id: path11)


(Start cutting path id: path11)
(Change tool to Default tool)

G00 Z0.000000
G00 X77.584566 Y99.280530

G01 Z2 F100.0(Penetrate)
G01 X77.459379 Y99.155340 Z2 F75
G00 Z0.000000

(End cutting path id: path11)


(Start cutting path id: path11)
(Change tool to Default tool)

G00 Z0.000000
G00 X100.118320 Y95.524900

G01 Z2 F100.0(Penetrate)
G01 X105.376190 Y97.152340 Z2 F75
G00 Z0.000000

(End cutting path id: path11)


(Start cutting path id: path11)
(Change tool to Default tool)

G00 Z0.000000
G00 X82.341692 Y96.025650

G01 Z2 F100.0(Penetrate)
G01 X82.466879 Y96.025650 Z2 F75
G00 Z0.000000

(End cutting path id: path11)


(Start cutting path id: path11)
(Change tool to Default tool)

G00 Z0.000000
G00 X89.477379 Y96.025650

G01 Z2 F100.0(Penetrate)
G01 X92.481879 Y94.540400 Z2 F75
G01 X93.608567 Y94.898960 Z2
G00 Z0.000000

(End cutting path id: path11)


(Start cutting path id: path11)
(Change tool to Default tool)

G00 Z0.000000
G00 X96.487879 Y95.900460

G01 Z2 F100.0(Penetrate)
G01 X95.861942 Y95.024150 Z2 F75
G00 Z0.000000

(End cutting path id: path11)


(Start cutting path id: path11)
(Change tool to Default tool)

G00 Z0.000000
G00 X94.109317 Y95.650090

G01 Z2 F100.0(Penetrate)
G01 X93.608567 Y95.149340 Z2 F75
G00 Z0.000000

(End cutting path id: path11)


(Start cutting path id: path11)
(Change tool to Default tool)

G00 Z0.000000
G00 X94.484879 Y95.524900

G01 Z2 F100.0(Penetrate)
G01 X95.736754 Y95.149340 Z2 F75
G00 Z0.000000

(End cutting path id: path11)


(Start cutting path id: path11)
(Change tool to Default tool)

G00 Z0.000000
G00 X92.732254 Y94.398210

G01 Z2 F100.0(Penetrate)
G01 X92.982629 Y94.147840 Z2 F75
G00 Z0.000000

(End cutting path id: path11)


(Start cutting path id: path11)
(Change tool to Default tool)

G00 Z0.000000
G00 X103.748750 Y94.398210

G01 Z2 F100.0(Penetrate)
G01 X103.122820 Y94.147840 Z2 F75
G00 Z0.000000

(End cutting path id: path11)


(Start cutting path id: path11)
(Change tool to Default tool)

G00 Z0.000000
G00 X74.580066 Y90.892960

G01 Z2 F100.0(Penetrate)
G01 X75.331191 Y90.892960 Z2 F75
G00 Z0.000000

(End cutting path id: path11)


(Start cutting path id: path11)
(Change tool to Default tool)

G00 Z0.000000
G00 X92.732254 Y90.892960

G01 Z2 F100.0(Penetrate)
G01 X95.110817 Y90.892960 Z2 F75
G00 Z0.000000

(End cutting path id: path11)


(Footer)
M5
G00 X0.0000 Y0.0000
M2
(Using default footer. To add your own footer create file "footer" in the output dir.)
(end)
%