%
(Header)
(Generated by gcodetools from Inkscape.)
(Using default header. To add your own header create file "header" in the output dir.)
M3
(Header end.)
G21 (All units in mm)

(Start cutting path id: path9)
(Change tool to Default tool)

G00 Z0.000000
G00 X11.034786 Y123.777597

G01 Z2 F100.0(Penetrate)
G02 X13.838225 Y125.998386 Z2 I5.020235 J-3.457479 F75
G02 X15.416349 Y126.406535 Z2 I2.494137 J-6.388671
G00 Z0.000000

(End cutting path id: path9)


(Start cutting path id: path9)
(Change tool to Default tool)

G00 Z0.000000
G00 X21.174974 Y125.780597

G01 Z2 F100.0(Penetrate)
G01 X20.924599 Y125.530222 Z2 F75
G00 Z0.000000

(End cutting path id: path9)


(Start cutting path id: path9)
(Change tool to Default tool)

G00 Z0.000000
G00 X6.027286 Y92.981470

G01 Z2 F100.0(Penetrate)
G02 X8.833652 Y95.021721 Z2 I39.587547 J-51.502495 F75
G03 X11.660723 Y97.053160 Z2 I-46.570139 J67.792633
G02 X20.458721 Y103.378870 Z2 I155.847605 J-207.476663
G02 X29.437349 Y109.464493 Z2 I450.929846 J-655.628211
G03 X32.115223 Y111.309268 Z2 I-62.775433 J93.990742
G02 X34.820412 Y113.112511 Z2 I31.729137 J-44.668667
G03 X35.893849 Y113.820785 Z2 I-13.641777 J21.842593
G02 X36.823412 Y114.344873 Z2 I3.219434 J-4.623823
G02 X37.582247 Y114.588565 Z2 I1.505357 J-3.384225
G03 X37.824912 Y114.638910 Z2 I-15.366000 J74.675073
G00 Z0.000000

(End cutting path id: path9)


(Start cutting path id: path9)
(Change tool to Default tool)

G00 Z0.000000
G00 X37.824912 Y110.632910

G01 Z2 F100.0(Penetrate)
G02 X37.492258 Y109.054216 Z2 I-3.912376 J-0.000000 F75
G02 X37.073787 Y108.379534 Z2 I-2.606120 J1.149325
G00 Z0.000000

(End cutting path id: path9)


(Start cutting path id: path9)
(Change tool to Default tool)

G00 Z0.000000
G00 X35.070787 Y106.501722

G01 Z2 F100.0(Penetrate)
G01 X34.820412 Y105.249847 Z2 F75
G00 Z0.000000

(End cutting path id: path9)


(Start cutting path id: path9)
(Change tool to Default tool)

G00 Z0.000000
G00 X32.567036 Y104.999472

G01 Z2 F100.0(Penetrate)
G01 X32.944821 Y103.872784 Z2 F75
G01 X32.316083 Y103.010189 Z2
G02 X31.755406 Y102.700743 Z2 I-0.943185 J1.046270
G02 X31.189974 Y102.604006 Z2 I-0.739256 J2.620137
G01 X30.188474 Y101.994876 Z2
G02 X29.709775 Y101.556022 Z2 I-10.418023 J10.883383
G02 X29.312161 Y101.319384 Z2 I-0.835967 J0.952280
G01 X27.741715 Y100.852055 Z2
G02 X27.096204 Y100.320458 Z2 I-1.166443 J0.758680
G02 X26.057286 Y100.117159 Z2 I-1.046635 J2.592372
G00 Z0.000000

(End cutting path id: path9)


(Start cutting path id: path9)
(Change tool to Default tool)

G00 Z0.000000
G00 X30.438849 Y103.246847

G01 Z2 F100.0(Penetrate)
G01 X30.939599 Y102.746097 Z2 F75
G00 Z0.000000

(End cutting path id: path9)


(Start cutting path id: path9)
(Change tool to Default tool)

G00 Z0.000000
G00 X37.824912 Y101.369034

G01 Z2 F100.0(Penetrate)
G01 X37.824912 Y100.868284 Z2 F75
G00 Z0.000000

(End cutting path id: path9)


(Start cutting path id: path9)
(Change tool to Default tool)

G00 Z0.000000
G00 X36.072287 Y99.991972

G01 Z2 F100.0(Penetrate)
G01 X35.947099 Y99.115660 Z2 F75
G00 Z0.000000

(End cutting path id: path9)


(Start cutting path id: path9)
(Change tool to Default tool)

G00 Z0.000000
G00 X23.678724 Y98.489720

G01 Z2 F100.0(Penetrate)
G01 X23.803911 Y98.489720 Z2 F75
G00 Z0.000000

(End cutting path id: path9)


(Start cutting path id: path9)
(Change tool to Default tool)

G00 Z0.000000
G00 X31.315161 Y97.613410

G01 Z2 F100.0(Penetrate)
G01 X32.942599 Y97.488220 Z2 F75
G00 Z0.000000

(End cutting path id: path9)


(Start cutting path id: path10)
(Change tool to Default tool)

G00 Z0.000000
G00 X42.079218 Y126.696582

G01 Z2 F100.0(Penetrate)
G01 X42.955530 Y126.571394 Z2 F75
G00 Z0.000000

(End cutting path id: path10)


(Start cutting path id: path10)
(Change tool to Default tool)

G00 Z0.000000
G00 X46.836343 Y126.195832

G01 Z2 F100.0(Penetrate)
G01 X48.216593 Y124.067644 Z2 F75
G01 X50.466781 Y120.937956 Z2
G00 Z0.000000

(End cutting path id: path10)


(Start cutting path id: path10)
(Change tool to Default tool)

G00 Z0.000000
G00 X72.249406 Y118.559394

G01 Z2 F100.0(Penetrate)
G01 X71.999031 Y118.309019 Z2 F75
G00 Z0.000000

(End cutting path id: path10)


(Start cutting path id: path10)
(Change tool to Default tool)

G00 Z0.000000
G00 X66.866343 Y117.307519

G01 Z2 F100.0(Penetrate)
G01 X65.238906 Y115.930456 Z2 F75
G00 Z0.000000

(End cutting path id: path10)


(Start cutting path id: path10)
(Change tool to Default tool)

G00 Z0.000000
G00 X73.376094 Y116.556394

G01 Z2 F100.0(Penetrate)
G01 X73.501281 Y116.556394 Z2 F75
G00 Z0.000000

(End cutting path id: path10)


(Start cutting path id: path10)
(Change tool to Default tool)

G00 Z0.000000
G00 X68.368594 Y114.928956

G01 Z2 F100.0(Penetrate)
G01 X67.742656 Y114.303019 Z2 F75
G00 Z0.000000

(End cutting path id: path10)


(Start cutting path id: path10)
(Change tool to Default tool)

G00 Z0.000000
G00 X69.870844 Y113.051144

G01 Z2 F100.0(Penetrate)
G01 X69.620469 Y112.800769 Z2 F75
G00 Z0.000000

(End cutting path id: path10)


(Start cutting path id: path10)
(Change tool to Default tool)

G00 Z0.000000
G00 X58.979531 Y112.800769

G01 Z2 F100.0(Penetrate)
G01 X56.600968 Y111.423706 Z2 F75
G00 Z0.000000

(End cutting path id: path10)


(Start cutting path id: path10)
(Change tool to Default tool)

G00 Z0.000000
G00 X40.326593 Y110.797769

G01 Z2 F100.0(Penetrate)
G02 X41.383434 Y111.605590 Z2 I3.822877 J-3.906095 F75
G02 X42.579968 Y112.174831 Z2 I3.877035 J-6.607296
G00 Z0.000000

(End cutting path id: path10)


(Start cutting path id: path10)
(Change tool to Default tool)

G00 Z0.000000
G00 X62.484781 Y111.298519

G01 Z2 F100.0(Penetrate)
G01 X59.605468 Y109.420706 Z2 F75
G00 Z0.000000

(End cutting path id: path10)


(Start cutting path id: path10)
(Change tool to Default tool)

G00 Z0.000000
G00 X72.249406 Y111.298519

G01 Z2 F100.0(Penetrate)
G01 X71.498281 Y110.547394 Z2 F75
G00 Z0.000000

(End cutting path id: path10)


(Start cutting path id: path10)
(Change tool to Default tool)

G00 Z0.000000
G00 X43.456280 Y109.921456

G01 Z2 F100.0(Penetrate)
G01 X46.085218 Y111.173331 Z2 F75
G00 Z0.000000

(End cutting path id: path10)


(Start cutting path id: path10)
(Change tool to Default tool)

G00 Z0.000000
G00 X65.113718 Y109.671081

G01 Z2 F100.0(Penetrate)
G03 X64.147308 Y109.050674 Z2 I15.113909 J-24.605876 F75
G03 X63.110718 Y108.294019 Z2 I8.947482 J-13.346101
G00 Z0.000000

(End cutting path id: path10)


(Start cutting path id: path10)
(Change tool to Default tool)

G00 Z0.000000
G00 X73.501281 Y109.170331

G01 Z2 F100.0(Penetrate)
G01 X73.501281 Y108.419206 Z2 F75
G00 Z0.000000

(End cutting path id: path10)


(Start cutting path id: path10)
(Change tool to Default tool)

G00 Z0.000000
G00 X67.492281 Y107.668081

G01 Z2 F100.0(Penetrate)
G01 X66.365593 Y107.042144 Z2 F75
G00 Z0.000000

(End cutting path id: path10)


(Start cutting path id: path10)
(Change tool to Default tool)

G00 Z0.000000
G00 X71.748656 Y105.915456

G01 Z2 F100.0(Penetrate)
G01 X68.994531 Y103.662081 Z2 F75
G00 Z0.000000

(End cutting path id: path10)


(Start cutting path id: path10)
(Change tool to Default tool)

G00 Z0.000000
G00 X40.201405 Y105.539894

G01 Z2 F100.0(Penetrate)
G01 X41.578468 Y104.788769 Z2 F75
G00 Z0.000000

(End cutting path id: path10)


(Start cutting path id: path10)
(Change tool to Default tool)

G00 Z0.000000
G00 X72.499781 Y102.910956

G01 Z2 F100.0(Penetrate)
G01 X71.498281 Y102.285019 Z2 F75
G00 Z0.000000

(End cutting path id: path10)


(Start cutting path id: path10)
(Change tool to Default tool)

G00 Z0.000000
G00 X37.572468 Y101.408706

G01 Z2 F100.0(Penetrate)
G02 X37.878598 Y101.312803 Z2 I-0.547901 J-2.285499 F75
G02 X39.199905 Y100.657581 Z2 I-3.033067 J-7.776287
G00 Z0.000000

(End cutting path id: path10)


(Start cutting path id: path10)
(Change tool to Default tool)

G00 Z0.000000
G00 X73.501281 Y100.407206

G01 Z2 F100.0(Penetrate)
G01 X73.501281 Y100.031643 Z2 F75
G00 Z0.000000

(End cutting path id: path10)


(Start cutting path id: path10)
(Change tool to Default tool)

G00 Z0.000000
G00 X65.238906 Y99.280520

G01 Z2 F100.0(Penetrate)
G01 X66.240406 Y98.153830 Z2 F75
G00 Z0.000000

(End cutting path id: path10)


(Footer)
M5
;G00 X0.0000 Y0.0000
M2
(Using default footer. To add your own footer create file "footer" in the output dir.)
(end)
%