%
(Header)
(Generated by gcodetools from Inkscape.)
(Using default header. To add your own header create file "header" in the output dir.)
M3
(Header end.)
G21 (All units in mm)

(Start cutting path id: path19)
(Change tool to Default tool)

G00 Z0.000000
G00 X19.171974 Y47.338010

G01 Z2 F100.0(Penetrate)
G02 X21.113490 Y47.708927 Z2 I1.668604 J-3.467318 F75
G02 X23.052786 Y47.338010 Z2 I-0.594769 J-8.364814
G00 Z0.000000

(End cutting path id: path19)


(Start cutting path id: path19)
(Change tool to Default tool)

G00 Z0.000000
G00 X21.800911 Y45.209820

G01 Z2 F100.0(Penetrate)
G01 X24.555036 Y44.959450 Z2 F75
G00 Z0.000000

(End cutting path id: path19)


(Start cutting path id: path19)
(Change tool to Default tool)

G00 Z0.000000
G00 X23.177974 Y42.706070

G01 Z2 F100.0(Penetrate)
G02 X24.367699 Y42.188860 Z2 I-15.517282 J-37.320980 F75
G02 X25.306161 Y41.704570 Z2 I-4.343600 J-9.568492
G03 X25.196252 Y41.378734 Z2 I6.494773 J-2.372240
G03 X25.034633 Y40.828070 Z2 I18.297604 J-5.669354
G03 X25.005313 Y40.145203 Z2 I1.459552 J-0.404732
G03 X25.431349 Y39.200820 Z2 I2.150031 J0.401646
G00 Z0.000000

(End cutting path id: path19)


(Start cutting path id: path19)
(Change tool to Default tool)

G00 Z0.000000
G00 X8.030286 Y41.078630

G01 Z2 F100.0(Penetrate)
G01 X7.905098 Y40.828260 Z2 F75
G00 Z0.000000

(End cutting path id: path19)


(Start cutting path id: path19)
(Change tool to Default tool)

G00 Z0.000000
G00 X21.926099 Y33.317010

G01 Z2 F100.0(Penetrate)
G02 X21.018109 Y33.115969 Z2 I-1.376731 J4.066960 F75
G03 X20.174052 Y32.922900 Z2 I0.410176 J-3.734759
G01 X19.302861 Y31.439200 Z2
G03 X19.323888 Y30.630868 Z2 I2.564595 J-0.337728
G02 X19.422349 Y29.561380 Z2 I-5.801565 J-1.073391
G00 Z0.000000

(End cutting path id: path19)


(Start cutting path id: path19)
(Change tool to Default tool)

G00 Z0.000000
G00 X28.185474 Y31.188820

G01 Z2 F100.0(Penetrate)
G01 X28.775864 Y32.063490 Z2 F75
G01 X29.562536 Y32.941450 Z2
G00 Z0.000000

(End cutting path id: path19)


(Start cutting path id: path19)
(Change tool to Default tool)

G00 Z0.000000
G00 X18.045286 Y32.565880

G01 Z2 F100.0(Penetrate)
G01 X19.422349 Y32.315510 Z2 F75
G00 Z0.000000

(End cutting path id: path19)


(Start cutting path id: path19)
(Change tool to Default tool)

G00 Z0.000000
G00 X14.039286 Y26.932450

G01 Z2 F100.0(Penetrate)
G01 X14.164474 Y26.932450 Z2 F75
G00 Z0.000000

(End cutting path id: path19)


(Start cutting path id: path20)
(Change tool to Default tool)

G00 Z0.000000
G00 X66.154894 Y53.472200

G01 Z2 F100.0(Penetrate)
G02 X68.633304 Y53.934275 Z2 I4.589587 J-17.739243 F75
G02 X71.037207 Y54.098130 Z2 I2.928439 J-25.247265
G00 Z0.000000

(End cutting path id: path20)


(Start cutting path id: path20)
(Change tool to Default tool)

G00 Z0.000000
G00 X67.031207 Y51.093630

G01 Z2 F100.0(Penetrate)
G01 X70.411269 Y51.594380 Z2 F75
G00 Z0.000000

(End cutting path id: path20)


(Start cutting path id: path20)
(Change tool to Default tool)

G00 Z0.000000
G00 X55.013206 Y47.838760

G01 Z2 F100.0(Penetrate)
G01 X52.259081 Y45.209820 Z2 F75
G00 Z0.000000

(End cutting path id: path20)


(Start cutting path id: path20)
(Change tool to Default tool)

G00 Z0.000000
G00 X55.639144 Y45.209820

G01 Z2 F100.0(Penetrate)
G02 X54.983416 Y44.747704 Z2 I-3.727462 J4.592868 F75
G03 X54.409196 Y44.061880 Z2 I0.721571 J-1.187449
G01 X54.692897 Y43.209910 Z2
G03 X55.028459 Y42.730709 Z2 I11.285665 J7.545746
G03 X55.138394 Y42.580880 Z2 I132.830774 J97.347017
G00 Z0.000000

(End cutting path id: path20)


(Start cutting path id: path20)
(Change tool to Default tool)

G00 Z0.000000
G00 X51.758331 Y38.950450

G01 Z2 F100.0(Penetrate)
G01 X50.631644 Y37.823760 Z2 F75
G00 Z0.000000

(End cutting path id: path20)


(Start cutting path id: path20)
(Change tool to Default tool)

G00 Z0.000000
G00 X48.002706 Y37.948950

G01 Z2 F100.0(Penetrate)
G02 X46.150881 Y35.566247 Z2 I-32.765913 J23.554546 F75
G02 X44.247081 Y33.442200 Z2 I-33.426166 J28.044909
G00 Z0.000000

(End cutting path id: path20)


(Start cutting path id: path20)
(Change tool to Default tool)

G00 Z0.000000
G00 X58.017706 Y37.448200

G01 Z2 F100.0(Penetrate)
G01 X58.142894 Y35.320010 Z2 F75
G00 Z0.000000

(End cutting path id: path20)


(Start cutting path id: path20)
(Change tool to Default tool)

G00 Z0.000000
G00 X52.259081 Y35.820760

G01 Z2 F100.0(Penetrate)
G01 X51.633144 Y35.069630 Z2 F75
G00 Z0.000000

(End cutting path id: path20)


(Start cutting path id: path20)
(Change tool to Default tool)

G00 Z0.000000
G00 X65.779331 Y35.820760

G01 Z2 F100.0(Penetrate)
G01 X65.396331 Y34.819360 Z2 F75
G02 X64.911666 Y34.359225 Z2 I-3.569907 J3.274903
G02 X64.277660 Y33.942950 Z2 I-2.211517 J2.677294
G03 X63.716373 Y33.499765 Z2 I0.830830 J-1.629256
G03 X63.243125 Y32.941540 Z2 I113.728146 J-96.895365
G02 X62.678860 Y32.397774 Z2 I-2.908719 J2.453718
G02 X61.522956 Y31.939950 Z2 I-1.354568 J1.731873
G00 Z0.000000

(End cutting path id: path20)


(Start cutting path id: path20)
(Change tool to Default tool)

G00 Z0.000000
G00 X65.654144 Y34.819260

G01 Z2 F100.0(Penetrate)
G02 X65.424208 Y34.527104 Z2 I-3.004067 J2.127735 F75
G02 X64.777831 Y33.942950 Z2 I-2.773945 J2.419728
G00 Z0.000000

(End cutting path id: path20)


(Start cutting path id: path20)
(Change tool to Default tool)

G00 Z0.000000
G00 X53.761331 Y34.193320

G01 Z2 F100.0(Penetrate)
G01 X52.885019 Y33.191820 Z2 F75
G00 Z0.000000

(End cutting path id: path20)


(Start cutting path id: path20)
(Change tool to Default tool)

G00 Z0.000000
G00 X54.762831 Y32.315510

G01 Z2 F100.0(Penetrate)
G01 X54.888019 Y32.315510 Z2 F75
G00 Z0.000000

(End cutting path id: path20)


(Start cutting path id: path20)
(Change tool to Default tool)

G00 Z0.000000
G00 X59.895519 Y29.811760

G01 Z2 F100.0(Penetrate)
G01 X60.271081 Y29.936950 Z2 F75
G00 Z0.000000

(End cutting path id: path20)


(Start cutting path id: path20)
(Change tool to Default tool)

G00 Z0.000000
G00 X64.402269 Y25.305010

G01 Z2 F100.0(Penetrate)
G02 X67.480177 Y26.830218 Z2 I12.694618 J-21.749797 F75
G03 X70.661644 Y28.278600 Z2 I-18.857146 J45.639328
G03 X71.832451 Y28.872321 Z2 I-43.686043 J87.599274
G02 X72.789832 Y29.336990 Z2 I10.094002 J-19.578597
G02 X73.539357 Y29.613824 Z2 I2.244580 J-4.924098
G03 X73.791332 Y29.686570 Z2 I-31.510708 J109.618083
G00 Z0.000000

(End cutting path id: path20)


(Start cutting path id: path20)
(Change tool to Default tool)

G00 Z0.000000
G00 X57.516956 Y27.683570

G01 Z2 F100.0(Penetrate)
G01 X59.519956 Y27.933950 Z2 F75
G00 Z0.000000

(End cutting path id: path20)


(Start cutting path id: path20)
(Change tool to Default tool)

G00 Z0.000000
G00 X72.915019 Y26.306510

G01 Z2 F100.0(Penetrate)
G01 X73.791332 Y26.556880 Z2 F75
G00 Z0.000000

(End cutting path id: path20)


(Start cutting path id: path20)
(Change tool to Default tool)

G00 Z0.000000
G00 X55.764331 Y25.305010

G01 Z2 F100.0(Penetrate)
G01 X58.017706 Y25.591120 Z2 F75
G01 X59.019206 Y25.680520 Z2
G00 Z0.000000

(End cutting path id: path20)


(Footer)
M5
G00 X0.0000 Y0.0000
M2
(Using default footer. To add your own footer create file "footer" in the output dir.)
(end)
%