%
(Header)
(Generated by gcodetools from Inkscape.)
(Using default header. To add your own header create file "header" in the output dir.)
M3
(Header end.)
G21 (All units in mm)

(Start cutting path id: path12)
(Change tool to Default tool)

G00 Z0.000000
G00 X144.722670 Y112.675589

G01 Z2 F100.0(Penetrate)
G02 X144.583375 Y111.281951 Z2 I-7.694934 J0.065335 F75
G03 X144.313200 Y109.671089 Z2 I32.631927 J-6.301134
G03 X144.087932 Y107.120201 Z2 I23.697940 J-3.378148
G02 X143.846360 Y104.913964 Z2 I-14.901424 J0.515288
G00 Z0.000000

(End cutting path id: path12)


(Start cutting path id: path12)
(Change tool to Default tool)

G00 Z0.000000
G00 X118.558480 Y107.918464

G01 Z2 F100.0(Penetrate)
G01 X120.060730 Y105.915464 Z2 F75
G00 Z0.000000

(End cutting path id: path12)


(Start cutting path id: path12)
(Change tool to Default tool)

G00 Z0.000000
G00 X109.920540 Y105.665089

G01 Z2 F100.0(Penetrate)
G01 X110.672250 Y105.834324 Z2 F75
G01 X113.050230 Y106.916964 Z2
G00 Z0.000000

(End cutting path id: path12)


(Start cutting path id: path12)
(Change tool to Default tool)

G00 Z0.000000
G00 X141.342610 Y106.416214

G01 Z2 F100.0(Penetrate)
G03 X141.389343 Y104.455537 Z2 I41.153595 J-0.000000 F75
G03 X141.843360 Y102.535401 Z2 I5.370733 J0.256168
G00 Z0.000000

(End cutting path id: path12)


(Start cutting path id: path12)
(Change tool to Default tool)

G00 Z0.000000
G00 X109.795360 Y105.665089

G01 Z2 F100.0(Penetrate)
G01 X109.920540 Y105.665089 Z2 F75
G00 Z0.000000

(End cutting path id: path12)


(Start cutting path id: path12)
(Change tool to Default tool)

G00 Z0.000000
G00 X117.181420 Y105.665089

G01 Z2 F100.0(Penetrate)
G01 X118.057730 Y104.413214 Z2 F75
G00 Z0.000000

(End cutting path id: path12)


(Start cutting path id: path12)
(Change tool to Default tool)

G00 Z0.000000
G00 X115.679170 Y103.787276

G01 Z2 F100.0(Penetrate)
G01 X116.305110 Y102.785776 Z2 F75
G00 Z0.000000

(End cutting path id: path12)


(Start cutting path id: path12)
(Change tool to Default tool)

G00 Z0.000000
G00 X137.712170 Y103.286526

G01 Z2 F100.0(Penetrate)
G01 X138.212920 Y100.907964 Z2 F75
G00 Z0.000000

(End cutting path id: path12)


(Start cutting path id: path12)
(Change tool to Default tool)

G00 Z0.000000
G00 X134.457290 Y101.659089

G01 Z2 F100.0(Penetrate)
G01 X135.333610 Y99.781280 Z2 F75
G00 Z0.000000

(End cutting path id: path12)


(Start cutting path id: path12)
(Change tool to Default tool)

G00 Z0.000000
G00 X114.427290 Y101.283526

G01 Z2 F100.0(Penetrate)
G01 X114.552480 Y101.158339 Z2 F75
G00 Z0.000000

(End cutting path id: path12)


(Start cutting path id: path12)
(Change tool to Default tool)

G00 Z0.000000
G00 X131.202420 Y99.530900

G01 Z2 F100.0(Penetrate)
G01 X132.704670 Y97.653090 Z2 F75
G00 Z0.000000

(End cutting path id: path12)


(Start cutting path id: path12)
(Change tool to Default tool)

G00 Z0.000000
G00 X128.823860 Y97.903460

G01 Z2 F100.0(Penetrate)
G02 X129.803108 Y96.404094 Z2 I-49.715445 J-33.539012 F75
G03 X131.077230 Y94.773780 Z2 I8.782378 J5.550567
G00 Z0.000000

(End cutting path id: path12)


(Start cutting path id: path12)
(Change tool to Default tool)

G00 Z0.000000
G00 X111.297610 Y97.778280

G01 Z2 F100.0(Penetrate)
G01 X111.297610 Y97.653090 Z2 F75
G00 Z0.000000

(End cutting path id: path12)


(Start cutting path id: path12)
(Change tool to Default tool)

G00 Z0.000000
G00 X116.931040 Y95.149340

G01 Z2 F100.0(Penetrate)
G02 X118.952672 Y94.149237 Z2 I-3.500611 J-9.619558 F75
G02 X121.062230 Y92.770780 Z2 I-75.559700 J-117.938204
G03 X121.896973 Y92.279451 Z2 I4.816759 J7.228666
G02 X122.513480 Y91.815060 Z2 I-1.049524 J-2.034729
G01 X122.689670 Y90.892960 Z2
G00 Z0.000000

(End cutting path id: path12)


(Start cutting path id: path12)
(Change tool to Default tool)

G00 Z0.000000
G00 X124.567480 Y94.523400

G01 Z2 F100.0(Penetrate)
G01 X125.931500 Y93.518040 Z2 F75
G01 X126.820860 Y92.520400 Z2
G00 Z0.000000

(End cutting path id: path12)


(Start cutting path id: path12)
(Change tool to Default tool)

G00 Z0.000000
G00 X138.212920 Y93.021150

G01 Z2 F100.0(Penetrate)
G02 X136.799773 Y92.323505 Z2 I-5.700302 J9.766458 F75
G03 X135.610160 Y91.648440 Z2 I2.042066 J-4.984281
G03 X135.137265 Y91.230088 Z2 I2.346459 J-3.128825
G02 X134.582480 Y90.892960 Z2 I-0.913487 J0.878209
G00 Z0.000000

(End cutting path id: path12)


(Start cutting path id: path12)
(Change tool to Default tool)

G00 Z0.000000
G00 X114.427290 Y92.019650

G01 Z2 F100.0(Penetrate)
G02 X114.943000 Y91.208235 Z2 I-2.460066 J-2.133132 F75
G02 X115.053230 Y90.892960 Z2 I-1.871504 J-0.831245
G00 Z0.000000

(End cutting path id: path12)


(Start cutting path id: path12)
(Change tool to Default tool)

G00 Z0.000000
G00 X138.087730 Y90.892960

G01 Z2 F100.0(Penetrate)
G01 X138.463290 Y90.892960 Z2 F75
G00 Z0.000000

(End cutting path id: path12)


(Start cutting path id: path13)
(Change tool to Default tool)

G00 Z0.000000
G00 X158.155340 Y125.615731

G01 Z2 F100.0(Penetrate)
G02 X159.053528 Y125.057791 Z2 I-0.513671 J-1.828857 F75
G02 X160.012390 Y123.988293 Z2 I-266.486542 J-239.884013
G02 X161.592298 Y122.160639 Z2 I-56.033912 J-50.034991
G02 X163.162460 Y120.232668 Z2 I-71.833291 J-60.105225
G02 X167.121040 Y114.962363 Z2 I-99.429435 J-78.804283
G03 X171.107230 Y109.716918 Z2 I84.971653 J60.435474
G03 X173.791913 Y106.469654 Z2 I173.733209 J140.900945
G03 X176.557910 Y103.457543 Z2 I36.740270 J30.962232
G00 Z0.000000

(End cutting path id: path13)


(Start cutting path id: path13)
(Change tool to Default tool)

G00 Z0.000000
G00 X153.273030 Y114.599230

G01 Z2 F100.0(Penetrate)
G03 X151.880126 Y111.149537 Z2 I16.288551 J-8.582988 F75
G03 X151.019650 Y107.588730 Z2 I38.718167 J-11.240690
G00 Z0.000000

(End cutting path id: path13)


(Start cutting path id: path13)
(Change tool to Default tool)

G00 Z0.000000
G00 X148.140340 Y112.345855

G01 Z2 F100.0(Penetrate)
G01 X148.265530 Y108.590230 Z2 F75
G01 X148.140340 Y106.712418 Z2
G00 Z0.000000

(End cutting path id: path13)


(Start cutting path id: path13)
(Change tool to Default tool)

G00 Z0.000000
G00 X155.025660 Y111.594730

G01 Z2 F100.0(Penetrate)
G01 X153.898970 Y109.466543 Z2 F75
G00 Z0.000000

(End cutting path id: path13)


(Start cutting path id: path13)
(Change tool to Default tool)

G00 Z0.000000
G00 X156.778280 Y109.090980

G01 Z2 F100.0(Penetrate)
G01 X158.656090 Y110.092480 Z2 F75
G00 Z0.000000

(End cutting path id: path13)


(Start cutting path id: path13)
(Change tool to Default tool)

G00 Z0.000000
G00 X156.277530 Y93.442540

G01 Z2 F100.0(Penetrate)
G01 X156.402720 Y93.442540 Z2 F75
G00 Z0.000000

(End cutting path id: path13)


(Start cutting path id: path13)
(Change tool to Default tool)

G00 Z0.000000
G00 X162.411720 Y90.312850

G01 Z2 F100.0(Penetrate)
G01 X162.787280 Y90.312850 Z2 F75
G00 Z0.000000

(End cutting path id: path13)


(Footer)
M5
;G00 X0.0000 Y0.0000
M2
(Using default footer. To add your own footer create file "footer" in the output dir.)
(end)
%