%
(Header)
(Generated by gcodetools from Inkscape.)
(Using default header. To add your own header create file "header" in the output dir.)
M3
(Header end.)
G21 (All units in mm)

(Start cutting path id: path16)
(Change tool to Default tool)

G00 Z0.000000
G00 X96.197825 Y73.796870

G01 Z2 F100.0(Penetrate)
G01 X99.327513 Y73.401410 Z2 F75
G01 X100.329010 Y73.283850 Z2
G01 X101.455700 Y73.782090 Z2
G01 X102.582390 Y73.796890 Z2
G00 Z0.000000

(End cutting path id: path16)


(Start cutting path id: path16)
(Change tool to Default tool)

G00 Z0.000000
G00 X91.941450 Y73.671700

G01 Z2 F100.0(Penetrate)
G02 X93.263923 Y73.556529 Z2 I-0.649271 J-15.105697 F75
G02 X94.570388 Y73.137910 Z2 I-0.501582 J-3.813362
G02 X96.399708 Y71.885602 Z2 I-4.707297 J-8.838478
G03 X98.200825 Y70.416820 Z2 I27.986387 J32.480029
G00 Z0.000000

(End cutting path id: path16)


(Start cutting path id: path16)
(Change tool to Default tool)

G00 Z0.000000
G00 X74.665575 Y72.920570

G01 Z2 F100.0(Penetrate)
G01 X73.664075 Y71.418320 Z2 F75
G00 Z0.000000

(End cutting path id: path16)


(Start cutting path id: path16)
(Change tool to Default tool)

G00 Z0.000000
G00 X77.795262 Y71.793890

G01 Z2 F100.0(Penetrate)
G03 X77.158189 Y71.383709 Z2 I9.540735 J-15.518018 F75
G03 X76.543387 Y70.917570 Z2 I3.858869 J-5.728066
G00 Z0.000000

(End cutting path id: path16)


(Start cutting path id: path16)
(Change tool to Default tool)

G00 Z0.000000
G00 X73.538887 Y71.418320

G01 Z2 F100.0(Penetrate)
G01 X73.664075 Y71.418320 Z2 F75
G00 Z0.000000

(End cutting path id: path16)


(Start cutting path id: path16)
(Change tool to Default tool)

G00 Z0.000000
G00 X93.819263 Y70.291640

G01 Z2 F100.0(Penetrate)
G03 X94.418266 Y69.714781 Z2 I16.820006 J16.866243 F75
G03 X94.945371 Y69.237010 Z2 I18.971158 J20.400454
G02 X95.292660 Y68.904464 Z2 I-3.967316 J-4.490828
G02 X95.694563 Y68.413730 Z2 I-2.831350 J-2.728767
G02 X95.952822 Y67.837560 Z2 I-1.418213 J-0.981658
G02 X95.822263 Y67.036760 Z2 I-1.015157 J-0.245536
G00 Z0.000000

(End cutting path id: path16)


(Start cutting path id: path16)
(Change tool to Default tool)

G00 Z0.000000
G00 X81.801262 Y66.786390

G01 Z2 F100.0(Penetrate)
G01 X84.305012 Y68.038260 Z2 F75
G00 Z0.000000

(End cutting path id: path16)


(Start cutting path id: path16)
(Change tool to Default tool)

G00 Z0.000000
G00 X84.805762 Y65.659700

G01 Z2 F100.0(Penetrate)
G01 X82.927950 Y64.658200 Z2 F75
G01 X83.137175 Y64.448970 Z2
G03 X83.767520 Y63.844923 Z2 I14.449168 J14.447321
G02 X84.229475 Y63.155950 Z2 I-1.192648 J-1.299024
G02 X84.301514 Y62.734555 Z2 I-1.096672 J-0.404334
G03 X84.307235 Y62.280210 Z2 I8.356039 J-0.121984
G03 X84.411821 Y61.783981 Z2 I1.515909 J0.060358
G03 X84.555388 Y61.528510 Z2 I1.002838 J0.395492
G00 Z0.000000

(End cutting path id: path16)


(Start cutting path id: path16)
(Change tool to Default tool)

G00 Z0.000000
G00 X82.552388 Y64.533010

G01 Z2 F100.0(Penetrate)
G01 X82.927951 Y64.658200 Z2 F75
G00 Z0.000000

(End cutting path id: path16)


(Start cutting path id: path16)
(Change tool to Default tool)

G00 Z0.000000
G00 X77.544888 Y60.777390

G01 Z2 F100.0(Penetrate)
G01 X76.042638 Y59.275140 Z2 F75
G00 Z0.000000

(End cutting path id: path16)


(Start cutting path id: path16)
(Change tool to Default tool)

G00 Z0.000000
G00 X78.421201 Y58.649200

G01 Z2 F100.0(Penetrate)
G01 X80.424201 Y60.401820 Z2 F75
G00 Z0.000000

(End cutting path id: path16)


(Start cutting path id: path16)
(Change tool to Default tool)

G00 Z0.000000
G00 X82.051638 Y58.774390

G01 Z2 F100.0(Penetrate)
G01 X80.924951 Y57.647700 Z2 F75
G00 Z0.000000

(End cutting path id: path16)


(Start cutting path id: path16)
(Change tool to Default tool)

G00 Z0.000000
G00 X96.698576 Y56.020260

G01 Z2 F100.0(Penetrate)
G01 X96.698576 Y50.762390 Z2 F75
G03 X96.699292 Y50.136334 Z2 I273.580914 J0.000003
G02 X96.698481 Y49.510510 Z2 I-87.288649 J-0.199750
G02 X96.635478 Y48.279508 Z2 I-13.300047 J0.063583
G03 X96.573389 Y47.006760 Z2 I13.013764 J-1.272748
G01 X96.573389 Y45.754890 Z2
G03 X96.638712 Y44.055792 Z2 I22.129954 J-0.000006
G02 X96.698576 Y42.500010 Z2 I-20.220565 J-1.557090
G01 X96.698576 Y38.388910 Z2
G01 X96.698576 Y37.993260 Z2
G00 Z0.000000

(End cutting path id: path16)


(Start cutting path id: path17)
(Change tool to Default tool)

G00 Z0.000000
G00 X135.583980 Y73.632000

G01 Z2 F100.0(Penetrate)
G02 X134.891441 Y73.460301 Z2 I-1.373412 J4.057074 F75
G02 X133.956540 Y73.381620 Z2 I-0.986301 J6.125729
G00 Z0.000000

(End cutting path id: path17)


(Start cutting path id: path17)
(Change tool to Default tool)

G00 Z0.000000
G00 X116.179920 Y73.006060

G01 Z2 F100.0(Penetrate)
G01 X117.306610 Y71.629000 Z2 F75
G00 Z0.000000

(End cutting path id: path17)


(Start cutting path id: path17)
(Change tool to Default tool)

G00 Z0.000000
G00 X138.212920 Y72.880870

G01 Z2 F100.0(Penetrate)
G01 X137.086230 Y72.380120 Z2 F75
G00 Z0.000000

(End cutting path id: path17)


(Start cutting path id: path17)
(Change tool to Default tool)

G00 Z0.000000
G00 X112.299110 Y72.505310

G01 Z2 F100.0(Penetrate)
G01 X112.367210 Y71.418900 Z2 F75
G01 X111.422790 Y71.253440 Z2
G00 Z0.000000

(End cutting path id: path17)


(Start cutting path id: path17)
(Change tool to Default tool)

G00 Z0.000000
G00 X112.549480 Y71.253440

G01 Z2 F100.0(Penetrate)
G01 X113.425790 Y70.502310 Z2 F75
G00 Z0.000000

(End cutting path id: path17)


(Start cutting path id: path17)
(Change tool to Default tool)

G00 Z0.000000
G00 X138.588480 Y70.251940

G01 Z2 F100.0(Penetrate)
G01 X138.838860 Y70.377120 Z2 F75
G00 Z0.000000

(End cutting path id: path17)


(Start cutting path id: path18)
(Change tool to Default tool)

G00 Z0.000000
G00 X162.451400 Y72.966390

G01 Z2 F100.0(Penetrate)
G01 X163.202520 Y72.966390 Z2 F75
G00 Z0.000000

(End cutting path id: path18)


(Start cutting path id: path18)
(Change tool to Default tool)

G00 Z0.000000
G00 X151.560080 Y53.562330

G01 Z2 F100.0(Penetrate)
G01 X152.686770 Y54.012460 Z2 F75
G01 X154.689770 Y54.438640 Z2
G00 Z0.000000

(End cutting path id: path18)


(Start cutting path id: path18)
(Change tool to Default tool)

G00 Z0.000000
G00 X151.935650 Y53.437140

G01 Z2 F100.0(Penetrate)
G01 X151.935650 Y52.310450 Z2 F75
G00 Z0.000000

(End cutting path id: path18)


(Start cutting path id: path18)
(Change tool to Default tool)

G00 Z0.000000
G00 X152.311210 Y49.931890

G01 Z2 F100.0(Penetrate)
G01 X152.311210 Y49.806700 Z2 F75
G00 Z0.000000

(End cutting path id: path18)


(Start cutting path id: path18)
(Change tool to Default tool)

G00 Z0.000000
G00 X173.467900 Y42.921390

G01 Z2 F100.0(Penetrate)
G01 X173.593080 Y42.921390 Z2 F75
G00 Z0.000000

(End cutting path id: path18)


(Start cutting path id: path18)
(Change tool to Default tool)

G00 Z0.000000
G00 X158.695770 Y42.671010

G01 Z2 F100.0(Penetrate)
G01 X158.820960 Y42.545830 Z2 F75
G00 Z0.000000

(End cutting path id: path18)


(Start cutting path id: path18)
(Change tool to Default tool)

G00 Z0.000000
G00 X175.846460 Y40.918390

G01 Z2 F100.0(Penetrate)
G01 X175.846460 Y40.793200 Z2 F75
G00 Z0.000000

(End cutting path id: path18)


(Start cutting path id: path18)
(Change tool to Default tool)

G00 Z0.000000
G00 X158.320210 Y38.039080

G01 Z2 F100.0(Penetrate)
G01 X158.320210 Y37.413140 Z2 F75
G00 Z0.000000

(End cutting path id: path18)


(Start cutting path id: path21)
(Change tool to Default tool)

G00 Z0.000000
G00 X96.573388 Y36.499220

G01 Z2 F100.0(Penetrate)
G01 X96.573388 Y32.117650 Z2 F75
G01 X96.573388 Y30.865780 Z2
G01 X96.573388 Y29.864280 Z2
G01 X96.573388 Y26.984970 Z2
G01 X96.573388 Y25.733090 Z2
G01 X96.573388 Y23.604900 Z2
G00 Z0.000000

(End cutting path id: path21)


(Start cutting path id: path21)
(Change tool to Default tool)

G00 Z0.000000
G00 X94.320013 Y22.728590

G01 Z2 F100.0(Penetrate)
G01 X86.808762 Y19.011600 Z2 F75
G01 X79.422700 Y15.498340 Z2
G01 X75.917450 Y13.871190 Z2
G01 X74.540580 Y13.233660 Z2
G01 X73.664075 Y12.963970 Z2
G00 Z0.000000

(End cutting path id: path21)


(Start cutting path id: path21)
(Change tool to Default tool)

G00 Z0.000000
G00 X98.951950 Y22.728590

G01 Z2 F100.0(Penetrate)
G02 X102.551247 Y21.215127 Z2 I-7.245973 J-22.268900 F75
G02 X105.962450 Y19.290480 Z2 I-28.184744 J-53.939339
G03 X107.319668 Y18.478030 Z2 I63.316234 J104.231417
G03 X108.466200 Y17.829370 Z2 I18.535544 J31.424727
G03 X109.226705 Y17.524802 Z2 I1.688444 J3.114267
G03 X109.467700 Y17.470720 Z2 I0.730793 J2.692484
G00 Z0.000000

(End cutting path id: path21)


(Start cutting path id: path21)
(Change tool to Default tool)

G00 Z0.000000
G00 X73.664075 Y9.709090

G01 Z2 F100.0(Penetrate)
G03 X73.892298 Y9.781445 Z2 I-1.157333 J4.046601 F75
G03 X74.540580 Y10.032010 Z2 I-3.429584 J9.837210
G03 X75.121817 Y10.291754 Z2 I-6.905963 J16.233842
G03 X75.792262 Y10.616320 Z2 I-12.597342 J26.876695
G02 X77.168027 Y11.283965 Z2 I29.523169 J-59.084880
G03 X78.546387 Y11.935030 Z2 I-309.864079 J657.792839
G03 X84.569765 Y15.154556 Z2 I-30.131618 J63.617230
G02 X90.564387 Y18.441310 Z2 I46.364679 J-77.453201
G03 X93.247220 Y19.814774 Z2 I-70.853596 J141.707667
G03 X95.697075 Y21.101150 Z2 I-762.963161 J1456.010700
G00 Z0.000000

(End cutting path id: path21)


(Start cutting path id: path21)
(Change tool to Default tool)

G00 Z0.000000
G00 X84.805762 Y7.330530

G01 Z2 F100.0(Penetrate)
G03 X86.168259 Y8.503463 Z2 I-9.132750 J11.986566 F75
G02 X87.685075 Y9.781150 Z2 I9.814980 J-10.112729
G03 X90.108162 Y11.689104 Z2 I-24.282967 J33.331806
G02 X92.567387 Y13.537160 Z2 I16.619532 J-19.555481
G03 X94.640049 Y15.074928 Z2 I-13.231094 J19.999060
G03 X96.448200 Y16.719590 Z2 I-16.987505 J20.492438
G02 X96.318634 Y16.849145 Z2 I899.412332 J896.334137
G03 X95.819751 Y17.348040 Z2 R19687.497856
G01 X95.071138 Y18.096650 Z2
G01 X98.451200 Y20.350030 Z2
G00 Z0.000000

(End cutting path id: path21)


(Start cutting path id: path21)
(Change tool to Default tool)

G00 Z0.000000
G00 X101.080140 Y19.223340

G01 Z2 F100.0(Penetrate)
G03 X103.799785 Y17.649253 Z2 I33.310600 J54.416244 F75
G02 X106.463200 Y15.986050 Z2 I-12.948847 J-23.700151
G03 X107.532537 Y15.281153 Z2 I11.028120 J15.566241
G03 X108.466200 Y14.757160 Z2 I7.391838 J12.077139
G03 X109.228180 Y14.499924 Z2 I1.243581 J2.426535
G03 X109.467700 Y14.466220 Z2 I0.565820 J3.153089
G00 Z0.000000

(End cutting path id: path21)


(Start cutting path id: path21)
(Change tool to Default tool)

G00 Z0.000000
G00 X80.173825 Y7.831280

G01 Z2 F100.0(Penetrate)
G02 X81.926806 Y9.240858 Z2 I20.392713 J-23.566001 F75
G03 X83.929450 Y10.763620 Z2 I-83.896281 J112.413534
G02 X87.323337 Y13.173990 Z2 I30.697180 J-39.628183
G02 X90.814762 Y15.429950 Z2 I481.311360 J-741.069349
G03 X92.882243 Y16.854945 Z2 I-21.110919 J32.841508
G02 X95.071138 Y18.096650 Z2 I6.259730 J-8.484575
G00 Z0.000000

(End cutting path id: path21)


(Start cutting path id: path21)
(Change tool to Default tool)

G00 Z0.000000
G00 X99.327513 Y17.971470

G01 Z2 F100.0(Penetrate)
G02 X102.533617 Y15.535682 Z2 I-21.636091 J-31.806395 F75
G03 X105.837260 Y13.164400 Z2 I16.533494 J19.547337
G02 X107.290213 Y12.217990 Z2 I-13.072247 J-21.657350
G02 X108.466200 Y11.385600 Z2 I-95.343045 J-135.946082
G03 X109.210815 Y10.952055 Z2 I2.695583 J3.773462
G03 X109.467700 Y10.835780 Z2 I6.460894 J13.932068
G00 Z0.000000

(End cutting path id: path21)


(Start cutting path id: path21)
(Change tool to Default tool)

G00 Z0.000000
G00 X98.326013 Y15.467720

G01 Z2 F100.0(Penetrate)
G01 X102.206830 Y11.832350 Z2 F75
G01 X103.583890 Y10.460220 Z2
G00 Z0.000000

(End cutting path id: path21)


(Start cutting path id: path21)
(Change tool to Default tool)

G00 Z0.000000
G00 X96.573388 Y13.715090

G01 Z2 F100.0(Penetrate)
G02 X95.507748 Y12.670317 Z2 I-53.360842 J53.360766 F75
G02 X94.445200 Y11.737110 Z2 I-10.906643 J11.346773
G03 X91.972704 Y9.670365 Z2 I49.132418 J-61.290596
G02 X89.562887 Y7.706090 Z2 I-31.071685 J35.659101
G00 Z0.000000

(End cutting path id: path21)


(Start cutting path id: path21)
(Change tool to Default tool)

G00 Z0.000000
G00 X73.538887 Y12.963970

G01 Z2 F100.0(Penetrate)
G01 X73.664075 Y12.963970 Z2 F75
G00 Z0.000000

(End cutting path id: path21)


(Start cutting path id: path21)
(Change tool to Default tool)

G00 Z0.000000
G00 X98.200825 Y11.962470

G01 Z2 F100.0(Penetrate)
G01 X99.202325 Y9.834280 Z2 F75
G00 Z0.000000

(End cutting path id: path21)


(Start cutting path id: path21)
(Change tool to Default tool)

G00 Z0.000000
G00 X96.197825 Y10.335030

G01 Z2 F100.0(Penetrate)
G01 X94.695575 Y7.831280 Z2 F75
G00 Z0.000000

(End cutting path id: path21)


(Start cutting path id: path21)
(Change tool to Default tool)

G00 Z0.000000
G00 X73.538887 Y9.709090

G01 Z2 F100.0(Penetrate)
G01 X73.664075 Y9.709090 Z2 F75
G00 Z0.000000

(End cutting path id: path21)


(Start cutting path id: path22)
(Change tool to Default tool)

G00 Z0.000000
G00 X145.434120 Y23.018650

G01 Z2 F100.0(Penetrate)
G01 X145.434120 Y22.893460 Z2 F75
G00 Z0.000000

(End cutting path id: path22)


(Start cutting path id: path22)
(Change tool to Default tool)

G00 Z0.000000
G00 X133.791690 Y20.514900

G01 Z2 F100.0(Penetrate)
G01 X133.916870 Y20.514900 Z2 F75
G00 Z0.000000

(End cutting path id: path22)


(Start cutting path id: path22)
(Change tool to Default tool)

G00 Z0.000000
G00 X135.419120 Y18.637080

G01 Z2 F100.0(Penetrate)
G03 X136.267404 Y18.054128 Z2 I30.603278 J43.623780 F75
G03 X137.672500 Y17.760770 Z2 I1.062852 J1.579070
G00 Z0.000000

(End cutting path id: path22)


(Start cutting path id: path22)
(Change tool to Default tool)

G00 Z0.000000
G00 X109.505310 Y17.260020

G01 Z2 F100.0(Penetrate)
G02 X109.757704 Y17.186139 Z2 I-64.687656 J-221.457054 F75
G02 X110.506810 Y16.878080 Z2 I-1.089507 J-3.714173
G02 X112.128911 Y15.976949 Z2 I-36.486224 J-67.588363
G02 X114.137250 Y14.828720 Z2 I-2698.920843 J-4722.945989
G03 X118.951468 Y12.233094 Z2 I54.082990 J94.547649
G02 X123.651500 Y9.498400 Z2 I-21.365812 J-42.126987
G00 Z0.000000

(End cutting path id: path22)


(Start cutting path id: path22)
(Change tool to Default tool)

G00 Z0.000000
G00 X130.662000 Y17.009650

G01 Z2 F100.0(Penetrate)
G03 X130.748306 Y16.079804 Z2 I5.088337 J0.003356 F75
G03 X131.096970 Y15.292760 Z2 I1.835715 J0.342479
G02 X131.358343 Y14.904747 Z2 I-3.282057 J-2.492898
G02 X131.538410 Y14.504640 Z2 I-1.670900 J-0.992555
G01 X132.046400 Y13.841510 Z2
G03 X132.891689 Y13.823410 Z2 I0.452298 J1.375828
G03 X133.916870 Y14.130330 Z2 I-9.023667 J32.006721
G00 Z0.000000

(End cutting path id: path22)


(Start cutting path id: path22)
(Change tool to Default tool)

G00 Z0.000000
G00 X130.411620 Y15.131830

G01 Z2 F100.0(Penetrate)
G01 X130.912370 Y15.131830 Z2 F75
G00 Z0.000000

(End cutting path id: path22)


(Start cutting path id: path22)
(Change tool to Default tool)

G00 Z0.000000
G00 X109.505310 Y14.255520

G01 Z2 F100.0(Penetrate)
G02 X109.749921 Y14.178217 Z2 I-3.740757 J-12.262671 F75
G02 X110.506810 Y13.831950 Z2 I-1.147625 J-3.508893
G02 X111.428868 Y13.232417 Z2 I-8.234992 J-13.673892
G03 X112.509810 Y12.509660 Z2 I17.254530 J24.635874
G02 X115.397429 Y10.635870 Z2 I-117.833528 J-184.750193
G02 X118.143250 Y8.747270 Z2 I-48.223161 J-73.051644
G00 Z0.000000

(End cutting path id: path22)


(Start cutting path id: path22)
(Change tool to Default tool)

G00 Z0.000000
G00 X132.665000 Y11.626580

G01 Z2 F100.0(Penetrate)
G03 X134.022101 Y11.972330 Z2 I-0.996565 J6.747854 F75
G02 X135.419120 Y12.252520 Z2 I1.598841 J-4.348936
G00 Z0.000000

(End cutting path id: path22)


(Start cutting path id: path22)
(Change tool to Default tool)

G00 Z0.000000
G00 X109.505310 Y10.499900

G01 Z2 F100.0(Penetrate)
G02 X109.833908 Y10.362268 Z2 I-0.574507 J-1.832728 F75
G02 X111.007560 Y9.498400 Z2 I-2.371295 J-4.450839
G00 Z0.000000

(End cutting path id: path22)


(Start cutting path id: path22)
(Change tool to Default tool)

G00 Z0.000000
G00 X140.051060 Y9.873960

G01 Z2 F100.0(Penetrate)
G02 X141.439755 Y9.625250 Z2 I0.296475 J-2.345913 F75
G03 X142.429140 Y9.320850 Z2 I1.323222 J2.540755
G01 X143.452380 Y9.981180 Z2
G02 X144.620317 Y10.469978 Z2 I1.267235 J-1.388201
G02 X145.434120 Y10.499900 Z2 I1.335946 J-25.252948
G00 Z0.000000

(End cutting path id: path22)


(Start cutting path id: path22)
(Change tool to Default tool)

G00 Z0.000000
G00 X142.930370 Y9.248020

G01 Z2 F100.0(Penetrate)
G03 X144.451734 Y8.544676 Z2 I1.768106 J1.827431 F75
G03 X145.434120 Y8.496900 Z2 I0.982386 J10.076103
G00 Z0.000000

(End cutting path id: path22)


(Start cutting path id: path23)
(Change tool to Default tool)

G00 Z0.000000
G00 X157.364540 Y37.250340

G01 Z2 F100.0(Penetrate)
G01 X157.990480 Y37.250340 Z2 F75
G00 Z0.000000

(End cutting path id: path23)


(Start cutting path id: path23)
(Change tool to Default tool)

G00 Z0.000000
G00 X156.613410 Y34.996970

G01 Z2 F100.0(Penetrate)
G01 X156.112660 Y34.496220 Z2 F75
G00 Z0.000000

(End cutting path id: path23)


(Start cutting path id: path23)
(Change tool to Default tool)

G00 Z0.000000
G00 X176.643410 Y32.618400

G01 Z2 F100.0(Penetrate)
G01 X176.768600 Y32.618400 Z2 F75
G00 Z0.000000

(End cutting path id: path23)


(Start cutting path id: path23)
(Change tool to Default tool)

G00 Z0.000000
G00 X155.236350 Y31.366530

G01 Z2 F100.0(Penetrate)
G01 X154.985980 Y31.116150 Z2 F75
G00 Z0.000000

(End cutting path id: path23)


(Start cutting path id: path23)
(Change tool to Default tool)

G00 Z0.000000
G00 X152.106660 Y28.111650

G01 Z2 F100.0(Penetrate)
G01 X151.480730 Y27.736090 Z2 F75
G00 Z0.000000

(End cutting path id: path23)


(Start cutting path id: path23)
(Change tool to Default tool)

G00 Z0.000000
G00 X147.725100 Y25.232340

G01 Z2 F100.0(Penetrate)
G01 X147.474730 Y25.107150 Z2 F75
G00 Z0.000000

(End cutting path id: path23)


(Start cutting path id: path23)
(Change tool to Default tool)

G00 Z0.000000
G00 X172.387040 Y22.728590

G01 Z2 F100.0(Penetrate)
G01 X167.379540 Y21.601900 Z2 F75
G00 Z0.000000

(End cutting path id: path23)


(Start cutting path id: path23)
(Change tool to Default tool)

G00 Z0.000000
G00 X172.387040 Y20.475220

G01 Z2 F100.0(Penetrate)
G01 X174.014480 Y20.725590 Z2 F75
G00 Z0.000000

(End cutting path id: path23)


(Start cutting path id: path23)
(Change tool to Default tool)

G00 Z0.000000
G00 X174.264850 Y18.472220

G01 Z2 F100.0(Penetrate)
G01 X175.015980 Y18.597400 Z2 F75
G00 Z0.000000

(End cutting path id: path23)


(Start cutting path id: path23)
(Change tool to Default tool)

G00 Z0.000000
G00 X166.503230 Y18.221840

G01 Z2 F100.0(Penetrate)
G01 X166.753600 Y17.971470 Z2 F75
G00 Z0.000000

(End cutting path id: path23)


(Start cutting path id: path23)
(Change tool to Default tool)

G00 Z0.000000
G00 X175.141160 Y14.341030

G01 Z2 F100.0(Penetrate)
G01 X174.401440 Y15.217440 Z2 F75
G01 X175.015980 Y16.469220 Z2
G00 Z0.000000

(End cutting path id: path23)


(Start cutting path id: path23)
(Change tool to Default tool)

G00 Z0.000000
G00 X168.506230 Y15.718090

G01 Z2 F100.0(Penetrate)
G01 X168.506230 Y15.592900 Z2 F75
G00 Z0.000000

(End cutting path id: path23)


(Start cutting path id: path23)
(Change tool to Default tool)

G00 Z0.000000
G00 X149.728100 Y12.963970

G01 Z2 F100.0(Penetrate)
G02 X150.887618 Y13.146344 Z2 I1.712529 J-7.110872 F75
G02 X152.106660 Y13.219270 Z2 I2.898451 J-38.225545
G03 X152.553292 Y13.263569 Z2 I-0.178247 J4.070834
G02 X152.982980 Y13.318370 Z2 I1.225355 J-7.895823
G02 X153.421630 Y13.351911 Z2 I0.940039 J-9.408747
G03 X153.859290 Y13.392670 Z2 I-0.292806 J5.514197
G02 X155.107709 Y13.537200 Z2 I4.811579 J-36.097405
G03 X156.363040 Y13.715100 Z2 I-1.450439 J14.752839
G00 Z0.000000

(End cutting path id: path23)


(Start cutting path id: path23)
(Change tool to Default tool)

G00 Z0.000000
G00 X151.480730 Y10.960980

G01 Z2 F100.0(Penetrate)
G02 X153.133801 Y11.063049 Z2 I1.243132 J-6.696042 F75
G03 X155.111160 Y10.960980 Z2 I6.884339 J114.164754
G00 Z0.000000

(End cutting path id: path23)


(Start cutting path id: path23)
(Change tool to Default tool)

G00 Z0.000000
G00 X153.483730 Y10.960980

G01 Z2 F100.0(Penetrate)
G01 X153.484310 Y10.084570 Z2 F75
G01 X153.773900 Y9.228930 Z2
G01 X154.985980 Y8.832790 Z2
G00 Z0.000000

(End cutting path id: path23)


(Start cutting path id: path23)
(Change tool to Default tool)

G00 Z0.000000
G00 X168.255850 Y10.710600

G01 Z2 F100.0(Penetrate)
G01 X168.255850 Y10.585410 Z2 F75
G00 Z0.000000

(End cutting path id: path23)


(Start cutting path id: path23)
(Change tool to Default tool)

G00 Z0.000000
G00 X152.982980 Y9.208350

G01 Z2 F100.0(Penetrate)
G01 X153.358540 Y9.208350 Z2 F75
G00 Z0.000000

(End cutting path id: path23)


(Footer)
M5
G00 X0.0000 Y0.0000
M2
(Using default footer. To add your own footer create file "footer" in the output dir.)
(end)
%