%
(Header)
(Generated by gcodetools from Inkscape.)
(Using default header. To add your own header create file "header" in the output dir.)
M3
(Header end.)
G21 (All units in mm)

(Start cutting path id: path14)
(Change tool to Default tool)

G00 Z0.000000
G00 X11.956932 Y60.407970

G01 Z2 F100.0(Penetrate)
G01 X11.831745 Y60.157590 Z2 F75
G00 Z0.000000

(End cutting path id: path14)


(Start cutting path id: path14)
(Change tool to Default tool)

G00 Z0.000000
G00 X13.333995 Y53.647840

G01 Z2 F100.0(Penetrate)
G01 X13.834745 Y53.397470 Z2 F75
G00 Z0.000000

(End cutting path id: path14)


(Start cutting path id: path15)
(Change tool to Default tool)

G00 Z0.000000
G00 X73.501281 Y71.464140

G01 Z2 F100.0(Penetrate)
G01 X73.501281 Y70.087080 Z2 F75
G00 Z0.000000

(End cutting path id: path15)


(Start cutting path id: path15)
(Change tool to Default tool)

G00 Z0.000000
G00 X60.982531 Y70.087080

G01 Z2 F100.0(Penetrate)
G03 X61.565634 Y70.237721 Z2 I-1.233765 J5.979516 F75
G02 X62.101877 Y70.311660 Z2 I0.489951 J-1.571861
G01 X62.234406 Y68.584830 Z2
G02 X62.031736 Y68.723383 Z2 I9.159211 J13.615300
G02 X61.554182 Y69.140830 Z2 I1.630462 J2.347105
G01 X61.085308 Y69.645440 Z2
G01 X59.855843 Y69.210770 Z2
G00 Z0.000000

(End cutting path id: path15)


(Start cutting path id: path15)
(Change tool to Default tool)

G00 Z0.000000
G00 X71.748656 Y70.212270

G01 Z2 F100.0(Penetrate)
G01 X72.249406 Y69.085580 Z2 F75
G00 Z0.000000

(End cutting path id: path15)


(Start cutting path id: path15)
(Change tool to Default tool)

G00 Z0.000000
G00 X64.612968 Y66.707020

G01 Z2 F100.0(Penetrate)
G01 X63.987031 Y66.206270 Z2 F75
G00 Z0.000000

(End cutting path id: path15)


(Start cutting path id: path15)
(Change tool to Default tool)

G00 Z0.000000
G00 X71.623469 Y65.329950

G01 Z2 F100.0(Penetrate)
G01 X72.249406 Y64.453640 Z2 F75
G00 Z0.000000

(End cutting path id: path15)


(Start cutting path id: path15)
(Change tool to Default tool)

G00 Z0.000000
G00 X64.988531 Y64.203260

G01 Z2 F100.0(Penetrate)
G01 X65.489281 Y64.453640 Z2 F75
G00 Z0.000000

(End cutting path id: path15)


(Start cutting path id: path15)
(Change tool to Default tool)

G00 Z0.000000
G00 X47.337093 Y64.078080

G01 Z2 F100.0(Penetrate)
G01 X47.837843 Y63.827700 Z2 F75
G00 Z0.000000

(End cutting path id: path15)


(Start cutting path id: path15)
(Change tool to Default tool)

G00 Z0.000000
G00 X49.590468 Y61.699510

G01 Z2 F100.0(Penetrate)
G01 X49.590468 Y61.574330 Z2 F75
G00 Z0.000000

(End cutting path id: path15)


(Start cutting path id: path15)
(Change tool to Default tool)

G00 Z0.000000
G00 X53.846843 Y60.072080

G01 Z2 F100.0(Penetrate)
G01 X53.846843 Y59.946890 Z2 F75
G00 Z0.000000

(End cutting path id: path15)


(Start cutting path id: path15)
(Change tool to Default tool)

G00 Z0.000000
G00 X56.475781 Y58.194260

G01 Z2 F100.0(Penetrate)
G01 X56.726156 Y58.069080 Z2 F75
G00 Z0.000000

(End cutting path id: path15)


(Start cutting path id: path15)
(Change tool to Default tool)

G00 Z0.000000
G00 X59.104718 Y56.191260

G01 Z2 F100.0(Penetrate)
G01 X59.229906 Y56.066080 Z2 F75
G00 Z0.000000

(End cutting path id: path15)


(Start cutting path id: path15)
(Change tool to Default tool)

G00 Z0.000000
G00 X67.617469 Y37.413140

G01 Z2 F100.0(Penetrate)
G01 X70.747156 Y37.413140 Z2 F75
G00 Z0.000000

(End cutting path id: path15)


(Start cutting path id: path19)
(Change tool to Default tool)

G00 Z0.000000
G00 X19.171974 Y30.404710

G01 Z2 F100.0(Penetrate)
G02 X21.113490 Y30.775627 Z2 I1.668604 J-3.467318 F75
G02 X23.052786 Y30.404710 Z2 I-0.594769 J-8.364814
G00 Z0.000000

(End cutting path id: path19)


(Start cutting path id: path19)
(Change tool to Default tool)

G00 Z0.000000
G00 X21.800911 Y28.276520

G01 Z2 F100.0(Penetrate)
G01 X24.555036 Y28.026150 Z2 F75
G00 Z0.000000

(End cutting path id: path19)


(Start cutting path id: path19)
(Change tool to Default tool)

G00 Z0.000000
G00 X23.177974 Y25.772770

G01 Z2 F100.0(Penetrate)
G02 X24.367699 Y25.255560 Z2 I-15.517282 J-37.320980 F75
G02 X25.306161 Y24.771270 Z2 I-4.343600 J-9.568492
G03 X25.196252 Y24.445434 Z2 I6.494773 J-2.372240
G03 X25.034633 Y23.894770 Z2 I18.297604 J-5.669354
G03 X25.005313 Y23.211903 Z2 I1.459552 J-0.404732
G03 X25.431349 Y22.267520 Z2 I2.150031 J0.401646
G00 Z0.000000

(End cutting path id: path19)


(Start cutting path id: path19)
(Change tool to Default tool)

G00 Z0.000000
G00 X8.030286 Y24.145330

G01 Z2 F100.0(Penetrate)
G01 X7.905098 Y23.894960 Z2 F75
G00 Z0.000000

(End cutting path id: path19)


(Start cutting path id: path19)
(Change tool to Default tool)

G00 Z0.000000
G00 X21.926099 Y16.383710

G01 Z2 F100.0(Penetrate)
G02 X21.018109 Y16.182669 Z2 I-1.376731 J4.066960 F75
G03 X20.174052 Y15.989600 Z2 I0.410176 J-3.734759
G01 X19.302861 Y14.505900 Z2
G03 X19.323888 Y13.697568 Z2 I2.564595 J-0.337728
G02 X19.422349 Y12.628080 Z2 I-5.801565 J-1.073391
G00 Z0.000000

(End cutting path id: path19)


(Start cutting path id: path19)
(Change tool to Default tool)

G00 Z0.000000
G00 X28.185474 Y14.255520

G01 Z2 F100.0(Penetrate)
G01 X28.775864 Y15.130190 Z2 F75
G01 X29.562536 Y16.008150 Z2
G00 Z0.000000

(End cutting path id: path19)


(Start cutting path id: path19)
(Change tool to Default tool)

G00 Z0.000000
G00 X18.045286 Y15.632580

G01 Z2 F100.0(Penetrate)
G01 X19.422349 Y15.382210 Z2 F75
G00 Z0.000000

(End cutting path id: path19)


(Start cutting path id: path19)
(Change tool to Default tool)

G00 Z0.000000
G00 X14.039286 Y9.999150

G01 Z2 F100.0(Penetrate)
G01 X14.164474 Y9.999150 Z2 F75
G00 Z0.000000

(End cutting path id: path19)


(Start cutting path id: path20)
(Change tool to Default tool)

G00 Z0.000000
G00 X66.154894 Y36.538900

G01 Z2 F100.0(Penetrate)
G02 X68.633304 Y37.000975 Z2 I4.589587 J-17.739243 F75
G02 X71.037207 Y37.164830 Z2 I2.928439 J-25.247265
G00 Z0.000000

(End cutting path id: path20)


(Start cutting path id: path20)
(Change tool to Default tool)

G00 Z0.000000
G00 X67.031207 Y34.160330

G01 Z2 F100.0(Penetrate)
G01 X70.411269 Y34.661080 Z2 F75
G00 Z0.000000

(End cutting path id: path20)


(Start cutting path id: path20)
(Change tool to Default tool)

G00 Z0.000000
G00 X55.013206 Y30.905460

G01 Z2 F100.0(Penetrate)
G01 X52.259081 Y28.276520 Z2 F75
G00 Z0.000000

(End cutting path id: path20)


(Start cutting path id: path20)
(Change tool to Default tool)

G00 Z0.000000
G00 X55.639144 Y28.276520

G01 Z2 F100.0(Penetrate)
G02 X54.983416 Y27.814404 Z2 I-3.727462 J4.592868 F75
G03 X54.409196 Y27.128580 Z2 I0.721571 J-1.187449
G01 X54.692897 Y26.276610 Z2
G03 X55.028459 Y25.797409 Z2 I11.285665 J7.545746
G03 X55.138394 Y25.647580 Z2 I132.830774 J97.347017
G00 Z0.000000

(End cutting path id: path20)


(Start cutting path id: path20)
(Change tool to Default tool)

G00 Z0.000000
G00 X51.758331 Y22.017150

G01 Z2 F100.0(Penetrate)
G01 X50.631644 Y20.890460 Z2 F75
G00 Z0.000000

(End cutting path id: path20)


(Start cutting path id: path20)
(Change tool to Default tool)

G00 Z0.000000
G00 X48.002706 Y21.015650

G01 Z2 F100.0(Penetrate)
G02 X46.150881 Y18.632947 Z2 I-32.765913 J23.554546 F75
G02 X44.247081 Y16.508900 Z2 I-33.426166 J28.044909
G00 Z0.000000

(End cutting path id: path20)


(Start cutting path id: path20)
(Change tool to Default tool)

G00 Z0.000000
G00 X58.017706 Y20.514900

G01 Z2 F100.0(Penetrate)
G01 X58.142894 Y18.386710 Z2 F75
G00 Z0.000000

(End cutting path id: path20)


(Start cutting path id: path20)
(Change tool to Default tool)

G00 Z0.000000
G00 X52.259081 Y18.887460

G01 Z2 F100.0(Penetrate)
G01 X51.633144 Y18.136330 Z2 F75
G00 Z0.000000

(End cutting path id: path20)


(Start cutting path id: path20)
(Change tool to Default tool)

G00 Z0.000000
G00 X65.779331 Y18.887460

G01 Z2 F100.0(Penetrate)
G01 X65.396331 Y17.886060 Z2 F75
G02 X64.911666 Y17.425925 Z2 I-3.569907 J3.274903
G02 X64.277660 Y17.009650 Z2 I-2.211517 J2.677294
G03 X63.716373 Y16.566465 Z2 I0.830830 J-1.629256
G03 X63.243125 Y16.008240 Z2 I113.728146 J-96.895365
G02 X62.678860 Y15.464474 Z2 I-2.908719 J2.453718
G02 X61.522956 Y15.006650 Z2 I-1.354568 J1.731873
G00 Z0.000000

(End cutting path id: path20)


(Start cutting path id: path20)
(Change tool to Default tool)

G00 Z0.000000
G00 X65.654144 Y17.885960

G01 Z2 F100.0(Penetrate)
G02 X65.424208 Y17.593804 Z2 I-3.004067 J2.127735 F75
G02 X64.777831 Y17.009650 Z2 I-2.773945 J2.419728
G00 Z0.000000

(End cutting path id: path20)


(Start cutting path id: path20)
(Change tool to Default tool)

G00 Z0.000000
G00 X53.761331 Y17.260020

G01 Z2 F100.0(Penetrate)
G01 X52.885019 Y16.258520 Z2 F75
G00 Z0.000000

(End cutting path id: path20)


(Start cutting path id: path20)
(Change tool to Default tool)

G00 Z0.000000
G00 X54.762831 Y15.382210

G01 Z2 F100.0(Penetrate)
G01 X54.888019 Y15.382210 Z2 F75
G00 Z0.000000

(End cutting path id: path20)


(Start cutting path id: path20)
(Change tool to Default tool)

G00 Z0.000000
G00 X59.895519 Y12.878460

G01 Z2 F100.0(Penetrate)
G01 X60.271081 Y13.003650 Z2 F75
G00 Z0.000000

(End cutting path id: path20)


(Start cutting path id: path20)
(Change tool to Default tool)

G00 Z0.000000
G00 X64.402269 Y8.371710

G01 Z2 F100.0(Penetrate)
G02 X67.480177 Y9.896918 Z2 I12.694618 J-21.749797 F75
G03 X70.661644 Y11.345300 Z2 I-18.857146 J45.639328
G03 X71.832451 Y11.939021 Z2 I-43.686043 J87.599274
G02 X72.789832 Y12.403690 Z2 I10.094002 J-19.578597
G02 X73.539357 Y12.680524 Z2 I2.244580 J-4.924098
G03 X73.791332 Y12.753270 Z2 I-31.510708 J109.618083
G00 Z0.000000

(End cutting path id: path20)


(Start cutting path id: path20)
(Change tool to Default tool)

G00 Z0.000000
G00 X57.516956 Y10.750270

G01 Z2 F100.0(Penetrate)
G01 X59.519956 Y11.000650 Z2 F75
G00 Z0.000000

(End cutting path id: path20)


(Start cutting path id: path20)
(Change tool to Default tool)

G00 Z0.000000
G00 X72.915019 Y9.373210

G01 Z2 F100.0(Penetrate)
G01 X73.791332 Y9.623580 Z2 F75
G00 Z0.000000

(End cutting path id: path20)


(Start cutting path id: path20)
(Change tool to Default tool)

G00 Z0.000000
G00 X55.764331 Y8.371710

G01 Z2 F100.0(Penetrate)
G01 X58.017706 Y8.657820 Z2 F75
G01 X59.019206 Y8.747220 Z2
G00 Z0.000000

(End cutting path id: path20)


(Footer)
M5
G00 X0.0000 Y0.0000
M2
(Using default footer. To add your own footer create file "footer" in the output dir.)
(end)
%