%
(Header)
(Generated by gcodetools from Inkscape.)
(Using default header. To add your own header create file "header" in the output dir.)
M3
(Header end.)
G21 (All units in mm)

(Start cutting path id: path12)
(Change tool to Default tool)

G00 Z0.000000
G00 X173.977080 Y137.122917

G01 Z2 F100.0(Penetrate)
G03 X174.557742 Y136.989783 Z2 I0.963620 J2.869961 F75.000000
G03 X175.375000 Y136.995833 Z2 I0.386229 J3.028741
G00 Z0.000000

(End cutting path id: path12)


(Start cutting path id: path12)
(Change tool to Default tool)

G00 Z0.000000
G00 X174.816160 Y134.577132

G01 Z2 F100.0(Penetrate)
G01 X175.369510 Y132.796003 Z2 F75.000000
G01 X174.816160 Y134.577132 Z2
G00 Z0.000000

(End cutting path id: path12)


(Start cutting path id: path12)
(Change tool to Default tool)

G00 Z0.000000
G00 X171.562500 Y135.470833

G01 Z2 F100.0(Penetrate)
G02 X170.586019 Y133.867938 Z2 I-2.957455 J0.702794 F75.000000
G03 X169.229010 Y132.506535 Z2 I8.118853 J-9.449667
G03 X168.731892 Y131.564719 Z2 I1.848502 J-1.577797
G03 X168.534560 Y130.514583 Z2 I6.531852 J-1.771017
G01 X168.643110 Y129.222373 Z2
G01 X169.656250 Y129.173833 Z2
G03 X171.156255 Y129.486540 Z2 I-12.310145 J62.803660
G03 X172.579170 Y130.006251 Z2 I-1.235383 J5.590110
G00 Z0.000000

(End cutting path id: path12)


(Start cutting path id: path12)
(Change tool to Default tool)

G00 Z0.000000
G00 X174.993750 Y130.260418

G01 Z2 F100.0(Penetrate)
G01 X175.375000 Y130.006251 Z2 F75.000000
G00 Z0.000000

(End cutting path id: path12)


(Start cutting path id: path12)
(Change tool to Default tool)

G00 Z0.000000
G00 X172.579170 Y127.337501

G01 Z2 F100.0(Penetrate)
G02 X174.065637 Y127.048749 Z2 I-0.002620 J-3.983965 F75.000000
G03 X175.502080 Y126.565782 Z2 I4.825952 J11.975739
G03 X177.189154 Y126.408360 Z2 I1.295065 J4.760276
G03 X178.806250 Y126.574982 Z2 I-2.792748 J35.034627
G00 Z0.000000

(End cutting path id: path12)


(Start cutting path id: path12)
(Change tool to Default tool)

G00 Z0.000000
G00 X174.993750 Y118.695815

G01 Z2 F100.0(Penetrate)
G01 X175.629170 Y118.060399 Z2 F75.000000
G00 Z0.000000

(End cutting path id: path12)


(Start cutting path id: path12)
(Change tool to Default tool)

G00 Z0.000000
G00 X177.789580 Y117.806232

G01 Z2 F100.0(Penetrate)
G01 X177.789580 Y117.425000 Z2 F75.000000
G00 Z0.000000

(End cutting path id: path12)


(Start cutting path id: path12)
(Change tool to Default tool)

G00 Z0.000000
G00 X173.087500 Y113.104167

G01 Z2 F100.0(Penetrate)
G01 X172.960420 Y112.977083 Z2 F75.000000
G00 Z0.000000

(End cutting path id: path12)


(Start cutting path id: path12)
(Change tool to Default tool)

G00 Z0.000000
G00 X176.029240 Y108.677136

G01 Z2 F100.0(Penetrate)
G01 X177.077490 Y108.246466 Z2 F75.000000
G01 X176.859600 Y107.124583 Z2
G01 X175.649860 Y108.142328 Z2
G01 X176.029240 Y108.677136 Z2
G00 Z0.000000

(End cutting path id: path12)


(Start cutting path id: path12)
(Change tool to Default tool)

G00 Z0.000000
G00 X172.237730 Y106.181753

G01 Z2 F100.0(Penetrate)
G01 X173.439720 Y105.694601 Z2 F75.000000
G01 X173.334220 Y104.147731 Z2
G01 X171.729980 Y104.971324 Z2
G01 X172.237730 Y106.181753 Z2
G00 Z0.000000

(End cutting path id: path12)


(Start cutting path id: path12)
(Change tool to Default tool)

G00 Z0.000000
G00 X174.231250 Y101.412500

G01 Z2 F100.0(Penetrate)
G03 X175.574253 Y100.541039 Z2 I3.038820 J3.212530 F75.000000
G02 X177.154170 Y99.748549 Z2 I-4.753535 J-11.447814
G02 X178.344793 Y98.833491 Z2 I-3.231858 J-5.437230
G03 X179.441670 Y97.854167 Z2 I11.323176 J11.578421
G00 Z0.000000

(End cutting path id: path12)


(Start cutting path id: path12)
(Change tool to Default tool)

G00 Z0.000000
G00 X178.046100 Y95.436054

G01 Z2 F100.0(Penetrate)
G01 X179.110820 Y95.436054 Z2 F75.000000
G01 X178.665830 Y93.864181 Z2
G01 X178.046100 Y95.436054 Z2
G00 Z0.000000

(End cutting path id: path12)


(Start cutting path id: path12)
(Change tool to Default tool)

G00 Z0.000000
G00 X178.184660 Y102.586551

G01 Z2 F100.0(Penetrate)
G01 X178.892930 Y101.166866 Z2 F75.000000
G01 X178.184660 Y102.586551 Z2
G00 Z0.000000

(End cutting path id: path12)


(Start cutting path id: path12)
(Change tool to Default tool)

G00 Z0.000000
G00 X169.147920 Y98.362500

G01 Z2 F100.0(Penetrate)
G01 X172.452080 Y99.914563 Z2 F75.000000
G01 X174.168300 Y101.470356 Z2
G01 X175.005910 Y102.683333 Z2
G01 X178.552080 Y106.495833 Z2
G00 Z0.000000

(End cutting path id: path12)


(Start cutting path id: path12)
(Change tool to Default tool)

G00 Z0.000000
G00 X164.827080 Y126.193732

G01 Z2 F100.0(Penetrate)
G02 X166.093838 Y125.301295 Z2 I-21.464507 J-31.812766 F75.000000
G02 X167.150960 Y124.160399 Z2 I-2.444635 J-3.325328
G02 X168.116310 Y122.090267 Z2 I-8.001183 J-4.991282
G03 X169.244600 Y119.971749 Z2 I6.574982 J2.142021
G03 X171.087350 Y118.483706 Z2 I4.132487 J3.232530
G02 X173.087500 Y117.297899 Z2 I-6.081318 J-12.537379
G00 Z0.000000

(End cutting path id: path12)


(Start cutting path id: path12)
(Change tool to Default tool)

G00 Z0.000000
G00 X168.512500 Y129.116668

G01 Z2 F100.0(Penetrate)
G02 X166.864685 Y128.757703 Z2 I-1.453115 J2.708866 F75.000000
G03 X164.445830 Y128.713746 Z2 I-0.940520 J-14.819469
G03 X162.802678 Y128.324853 Z2 I0.635393 J-6.350431
G03 X161.268750 Y127.591668 Z2 I3.760127 J-9.837921
G00 Z0.000000

(End cutting path id: path12)


(Footer)
M5
M2
(Using default footer. To add your own footer create file "footer" in the output dir.)
(end)
%