%
(Header)
(Generated by gcodetools from Inkscape.)
(Using default header. To add your own header create file "header" in the output dir.)
M3
(Header end.)
G21 (All units in mm)

(Start cutting path id: path17)
(Change tool to Default tool)

G00 Z0.000000
G00 X16.647917 Y44.987500

G01 Z2 F100.0(Penetrate)
G01 X16.851681 Y43.571540 Z2 F75.000000
G01 X18.172917 Y43.335420 Z2
G03 X20.231757 Y43.339815 Z2 I0.425492 J282.899867
G03 X22.239583 Y43.440930 Z2 I-0.130330 J22.573094
G02 X23.329297 Y43.517242 Z2 I2.076746 J-21.836888
G03 X24.400000 Y43.578210 Z2 I-2.033008 J45.135037
G02 X24.917251 Y43.582299 Z2 I0.292129 J-4.235995
G03 X25.390093 Y43.666210 Z2 I0.056159 J1.057739
G03 X25.939425 Y44.139202 Z2 I-0.473039 J1.104879
G02 X26.560907 Y44.658370 Z2 I1.090760 J-0.674155
G02 X27.580929 Y44.710294 Z2 I0.587368 J-1.493695
G02 X28.520990 Y44.084530 Z2 I-0.492230 J-1.758450
G02 X28.759011 Y42.798076 Z2 I-1.098088 J-0.868416
G02 X27.830759 Y41.860470 Z2 I-1.370899 J0.428924
G01 X26.818115 Y41.484520 Z2
G03 X26.624029 Y40.731773 Z2 I0.831487 J-0.615783
G02 X26.687500 Y39.777030 Z2 I-7.148992 J-0.954743
G02 X26.623836 Y37.612453 Z2 I-36.829707 J-0.000000
G03 X26.560417 Y35.456200 Z2 I36.624662 J-2.156253
G01 X26.691031 Y34.025530 Z2
G01 X28.339583 Y33.931230 Z2
G03 X30.007982 Y34.079071 Z2 I-1.038477 J21.207296
G02 X31.643750 Y34.185400 Z2 I1.661689 J-12.927915
G03 X32.296711 Y34.188926 Z2 I-0.190244 J95.694837
G03 X32.886047 Y34.316600 Z2 I-0.013080 J1.484385
G01 X33.614814 Y35.300120 Z2
G02 X34.536649 Y35.728564 Z2 I0.944625 J-0.826517
G02 X35.456153 Y35.510550 Z2 I0.034547 J-1.902370
G02 X36.573882 Y34.316238 Z2 I-1.157825 J-2.203767
G02 X35.958995 Y32.727570 Z2 I-1.099530 J-0.487761
G02 X34.191143 Y32.954070 Z2 I-0.695903 J1.580791
G02 X33.295833 Y34.185400 Z2 I1.754963 J2.217206
G00 Z0.000000

(End cutting path id: path17)


(Start cutting path id: path17)
(Change tool to Default tool)

G00 Z0.000000
G00 X34.185422 Y29.229190

G01 Z2 F100.0(Penetrate)
G02 X33.399550 Y28.049743 Z2 I-1.833187 J0.369923 F75.000000
G02 X32.152676 Y27.786650 Z2 I-0.946710 J1.400537
G01 X31.286432 Y28.975020 Z2
G02 X31.759696 Y29.980289 Z2 I1.304287 J-0.000000
G02 X32.787505 Y30.365480 Z2 I1.072135 J-1.296936
G02 X33.872492 Y29.849904 Z2 I0.035005 J-1.325756
G03 X34.583046 Y29.305870 Z2 I1.377138 J1.062618
G03 X35.052597 Y29.220382 Z2 I0.432214 J1.041713
G02 X35.583338 Y29.229170 Z2 I0.530741 J-16.023003
G03 X36.162428 Y29.237747 Z2 I0.001380 J19.459479
G03 X36.727088 Y29.283070 Z2 I-0.166906 J5.619538
G02 X37.309465 Y29.339085 Z2 I1.101233 J-8.393807
G02 X37.870838 Y29.356170 Z2 I0.557020 J-9.071356
G02 X38.549629 Y29.330270 Z2 I-0.003484 J-8.999064
G02 X39.203941 Y29.029240 Z2 I-0.078484 J-1.032206
G02 X39.694233 Y27.918807 Z2 I-1.192378 J-1.189930
G03 X39.765713 Y26.687420 Z2 I57.179387 J2.701399
G02 X39.824180 Y23.604174 Z2 I-30.903679 J-2.128203
G03 X39.777093 Y20.587420 Z2 I99.019484 J-3.054306
G02 X39.719973 Y19.845499 Z2 I-4.870986 J0.001853
G03 X39.762973 Y19.208330 Z2 I1.441649 J-0.222744
G01 X40.793271 Y18.623220 Z2
G02 X41.590429 Y17.763414 Z2 I-0.785854 J-1.528035
G02 X41.461929 Y16.534580 Z2 I-1.179306 J-0.497814
G02 X39.810861 Y15.886748 Z2 I-1.310289 J0.911533
G02 X38.510867 Y17.029180 Z2 I0.381290 J1.744737
G02 X38.895508 Y18.428832 Z2 I1.188969 J0.425935
G03 X39.650010 Y19.062420 Z2 I-38.772024 J46.937329
G00 Z0.000000

(End cutting path id: path17)


(Start cutting path id: path17)
(Change tool to Default tool)

G00 Z0.000000
G00 X45.622917 Y11.818750

G01 Z2 F100.0(Penetrate)
G01 X45.622917 Y10.929170 Z2 F75.000000
G00 Z0.000000

(End cutting path id: path17)


(Start cutting path id: path17)
(Change tool to Default tool)

G00 Z0.000000
G00 X26.052083 Y14.614580

G01 Z2 F100.0(Penetrate)
G01 X26.673674 Y12.475060 Z2 F75.000000
G02 X24.941800 Y12.460690 Z2 I-0.878377 J1.492096
G02 X23.891667 Y13.343750 Z2 I1.851055 J3.267207
G00 Z0.000000

(End cutting path id: path17)


(Start cutting path id: path17)
(Change tool to Default tool)

G00 Z0.000000
G00 X25.925000 Y22.493750

G01 Z2 F100.0(Penetrate)
G01 X25.925000 Y16.139580 Z2 F75.000000
G01 X25.794385 Y14.923860 Z2
G01 X24.544047 Y14.393170 Z2
G01 X23.729283 Y13.347280 Z2
G01 X22.747917 Y13.216670 Z2
G02 X21.620034 Y13.216257 Z2 I-0.755330 J523.153600
G03 X20.460417 Y13.216670 Z2 I-1.160415 J-1628.754905
G01 X10.675000 Y13.089580 Z2
G00 Z0.000000

(End cutting path id: path17)


(Start cutting path id: path17)
(Change tool to Default tool)

G00 Z0.000000
G00 X8.641667 Y14.233280

G01 Z2 F100.0(Penetrate)
G01 X10.563507 Y13.088160 Z2 F75.000000
G02 X8.902871 Y11.521739 Z2 I-1.629953 J0.064520
G02 X6.918099 Y12.735450 Z2 I0.043279 J2.300470
G01 X7.377795 Y14.105120 Z2
G01 X8.474183 Y14.643560 Z2
G03 X8.618283 Y16.190265 Z2 I-3.655699 J1.120652
G02 X8.514583 Y18.045780 Z2 I16.548591 J1.855515
G03 X8.450772 Y22.002105 Z2 I-122.678078 J0.000000
G02 X8.387500 Y25.924950 Z2 I121.576629 J3.922845
G03 X8.372607 Y26.529636 Z2 I-12.283237 J-0.000000
G02 X8.427802 Y27.057330 Z2 I1.733336 J0.085433
G02 X8.807416 Y27.707230 Z2 I1.359547 J-0.358308
G03 X9.258157 Y28.720780 Z2 I-1.039137 J1.069121
G03 X9.014925 Y29.514724 Z2 I-1.263550 J0.047129
G03 X8.387108 Y30.005740 Z2 I-1.183311 J-0.866116
G01 X7.628530 Y30.321970 Z2
G02 X7.328100 Y31.354248 Z2 I1.152471 J0.895268
G03 X7.371323 Y32.406250 Z2 I-9.901391 J0.933709
G03 X7.300029 Y35.001505 Z2 I-83.374571 J-0.991797
G02 X7.243750 Y37.616670 Z2 I60.732848 J2.615165
G03 X7.205769 Y38.489118 Z2 I-10.039281 J-0.000000
G02 X7.374364 Y39.251790 Z2 I1.297378 J0.113175
G02 X8.538079 Y39.847508 Z2 I1.040957 J-0.598976
G03 X9.912500 Y39.777080 Z2 I1.374421 J13.375900
G01 X14.995833 Y39.777080 Z2
G01 X16.139583 Y39.777080 Z2
G00 Z0.000000

(End cutting path id: path17)


(Start cutting path id: path17)
(Change tool to Default tool)

G00 Z0.000000
G00 X17.029657 Y40.572320

G01 Z2 F100.0(Penetrate)
G02 X17.610622 Y40.667957 Z2 I0.518582 J-1.337820 F75.000000
G02 X18.172917 Y40.610720 Z2 I-0.212140 J-4.874683
G02 X19.265382 Y40.254155 Z2 I-0.586063 J-3.647479
G02 X20.166242 Y39.517770 Z2 I-1.246848 J-2.444566
G02 X20.451905 Y38.541810 Z2 I-1.054025 J-0.838299
G02 X19.822549 Y37.688400 Z2 I-1.037912 J0.106652
G02 X18.153327 Y37.578669 Z2 I-0.991353 J2.329494
G02 X16.686453 Y38.518160 Z2 I0.792774 J2.852695
G02 X16.337256 Y39.125511 Z2 I1.487294 J1.259181
G02 X16.292849 Y39.776540 Z2 I1.140582 J0.404830
G01 X17.029657 Y40.572290 Z2
G00 Z0.000000

(End cutting path id: path17)


(Start cutting path id: path17)
(Change tool to Default tool)

G00 Z0.000000
G00 X25.670833 Y43.462480

G01 Z2 F100.0(Penetrate)
G03 X26.136115 Y42.406919 Z2 I2.729067 J0.572621 F75.000000
G03 X26.814583 Y41.683310 Z2 I3.113165 J2.239081
G00 Z0.000000

(End cutting path id: path17)


(Start cutting path id: path17)
(Change tool to Default tool)

G00 Z0.000000
G00 X26.560417 Y33.931250

G01 Z2 F100.0(Penetrate)
G02 X26.109182 Y33.764917 Z2 I-0.828653 J1.552774 F75.000000
G02 X25.416667 Y33.672180 Z2 I-0.903679 J4.116183
G03 X24.296088 Y33.587261 Z2 I1.106069 J-22.031609
G03 X23.129167 Y33.459200 Z2 I7.230260 J-71.264180
G02 X20.759922 Y33.215159 Z2 I-9.388782 J79.527031
G02 X18.427083 Y33.046180 Z2 I-6.630495 J75.349946
G03 X17.818010 Y32.972813 Z2 I0.275753 J-4.854113
G02 X17.283333 Y32.952280 Z2 I-0.337831 J1.825311
G02 X16.728911 Y33.157758 Z2 I0.127149 J1.193783
G03 X16.266667 Y33.433650 Z2 I-2.329851 J-3.378379
G03 X15.703019 Y33.631617 Z2 I-1.012341 J-1.980931
G03 X15.123015 Y33.669180 Z2 I-0.424824 J-2.062986
G01 X14.172831 Y32.914030 Z2
G03 X14.466298 Y31.793870 Z2 I1.290050 J-0.260547
G03 X15.377083 Y31.159280 Z2 I1.695362 J1.462353
G03 X16.873126 Y31.658605 Z2 I0.439380 J1.174394
G03 X17.283333 Y32.787540 Z2 I-2.319302 J1.481729
G00 Z0.000000

(End cutting path id: path17)


(Start cutting path id: path17)
(Change tool to Default tool)

G00 Z0.000000
G00 X15.250000 Y30.881250

G01 Z2 F100.0(Penetrate)
G01 X15.226570 Y30.479600 Z2 F75.000000
G02 X15.102976 Y29.889745 Z2 I-5.801652 J0.907761
G03 X15.000937 Y29.229170 Z2 I3.094367 J-0.816155
G03 X14.922042 Y27.318110 Z2 I129.533287 J-6.304745
G02 X14.777953 Y25.416670 Z2 I-22.831389 J0.773955
G01 X15.036238 Y24.012080 Z2
G03 X16.101353 Y23.775948 Z2 I0.816141 J1.161088
G02 X17.410422 Y23.891670 Z2 I1.309069 J-7.346366
G03 X20.100669 Y23.952409 Z2 I0.000000 J59.608634
G02 X22.747922 Y24.018650 Z2 I2.968755 J-65.712577
G01 X23.851762 Y24.095450 Z2
G01 X24.381864 Y25.022100 Z2
G02 X25.134651 Y25.573778 Z2 I1.137222 J-0.762343
G02 X26.052088 Y25.547500 Z2 I0.418156 J-1.429284
G02 X27.215664 Y24.020064 Z2 I-0.589233 J-1.655782
G02 X26.052088 Y22.681160 Z2 I-1.247042 J-0.091312
G02 X25.460788 Y22.760353 Z2 I-0.100260 J1.498481
G02 X24.913339 Y23.056620 Z2 I0.627243 J1.812966
G02 X24.358919 Y23.607904 Z2 I1.942698 J2.508178
G03 X24.018755 Y24.018770 Z2 I-7.823184 J-6.130721
G00 Z0.000000

(End cutting path id: path17)


(Start cutting path id: path17)
(Change tool to Default tool)

G00 Z0.000000
G00 X32.152083 Y27.577080

G01 Z2 F100.0(Penetrate)
G03 X32.205124 Y26.017912 Z2 I22.942926 J-0.000000 F75.000000
G02 X32.279167 Y23.891670 Z2 I-31.971473 J-2.177770
G03 X32.407518 Y19.824684 Z2 I67.989857 J0.110194
G02 X32.533333 Y15.758330 Z2 I-66.476825 J-4.091946
G03 X32.597786 Y14.393081 Z2 I14.611262 J0.005646
G02 X32.660417 Y13.089580 Z2 I-14.142205 J-1.332765
G01 X32.864181 Y12.040160 Z2
G01 X33.804167 Y11.819240 Z2
G03 X34.859714 Y11.815126 Z2 I0.724465 J50.458266
G02 X35.964583 Y11.818750 Z2 I1.104869 J-168.400415
G01 X42.318750 Y11.818750 Z2
G01 X44.859827 Y11.818750 Z2
G01 X45.622917 Y11.818750 Z2
G01 X45.622917 Y13.343750 Z2
G00 Z0.000000

(End cutting path id: path17)


(Start cutting path id: path17)
(Change tool to Default tool)

G00 Z0.000000
G00 X7.497917 Y30.245830

G01 Z2 F100.0(Penetrate)
G03 X6.895593 Y29.532622 Z2 I2.571157 J-2.782356 F75.000000
G03 X6.643340 Y28.593750 Z2 I1.313009 J-0.856098
G03 X7.313634 Y27.604174 Z2 I1.155860 J0.061125
G03 X8.387500 Y27.322920 Z2 I1.324277 J2.865564
G00 Z0.000000

(End cutting path id: path17)


(Footer)
M5
M2
(Using default footer. To add your own footer create file "footer" in the output dir.)
(end)
%