%
(Header)
(Generated by gcodetools from Inkscape.)
(Using default header. To add your own header create file "header" in the output dir.)
M3
(Header end.)
G21 (All units in mm)

(Start cutting path id: path14)
(Change tool to Default tool)

G00 Z0.000000
G00 X64.177083 Y90.991667

G01 Z2 F100.0(Penetrate)
G02 X64.612783 Y90.704596 Z2 I-0.809375 J-1.702602 F75.000000
G03 X65.215323 Y90.192199 Z2 I15.645478 J17.787409
G03 X65.507814 Y89.958758 Z2 I8.227826 J10.009128
G02 X65.956250 Y89.603752 Z2 I-16.708055 J-21.565997
G03 X66.354002 Y89.316000 Z2 I2.869386 J3.547498
G03 X66.718750 Y89.083357 Z2 I24.924314 J38.675206
G02 X67.495625 Y88.462066 Z2 I-2.385560 J-3.779305
G02 X68.243750 Y87.560417 Z2 I-4.507542 J-4.501241
G00 Z0.000000

(End cutting path id: path14)


(Start cutting path id: path14)
(Change tool to Default tool)

G00 Z0.000000
G00 X69.514583 Y89.593750

G01 Z2 F100.0(Penetrate)
G01 X69.641667 Y89.212500 Z2 F75.000000
G00 Z0.000000

(End cutting path id: path14)


(Start cutting path id: path14)
(Change tool to Default tool)

G00 Z0.000000
G00 X70.912500 Y90.991667

G01 Z2 F100.0(Penetrate)
G01 X71.039583 Y90.991667 Z2 F75.000000
G00 Z0.000000

(End cutting path id: path14)


(Start cutting path id: path14)
(Change tool to Default tool)

G00 Z0.000000
G00 X71.675000 Y87.560418

G01 Z2 F100.0(Penetrate)
G01 X71.039583 Y87.179168 Z2 F75.000000
G00 Z0.000000

(End cutting path id: path14)


(Start cutting path id: path14)
(Change tool to Default tool)

G00 Z0.000000
G00 X70.658333 Y85.654168

G01 Z2 F100.0(Penetrate)
G01 X71.929167 Y85.505413 Z2 F75.000000
G01 X76.377083 Y84.891668 Z2
G01 X77.902083 Y84.514439 Z2
G01 X79.427083 Y84.225264 Z2
G01 X83.875000 Y82.380991 Z2
G01 X86.035417 Y81.283711 Z2
G01 X87.306250 Y81.079171 Z2
G00 Z0.000000

(End cutting path id: path14)


(Start cutting path id: path14)
(Change tool to Default tool)

G00 Z0.000000
G00 X77.775000 Y84.510418

G01 Z2 F100.0(Penetrate)
G01 X77.776900 Y83.366668 Z2 F75.000000
G01 X78.121279 Y81.587501 Z2
G01 X79.554203 Y79.300001 Z2
G00 Z0.000000

(End cutting path id: path14)


(Start cutting path id: path14)
(Change tool to Default tool)

G00 Z0.000000
G00 X72.183330 Y79.935416

G01 Z2 F100.0(Penetrate)
G02 X72.602065 Y78.147535 Z2 I-11.022328 J-3.524487 F75.000000
G02 X72.618512 Y76.504166 Z2 I-5.796108 J-0.879775
G03 X72.567512 Y75.794378 Z2 I5.992993 J-0.787340
G03 X72.564582 Y75.360416 Z2 I35.688777 J-0.457928
G01 X73.835416 Y75.684106 Z2
G01 X75.360416 Y76.249996 Z2
G00 Z0.000000

(End cutting path id: path14)


(Start cutting path id: path14)
(Change tool to Default tool)

G00 Z0.000000
G00 X72.437499 Y75.233436

G01 Z2 F100.0(Penetrate)
G03 X72.075987 Y74.696907 Z2 I374.594222 J-252.791000 F75.000000
G03 X71.610183 Y73.962606 Z2 I13.405781 J-9.018846
G02 X70.297369 Y71.839765 Z2 I-69.246770 J41.356437
G03 X69.133332 Y69.387606 Z2 I9.087401 J-5.816143
G00 Z0.000000

(End cutting path id: path14)


(Start cutting path id: path14)
(Change tool to Default tool)

G00 Z0.000000
G00 X69.514582 Y64.939686

G01 Z2 F100.0(Penetrate)
G03 X69.030896 Y65.015323 Z2 I-1.255852 J-6.446568 F75.000000
G02 X68.442416 Y65.287696 Z2 I0.122797 J1.037224
G01 X68.185600 Y66.203066 Z2
G01 X68.879362 Y66.686206 Z2
G01 X69.626370 Y64.939686 Z2
G03 X69.523212 Y64.373816 Z2 I1.803471 J-0.621112
G03 X69.514582 Y63.795936 Z2 I20.583948 J-0.596388
G01 X69.220016 Y62.513926 Z2
G02 X68.469462 Y62.346136 Z2 I-0.579792 J0.830937
G03 X67.862499 Y62.398026 Z2 I-0.611400 J-3.575840
G03 X67.250573 Y62.398217 Z2 I-0.413102 J-343.351380
G02 X66.591666 Y62.398026 Z2 I-0.658277 J1137.522626
G02 X65.408867 Y62.398488 Z2 I-0.000187 J1514.261428
G03 X64.304166 Y62.398026 Z2 I-0.359738 J-460.572453
G01 X63.342508 Y62.267406 Z2
G01 X62.706504 Y61.203376 Z2
G02 X61.342351 Y60.772065 Z2 I-1.160013 J1.295964
G02 X60.049129 Y61.434596 Z2 I0.244792 J2.071232
G02 X60.186799 Y62.963471 Z2 I0.766068 J0.701654
G02 X61.508332 Y63.410866 Z2 I1.328592 J-1.748953
G02 X62.607573 Y63.027953 Z2 I0.005663 J-1.753013
G02 X63.287499 Y62.398026 Z2 I-3.930620 J-4.924515
G00 Z0.000000

(End cutting path id: path14)


(Start cutting path id: path14)
(Change tool to Default tool)

G00 Z0.000000
G00 X69.006250 Y62.270936

G01 Z2 F100.0(Penetrate)
G03 X69.044270 Y60.701247 Z2 I32.422125 J0.000000 F75.000000
G02 X69.131569 Y58.458436 Z2 I-117.639818 J-5.702115
G01 X69.369458 Y57.252426 Z2
G03 X69.999400 Y56.888020 Z2 I0.813885 J0.680260
G02 X70.603225 Y56.590046 Z2 I-0.208275 J-1.182852
G01 X70.781789 Y55.427166 Z2
G02 X69.603129 Y54.861712 Z2 I-1.006178 J0.586170
G02 X68.667264 Y55.542486 Z2 I0.185523 J1.238697
G01 X69.260417 Y57.187606 Z2
G00 Z0.000000

(End cutting path id: path14)


(Start cutting path id: path14)
(Change tool to Default tool)

G00 Z0.000000
G00 X56.679166 Y66.210526

G01 Z2 F100.0(Penetrate)
G01 X64.050000 Y66.210526 Z2 F75.000000
G03 X66.269130 Y66.299537 Z2 I-0.000000 J27.707123
G02 X67.989583 Y66.210526 Z2 I0.524689 J-6.529996
G00 Z0.000000

(End cutting path id: path14)


(Start cutting path id: path14)
(Change tool to Default tool)

G00 Z0.000000
G00 X54.518749 Y70.912606

G01 Z2 F100.0(Penetrate)
G01 X55.154166 Y69.133436 Z2 F75.000000
G00 Z0.000000

(End cutting path id: path14)


(Start cutting path id: path14)
(Change tool to Default tool)

G00 Z0.000000
G00 X56.679166 Y75.106356

G01 Z2 F100.0(Penetrate)
G02 X60.318758 Y76.139824 Z2 I2.471415 J-1.778090 F75.000000
G02 X63.463416 Y73.833656 Z2 I-3.160540 J-7.606756
G02 X64.308068 Y72.603686 Z2 I-5.878689 J-4.942055
G02 X64.939582 Y71.293856 Z2 I-11.533219 J-6.367711
G00 Z0.000000

(End cutting path id: path14)


(Start cutting path id: path14)
(Change tool to Default tool)

G00 Z0.000000
G00 X63.414619 Y84.256251

G01 Z2 F100.0(Penetrate)
G01 X64.939619 Y84.383334 Z2 F75.000000
G00 Z0.000000

(End cutting path id: path14)


(Start cutting path id: path14)
(Change tool to Default tool)

G00 Z0.000000
G00 X67.100000 Y84.256250

G01 Z2 F100.0(Penetrate)
G01 X66.464583 Y83.239583 Z2 F75.000000
G00 Z0.000000

(End cutting path id: path14)


(Start cutting path id: path14)
(Change tool to Default tool)

G00 Z0.000000
G00 X64.685417 Y86.543751

G01 Z2 F100.0(Penetrate)
G01 X65.956250 Y85.908334 Z2 F75.000000
G00 Z0.000000

(End cutting path id: path14)


(Start cutting path id: path14)
(Change tool to Default tool)

G00 Z0.000000
G00 X62.525000 Y86.035417

G01 Z2 F100.0(Penetrate)
G02 X63.102294 Y86.253200 Z2 I16.166740 J-41.980325 F75.000000
G02 X63.668750 Y86.393230 Z2 I0.908346 J-2.458747
G01 X64.519894 Y86.547279 Z2
G01 X65.121187 Y87.338901 Z2
G01 X66.337500 Y87.306251 Z2
G00 Z0.000000

(End cutting path id: path14)


(Start cutting path id: path14)
(Change tool to Default tool)

G00 Z0.000000
G00 X61.000000 Y90.610417

G01 Z2 F100.0(Penetrate)
G02 X61.955336 Y90.386906 Z2 I-0.853722 J-5.802415 F75.000000
G02 X62.885559 Y89.809184 Z2 I-0.704181 J-2.171605
G01 X61.889583 Y88.577083 Z2
G00 Z0.000000

(End cutting path id: path14)


(Start cutting path id: path14)
(Change tool to Default tool)

G00 Z0.000000
G00 X54.645833 Y80.062500

G01 Z2 F100.0(Penetrate)
G03 X54.155206 Y81.155770 Z2 I-3.141675 J-0.753167 F75.000000
G02 X53.579942 Y82.222920 Z2 I4.374238 J3.046627
G01 X53.510612 Y83.162902 Z2
G01 X54.772914 Y83.208592 Z2
G02 X56.156901 Y82.514481 Z2 I-1.946518 J-5.607976
G03 X57.441664 Y81.646916 Z2 I253.084623 J373.404042
G03 X61.201620 Y79.146986 Z2 I231.194597 J343.644801
G02 X64.598926 Y75.995826 Z2 I-7.676017 J-11.682533
G02 X65.437292 Y74.419526 Z2 I-4.237780 J-3.264988
G03 X66.210414 Y72.818746 Z2 I6.567673 J2.184876
G00 Z0.000000

(End cutting path id: path14)


(Start cutting path id: path14)
(Change tool to Default tool)

G00 Z0.000000
G00 X82.222917 Y90.864583

G01 Z2 F100.0(Penetrate)
G01 X84.510417 Y86.670833 Z2 F75.000000
G00 Z0.000000

(End cutting path id: path14)


(Start cutting path id: path14)
(Change tool to Default tool)

G00 Z0.000000
G00 X90.483333 Y90.864583

G01 Z2 F100.0(Penetrate)
G03 X91.040268 Y89.540943 Z2 I8.158183 J2.653649 F75.000000
G02 X91.354188 Y88.577083 Z2 I-2.698295 J-1.411860
G02 X91.398188 Y87.672310 Z2 I-4.530405 J-0.673775
G03 X91.372918 Y86.670833 Z2 I19.832043 J-1.001477
G01 X91.372918 Y84.510417 Z2
G00 Z0.000000

(End cutting path id: path14)


(Start cutting path id: path14)
(Change tool to Default tool)

G00 Z0.000000
G00 X91.372916 Y51.468856

G01 Z2 F100.0(Penetrate)
G03 X91.185181 Y51.468215 Z2 I-0.000000 J-27.490460 F75.000000
G02 X90.734361 Y51.469346 Z2 I-0.164851 J24.138843
G02 X89.833991 Y51.533627 Z2 I0.093287 J7.644487
G02 X88.704166 Y51.688606 Z2 I12.397785 J94.577662
G02 X86.404074 Y52.255386 Z2 I1.694140 J11.825585
G02 X84.256249 Y53.303426 Z2 I3.541586 J9.982904
G02 X80.339738 Y57.715668 Z2 I5.776838 J9.072151
G02 X79.045832 Y63.414686 Z2 I11.811122 J5.677991
G02 X80.673502 Y68.961756 Z2 I10.322383 J-0.016546
G02 X84.891666 Y72.906326 Z2 I9.843775 J-6.298885
G02 X86.746736 Y73.746275 Z2 I6.367076 J-11.593536
G02 X88.704166 Y74.233346 Z2 I3.306685 J-9.112050
G02 X89.835858 Y74.330026 Z2 I1.452925 J-10.335448
G02 X90.734361 Y74.343856 Z2 I0.898503 J-29.179087
G01 X91.372916 Y74.343856 Z2
G00 Z0.000000

(End cutting path id: path14)


(Start cutting path id: path14)
(Change tool to Default tool)

G00 Z0.000000
G00 X91.372916 Y48.927076

G01 Z2 F100.0(Penetrate)
G03 X91.148156 Y48.936071 Z2 I-0.659361 J-13.663655 F75.000000
G02 X90.609826 Y49.038666 Z2 I0.055836 J1.756617
G02 X89.367459 Y49.634593 Z2 I2.276768 J6.339514
G03 X87.814582 Y50.174476 Z2 I-2.011888 J-3.283607
G03 X86.539395 Y50.258035 Z2 I-1.410169 J-11.748497
G03 X85.272916 Y50.156176 Z2 I-0.079173 J-6.940032
G03 X84.460652 Y49.921310 Z2 I0.662179 J-3.812088
G02 X83.620832 Y49.787286 Z2 I-0.702660 J1.704759
G02 X82.455123 Y50.173279 Z2 I0.188058 J2.521173
G03 X81.335783 Y50.878086 Z2 I-113.495037 J-179.005944
G02 X80.693311 Y52.498851 Z2 I0.779604 J1.246756
G03 X80.351279 Y54.378466 Z2 I-2.181998 J0.573871
G03 X78.581067 Y55.356512 Z2 I-1.900433 J-1.348665
G02 X76.920324 Y55.915236 Z2 I0.184461 J3.295837
G02 X76.164077 Y56.938355 Z2 I1.062896 J1.576701
G03 X75.717052 Y58.077116 Z2 I-7.446600 J-2.266070
G02 X75.498412 Y58.577073 Z2 I6.065189 J2.950200
G02 X75.397775 Y59.093296 Z2 I1.374099 J0.535800
G02 X75.725994 Y59.861795 Z2 I1.031546 J0.013776
G03 X76.250881 Y60.493566 Z2 I-2.203971 J2.365030
G03 X76.802018 Y61.770098 Z2 I-3.722633 J2.364473
G03 X76.871590 Y63.160456 Z2 I-3.407522 J0.867427
G03 X75.348669 Y64.749511 Z2 I-1.886537 J-0.283725
G02 X74.281285 Y66.210456 Z2 I0.253493 J1.305599
G02 X74.517926 Y67.379775 Z2 I7.179477 J-0.844340
G02 X75.257257 Y68.332336 Z2 I1.569986 J-0.455349
G02 X76.982718 Y68.729153 Z2 I1.488642 J-2.523214
G03 X78.737048 Y69.429306 Z2 I0.171742 J2.117612
G03 X78.615540 Y71.546782 Z2 I-1.114594 J0.998265
G02 X77.979353 Y73.327116 Z2 I1.304255 J1.469899
G02 X78.465579 Y74.300570 Z2 I1.791267 J-0.286553
G02 X79.321574 Y75.029606 Z2 I4.155441 J-4.012046
G02 X80.463822 Y75.166680 Z2 I0.700068 J-1.005965
G03 X81.587499 Y74.869186 Z2 I1.904886 J4.924138
G03 X82.424000 Y74.806315 Z2 I0.844947 J5.645801
G03 X83.239582 Y74.914386 Z2 I0.004582 J3.096952
G03 X84.919014 Y75.525572 Z2 I-2.787420 J10.272325
G03 X86.389502 Y76.545586 Z2 I-2.176822 J4.708145
G03 X86.985757 Y77.549783 Z2 I-1.626902 J1.645109
G02 X87.815071 Y78.329846 Z2 I1.072298 J-0.309132
G02 X89.136076 Y78.602436 Z2 I9.176725 J-41.134369
G02 X90.339285 Y78.333846 Z2 I0.290167 J-1.529450
G02 X90.813519 Y77.734438 Z2 I-0.826645 J-1.141322
G03 X91.036084 Y77.377186 Z2 I1.201236 J0.500405
G01 X91.372916 Y77.139686 Z2
G00 Z0.000000

(End cutting path id: path14)


(Footer)
M5
M2
(Using default footer. To add your own footer create file "footer" in the output dir.)
(end)
%