%
(Header)
(Generated by gcodetools from Inkscape.)
(Using default header. To add your own header create file "header" in the output dir.)
M3
(Header end.)
G21 (All units in mm)

(Start cutting path id: path15)
(Change tool to Default tool)

G00 Z0.000000
G00 X94.550000 Y81.333330

G01 Z2 F100.0(Penetrate)
G03 X94.279589 Y84.629896 Z2 I-27.031828 J-0.557995 F75.000000
G02 X94.041667 Y87.941667 Z2 I23.055312 J3.320756
G03 X94.019593 Y89.173742 Z2 I-35.154356 J-0.013590
G02 X94.219936 Y90.355661 Z2 I2.966093 J0.105167
G01 X94.933603 Y91.073250 Z2
G02 X95.635878 Y91.011842 Z2 I0.249723 J-1.190510
G02 X96.202083 Y90.751524 Z2 I-2.331574 J-5.817202
G02 X97.325358 Y90.143423 Z2 I-19.034280 J-36.501326
G02 X98.489583 Y89.422935 Z2 I-7.896041 J-14.059958
G02 X101.922935 Y86.574519 Z2 I-13.086052 J-19.266747
G02 X104.981820 Y83.366667 Z2 I-75.951385 J-75.486685
G02 X106.563840 Y81.530457 Z2 I-30.053070 J-27.492388
G02 X107.766670 Y79.554170 Z2 I-6.691530 J-5.426857
G00 Z0.000000

(End cutting path id: path15)


(Start cutting path id: path15)
(Change tool to Default tool)

G00 Z0.000000
G00 X101.285420 Y79.300000

G01 Z2 F100.0(Penetrate)
G03 X102.659239 Y79.791750 Z2 I-5.910534 J18.677365 F75.000000
G02 X104.081250 Y80.062400 Z2 I1.403788 J-3.504600
G02 X104.919379 Y80.005812 Z2 I-0.036569 J-6.776763
G02 X105.658020 Y79.610360 Z2 I-0.152632 J-1.172648
G01 X105.870120 Y78.537500 Z2
G02 X105.399878 Y77.047476 Z2 I-2.953509 J0.112893
G03 X104.843750 Y75.868750 Z2 I4.148684 J-2.677923
G00 Z0.000000

(End cutting path id: path15)


(Start cutting path id: path15)
(Change tool to Default tool)

G00 Z0.000000
G00 X108.275000 Y71.929170

G01 Z2 F100.0(Penetrate)
G02 X113.803771 Y74.238368 Z2 I42.385708 J-93.708295 F75.000000
G02 X119.712500 Y75.482600 Z2 I6.834772 J-17.805540
G03 X121.534905 Y75.572004 Z2 I-93.626829 J1927.100313
G02 X123.270830 Y75.614580 Z2 I1.720316 J-34.731206
G01 X124.459990 Y75.320020 Z2
G01 X123.652080 Y73.581250 Z2
G00 Z0.000000

(End cutting path id: path15)


(Start cutting path id: path15)
(Change tool to Default tool)

G00 Z0.000000
G00 X123.398010 Y68.007560

G01 Z2 F100.0(Penetrate)
G02 X125.071610 Y67.414349 Z2 I0.500385 J-1.245717 F75.000000
G02 X124.529700 Y65.794580 Z2 I-1.011009 J-0.562292
G02 X123.232521 Y65.682172 Z2 I-0.812101 J1.830711
G02 X122.411350 Y66.591790 Z2 I0.266021 J1.065626
G02 X122.652356 Y67.459216 Z2 I1.108677 J0.159159
G02 X123.398010 Y68.007560 Z2 I1.437149 J-1.173123
G00 Z0.000000

(End cutting path id: path15)


(Start cutting path id: path15)
(Change tool to Default tool)

G00 Z0.000000
G00 X120.093750 Y63.033360

G01 Z2 F100.0(Penetrate)
G02 X119.187918 Y63.035787 Z2 I-0.000000 J169.071435 F75.000000
G03 X118.314580 Y63.032870 Z2 I-0.269001 J-50.207631
G03 X117.526943 Y62.948525 Z2 I0.045642 J-4.145987
G02 X116.662500 Y62.910790 Z2 I-0.550091 J2.681300
G02 X115.882974 Y63.266129 Z2 I0.159991 J1.383695
G03 X115.010510 Y63.602880 Z2 I-0.867877 J-0.949942
G01 X113.711150 Y62.655640 Z2
G02 X113.157965 Y62.508789 Z2 I-0.534451 J0.897919
G02 X112.468750 Y62.530030 Z2 I0.479896 J26.763212
G02 X111.055417 Y63.132798 Z2 I0.095449 J2.182135
G02 X110.446790 Y64.431280 Z2 I1.369889 J1.433976
G01 X110.639180 Y66.079830 Z2
G01 X111.579170 Y66.264380 Z2
G02 X112.772039 Y66.340634 Z2 I1.149425 J-8.612479
G03 X113.993750 Y66.337580 Z2 I1.221711 J244.342852
G03 X118.546515 Y66.477667 Z2 I-0.000000 J74.051536
G02 X122.254170 Y66.591750 Z2 I3.707655 J-60.191585
G00 Z0.000000

(End cutting path id: path15)


(Start cutting path id: path15)
(Change tool to Default tool)

G00 Z0.000000
G00 X116.408330 Y62.779250

G01 Z2 F100.0(Penetrate)
G01 X115.264490 Y61.413000 Z2 F75.000000
G02 X114.499998 Y61.759376 Z2 I0.033482 J1.090750
G02 X113.993750 Y62.525080 Z2 I2.025235 J1.889196
G00 Z0.000000

(End cutting path id: path15)


(Start cutting path id: path15)
(Change tool to Default tool)

G00 Z0.000000
G00 X115.137500 Y61.254250

G01 Z2 F100.0(Penetrate)
G03 X115.142256 Y60.804808 Z2 I21.238759 J0.000000 F75.000000
G02 X115.115900 Y60.110500 Z2 I-5.879868 J-0.124454
G01 X114.715920 Y58.978120 Z2
G02 X113.761757 Y58.741665 Z2 I-0.754413 J1.000883
G03 X112.722890 Y58.837800 Z2 I-1.227528 J-7.603829
G03 X111.997146 Y58.842745 Z2 I-0.503190 J-20.591408
G02 X111.452050 Y58.839800 Z2 I-0.545096 J50.446257
G02 X110.948347 Y57.952797 Z2 I-1.365360 J0.188827
G02 X109.927050 Y57.568970 Z2 I-1.097993 J1.370909
G03 X109.956967 Y56.395946 Z2 I23.011942 J0.000000
G03 X110.054140 Y54.900220 Z2 I53.927674 J2.752518
G00 Z0.000000

(End cutting path id: path15)


(Start cutting path id: path15)
(Change tool to Default tool)

G00 Z0.000000
G00 X109.927050 Y57.568970

G01 Z2 F100.0(Penetrate)
G01 X109.640230 Y59.165940 Z2 F75.000000
G01 X111.452050 Y58.839800 Z2
G00 Z0.000000

(End cutting path id: path15)


(Start cutting path id: path15)
(Change tool to Default tool)

G00 Z0.000000
G00 X113.358330 Y68.497920

G01 Z2 F100.0(Penetrate)
G03 X114.929617 Y68.666314 Z2 I-0.530846 J12.368412 F75.000000
G03 X116.281250 Y69.045470 Z2 I-1.160784 J6.736770
G02 X117.827915 Y69.632135 Z2 I22.005347 J-55.682044
G02 X119.458330 Y70.071750 Z2 I3.384047 J-9.307344
G02 X121.212432 Y70.202258 Z2 I1.503772 J-8.358257
G02 X122.889580 Y70.022950 Z2 I-0.323055 J-10.954910
G00 Z0.000000

(End cutting path id: path15)


(Start cutting path id: path15)
(Change tool to Default tool)

G00 Z0.000000
G00 X115.518750 Y88.831250

G01 Z2 F100.0(Penetrate)
G01 X114.120830 Y87.797818 Z2 F75.000000
G01 X112.255870 Y86.035320 Z2
G01 X108.783330 Y81.714580 Z2
G00 Z0.000000

(End cutting path id: path15)


(Start cutting path id: path15)
(Change tool to Default tool)

G00 Z0.000000
G00 X110.308330 Y90.864583

G01 Z2 F100.0(Penetrate)
G02 X110.555360 Y88.947757 Z2 I-8.293553 J-2.043160 F75.000000
G02 X110.308330 Y87.052083 Z2 I-6.643012 J-0.098264
G00 Z0.000000

(End cutting path id: path15)


(Start cutting path id: path15)
(Change tool to Default tool)

G00 Z0.000000
G00 X116.408330 Y90.864583

G01 Z2 F100.0(Penetrate)
G03 X115.751608 Y89.656613 Z2 I3.612562 J-2.746499 F75.000000
G03 X115.518750 Y88.831250 Z2 I5.694098 J-2.051991
G03 X116.148111 Y88.685412 Z2 I5.316579 J21.512754
G02 X117.063660 Y87.939704 Z2 I-0.275533 J-1.273177
G02 X117.191891 Y85.593687 Z2 I-3.030799 J-1.342173
G03 X116.662500 Y83.493750 Z2 I17.004322 J-5.403458
G00 Z0.000000

(End cutting path id: path15)


(Start cutting path id: path15)
(Change tool to Default tool)

G00 Z0.000000
G00 X125.431250 Y90.864583

G01 Z2 F100.0(Penetrate)
G03 X122.700581 Y85.223840 Z2 I126.602931 J-64.769489 F75.000000
G02 X119.839580 Y79.935420 Z2 I-40.782309 J18.644859
G00 Z0.000000

(End cutting path id: path15)


(Start cutting path id: path15)
(Change tool to Default tool)

G00 Z0.000000
G00 X131.404170 Y91.118750

G01 Z2 F100.0(Penetrate)
G01 X131.531250 Y91.118750 Z2 F75.000000
G00 Z0.000000

(End cutting path id: path15)


(Start cutting path id: path15)
(Change tool to Default tool)

G00 Z0.000000
G00 X91.500000 Y83.875000

G01 Z2 F100.0(Penetrate)
G02 X91.946322 Y83.083423 Z2 I-1.443171 J-1.335332 F75.000000
G02 X92.389583 Y81.206250 Z2 I-19.186622 J-5.521497
G00 Z0.000000

(End cutting path id: path15)


(Start cutting path id: path15)
(Change tool to Default tool)

G00 Z0.000000
G00 X91.627083 Y76.758330

G01 Z2 F100.0(Penetrate)
G03 X92.892791 Y76.288892 Z2 I4.409065 J9.946763 F75.000000
G03 X95.439583 Y76.007310 Z2 I2.034268 J6.740994
G03 X96.775014 Y76.481652 Z2 I-0.194496 J2.664582
G02 X97.981250 Y76.730090 Z2 I0.891590 J-1.276399
G02 X98.793515 Y76.265278 Z2 I-0.304029 J-1.473421
G03 X99.498798 Y75.541430 Z2 I9.962333 J9.001305
G02 X99.822515 Y74.433505 Z2 I-0.792808 J-0.832900
G03 X99.666771 Y73.327080 Z2 I5.344613 J-1.316500
G03 X99.835012 Y72.325515 Z2 I2.497394 J-0.095404
G03 X100.349350 Y71.434170 Z2 I3.160208 J1.229484
G03 X101.838540 Y70.422260 Z2 I2.390367 J1.916065
G03 X103.572920 Y70.150490 Z2 I1.809956 J5.880654
G01 X105.135770 Y69.855430 Z2
G02 X105.711141 Y68.814048 Z2 I-2.015500 J-1.793217
G02 X105.656160 Y67.758950 Z2 I-1.545394 J-0.448452
G01 X104.693520 Y66.819160 Z2
G03 X103.932102 Y65.250579 Z2 I3.643205 J-2.737571
G03 X103.892980 Y63.541670 Z2 I3.525259 J-0.935606
G03 X104.304055 Y62.644383 Z2 I2.250567 J0.488248
G03 X105.097920 Y62.050110 Z2 I1.420051 J1.069605
G01 X106.201860 Y61.489610 Z2
G02 X106.284925 Y60.965748 Z2 I-0.922037 J-0.414717
G03 X106.230360 Y60.364580 Z2 I17.001125 J-1.846168
G03 X106.174823 Y59.338383 Z2 I27.350143 J-1.994761
G02 X105.805280 Y58.530010 Z2 I-1.158487 J0.040943
G02 X104.325303 Y57.870816 Z2 I-1.702950 J1.832377
G03 X102.653400 Y56.932840 Z2 I0.208589 J-2.330838
G03 X102.268811 Y55.019369 Z2 I1.844296 J-1.366070
G02 X102.246940 Y53.247920 Z2 I-3.434360 J-0.843458
G02 X101.383657 Y52.007035 Z2 I-2.172784 J0.590869
G02 X100.014550 Y51.300290 Z2 I-3.119514 J4.363632
G02 X98.660104 Y51.211683 Z2 I-0.839130 J2.430599
G03 X97.218720 Y51.339790 Z2 I-1.284487 J-6.279420
G03 X96.566637 Y51.261821 Z2 I0.085115 J-3.477650
G02 X95.950240 Y51.296290 Z2 I-0.245780 J1.133445
G01 X94.674700 Y52.252160 Z2
G03 X92.519939 Y51.843674 Z2 I-0.196210 J-4.852413
G02 X91.627053 Y51.595850 Z2 I-1.298735 J2.946813
G00 Z0.000000

(End cutting path id: path15)


(Start cutting path id: path15)
(Change tool to Default tool)

G00 Z0.000000
G00 X91.500000 Y51.595830

G01 Z2 F100.0(Penetrate)
G01 X91.627083 Y51.595830 Z2 F75.000000
G00 Z0.000000

(End cutting path id: path15)


(Start cutting path id: path15)
(Change tool to Default tool)

G00 Z0.000000
G00 X91.500000 Y48.927080

G01 Z2 F100.0(Penetrate)
G01 X91.627083 Y48.927080 Z2 F75.000000
G00 Z0.000000

(End cutting path id: path15)


(Start cutting path id: path15)
(Change tool to Default tool)

G00 Z0.000000
G00 X95.693750 Y51.341670

G01 Z2 F100.0(Penetrate)
G03 X94.776181 Y50.243817 Z2 I2.541648 J-3.056645 F75.000000
G02 X93.887519 Y49.330590 Z2 I-2.185077 J1.237307
G02 X92.355714 Y48.992569 Z2 I-1.266978 J2.101708
G03 X91.627083 Y48.927080 Z2 I-0.200905 J-1.850848
G00 Z0.000000

(End cutting path id: path15)


(Start cutting path id: path15)
(Change tool to Default tool)

G00 Z0.000000
G00 X91.500000 Y74.216670

G01 Z2 F100.0(Penetrate)
G03 X91.696338 Y74.218262 Z2 I0.007564 J11.177932 F75.000000
G02 X92.138555 Y74.211670 Z2 I0.117481 J-6.955457
G02 X93.723364 Y73.896675 Z2 I-0.254133 J-5.422854
G02 X95.693750 Y73.039970 Z2 I-5.640685 J-15.667603
G02 X97.985632 Y71.455485 Z2 I-4.904449 J-9.543847
G02 X99.833078 Y69.387500 Z2 I-8.741996 J-9.668915
G02 X101.542080 Y65.623010 Z2 I-8.605492 J-6.176890
G02 X101.739820 Y61.508330 Z2 I-11.096817 J-2.595373
G02 X101.474852 Y60.032104 Z2 I-16.943425 J2.279282
G02 X100.991630 Y58.585420 Z2 I-7.386761 J1.663285
G02 X99.822575 Y56.448141 Z2 I-14.386671 J6.480895
G02 X98.230416 Y54.592390 Z2 I-7.822168 J5.100224
G02 X96.637410 Y53.405078 Z2 I-7.382875 J8.243219
G03 X95.058333 Y52.358330 Z2 I14.258112 J-23.223592
G00 Z0.000000

(End cutting path id: path15)


(Start cutting path id: path15)
(Change tool to Default tool)

G00 Z0.000000
G00 X91.500000 Y76.758330

G01 Z2 F100.0(Penetrate)
G01 X91.627083 Y76.758330 Z2 F75.000000
G00 Z0.000000

(End cutting path id: path15)


(Footer)
M5
M2
(Using default footer. To add your own footer create file "footer" in the output dir.)
(end)
%