%
(Header)
(Generated by gcodetools from Inkscape.)
(Using default header. To add your own header create file "header" in the output dir.)
M3
(Header end.)
G21 (All units in mm)

(Start cutting path id: path8)
(Change tool to Default tool)

G00 Z0.000000
G00 X149.704170 Y172.579167

G01 Z2 F100.0(Penetrate)
G01 X150.339580 Y172.579167 Z2 F75.000000
G00 Z0.000000

(End cutting path id: path8)


(Start cutting path id: path8)
(Change tool to Default tool)

G00 Z0.000000
G00 X152.245830 Y170.291667

G01 Z2 F100.0(Penetrate)
G01 X151.991670 Y170.164583 Z2 F75.000000
G00 Z0.000000

(End cutting path id: path8)


(Start cutting path id: path8)
(Change tool to Default tool)

G00 Z0.000000
G00 X147.925000 Y169.656250

G01 Z2 F100.0(Penetrate)
G01 X150.046880 Y166.606250 Z2 F75.000000
G01 X150.334480 Y164.954167 Z2
G01 X150.212500 Y163.683333 Z2
G02 X150.753927 Y163.804206 Z2 I2.072929 J-8.012245
G03 X151.483330 Y163.975645 Z2 I-1.550596 J8.234522
G03 X152.450033 Y164.327652 Z2 I-1.902467 J6.728092
G02 X153.516670 Y164.741870 Z2 I4.479892 J-9.955551
G02 X155.908264 Y165.247551 Z2 I3.493223 J-10.612728
G03 X158.218750 Y165.843750 Z2 I-0.768026 J7.751456
G00 Z0.000000

(End cutting path id: path8)


(Start cutting path id: path8)
(Change tool to Default tool)

G00 Z0.000000
G00 X158.345830 Y168.893750

G01 Z2 F100.0(Penetrate)
G01 X157.964580 Y168.385417 Z2 F75.000000
G00 Z0.000000

(End cutting path id: path8)


(Start cutting path id: path8)
(Change tool to Default tool)

G00 Z0.000000
G00 X158.600000 Y171.435417

G01 Z2 F100.0(Penetrate)
G01 X157.456250 Y170.800000 Z2 F75.000000
G00 Z0.000000

(End cutting path id: path8)


(Start cutting path id: path8)
(Change tool to Default tool)

G00 Z0.000000
G00 X161.522920 Y166.352083

G01 Z2 F100.0(Penetrate)
G01 X161.904170 Y166.352083 Z2 F75.000000
G00 Z0.000000

(End cutting path id: path8)


(Start cutting path id: path8)
(Change tool to Default tool)

G00 Z0.000000
G00 X163.556250 Y170.291667

G01 Z2 F100.0(Penetrate)
G01 X163.810420 Y170.291667 Z2 F75.000000
G00 Z0.000000

(End cutting path id: path8)


(Start cutting path id: path8)
(Change tool to Default tool)

G00 Z0.000000
G00 X167.495830 Y166.860417

G01 Z2 F100.0(Penetrate)
G02 X170.796590 Y167.721723 Z2 I5.873044 J-15.751756 F75.000000
G02 X174.231250 Y167.368750 Z2 I1.043121 J-6.736986
G00 Z0.000000

(End cutting path id: path8)


(Start cutting path id: path8)
(Change tool to Default tool)

G00 Z0.000000
G00 X170.927080 Y162.412500

G01 Z2 F100.0(Penetrate)
G01 X171.308330 Y162.412500 Z2 F75.000000
G00 Z0.000000

(End cutting path id: path8)


(Start cutting path id: path8)
(Change tool to Default tool)

G00 Z0.000000
G00 X170.164800 Y160.125000

G01 Z2 F100.0(Penetrate)
G02 X169.591469 Y157.228261 Z2 I-3.050481 J-0.901348 F75.000000
G03 X167.934860 Y154.406250 Z2 I8.683543 J-6.994760
G01 X167.648340 Y152.835849 Z2
G01 X168.766890 Y152.811329 Z2
G03 X170.611515 Y153.336248 Z2 I-2.526221 J12.380999
G02 X172.579390 Y153.770828 Z2 I2.573560 J-6.980874
G00 Z0.000000

(End cutting path id: path8)


(Start cutting path id: path8)
(Change tool to Default tool)

G00 Z0.000000
G00 X174.866960 Y156.058328

G01 Z2 F100.0(Penetrate)
G01 X175.502370 Y155.931245 Z2 F75.000000
G00 Z0.000000

(End cutting path id: path8)


(Start cutting path id: path8)
(Change tool to Default tool)

G00 Z0.000000
G00 X173.087720 Y160.252083

G01 Z2 F100.0(Penetrate)
G01 X173.214800 Y160.252083 Z2 F75.000000
G00 Z0.000000

(End cutting path id: path8)


(Start cutting path id: path8)
(Change tool to Default tool)

G00 Z0.000000
G00 X166.606250 Y163.047917

G01 Z2 F100.0(Penetrate)
G01 X167.495830 Y163.302083 Z2 F75.000000
G00 Z0.000000

(End cutting path id: path8)


(Start cutting path id: path8)
(Change tool to Default tool)

G00 Z0.000000
G00 X162.666890 Y158.854162

G01 Z2 F100.0(Penetrate)
G01 X163.626090 Y158.302586 Z2 F75.000000
G01 X163.687490 Y157.835631 Z2
G02 X163.684545 Y157.548145 Z2 I-12.261014 J-0.018146
G03 X163.685490 Y156.820828 Z2 I15.626370 J-0.343350
G03 X163.781037 Y155.926162 Z2 I5.531222 J0.138280
G02 X163.937790 Y154.787495 Z2 I-11.077911 J-2.105146
G02 X163.745673 Y152.681711 Z2 I-5.989132 J-0.515250
G02 X162.921120 Y150.720828 Z2 I-7.895740 J2.166363
G00 Z0.000000

(End cutting path id: path8)


(Start cutting path id: path8)
(Change tool to Default tool)

G00 Z0.000000
G00 X158.473210 Y149.322912

G01 Z2 F100.0(Penetrate)
G03 X159.372015 Y147.499468 Z2 I27.465623 J12.405013 F75.000000
G02 X159.871120 Y145.510412 Z2 I-3.713888 J-1.989056
G00 Z0.000000

(End cutting path id: path8)


(Start cutting path id: path8)
(Change tool to Default tool)

G00 Z0.000000
G00 X161.777080 Y144.875000

G01 Z2 F100.0(Penetrate)
G03 X162.217530 Y144.504048 Z2 I6.480544 J7.247722 F75.000000
G03 X162.920830 Y144.257330 Z2 I0.708363 J0.893493
G02 X163.708105 Y144.227743 Z2 I-0.053905 J-11.923383
G02 X164.550850 Y143.844507 Z2 I-0.093651 J-1.324166
G02 X165.445664 Y141.612006 Z2 I-2.144857 J-2.155263
G03 X166.733330 Y139.918750 Z2 I1.700318 J-0.043205
G00 Z0.000000

(End cutting path id: path8)


(Start cutting path id: path8)
(Change tool to Default tool)

G00 Z0.000000
G00 X169.020830 Y140.300000

G01 Z2 F100.0(Penetrate)
G01 X169.402080 Y139.283333 Z2 F75.000000
G00 Z0.000000

(End cutting path id: path8)


(Start cutting path id: path8)
(Change tool to Default tool)

G00 Z0.000000
G00 X170.291670 Y142.968750

G01 Z2 F100.0(Penetrate)
G01 X173.468750 Y143.314599 Z2 F75.000000
G01 X175.247920 Y142.594462 Z2
G01 X178.170830 Y142.714583 Z2
G00 Z0.000000

(End cutting path id: path8)


(Start cutting path id: path8)
(Change tool to Default tool)

G00 Z0.000000
G00 X176.945400 Y140.782644

G01 Z2 F100.0(Penetrate)
G01 X177.770860 Y139.148307 Z2 F75.000000
G01 X176.826160 Y139.670172 Z2
G01 X176.945400 Y140.782644 Z2
G00 Z0.000000

(End cutting path id: path8)


(Start cutting path id: path8)
(Change tool to Default tool)

G00 Z0.000000
G00 X174.866670 Y137.631250

G01 Z2 F100.0(Penetrate)
G01 X174.866670 Y137.250000 Z2 F75.000000
G00 Z0.000000

(End cutting path id: path8)


(Start cutting path id: path8)
(Change tool to Default tool)

G00 Z0.000000
G00 X176.838420 Y145.755457

G01 Z2 F100.0(Penetrate)
G01 X177.605720 Y144.729870 Z2 F75.000000
G01 X176.560720 Y144.788410 Z2
G01 X176.838420 Y145.755458 Z2
G00 Z0.000000

(End cutting path id: path8)


(Start cutting path id: path8)
(Change tool to Default tool)

G00 Z0.000000
G00 X171.181540 Y150.085412

G01 Z2 F100.0(Penetrate)
G01 X171.308620 Y150.085412 Z2 F75.000000
G00 Z0.000000

(End cutting path id: path8)


(Start cutting path id: path8)
(Change tool to Default tool)

G00 Z0.000000
G00 X167.369040 Y152.627078

G01 Z2 F100.0(Penetrate)
G02 X165.826363 Y150.855247 Z2 I-9.711748 J6.898217 F75.000000
G03 X163.651360 Y148.306245 Z2 I10.586125 J-11.235329
G03 X162.589707 Y146.508018 Z2 I13.429054 J-9.140872
G02 X161.570180 Y144.747912 Z2 I-16.205263 J8.211434
G02 X159.183293 Y142.310839 Z2 I-7.396632 J4.856911
G02 X156.312790 Y140.556907 Z2 I-17.857135 J25.999259
G03 X154.834821 Y139.730477 Z2 I27.323800 J-50.600060
G02 X153.262790 Y139.156245 Z2 I-2.416030 J4.175250
G00 Z0.000000

(End cutting path id: path8)


(Start cutting path id: path8)
(Change tool to Default tool)

G00 Z0.000000
G00 X152.119040 Y151.864578

G01 Z2 F100.0(Penetrate)
G03 X153.163604 Y151.856393 Z2 I9.002214 J1082.169944 F75.000000
G03 X154.406540 Y151.864578 Z2 I0.327869 J44.587558
G00 Z0.000000

(End cutting path id: path8)


(Start cutting path id: path8)
(Change tool to Default tool)

G00 Z0.000000
G00 X154.914870 Y156.058328

G01 Z2 F100.0(Penetrate)
G01 X155.169040 Y156.058328 Z2 F75.000000
G00 Z0.000000

(End cutting path id: path8)


(Start cutting path id: path8)
(Change tool to Default tool)

G00 Z0.000000
G00 X158.473210 Y153.770828

G01 Z2 F100.0(Penetrate)
G01 X157.964870 Y153.389578 Z2 F75.000000
G00 Z0.000000

(End cutting path id: path8)


(Start cutting path id: path8)
(Change tool to Default tool)

G00 Z0.000000
G00 X158.854460 Y157.710412

G01 Z2 F100.0(Penetrate)
G01 X159.489870 Y157.837495 Z2 F75.000000
G00 Z0.000000

(End cutting path id: path8)


(Start cutting path id: path8)
(Change tool to Default tool)

G00 Z0.000000
G00 X152.246050 Y158.854162

G01 Z2 F100.0(Penetrate)
G01 X152.373140 Y158.727078 Z2 F75.000000
G00 Z0.000000

(End cutting path id: path8)


(Start cutting path id: path8)
(Change tool to Default tool)

G00 Z0.000000
G00 X149.958620 Y156.312495

G01 Z2 F100.0(Penetrate)
G01 X150.085710 Y156.312495 Z2 F75.000000
G00 Z0.000000

(End cutting path id: path8)


(Start cutting path id: path8)
(Change tool to Default tool)

G00 Z0.000000
G00 X149.069040 Y153.389578

G01 Z2 F100.0(Penetrate)
G02 X146.966445 Y151.964385 Z2 I-30.181986 J42.264084 F75.000000
G03 X145.129460 Y150.339578 Z2 I4.351499 J-6.770583
G00 Z0.000000

(End cutting path id: path8)


(Start cutting path id: path8)
(Change tool to Default tool)

G00 Z0.000000
G00 X139.029170 Y161.268750

G01 Z2 F100.0(Penetrate)
G03 X138.772364 Y160.896976 Z2 I1.733605 J-1.472083 F75.000000
G03 X138.266670 Y159.870833 Z2 I10.628959 J-5.875743
G02 X141.348223 Y157.297464 Z2 I-10.947875 J-16.241573
G02 X143.359220 Y153.770833 Z2 I-5.783571 J-5.634658
G02 X143.435316 Y152.566604 Z2 I-2.916762 J-0.788830
G03 X143.350220 Y151.356250 Z2 I8.879644 J-1.232465
G00 Z0.000000

(End cutting path id: path8)


(Start cutting path id: path8)
(Change tool to Default tool)

G00 Z0.000000
G00 X141.570340 Y164.046148

G01 Z2 F100.0(Penetrate)
G01 X141.570340 Y162.787671 Z2 F75.000000
G01 X140.892470 Y163.307183 Z2
G01 X141.570340 Y164.046148 Z2
G00 Z0.000000

(End cutting path id: path8)


(Start cutting path id: path8)
(Change tool to Default tool)

G00 Z0.000000
G00 X143.363830 Y169.053095

G01 Z2 F100.0(Penetrate)
G01 X144.486690 Y168.507008 Z2 F75.000000
G01 X143.855980 Y167.629486 Z2
G01 X143.363830 Y169.053095 Z2
G00 Z0.000000

(End cutting path id: path8)


(Start cutting path id: path8)
(Change tool to Default tool)

G00 Z0.000000
G00 X150.212500 Y163.683333

G01 Z2 F100.0(Penetrate)
G01 X149.450000 Y162.666667 Z2 F75.000000
G00 Z0.000000

(End cutting path id: path8)


(Footer)
M5
M2
(Using default footer. To add your own footer create file "footer" in the output dir.)
(end)
%