%
(Header)
(Generated by gcodetools from Inkscape.)
(Using default header. To add your own header create file "header" in the output dir.)
M3
(Header end.)
G21 (All units in mm)

(Start cutting path id: path13)
(Change tool to Default tool)

G00 Z0.000000
G00 X6.608333 Y90.864583

G01 Z2 F100.0(Penetrate)
G03 X7.180209 Y90.739739 Z2 I0.571875 J1.247377 F75.000000
G03 X7.752083 Y90.864583 Z2 I0.000000 J1.372218
G00 Z0.000000

(End cutting path id: path13)


(Start cutting path id: path13)
(Change tool to Default tool)

G00 Z0.000000
G00 X3.304167 Y83.875000

G01 Z2 F100.0(Penetrate)
G03 X5.795812 Y85.428916 Z2 I-30.089059 J51.021258 F75.000000
G02 X8.641667 Y86.289486 Z2 I2.871357 J-4.359586
G02 X10.496833 Y86.286670 Z2 I0.707760 J-144.831825
G02 X12.072917 Y85.781250 Z2 I-0.022015 J-2.778760
G00 Z0.000000

(End cutting path id: path13)


(Start cutting path id: path13)
(Change tool to Default tool)

G00 Z0.000000
G00 X11.310417 Y80.062500

G01 Z2 F100.0(Penetrate)
G02 X8.147438 Y78.910828 Z2 I-3.891601 J5.768709 F75.000000
G02 X4.829167 Y79.045830 Z2 I-1.198689 J11.385035
G00 Z0.000000

(End cutting path id: path13)


(Start cutting path id: path13)
(Change tool to Default tool)

G00 Z0.000000
G00 X5.845833 Y71.988490

G01 Z2 F100.0(Penetrate)
G02 X7.656236 Y71.174384 Z2 I0.381846 J-1.570887 F75.000000
G02 X6.989583 Y69.669510 Z2 I-0.925316 J-0.490188
G02 X5.960740 Y69.622468 Z2 I-0.628169 J2.464220
G02 X5.027931 Y70.105780 Z2 I0.263244 J1.649904
G01 X5.845833 Y71.988490 Z2
G00 Z0.000000

(End cutting path id: path13)


(Start cutting path id: path13)
(Change tool to Default tool)

G00 Z0.000000
G00 X6.354167 Y69.387500

G01 Z2 F100.0(Penetrate)
G03 X6.354423 Y67.444618 Z2 I7354.352863 J0.089079 F75.000000
G02 X6.354167 Y64.685420 Z2 I-3862.338315 J-1.037658
G02 X6.338189 Y64.064955 Z2 I-12.269899 J0.005529
G02 X6.169229 Y63.468510 Z2 I-1.387441 J0.070878
G03 X5.918965 Y62.750221 Z2 I2.021266 J-1.106986
G03 X5.845833 Y61.889580 Z2 I5.031467 J-0.860969
G03 X5.909275 Y58.015817 Z2 I117.835514 J-0.006614
G02 X5.972917 Y54.137500 Z2 I-118.141123 J-3.879269
G02 X5.969925 Y53.486481 Z2 I-70.834770 J-0.000000
G03 X5.994392 Y52.866670 Z2 I6.377995 J-0.058621
G01 X5.964386 Y52.011990 Z2
G01 X5.118733 Y51.386380 Z2
G03 X4.741910 Y50.376078 Z2 I0.769187 J-0.862316
G03 X5.344854 Y49.475330 Z2 I1.207170 J0.155884
G03 X7.065192 Y49.292299 Z2 I1.068741 J1.868894
G03 X7.748455 Y50.954930 Z2 I-0.354882 J1.117550
G03 X7.070846 Y51.549589 Z2 I-1.112225 J-0.583977
G03 X6.227084 Y51.722920 Z2 I-0.992735 J-2.692204
G00 Z0.000000

(End cutting path id: path13)


(Start cutting path id: path13)
(Change tool to Default tool)

G00 Z0.000000
G00 X6.481250 Y63.287500

G01 Z2 F100.0(Penetrate)
G02 X9.814450 Y63.178277 Z2 I0.000170 J-50.914917 F75.000000
G03 X14.233333 Y63.033330 Z2 I4.423184 J67.423019
G03 X15.600269 Y63.101079 Z2 I0.000875 J13.806218
G02 X16.698319 Y62.702980 Z2 I0.133699 J-1.344614
G01 X16.902083 Y61.508330 Z2
G02 X16.902232 Y60.200548 Z2 I-1960.163852 J-0.877421
G03 X16.902083 Y58.839580 Z2 I6202.600786 J-1.363514
G02 X16.839018 Y54.395012 Z2 I-156.649546 J-0.000082
G03 X16.775000 Y49.943750 Z2 I158.982832 J-4.512502
G02 X16.707349 Y48.121926 Z2 I-24.821920 J0.009565
G03 X16.647917 Y46.513090 Z2 I21.746107 J-1.608837
G01 X16.647917 Y45.750000 Z2
G00 Z0.000000

(End cutting path id: path13)


(Footer)
M5
M2
(Using default footer. To add your own footer create file "footer" in the output dir.)
(end)
%