%
(Header)
(Generated by gcodetools from Inkscape.)
(Using default header. To add your own header create file "header" in the output dir.)
M3
(Header end.)
G21 (All units in mm)

(Start cutting path id: path11)
(Change tool to Default tool)

G00 Z0.000000
G00 X95.876432 Y127.715221

G01 Z2 F100.0(Penetrate)
G01 X96.691590 Y126.620989 Z2 F75.000000
G01 X95.876432 Y127.715221 Z2
G00 Z0.000000

(End cutting path id: path11)


(Start cutting path id: path11)
(Change tool to Default tool)

G00 Z0.000000
G00 X99.392993 Y126.861430

G01 Z2 F100.0(Penetrate)
G01 X100.355340 Y125.636880 Z2 F75.000000
G01 X99.392993 Y126.861430 Z2
G00 Z0.000000

(End cutting path id: path11)


(Start cutting path id: path11)
(Change tool to Default tool)

G00 Z0.000000
G00 X97.727083 Y123.779167

G01 Z2 F100.0(Penetrate)
G02 X96.349317 Y123.156303 Z2 I-1.622338 J1.753358 F75.000000
G02 X95.439583 Y123.397917 Z2 I-0.136005 J1.321400
G00 Z0.000000

(End cutting path id: path11)


(Start cutting path id: path11)
(Change tool to Default tool)

G00 Z0.000000
G00 X93.660417 Y123.906250

G01 Z2 F100.0(Penetrate)
G01 X93.406250 Y123.525000 Z2 F75.000000
G02 X92.873372 Y124.091646 Z2 I10.212957 J10.138224
G02 X92.516667 Y124.541667 Z2 I3.735383 J3.327197
G01 X93.874379 Y124.075009 Z2
G03 X94.089200 Y123.885588 Z2 I0.991290 J0.907686
G03 X94.550490 Y123.629727 Z2 I1.394421 J1.970239
G01 X95.415657 Y123.535397 Z2
G01 X95.959292 Y124.147181 Z2
G01 X96.962622 Y124.644333 Z2
G02 X97.850489 Y123.914635 Z2 I-0.098583 J-1.024960
G03 X98.870833 Y123.163557 Z2 I1.008896 J0.301981
G01 X100.956430 Y123.230537 Z2
G01 X101.394360 Y122.330853 Z2
G03 X102.173393 Y121.980154 Z2 I0.819349 J0.779470
G02 X103.191670 Y121.745838 Z2 I-0.098357 J-2.757178
G00 Z0.000000

(End cutting path id: path11)


(Start cutting path id: path11)
(Change tool to Default tool)

G00 Z0.000000
G00 X100.268750 Y119.077080

G01 Z2 F100.0(Penetrate)
G01 X100.522920 Y119.204164 Z2 F75.000000
G00 Z0.000000

(End cutting path id: path11)


(Start cutting path id: path11)
(Change tool to Default tool)

G00 Z0.000000
G00 X97.727083 Y117.170833

G01 Z2 F100.0(Penetrate)
G03 X95.555838 Y114.989930 Z2 I10.178294 J-12.304487 F75.000000
G02 X93.550003 Y112.595833 Z2 I-112.737854 J92.417303
G03 X92.328237 Y111.045390 Z2 I18.421630 J-15.773050
G02 X91.627083 Y110.308333 Z2 I-3.089251 J2.236741
G00 Z0.000000

(End cutting path id: path11)


(Start cutting path id: path11)
(Change tool to Default tool)

G00 Z0.000000
G00 X96.583333 Y112.595833

G01 Z2 F100.0(Penetrate)
G02 X100.540008 Y115.194739 Z2 I10.117750 J-11.092305 F75.000000
G03 X104.843750 Y117.203682 Z2 I-70.250314 J156.111049
G03 X108.036259 Y118.816494 Z2 I-45.320652 J93.676908
G02 X111.325000 Y120.196123 Z2 I9.483449 J-17.996872
G02 X113.733597 Y120.791437 Z2 I5.631908 J-17.616113
G03 X116.154170 Y121.346737 Z2 I-4.302006 J24.305957
G02 X117.226730 Y121.612887 Z2 I4.616105 J-16.308238
G02 X118.314580 Y121.744069 Z2 I1.265772 J-5.920455
G03 X118.980476 Y121.790219 Z2 I-0.246466 J8.383414
G03 X119.458330 Y121.872917 Z2 I-0.423220 J3.867427
G02 X119.513077 Y121.012347 Z2 I-1.884843 J-0.551936
G02 X119.204170 Y119.966667 Z2 I-4.171027 J0.663708
G00 Z0.000000

(End cutting path id: path11)


(Start cutting path id: path11)
(Change tool to Default tool)

G00 Z0.000000
G00 X117.170830 Y116.154167

G01 Z2 F100.0(Penetrate)
G03 X117.254179 Y113.987219 Z2 I28.210528 J-0.000000 F75.000000
G02 X117.297920 Y112.850000 Z2 I-14.761198 J-1.137219
G00 Z0.000000

(End cutting path id: path11)


(Start cutting path id: path11)
(Change tool to Default tool)

G00 Z0.000000
G00 X122.254170 Y108.656250

G01 Z2 F100.0(Penetrate)
G03 X123.305339 Y108.278560 Z2 I1.212861 J1.723949 F75.000000
G03 X124.287500 Y108.402083 Z2 I0.189338 J2.460979
G00 Z0.000000

(End cutting path id: path11)


(Start cutting path id: path11)
(Change tool to Default tool)

G00 Z0.000000
G00 X123.525000 Y108.020833

G01 Z2 F100.0(Penetrate)
G01 X123.525100 Y107.257744 Z2 F75.000000
G01 X123.906250 Y105.860417 Z2
G00 Z0.000000

(End cutting path id: path11)


(Start cutting path id: path11)
(Change tool to Default tool)

G00 Z0.000000
G00 X122.508330 Y104.462500

G01 Z2 F100.0(Penetrate)
G01 X123.016670 Y103.700000 Z2 F75.000000
G00 Z0.000000

(End cutting path id: path11)


(Start cutting path id: path11)
(Change tool to Default tool)

G00 Z0.000000
G00 X125.558330 Y103.064583

G01 Z2 F100.0(Penetrate)
G01 X124.922920 Y102.683333 Z2 F75.000000
G00 Z0.000000

(End cutting path id: path11)


(Start cutting path id: path11)
(Change tool to Default tool)

G00 Z0.000000
G00 X127.210420 Y102.047917

G01 Z2 F100.0(Penetrate)
G01 X127.464580 Y102.047917 Z2 F75.000000
G00 Z0.000000

(End cutting path id: path11)


(Start cutting path id: path11)
(Change tool to Default tool)

G00 Z0.000000
G00 X127.464580 Y103.700000

G01 Z2 F100.0(Penetrate)
G01 X127.591670 Y103.700000 Z2 F75.000000
G00 Z0.000000

(End cutting path id: path11)


(Start cutting path id: path11)
(Change tool to Default tool)

G00 Z0.000000
G00 X129.243750 Y103.318750

G01 Z2 F100.0(Penetrate)
G01 X129.370830 Y103.318750 Z2 F75.000000
G00 Z0.000000

(End cutting path id: path11)


(Start cutting path id: path11)
(Change tool to Default tool)

G00 Z0.000000
G00 X128.227080 Y105.733333

G01 Z2 F100.0(Penetrate)
G01 X127.718750 Y105.352083 Z2 F75.000000
G00 Z0.000000

(End cutting path id: path11)


(Start cutting path id: path11)
(Change tool to Default tool)

G00 Z0.000000
G00 X126.447920 Y108.020833

G01 Z2 F100.0(Penetrate)
G01 X125.431250 Y107.131250 Z2 F75.000000
G00 Z0.000000

(End cutting path id: path11)


(Start cutting path id: path11)
(Change tool to Default tool)

G00 Z0.000000
G00 X126.956250 Y99.887496

G01 Z2 F100.0(Penetrate)
G01 X127.972920 Y99.252079 Z2 F75.000000
G00 Z0.000000

(End cutting path id: path11)


(Start cutting path id: path11)
(Change tool to Default tool)

G00 Z0.000000
G00 X125.939580 Y91.500000

G01 Z2 F100.0(Penetrate)
G03 X126.015704 Y91.701072 Z2 I-5.908965 J2.352013 F75.000000
G02 X126.236310 Y92.263089 Z2 I9.785057 J-3.516586
G02 X126.884572 Y93.752257 Z2 I99.811118 J-42.563917
G02 X128.481250 Y94.760040 Z2 I1.551391 J-0.689205
G02 X130.237616 Y93.775188 Z2 I-0.057675 J-2.161417
G02 X131.168530 Y92.263089 Z2 I-31.646765 J-20.525721
G02 X131.375624 Y91.690102 Z2 I-1.457609 J-0.850741
G02 X131.404170 Y91.500000 Z2 I-5.824206 J-0.971761
G00 Z0.000000

(End cutting path id: path11)


(Start cutting path id: path11)
(Change tool to Default tool)

G00 Z0.000000
G00 X119.966670 Y98.235416

G01 Z2 F100.0(Penetrate)
G02 X119.383648 Y96.307751 Z2 I-18.755032 J4.620457 F75.000000
G02 X118.223190 Y93.787499 Z2 I-15.255854 J5.497311
G02 X117.675941 Y92.875064 Z2 I-20.031350 J11.393818
G03 X117.237320 Y92.138553 Z2 I13.832249 J-8.736515
G03 X117.011177 Y91.697713 Z2 I5.847422 J-3.278049
G02 X116.916670 Y91.499999 Z2 I-11.186030 J5.225450
G00 Z0.000000

(End cutting path id: path11)


(Start cutting path id: path11)
(Change tool to Default tool)

G00 Z0.000000
G00 X110.054170 Y91.500000

G01 Z2 F100.0(Penetrate)
G03 X110.019856 Y91.707425 Z2 I-6.909359 J-1.036451 F75.000000
G03 X109.871190 Y92.263089 Z2 I-3.437057 J-0.621854
G03 X109.553414 Y93.049155 Z2 I-9.916939 J-3.551770
G03 X109.131340 Y93.914583 Z2 I-14.958545 J-6.759725
G03 X107.665148 Y96.079536 Z2 I-10.341413 J-5.424659
G03 X105.733330 Y97.622064 Z2 I-4.986952 J-4.264573
G03 X104.666048 Y98.091194 Z2 I-3.870446 J-7.356748
G02 X103.834440 Y98.391036 Z2 I71.152310 J198.643114
G01 X103.192160 Y99.887500 Z2
G01 X103.572920 Y101.285417 Z2
G00 Z0.000000

(End cutting path id: path11)


(Start cutting path id: path11)
(Change tool to Default tool)

G00 Z0.000000
G00 X99.633333 Y99.760417

G01 Z2 F100.0(Penetrate)
G02 X100.781807 Y100.285162 Z2 I4.092683 J-7.438208 F75.000000
G03 X101.666670 Y100.760019 Z2 I-1.262350 J3.414173
G01 X102.175000 Y101.064099 Z2
G02 X102.599777 Y101.141947 Z2 I0.512963 J-1.601164
G02 X103.191670 Y101.158329 Z2 I0.626109 J-11.920708
G00 Z0.000000

(End cutting path id: path11)


(Start cutting path id: path11)
(Change tool to Default tool)

G00 Z0.000000
G00 X100.021550 Y104.854342

G01 Z2 F100.0(Penetrate)
G01 X100.520470 Y103.359739 Z2 F75.000000
G01 X100.021550 Y104.854342 Z2
G00 Z0.000000

(End cutting path id: path11)


(Start cutting path id: path11)
(Change tool to Default tool)

G00 Z0.000000
G00 X97.345833 Y102.175000

G01 Z2 F100.0(Penetrate)
G01 X96.837500 Y101.920833 Z2 F75.000000
G00 Z0.000000

(End cutting path id: path11)


(Start cutting path id: path11)
(Change tool to Default tool)

G00 Z0.000000
G00 X91.500000 Y96.075000

G01 Z2 F100.0(Penetrate)
G02 X91.832244 Y95.720621 Z2 I-1.157135 J-1.417795 F75.000000
G02 X92.516667 Y94.550000 Z2 I-6.072617 J-4.335845
G00 Z0.000000

(End cutting path id: path11)


(Start cutting path id: path11)
(Change tool to Default tool)

G00 Z0.000000
G00 X96.202083 Y91.500000

G01 Z2 F100.0(Penetrate)
G01 X95.230916 Y91.576680 Z2 F75.000000
G01 X96.096671 Y93.511269 Z2
G02 X98.265742 Y95.158653 Z2 I7.301384 J-7.361882
G03 X100.486640 Y96.736598 Z2 I-6.759490 J11.865616
G02 X101.069946 Y97.160159 Z2 I2.648889 J-3.034482
G02 X101.539680 Y97.378387 Z2 I1.284921 J-2.151118
G03 X102.006377 Y97.547474 Z2 I-4.976086 J14.463051
G03 X102.175000 Y97.613728 Z2 I-3.054368 J8.021452
G03 X102.838950 Y97.952276 Z2 I-1.617772 J3.993059
G03 X103.445830 Y98.362499 Z2 I-5.349584 J8.568141
G00 Z0.000000

(End cutting path id: path11)


(Start cutting path id: path11)
(Change tool to Default tool)

G00 Z0.000000
G00 X109.164580 Y102.429167

G01 Z2 F100.0(Penetrate)
G01 X109.037500 Y102.302083 Z2 F75.000000
G00 Z0.000000

(End cutting path id: path11)


(Start cutting path id: path11)
(Change tool to Default tool)

G00 Z0.000000
G00 X107.258330 Y105.987500

G01 Z2 F100.0(Penetrate)
G01 X107.668610 Y107.181652 Z2 F75.000000
G01 X108.401990 Y107.358940 Z2
G01 X109.164390 Y106.495343 Z2
G01 X107.385420 Y105.779225 Z2
G01 X106.622920 Y105.499563 Z2
G02 X105.609929 Y105.253352 Z2 I-0.862248 J1.340576
G03 X104.593210 Y104.709313 Z2 I-0.098591 J-1.037810
G01 X105.704410 Y103.722750 Z2
G01 X106.241670 Y105.097917 Z2
G00 Z0.000000

(End cutting path id: path11)


(Start cutting path id: path11)
(Change tool to Default tool)

G00 Z0.000000
G00 X103.318750 Y108.783333

G01 Z2 F100.0(Penetrate)
G02 X102.192297 Y108.874468 Z2 I0.194225 J9.407908 F75.000000
G03 X101.127440 Y108.464351 Z2 I-0.164490 J-1.160400
G01 X102.300120 Y106.878848 Z2
G03 X103.221670 Y107.963906 Z2 I-0.166312 J1.075120
G02 X103.611450 Y109.023771 Z2 I1.596201 J0.014581
G02 X104.115033 Y109.418598 Z2 I1.267879 J-1.098556
G02 X105.225000 Y109.545833 Z2 I0.724562 J-1.415746
G00 Z0.000000

(End cutting path id: path11)


(Start cutting path id: path11)
(Change tool to Default tool)

G00 Z0.000000
G00 X95.566667 Y119.204167

G01 Z2 F100.0(Penetrate)
G02 X95.760667 Y119.585698 Z2 I21.578821 J-10.732270 F75.000000
G02 X96.215811 Y120.213381 Z2 I2.331206 J-1.211539
G01 X97.819454 Y120.434600 Z2
G01 X97.091078 Y119.166414 Z2
G02 X96.048892 Y119.040918 Z2 I-0.732189 J1.690304
G02 X95.566667 Y119.204164 Z2 I0.273414 J1.601521
G00 Z0.000000

(End cutting path id: path11)


(Start cutting path id: path11)
(Change tool to Default tool)

G00 Z0.000000
G00 X91.627083 Y117.552080

G01 Z2 F100.0(Penetrate)
G03 X91.805406 Y117.627475 Z2 I-52.035912 J123.323051 F75.000000
G02 X92.390172 Y117.782909 Z2 I0.840182 J-1.983184
G01 X93.972242 Y117.041883 Z2
G01 X92.265638 Y115.904998 Z2
G02 X91.832714 Y115.898383 Z2 I-0.321302 J6.858488
G03 X91.627083 Y115.899998 Z2 I-0.198842 J-12.229361
G00 Z0.000000

(End cutting path id: path11)


(Start cutting path id: path11)
(Change tool to Default tool)

G00 Z0.000000
G00 X91.500000 Y116.027083

G01 Z2 F100.0(Penetrate)
G01 X91.627083 Y115.900000 Z2 F75.000000
G00 Z0.000000

(End cutting path id: path11)


(Start cutting path id: path11)
(Change tool to Default tool)

G00 Z0.000000
G00 X91.500000 Y123.779167

G01 Z2 F100.0(Penetrate)
G01 X92.135417 Y123.779167 Z2 F75.000000
G00 Z0.000000

(End cutting path id: path11)


(Start cutting path id: path11)
(Change tool to Default tool)

G00 Z0.000000
G00 X92.516667 Y124.414588

G01 Z2 F100.0(Penetrate)
G01 X93.533333 Y123.525005 Z2 F75.000000
G00 Z0.000000

(End cutting path id: path11)


(Start cutting path id: path11)
(Change tool to Default tool)

G00 Z0.000000
G00 X91.500000 Y126.956250

G01 Z2 F100.0(Penetrate)
G01 X91.627083 Y126.956250 Z2 F75.000000
G00 Z0.000000

(End cutting path id: path11)


(Start cutting path id: path11)
(Change tool to Default tool)

G00 Z0.000000
G00 X98.743750 Y123.016667

G01 Z2 F100.0(Penetrate)
G03 X99.782103 Y121.891470 Z2 I1.454046 J0.300117 F75.000000
G03 X101.285420 Y122.254167 Z2 I0.435307 J1.492567
G00 Z0.000000

(End cutting path id: path11)


(Start cutting path id: path11)
(Change tool to Default tool)

G00 Z0.000000
G00 X123.397920 Y117.806248

G01 Z2 F100.0(Penetrate)
G01 X120.475490 Y115.386664 Z2 F75.000000
G01 X118.801340 Y113.491003 Z2
G01 X117.453530 Y112.531016 Z2
G01 X117.061300 Y111.706248 Z2
G01 X116.113180 Y109.799998 Z2
G01 X113.588480 Y104.970831 Z2
G01 X111.579170 Y99.887498 Z2
G00 Z0.000000

(End cutting path id: path11)


(Start cutting path id: path11)
(Change tool to Default tool)

G00 Z0.000000
G00 X117.552080 Y102.429167

G01 Z2 F100.0(Penetrate)
G03 X118.738720 Y101.528939 Z2 I7.581067 J8.760817 F75.000000
G02 X119.722700 Y100.395736 Z2 I-1.546692 J-2.336825
G01 X120.387830 Y98.239535 Z2
G03 X121.860643 Y98.676510 Z2 I0.545402 J0.862263
G02 X122.633060 Y100.141667 Z2 I13.644152 J-6.256884
G01 X122.750540 Y101.158333 Z2
G03 X122.431279 Y101.683752 Z2 I-1.835157 J-0.755393
G03 X122.000000 Y102.175000 Z2 I-13.178375 J-11.134682
G00 Z0.000000

(End cutting path id: path11)


(Footer)
M5
M2
(Using default footer. To add your own footer create file "footer" in the output dir.)
(end)
%