%
(Header)
(Generated by gcodetools from Inkscape.)
(Using default header. To add your own header create file "header" in the output dir.)
M3
(Header end.)
G21 (All units in mm)

(Start cutting path id: path6)
(Change tool to Default tool)

G00 Z0.000000
G00 X64.304167 Y169.402083

G01 Z2 F100.0(Penetrate)
G02 X65.816436 Y170.864399 Z2 I4.332221 J-2.967089 F75.000000
G02 X67.735417 Y171.805195 Z2 I5.175888 J-8.129963
G02 X71.547237 Y172.714874 Z2 I6.007106 J-16.730364
G02 X75.487500 Y172.960417 Z2 I3.961411 J-31.831593
G00 Z0.000000

(End cutting path id: path6)


(Start cutting path id: path6)
(Change tool to Default tool)

G00 Z0.000000
G00 X79.300000 Y169.656250

G01 Z2 F100.0(Penetrate)
G02 X82.680729 Y171.651245 Z2 I5.565300 J-5.568990 F75.000000
G02 X86.543750 Y172.197917 Z2 I3.863021 J-13.375544
G01 X89.593750 Y172.197917 Z2
G01 X90.734362 Y172.197917 Z2
G01 X91.372917 Y172.197917 Z2
G00 Z0.000000

(End cutting path id: path6)


(Start cutting path id: path7)
(Change tool to Default tool)

G00 Z0.000000
G00 X91.500000 Y172.197917

G01 Z2 F100.0(Penetrate)
G01 X92.138555 Y172.192917 Z2 F75.000000
G01 X94.039804 Y171.745872 Z2
G01 X95.185417 Y170.800000 Z2
G00 Z0.000000

(End cutting path id: path7)


(Start cutting path id: path7)
(Change tool to Default tool)

G00 Z0.000000
G00 X98.108333 Y173.214583

G01 Z2 F100.0(Penetrate)
G02 X99.459642 Y173.015928 Z2 I-4.228723 J-33.460249 F75.000000
G02 X100.777080 Y172.607017 Z2 I-0.849481 J-5.063609
G03 X103.884536 Y171.164681 Z2 I637.960637 J1370.392336
G02 X106.368750 Y168.893750 Z2 I-2.337719 J-5.051505
G00 Z0.000000

(End cutting path id: path7)


(Start cutting path id: path7)
(Change tool to Default tool)

G00 Z0.000000
G00 X110.943750 Y168.893750

G01 Z2 F100.0(Penetrate)
G02 X115.082260 Y170.772690 Z2 I5.858809 J-7.407314 F75.000000
G02 X119.585420 Y170.933459 Z2 I2.792641 J-15.074805
G02 X121.699919 Y170.684183 Z2 I-21.429229 J-190.867267
G02 X123.652080 Y170.291667 Z2 I-1.617340 J-13.094535
G00 Z0.000000

(End cutting path id: path7)


(Start cutting path id: path7)
(Change tool to Default tool)

G00 Z0.000000
G00 X129.243750 Y170.418750

G01 Z2 F100.0(Penetrate)
G02 X128.458689 Y168.091871 Z2 I-4.538354 J0.235311 F75.000000
G02 X126.575000 Y166.336394 Z2 I-4.837212 J3.302129
G02 X123.590356 Y165.233754 Z2 I-4.616545 J7.905381
G02 X120.347920 Y165.208333 Z2 I-1.694658 J9.354435
G00 Z0.000000

(End cutting path id: path7)


(Start cutting path id: path7)
(Change tool to Default tool)

G00 Z0.000000
G00 X131.404170 Y163.047917

G01 Z2 F100.0(Penetrate)
G01 X130.768750 Y162.539583 Z2 F75.000000
G00 Z0.000000

(End cutting path id: path7)


(Start cutting path id: path7)
(Change tool to Default tool)

G00 Z0.000000
G00 X133.945830 Y160.887500

G01 Z2 F100.0(Penetrate)
G01 X133.691670 Y160.633333 Z2 F75.000000
G00 Z0.000000

(End cutting path id: path7)


(Start cutting path id: path7)
(Change tool to Default tool)

G00 Z0.000000
G00 X135.979170 Y163.556250

G01 Z2 F100.0(Penetrate)
G01 X137.122920 Y163.937500 Z2 F75.000000
G00 Z0.000000

(End cutting path id: path7)


(Start cutting path id: path6)
(Change tool to Default tool)

G00 Z0.000000
G00 X51.722917 Y165.843750

G01 Z2 F100.0(Penetrate)
G03 X52.625819 Y166.090976 Z2 I-136.974225 J502.020243 F75.000000
G02 X53.502083 Y166.309527 Z2 I5.041017 J-18.345656
G03 X56.212507 Y167.074904 Z2 I-5.656108 J25.211827
G02 X58.966667 Y167.733428 Z2 I4.830771 J-14.115189
G02 X63.900620 Y168.099943 Z2 I5.260885 J-37.427745
G02 X68.497917 Y166.479167 Z2 I0.061892 J-7.154899
G00 Z0.000000

(End cutting path id: path6)


(Start cutting path id: path6)
(Change tool to Default tool)

G00 Z0.000000
G00 X45.750000 Y162.412500

G01 Z2 F100.0(Penetrate)
G01 X46.134094 Y160.708349 Z2 F75.000000
G01 X45.877083 Y160.633329 Z2
G00 Z0.000000

(End cutting path id: path6)


(Footer)
M5
M2
(Using default footer. To add your own footer create file "footer" in the output dir.)
(end)
%