%
(Header)
(Generated by gcodetools from Inkscape.)
(Using default header. To add your own header create file "header" in the output dir.)
M3
(Header end.)
G21 (All units in mm)

(Start cutting path id: path5)
(Change tool to Default tool)

G00 Z0.000000
G00 X12.072917 Y173.468750

G01 Z2 F100.0(Penetrate)
G01 X12.200000 Y173.087500 Z2 F75.000000
G00 Z0.000000

(End cutting path id: path5)


(Start cutting path id: path5)
(Change tool to Default tool)

G00 Z0.000000
G00 X13.725000 Y169.910436

G01 Z2 F100.0(Penetrate)
G02 X14.266704 Y169.283426 Z2 I-2.295339 J-2.530560 F75.000000
G03 X14.768731 Y168.777570 Z2 I1.561712 J1.047850
G03 X16.352184 Y168.143541 Z2 I2.224781 J3.261960
G03 X17.283333 Y168.004186 Z2 I5.239968 J31.832154
G00 Z0.000000

(End cutting path id: path5)


(Start cutting path id: path5)
(Change tool to Default tool)

G00 Z0.000000
G00 X20.333333 Y171.054162

G01 Z2 F100.0(Penetrate)
G02 X19.044572 Y169.984027 Z2 I-2.895133 J2.175509 F75.000000
G03 X17.900218 Y168.997295 Z2 I1.344125 J-2.715780
G03 X17.662438 Y168.498926 Z2 I1.405133 J-0.976321
G03 X17.562996 Y168.004162 Z2 I2.861999 J-0.832605
G03 X17.593088 Y167.239862 Z2 I2.494210 J-0.284540
G02 X17.665956 Y166.606245 Z2 I-4.027830 J-0.784212
G03 X17.737675 Y165.730760 Z2 I9.749450 J0.357991
G02 X17.789803 Y164.699995 Z2 I-6.720600 J-0.856574
G02 X16.930476 Y162.199870 Z2 I-4.395467 J0.113039
G03 X15.758333 Y159.870828 Z2 I6.191689 J-4.575581
G00 Z0.000000

(End cutting path id: path5)


(Start cutting path id: path5)
(Change tool to Default tool)

G00 Z0.000000
G00 X19.825686 Y157.853090

G01 Z2 F100.0(Penetrate)
G01 X20.203896 Y156.391633 Z2 F75.000000
G01 X19.206939 Y157.197081 Z2
G01 X19.825686 Y157.853090 Z2
G00 Z0.000000

(End cutting path id: path5)


(Start cutting path id: path5)
(Change tool to Default tool)

G00 Z0.000000
G00 X23.129167 Y155.422916

G01 Z2 F100.0(Penetrate)
G03 X24.491271 Y155.059482 Z2 I1.437047 J2.651653 F75.000000
G03 X25.925000 Y155.041666 Z2 I1.433729 J57.681093
G03 X30.017196 Y155.603763 Z2 I-0.000000 J15.177109
G02 X34.058333 Y156.301124 Z2 I5.422916 J-19.367592
G02 X35.345252 Y156.377121 Z2 I4.532867 J-65.824277
G02 X36.600000 Y156.189240 Z2 I0.158773 J-3.223453
G02 X37.696542 Y155.523130 Z2 I-1.099748 J-3.046003
G03 X38.506250 Y155.041666 Z2 I1.540710 J1.669508
G00 Z0.000000

(End cutting path id: path5)


(Start cutting path id: path5)
(Change tool to Default tool)

G00 Z0.000000
G00 X38.053023 Y160.883872

G01 Z2 F100.0(Penetrate)
G01 X38.847096 Y159.853379 Z2 F75.000000
G01 X38.053023 Y160.883872 Z2
G00 Z0.000000

(End cutting path id: path5)


(Start cutting path id: path5)
(Change tool to Default tool)

G00 Z0.000000
G00 X41.683333 Y161.141667

G01 Z2 F100.0(Penetrate)
G02 X40.753080 Y158.379047 Z2 I-6.166039 J0.538349 F75.000000
G03 X39.307486 Y155.931250 Z2 I41.379523 J-26.088253
G03 X38.956844 Y155.260561 Z2 I14.615402 J-8.068059
G03 X38.747180 Y154.533333 Z2 I1.912103 J-0.945109
G03 X38.661246 Y153.555834 Z2 I33.330023 J-3.422624
G03 X38.687850 Y152.754167 Z2 I3.772880 J-0.276071
G03 X38.935940 Y151.654158 Z2 I6.781792 J0.951545
G03 X39.522913 Y150.593750 Z2 I2.891623 J0.907957
G00 Z0.000000

(End cutting path id: path5)


(Start cutting path id: path5)
(Change tool to Default tool)

G00 Z0.000000
G00 X27.831250 Y151.737500

G01 Z2 F100.0(Penetrate)
G01 X28.339583 Y151.229167 Z2 F75.000000
G00 Z0.000000

(End cutting path id: path5)


(Start cutting path id: path5)
(Change tool to Default tool)

G00 Z0.000000
G00 X21.871669 Y152.530889

G01 Z2 F100.0(Penetrate)
G01 X22.998455 Y152.210434 Z2 F75.000000
G02 X23.096455 Y151.260353 Z2 I-0.921148 J-0.575111
G02 X22.364411 Y150.545799 Z2 I-1.115309 J0.410351
G01 X21.234193 Y151.610320 Z2
G01 X21.871669 Y152.530889 Z2
G00 Z0.000000

(End cutting path id: path5)


(Start cutting path id: path5)
(Change tool to Default tool)

G00 Z0.000000
G00 X18.180369 Y153.869283

G01 Z2 F100.0(Penetrate)
G01 X18.995231 Y153.382230 Z2 F75.000000
G01 X18.777445 Y152.471758 Z2
G01 X17.847365 Y152.899586 Z2
G01 X18.180369 Y153.869283 Z2
G00 Z0.000000

(End cutting path id: path5)


(Start cutting path id: path5)
(Change tool to Default tool)

G00 Z0.000000
G00 X18.427083 Y148.179167

G01 Z2 F100.0(Penetrate)
G03 X17.405695 Y146.348101 Z2 I13.867851 J-8.936037 F75.000000
G02 X15.365610 Y143.350097 Z2 I-10.788003 J5.147909
G02 X13.464271 Y142.027454 Z2 I-4.005042 J3.729430
G02 X11.691667 Y141.443750 Z2 I-4.695993 J11.277497
G01 X10.929167 Y143.477083 Z2
G01 X10.802083 Y143.477083 Z2
G01 X10.675000 Y143.477083 Z2
G00 Z0.000000

(End cutting path id: path5)


(Start cutting path id: path5)
(Change tool to Default tool)

G00 Z0.000000
G00 X7.116667 Y147.035417

G01 Z2 F100.0(Penetrate)
G01 X6.862500 Y146.654167 Z2 F75.000000
G00 Z0.000000

(End cutting path id: path5)


(Start cutting path id: path5)
(Change tool to Default tool)

G00 Z0.000000
G00 X7.879167 Y152.754167

G01 Z2 F100.0(Penetrate)
G02 X6.627685 Y151.959682 Z2 I-4.378656 J5.514395 F75.000000
G02 X6.354167 Y151.864583 Z2 I-0.513439 J1.035831
G00 Z0.000000

(End cutting path id: path5)


(Start cutting path id: path5)
(Change tool to Default tool)

G00 Z0.000000
G00 X6.862500 Y155.422917

G01 Z2 F100.0(Penetrate)
G02 X7.455922 Y154.764072 Z2 I-0.542543 J-1.085338 F75.000000
G02 X7.709036 Y153.897917 Z2 I-5.648501 J-2.120708
G03 X7.889644 Y153.054543 Z2 I280.535157 J59.635570
G03 X8.230999 Y152.245833 Z2 I2.308411 J0.497978
G03 X10.057885 Y150.374769 Z2 I5.855158 J3.889501
G03 X12.327083 Y149.045903 Z2 I9.373275 J13.404099
G03 X14.648012 Y148.610369 Z2 I1.966728 J4.078757
G02 X17.029167 Y148.687011 Z2 I2.020769 J-25.754685
G02 X17.835250 Y148.505617 Z2 I-0.027985 J-2.006107
G02 X18.554167 Y148.175242 Z2 I-81.223530 J-177.694787
G03 X19.532719 Y147.847360 Z2 I1.980827 J4.287540
G02 X20.841667 Y147.548850 Z2 I-13.722576 J-63.191707
G03 X23.436711 Y146.941194 Z2 I67.498050 J282.410865
G02 X25.923040 Y145.624163 Z2 I-1.215377 J-5.299821
G02 X27.215864 Y143.093578 Z2 I-2.823672 J-3.038086
G02 X27.052669 Y140.427083 Z2 I-7.253859 J-0.894292
G03 X26.840334 Y139.151593 Z2 I7.852782 J-1.962696
G03 X26.817034 Y138.013089 Z2 I8.796367 J-0.749514
G01 X27.704167 Y137.250000 Z2
G00 Z0.000000

(End cutting path id: path5)


(Start cutting path id: path5)
(Change tool to Default tool)

G00 Z0.000000
G00 X17.918750 Y141.825000

G01 Z2 F100.0(Penetrate)
G01 X17.791667 Y141.697917 Z2 F75.000000
G00 Z0.000000

(End cutting path id: path5)


(Start cutting path id: path5)
(Change tool to Default tool)

G00 Z0.000000
G00 X14.993970 Y138.916006

G01 Z2 F100.0(Penetrate)
G01 X15.554569 Y138.512891 Z2 F75.000000
G01 X14.993970 Y137.259905 Z2
G01 X14.248924 Y137.650079 Z2
G01 X14.993970 Y138.916006 Z2
G00 Z0.000000

(End cutting path id: path5)


(Start cutting path id: path5)
(Change tool to Default tool)

G00 Z0.000000
G00 X9.277083 Y137.250000

G01 Z2 F100.0(Penetrate)
G01 X9.531250 Y137.250000 Z2 F75.000000
G00 Z0.000000

(End cutting path id: path5)


(Start cutting path id: path5)
(Change tool to Default tool)

G00 Z0.000000
G00 X6.735417 Y139.664583

G01 Z2 F100.0(Penetrate)
G01 X7.752083 Y139.537500 Z2 F75.000000
G00 Z0.000000

(End cutting path id: path5)


(Start cutting path id: path5)
(Change tool to Default tool)

G00 Z0.000000
G00 X11.564583 Y153.135417

G01 Z2 F100.0(Penetrate)
G01 X12.072917 Y152.754167 Z2 F75.000000
G00 Z0.000000

(End cutting path id: path5)


(Start cutting path id: path5)
(Change tool to Default tool)

G00 Z0.000000
G00 X6.608333 Y158.091667

G01 Z2 F100.0(Penetrate)
G01 X6.354167 Y157.837500 Z2 F75.000000
G00 Z0.000000

(End cutting path id: path5)


(Start cutting path id: path5)
(Change tool to Default tool)

G00 Z0.000000
G00 X7.116667 Y165.208333

G01 Z2 F100.0(Penetrate)
G02 X10.293286 Y164.731060 Z2 I0.000000 J-10.810068 F75.000000
G02 X13.089583 Y163.047917 Z2 I-1.988419 J-6.467860
G00 Z0.000000

(End cutting path id: path5)


(Start cutting path id: path5)
(Change tool to Default tool)

G00 Z0.000000
G00 X10.588219 Y169.904436

G01 Z2 F100.0(Penetrate)
G01 X11.342579 Y169.034659 Z2 F75.000000
G01 X10.803947 Y168.608008 Z2
G01 X10.308655 Y169.275000 Z2
G01 X10.588219 Y169.904436 Z2
G00 Z0.000000

(End cutting path id: path5)


(Start cutting path id: path5)
(Change tool to Default tool)

G00 Z0.000000
G00 X16.393750 Y172.960417

G01 Z2 F100.0(Penetrate)
G01 X17.029167 Y172.833333 Z2 F75.000000
G00 Z0.000000

(End cutting path id: path5)


(Start cutting path id: path5)
(Change tool to Default tool)

G00 Z0.000000
G00 X22.239583 Y173.468750

G01 Z2 F100.0(Penetrate)
G01 X22.112500 Y173.341667 Z2 F75.000000
G00 Z0.000000

(End cutting path id: path5)


(Start cutting path id: path5)
(Change tool to Default tool)

G00 Z0.000000
G00 X31.263088 Y171.943648

G01 Z2 F100.0(Penetrate)
G01 X32.023040 Y169.817845 Z2 F75.000000
G01 X31.263088 Y171.943648 Z2
G00 Z0.000000

(End cutting path id: path5)


(Start cutting path id: path5)
(Change tool to Default tool)

G00 Z0.000000
G00 X35.592746 Y172.321374

G01 Z2 F100.0(Penetrate)
G01 X36.523222 Y172.248314 Z2 F75.000000
G01 X36.316808 Y171.120744 Z2
G01 X35.592746 Y172.321369 Z2
G00 Z0.000000

(End cutting path id: path5)


(Start cutting path id: path5)
(Change tool to Default tool)

G00 Z0.000000
G00 X36.727083 Y169.147936

G01 Z2 F100.0(Penetrate)
G03 X36.337752 Y167.864849 Z2 I41.249785 J-13.217158 F75.000000
G02 X35.767780 Y166.606269 Z2 I-4.561185 J1.307269
G02 X34.792228 Y165.432578 Z2 I-5.269495 J3.387636
G03 X33.899479 Y164.191686 Z2 I2.746523 J-2.917549
G03 X33.563207 Y162.262470 Z2 I3.470263 J-1.598799
G02 X33.677083 Y160.506269 Z2 I-40.154332 J-3.485492
G00 Z0.000000

(End cutting path id: path5)


(Start cutting path id: path5)
(Change tool to Default tool)

G00 Z0.000000
G00 X29.095215 Y159.762676

G01 Z2 F100.0(Penetrate)
G01 X28.971368 Y158.245029 Z2 F75.000000
G01 X28.208280 Y158.979877 Z2
G01 X29.095215 Y159.762676 Z2
G00 Z0.000000

(End cutting path id: path5)


(Start cutting path id: path5)
(Change tool to Default tool)

G00 Z0.000000
G00 X30.010494 Y167.365141

G01 Z2 F100.0(Penetrate)
G01 X30.747401 Y165.520080 Z2 F75.000000
G01 X30.010494 Y167.365141 Z2
G00 Z0.000000

(End cutting path id: path5)


(Start cutting path id: path5)
(Change tool to Default tool)

G00 Z0.000000
G00 X41.302083 Y163.429167

G01 Z2 F100.0(Penetrate)
G01 X41.556250 Y163.429167 Z2 F75.000000
G00 Z0.000000

(End cutting path id: path5)


(Start cutting path id: path5)
(Change tool to Default tool)

G00 Z0.000000
G00 X45.622917 Y160.760417

G01 Z2 F100.0(Penetrate)
G01 X45.367280 Y162.413088 Z2 F75.000000
G01 X45.622917 Y162.539583 Z2
G00 Z0.000000

(End cutting path id: path5)


(Footer)
M5
M2
(Using default footer. To add your own footer create file "footer" in the output dir.)
(end)
%