%
(Header)
(Generated by gcodetools from Inkscape.)
(Using default header. To add your own header create file "header" in the output dir.)
M3
(Header end.)
G21 (All units in mm)

(Start cutting path id: path8)
(Change tool to Default tool)

G00 Z0.000000
G00 X137.250000 Y174.993750

G01 Z2 F100.0(Penetrate)
G01 X138.223820 Y174.226150 Z2 F75.000000
G01 X137.377080 Y173.087500 Z2
G00 Z0.000000

(End cutting path id: path8)


(Start cutting path id: path8)
(Change tool to Default tool)

G00 Z0.000000
G00 X137.250000 Y173.087500

G01 Z2 F100.0(Penetrate)
G01 X137.377080 Y173.087500 Z2 F75.000000
G00 Z0.000000

(End cutting path id: path8)


(Start cutting path id: path8)
(Change tool to Default tool)

G00 Z0.000000
G00 X154.787500 Y147.162500

G01 Z2 F100.0(Penetrate)
G01 X155.168750 Y147.035417 Z2 F75.000000
G00 Z0.000000

(End cutting path id: path8)


(Start cutting path id: path8)
(Change tool to Default tool)

G00 Z0.000000
G00 X161.650000 Y137.885417

G01 Z2 F100.0(Penetrate)
G01 X163.047920 Y136.995833 Z2 F75.000000
G00 Z0.000000

(End cutting path id: path8)


(Start cutting path id: path8)
(Change tool to Default tool)

G00 Z0.000000
G00 X170.672920 Y124.668750

G01 Z2 F100.0(Penetrate)
G02 X171.886594 Y124.603885 Z2 I0.515207 J-1.746915 F75.000000
G02 X172.960420 Y123.906250 Z2 I-1.352475 J-3.257034
G00 Z0.000000

(End cutting path id: path8)


(Start cutting path id: path8)
(Change tool to Default tool)

G00 Z0.000000
G00 X171.943750 Y166.352083

G01 Z2 F100.0(Penetrate)
G01 X172.452080 Y165.970833 Z2 F75.000000
G00 Z0.000000

(End cutting path id: path8)


(Start cutting path id: path8)
(Change tool to Default tool)

G00 Z0.000000
G00 X173.595830 Y169.529167

G01 Z2 F100.0(Penetrate)
G01 X176.900000 Y169.783333 Z2 F75.000000
G00 Z0.000000

(End cutting path id: path8)


(Start cutting path id: path8)
(Change tool to Default tool)

G00 Z0.000000
G00 X172.070830 Y170.164583

G01 Z2 F100.0(Penetrate)
G02 X170.094939 Y169.676698 Z2 I-3.075018 J8.208523 F75.000000
G03 X168.131250 Y169.275000 Z2 I1.653823 J-13.085224
G00 Z0.000000

(End cutting path id: path8)


(Footer)
M5
M2
(Using default footer. To add your own footer create file "footer" in the output dir.)
(end)
%