%
(Header)
(Generated by gcodetools from Inkscape.)
(Using default header. To add your own header create file "header" in the output dir.)
M3
(Header end.)
G21 (All units in mm)

(Start cutting path id: path11)
(Change tool to Default tool)

G00 Z0.000000
G00 X107.385420 Y136.233333

G01 Z2 F100.0(Penetrate)
G01 X108.402080 Y136.360417 Z2 F75.000000
G00 Z0.000000

(End cutting path id: path11)


(Start cutting path id: path11)
(Change tool to Default tool)

G00 Z0.000000
G00 X103.064580 Y133.945833

G01 Z2 F100.0(Penetrate)
G01 X104.843750 Y134.454167 Z2 F75.000000
G00 Z0.000000

(End cutting path id: path11)


(Start cutting path id: path11)
(Change tool to Default tool)

G00 Z0.000000
G00 X115.137500 Y133.437500

G01 Z2 F100.0(Penetrate)
G01 X115.518750 Y133.564583 Z2 F75.000000
G00 Z0.000000

(End cutting path id: path11)


(Start cutting path id: path11)
(Change tool to Default tool)

G00 Z0.000000
G00 X118.568750 Y132.675000

G01 Z2 F100.0(Penetrate)
G01 X117.933330 Y132.039583 Z2 F75.000000
G00 Z0.000000

(End cutting path id: path11)


(Start cutting path id: path11)
(Change tool to Default tool)

G00 Z0.000000
G00 X120.983330 Y128.862500

G01 Z2 F100.0(Penetrate)
G01 X121.745830 Y128.989583 Z2 F75.000000
G00 Z0.000000

(End cutting path id: path11)


(Start cutting path id: path11)
(Change tool to Default tool)

G00 Z0.000000
G00 X124.668750 Y130.641667

G01 Z2 F100.0(Penetrate)
G01 X125.050000 Y130.768750 Z2 F75.000000
G00 Z0.000000

(End cutting path id: path11)


(Start cutting path id: path11)
(Change tool to Default tool)

G00 Z0.000000
G00 X122.254170 Y135.597917

G01 Z2 F100.0(Penetrate)
G01 X122.381250 Y134.962500 Z2 F75.000000
G00 Z0.000000

(End cutting path id: path11)


(Start cutting path id: path11)
(Change tool to Default tool)

G00 Z0.000000
G00 X116.281250 Y113.993750

G01 Z2 F100.0(Penetrate)
G01 X116.408330 Y113.612500 Z2 F75.000000
G00 Z0.000000

(End cutting path id: path11)


(Start cutting path id: path11)
(Change tool to Default tool)

G00 Z0.000000
G00 X115.772920 Y111.579167

G01 Z2 F100.0(Penetrate)
G01 X115.137500 Y109.800000 Z2 F75.000000
G00 Z0.000000

(End cutting path id: path11)


(Start cutting path id: path11)
(Change tool to Default tool)

G00 Z0.000000
G00 X113.485420 Y106.877083

G01 Z2 F100.0(Penetrate)
G01 X112.850000 Y105.479167 Z2 F75.000000
G00 Z0.000000

(End cutting path id: path11)


(Start cutting path id: path11)
(Change tool to Default tool)

G00 Z0.000000
G00 X114.629170 Y100.141667

G01 Z2 F100.0(Penetrate)
G01 X113.231250 Y97.854167 Z2 F75.000000
G00 Z0.000000

(End cutting path id: path11)


(Start cutting path id: path11)
(Change tool to Default tool)

G00 Z0.000000
G00 X113.739580 Y91.754167

G01 Z2 F100.0(Penetrate)
G01 X115.772920 Y93.279167 Z2 F75.000000
G00 Z0.000000

(End cutting path id: path11)


(Start cutting path id: path11)
(Change tool to Default tool)

G00 Z0.000000
G00 X119.077080 Y92.770833

G01 Z2 F100.0(Penetrate)
G01 X121.237500 Y93.660417 Z2 F75.000000
G00 Z0.000000

(End cutting path id: path11)


(Start cutting path id: path11)
(Change tool to Default tool)

G00 Z0.000000
G00 X124.541670 Y92.897917

G01 Z2 F100.0(Penetrate)
G01 X125.939580 Y92.897917 Z2 F75.000000
G00 Z0.000000

(End cutting path id: path11)


(Start cutting path id: path11)
(Change tool to Default tool)

G00 Z0.000000
G00 X127.718750 Y90.864583

G01 Z2 F100.0(Penetrate)
G01 X128.100000 Y90.356250 Z2 F75.000000
G00 Z0.000000

(End cutting path id: path11)


(Start cutting path id: path11)
(Change tool to Default tool)

G00 Z0.000000
G00 X117.933330 Y86.543750

G01 Z2 F100.0(Penetrate)
G02 X118.836263 Y87.069661 Z2 I2.175605 J-2.697206 F75.000000
G02 X119.839580 Y87.306250 Z2 I1.314662 J-3.329458
G00 Z0.000000

(End cutting path id: path11)


(Start cutting path id: path11)
(Change tool to Default tool)

G00 Z0.000000
G00 X112.214580 Y87.433333

G01 Z2 F100.0(Penetrate)
G01 X111.579170 Y87.052083 Z2 F75.000000
G00 Z0.000000

(End cutting path id: path11)


(Start cutting path id: path11)
(Change tool to Default tool)

G00 Z0.000000
G00 X110.816670 Y91.245833

G01 Z2 F100.0(Penetrate)
G01 X111.452080 Y91.627083 Z2 F75.000000
G00 Z0.000000

(End cutting path id: path11)


(Start cutting path id: path11)
(Change tool to Default tool)

G00 Z0.000000
G00 X108.529170 Y90.737500

G01 Z2 F100.0(Penetrate)
G01 X106.241670 Y89.085417 Z2 F75.000000
G00 Z0.000000

(End cutting path id: path11)


(Start cutting path id: path11)
(Change tool to Default tool)

G00 Z0.000000
G00 X104.462500 Y93.660417

G01 Z2 F100.0(Penetrate)
G01 X103.700000 Y93.406250 Z2 F75.000000
G00 Z0.000000

(End cutting path id: path11)


(Start cutting path id: path11)
(Change tool to Default tool)

G00 Z0.000000
G00 X102.047920 Y97.854167

G01 Z2 F100.0(Penetrate)
G01 X102.175000 Y97.854167 Z2 F75.000000
G00 Z0.000000

(End cutting path id: path11)


(Start cutting path id: path11)
(Change tool to Default tool)

G00 Z0.000000
G00 X99.887500 Y98.489583

G01 Z2 F100.0(Penetrate)
G01 X101.031250 Y99.252083 Z2 F75.000000
G00 Z0.000000

(End cutting path id: path11)


(Start cutting path id: path11)
(Change tool to Default tool)

G00 Z0.000000
G00 X100.395830 Y101.031250

G01 Z2 F100.0(Penetrate)
G01 X98.743750 Y99.887500 Z2 F75.000000
G00 Z0.000000

(End cutting path id: path11)


(Start cutting path id: path11)
(Change tool to Default tool)

G00 Z0.000000
G00 X96.329167 Y100.650000

G01 Z2 F100.0(Penetrate)
G01 X98.108333 Y102.047917 Z2 F75.000000
G00 Z0.000000

(End cutting path id: path11)


(Start cutting path id: path11)
(Change tool to Default tool)

G00 Z0.000000
G00 X100.268750 Y105.097917

G01 Z2 F100.0(Penetrate)
G01 X103.700000 Y106.368750 Z2 F75.000000
G00 Z0.000000

(End cutting path id: path11)


(Start cutting path id: path11)
(Change tool to Default tool)

G00 Z0.000000
G00 X103.572920 Y103.827083

G01 Z2 F100.0(Penetrate)
G01 X105.225000 Y104.081250 Z2 F75.000000
G00 Z0.000000

(End cutting path id: path11)


(Start cutting path id: path11)
(Change tool to Default tool)

G00 Z0.000000
G00 X106.114580 Y102.302083

G01 Z2 F100.0(Penetrate)
G01 X104.843750 Y101.793750 Z2 F75.000000
G00 Z0.000000

(End cutting path id: path11)


(Start cutting path id: path11)
(Change tool to Default tool)

G00 Z0.000000
G00 X106.750000 Y100.014583

G01 Z2 F100.0(Penetrate)
G01 X107.893750 Y100.522917 Z2 F75.000000
G00 Z0.000000

(End cutting path id: path11)


(Start cutting path id: path11)
(Change tool to Default tool)

G00 Z0.000000
G00 X100.522920 Y107.639583

G01 Z2 F100.0(Penetrate)
G01 X98.489583 Y106.495833 Z2 F75.000000
G00 Z0.000000

(End cutting path id: path11)


(Start cutting path id: path11)
(Change tool to Default tool)

G00 Z0.000000
G00 X95.312500 Y112.722917

G01 Z2 F100.0(Penetrate)
G01 X95.058333 Y111.960417 Z2 F75.000000
G00 Z0.000000

(End cutting path id: path11)


(Start cutting path id: path11)
(Change tool to Default tool)

G00 Z0.000000
G00 X91.500000 Y117.552083

G01 Z2 F100.0(Penetrate)
G01 X91.627083 Y117.552083 Z2 F75.000000
G00 Z0.000000

(End cutting path id: path11)


(Start cutting path id: path11)
(Change tool to Default tool)

G00 Z0.000000
G00 X91.500000 Y121.237500

G01 Z2 F100.0(Penetrate)
G01 X91.627083 Y121.237500 Z2 F75.000000
G00 Z0.000000

(End cutting path id: path11)


(Start cutting path id: path11)
(Change tool to Default tool)

G00 Z0.000000
G00 X92.262500 Y121.491667

G01 Z2 F100.0(Penetrate)
G01 X91.627083 Y121.237500 Z2 F75.000000
G00 Z0.000000

(End cutting path id: path11)


(Start cutting path id: path11)
(Change tool to Default tool)

G00 Z0.000000
G00 X95.185417 Y125.812500

G01 Z2 F100.0(Penetrate)
G01 X94.168750 Y125.177083 Z2 F75.000000
G00 Z0.000000

(End cutting path id: path11)


(Start cutting path id: path11)
(Change tool to Default tool)

G00 Z0.000000
G00 X119.204170 Y107.004167

G01 Z2 F100.0(Penetrate)
G01 X117.806250 Y106.114583 Z2 F75.000000
G00 Z0.000000

(End cutting path id: path11)


(Start cutting path id: path11)
(Change tool to Default tool)

G00 Z0.000000
G00 X121.364580 Y109.672917

G01 Z2 F100.0(Penetrate)
G01 X120.347920 Y109.037500 Z2 F75.000000
G00 Z0.000000

(End cutting path id: path11)


(Start cutting path id: path11)
(Change tool to Default tool)

G00 Z0.000000
G00 X128.227080 Y107.385417

G01 Z2 F100.0(Penetrate)
G01 X129.625000 Y107.131250 Z2 F75.000000
G00 Z0.000000

(End cutting path id: path11)


(Start cutting path id: path11)
(Change tool to Default tool)

G00 Z0.000000
G00 X128.735420 Y105.606250

G01 Z2 F100.0(Penetrate)
G02 X127.420123 Y104.986957 Z2 I-2.413854 J3.420303 F75.000000
G03 X126.320830 Y104.081250 Z2 I0.454640 J-1.671796
G00 Z0.000000

(End cutting path id: path11)


(Start cutting path id: path11)
(Change tool to Default tool)

G00 Z0.000000
G00 X130.387500 Y104.081250

G01 Z2 F100.0(Penetrate)
G01 X131.150000 Y103.572917 Z2 F75.000000
G00 Z0.000000

(End cutting path id: path11)


(Start cutting path id: path11)
(Change tool to Default tool)

G00 Z0.000000
G00 X123.525000 Y100.268750

G01 Z2 F100.0(Penetrate)
G01 X125.812500 Y101.158333 Z2 F75.000000
G00 Z0.000000

(End cutting path id: path11)


(Footer)
M5
M2
(Using default footer. To add your own footer create file "footer" in the output dir.)
(end)
%