%
(Header)
(Generated by gcodetools from Inkscape.)
(Using default header. To add your own header create file "header" in the output dir.)
M3
(Header end.)
G21 (All units in mm)

(Start cutting path id: path12)
(Change tool to Default tool)

G00 Z0.000000
G00 X168.131250 Y130.387500

G01 Z2 F100.0(Penetrate)
G01 X168.639580 Y129.879167 Z2 F75.000000
G00 Z0.000000

(End cutting path id: path12)


(Start cutting path id: path12)
(Change tool to Default tool)

G00 Z0.000000
G00 X171.689580 Y106.368750

G01 Z2 F100.0(Penetrate)
G01 X173.214580 Y106.622917 Z2 F75.000000
G00 Z0.000000

(End cutting path id: path12)


(Start cutting path id: path12)
(Change tool to Default tool)

G00 Z0.000000
G00 X176.518750 Y106.241667

G01 Z2 F100.0(Penetrate)
G01 X177.281250 Y106.241667 Z2 F75.000000
G00 Z0.000000

(End cutting path id: path12)


(Start cutting path id: path12)
(Change tool to Default tool)

G00 Z0.000000
G00 X176.772920 Y101.920833

G01 Z2 F100.0(Penetrate)
G01 X178.170830 Y101.031250 Z2 F75.000000
G00 Z0.000000

(End cutting path id: path12)


(Start cutting path id: path12)
(Change tool to Default tool)

G00 Z0.000000
G00 X175.247920 Y98.489583

G01 Z2 F100.0(Penetrate)
G01 X174.358330 Y98.108333 Z2 F75.000000
G00 Z0.000000

(End cutting path id: path12)


(Start cutting path id: path12)
(Change tool to Default tool)

G00 Z0.000000
G00 X177.535420 Y95.820833

G01 Z2 F100.0(Penetrate)
G01 X178.806250 Y95.058333 Z2 F75.000000
G00 Z0.000000

(End cutting path id: path12)


(Start cutting path id: path12)
(Change tool to Default tool)

G00 Z0.000000
G00 X173.214580 Y103.064583

G01 Z2 F100.0(Penetrate)
G01 X173.977080 Y102.810417 Z2 F75.000000
G00 Z0.000000

(End cutting path id: path12)


(Footer)
M5
M2
(Using default footer. To add your own footer create file "footer" in the output dir.)
(end)
%