%
(Header)
(Generated by gcodetools from Inkscape.)
(Using default header. To add your own header create file "header" in the output dir.)
M3
(Header end.)
G21 (All units in mm)

(Start cutting path id: path6)
(Change tool to Default tool)

G00 Z0.000000
G00 X71.415245 Y178.186424

G01 Z2 F100.0(Penetrate)
G01 X72.036835 Y177.407845 Z2 F75.000000
G02 X71.737588 Y176.598387 Z2 I-1.096175 J-0.054799
G02 X70.913088 Y176.289001 Z2 I-0.729525 J0.690830
G01 X70.360139 Y177.532966 Z2
G01 X71.415245 Y178.186424 Z2
G00 Z0.000000

(End cutting path id: path6)


(Start cutting path id: path6)
(Change tool to Default tool)

G00 Z0.000000
G00 X66.847794 Y175.428834

G01 Z2 F100.0(Penetrate)
G01 X67.605882 Y174.017483 Z2 F75.000000
G01 X66.306710 Y174.286360 Z2
G01 X66.847794 Y175.428834 Z2
G00 Z0.000000

(End cutting path id: path6)


(Start cutting path id: path6)
(Change tool to Default tool)

G00 Z0.000000
G00 X61.889681 Y173.755568

G01 Z2 F100.0(Penetrate)
G01 X62.270343 Y172.106230 Z2 F75.000000
G01 X61.028632 Y172.586128 Z2
G01 X61.889681 Y173.755568 Z2
G00 Z0.000000

(End cutting path id: path6)


(Start cutting path id: path6)
(Change tool to Default tool)

G00 Z0.000000
G00 X56.806250 Y170.800000

G01 Z2 F100.0(Penetrate)
G01 X56.297917 Y170.418750 Z2 F75.000000
G00 Z0.000000

(End cutting path id: path6)


(Start cutting path id: path6)
(Change tool to Default tool)

G00 Z0.000000
G00 X52.231250 Y170.455420

G01 Z2 F100.0(Penetrate)
G01 X52.104167 Y168.528774 Z2 F75.000000
G01 X51.307052 Y169.655658 Z2
G01 X52.231250 Y170.455420 Z2
G00 Z0.000000

(End cutting path id: path6)


(Start cutting path id: path6)
(Change tool to Default tool)

G00 Z0.000000
G00 X50.706250 Y174.227232

G01 Z2 F100.0(Penetrate)
G02 X51.978048 Y173.941495 Z2 I0.457000 J-0.939137 F75.000000
G02 X51.595343 Y172.128395 Z2 I-0.934794 J-0.749626
G02 X50.963413 Y171.898381 Z2 I-1.197315 J2.306376
G02 X50.325490 Y171.871777 Z2 I-0.393053 J1.763288
G01 X49.504352 Y172.833430 Z2
G02 X49.865027 Y173.590466 Z2 I1.481017 J-0.241164
G02 X50.706250 Y174.227232 Z2 I2.032151 J-1.810602
G00 Z0.000000

(End cutting path id: path6)


(Start cutting path id: path6)
(Change tool to Default tool)

G00 Z0.000000
G00 X55.535417 Y174.866667

G01 Z2 F100.0(Penetrate)
G01 X56.425000 Y175.247917 Z2 F75.000000
G00 Z0.000000

(End cutting path id: path6)


(Start cutting path id: path6)
(Change tool to Default tool)

G00 Z0.000000
G00 X55.662500 Y164.827083

G01 Z2 F100.0(Penetrate)
G03 X56.600444 Y165.498582 Z2 I-6.796069 J10.483497 F75.000000
G02 X57.441667 Y165.843750 Z2 I1.025002 J-1.300401
G00 Z0.000000

(End cutting path id: path6)


(Start cutting path id: path6)
(Change tool to Default tool)

G00 Z0.000000
G00 X60.745833 Y165.716667

G01 Z2 F100.0(Penetrate)
G01 X59.856250 Y165.081250 Z2 F75.000000
G00 Z0.000000

(End cutting path id: path6)


(Start cutting path id: path6)
(Change tool to Default tool)

G00 Z0.000000
G00 X68.370833 Y169.020830

G01 Z2 F100.0(Penetrate)
G01 X69.006250 Y168.893747 Z2 F75.000000
G00 Z0.000000

(End cutting path id: path6)


(Start cutting path id: path6)
(Change tool to Default tool)

G00 Z0.000000
G00 X70.531250 Y170.164580

G01 Z2 F100.0(Penetrate)
G01 X72.183333 Y170.037497 Z2 F75.000000
G00 Z0.000000

(End cutting path id: path6)


(Start cutting path id: path6)
(Change tool to Default tool)

G00 Z0.000000
G00 X77.012500 Y176.591801

G01 Z2 F100.0(Penetrate)
G01 X77.982883 Y176.351267 Z2 F75.000000
G01 X77.012403 Y175.022775 Z2
G01 X75.552120 Y175.515812 Z2
G01 X77.012500 Y176.591801 Z2
G00 Z0.000000

(End cutting path id: path6)


(Start cutting path id: path6)
(Change tool to Default tool)

G00 Z0.000000
G00 X81.968750 Y172.579167

G01 Z2 F100.0(Penetrate)
G01 X82.350000 Y172.579167 Z2 F75.000000
G00 Z0.000000

(End cutting path id: path6)


(Start cutting path id: path6)
(Change tool to Default tool)

G00 Z0.000000
G00 X84.891667 Y169.910414

G01 Z2 F100.0(Penetrate)
G01 X85.527083 Y170.037497 Z2 F75.000000
G00 Z0.000000

(End cutting path id: path6)


(Start cutting path id: path6)
(Change tool to Default tool)

G00 Z0.000000
G00 X85.800075 Y175.715850

G01 Z2 F100.0(Penetrate)
G01 X87.044435 Y174.758408 Z2 F75.000000
G01 X86.541691 Y174.403833 Z2
G01 X85.800075 Y175.715850 Z2
G00 Z0.000000

(End cutting path id: path6)


(Start cutting path id: path6)
(Change tool to Default tool)

G00 Z0.000000
G00 X91.372917 Y175.247917

G01 Z2 F100.0(Penetrate)
G01 X91.372917 Y175.120833 Z2 F75.000000
G00 Z0.000000

(End cutting path id: path6)


(Start cutting path id: path6)
(Change tool to Default tool)

G00 Z0.000000
G00 X45.877083 Y168.004164

G01 Z2 F100.0(Penetrate)
G03 X46.213263 Y168.219396 Z2 I-2.389049 J4.101734 F75.000000
G02 X47.020833 Y168.706263 Z2 I3.926261 J-5.599316
G01 X48.641930 Y168.003574 Z2
G02 X48.022965 Y166.516672 Z2 I-1.526577 J-0.236801
G02 X46.515638 Y166.245688 Z2 I-1.034077 J1.424287
G02 X46.085088 Y166.454606 Z2 I0.360273 J1.290583
G03 X45.877083 Y166.606247 Z2 I-55.753887 J-76.258562
G00 Z0.000000

(End cutting path id: path6)


(Start cutting path id: path6)
(Change tool to Default tool)

G00 Z0.000000
G00 X45.750000 Y166.733333

G01 Z2 F100.0(Penetrate)
G01 X45.877083 Y166.606250 Z2 F75.000000
G00 Z0.000000

(End cutting path id: path6)


(Start cutting path id: path6)
(Change tool to Default tool)

G00 Z0.000000
G00 X61.889583 Y122.000000

G01 Z2 F100.0(Penetrate)
G01 X62.397917 Y122.000000 Z2 F75.000000
G00 Z0.000000

(End cutting path id: path6)


(Footer)
M5
M2
(Using default footer. To add your own footer create file "footer" in the output dir.)
(end)
%