%
(Header)
(Generated by gcodetools from Inkscape.)
(Using default header. To add your own header create file "header" in the output dir.)
M3
(Header end.)
G21 (All units in mm)

(Start cutting path id: path5)
(Change tool to Default tool)

G00 Z0.000000
G00 X45.622917 Y168.385417

G01 Z2 F100.0(Penetrate)
G01 X45.622917 Y166.225000 Z2 F75.000000
G00 Z0.000000

(End cutting path id: path5)


(Start cutting path id: path5)
(Change tool to Default tool)

G00 Z0.000000
G00 X30.881250 Y150.212500

G01 Z2 F100.0(Penetrate)
G01 X31.008333 Y149.068750 Z2 F75.000000
G00 Z0.000000

(End cutting path id: path5)


(Start cutting path id: path5)
(Change tool to Default tool)

G00 Z0.000000
G00 X22.875000 Y141.316667

G01 Z2 F100.0(Penetrate)
G03 X22.622889 Y140.583825 Z2 I1.116536 J-0.793894 F75.000000
G03 X22.747917 Y139.791667 Z2 I2.005272 J-0.089450
G00 Z0.000000

(End cutting path id: path5)


(Start cutting path id: path5)
(Change tool to Default tool)

G00 Z0.000000
G00 X23.002083 Y165.335417

G01 Z2 F100.0(Penetrate)
G02 X23.738226 Y166.282358 Z2 I1.693488 J-0.556896 F75.000000
G02 X24.908333 Y166.479167 Z2 I0.817633 J-1.284371
G00 Z0.000000

(End cutting path id: path5)


(Start cutting path id: path5)
(Change tool to Default tool)

G00 Z0.000000
G00 X7.370833 Y163.047917

G01 Z2 F100.0(Penetrate)
G01 X8.133333 Y163.047917 Z2 F75.000000
G00 Z0.000000

(End cutting path id: path5)


(Start cutting path id: path5)
(Change tool to Default tool)

G00 Z0.000000
G00 X5.083333 Y164.318750

G01 Z2 F100.0(Penetrate)
G01 X5.464583 Y163.810417 Z2 F75.000000
G00 Z0.000000

(End cutting path id: path5)


(Start cutting path id: path5)
(Change tool to Default tool)

G00 Z0.000000
G00 X6.735417 Y166.606250

G01 Z2 F100.0(Penetrate)
G01 X7.116667 Y166.733333 Z2 F75.000000
G00 Z0.000000

(End cutting path id: path5)


(Footer)
M5
M2
(Using default footer. To add your own footer create file "footer" in the output dir.)
(end)
%