%
(Header)
(Generated by gcodetools from Inkscape.)
(Using default header. To add your own header create file "header" in the output dir.)
M3
(Header end.)
G21 (All units in mm)

(Start cutting path id: path9)
(Change tool to Default tool)

G00 Z0.000000
G00 X5.464583 Y132.802083

G01 Z2 F100.0(Penetrate)
G01 X3.685417 Y132.420833 Z2 F75.000000
G00 Z0.000000

(End cutting path id: path9)


(Start cutting path id: path9)
(Change tool to Default tool)

G00 Z0.000000
G00 X6.354167 Y113.993750

G01 Z2 F100.0(Penetrate)
G01 X6.227083 Y113.866667 Z2 F75.000000
G00 Z0.000000

(End cutting path id: path9)


(Start cutting path id: path9)
(Change tool to Default tool)

G00 Z0.000000
G00 X4.066667 Y102.175000

G01 Z2 F100.0(Penetrate)
G01 X5.083333 Y102.417889 Z2 F75.000000
G01 X7.625000 Y102.683333 Z2
G00 Z0.000000

(End cutting path id: path9)


(Start cutting path id: path9)
(Change tool to Default tool)

G00 Z0.000000
G00 X8.260417 Y99.506250

G01 Z2 F100.0(Penetrate)
G01 X8.895833 Y98.489583 Z2 F75.000000
G00 Z0.000000

(End cutting path id: path9)


(Start cutting path id: path9)
(Change tool to Default tool)

G00 Z0.000000
G00 X5.972917 Y98.489583

G01 Z2 F100.0(Penetrate)
G01 X6.100000 Y98.108333 Z2 F75.000000
G00 Z0.000000

(End cutting path id: path9)


(Start cutting path id: path9)
(Change tool to Default tool)

G00 Z0.000000
G00 X4.193750 Y97.472917

G01 Z2 F100.0(Penetrate)
G01 X4.066667 Y97.091667 Z2 F75.000000
G00 Z0.000000

(End cutting path id: path9)


(Start cutting path id: path9)
(Change tool to Default tool)

G00 Z0.000000
G00 X6.989583 Y95.566667

G01 Z2 F100.0(Penetrate)
G01 X7.370833 Y95.693750 Z2 F75.000000
G00 Z0.000000

(End cutting path id: path9)


(Start cutting path id: path9)
(Change tool to Default tool)

G00 Z0.000000
G00 X7.625000 Y92.135417

G01 Z2 F100.0(Penetrate)
G01 X6.608333 Y91.500000 Z2 F75.000000
G00 Z0.000000

(End cutting path id: path9)


(Start cutting path id: path9)
(Change tool to Default tool)

G00 Z0.000000
G00 X3.939583 Y91.500000

G01 Z2 F100.0(Penetrate)
G01 X3.431250 Y90.991667 Z2 F75.000000
G00 Z0.000000

(End cutting path id: path9)


(Start cutting path id: path9)
(Change tool to Default tool)

G00 Z0.000000
G00 X10.166667 Y93.025000

G01 Z2 F100.0(Penetrate)
G01 X10.802083 Y93.279167 Z2 F75.000000
G00 Z0.000000

(End cutting path id: path9)


(Footer)
M5
M2
(Using default footer. To add your own footer create file "footer" in the output dir.)
(end)
%