%
(Header)
(Generated by gcodetools from Inkscape.)
(Using default header. To add your own header create file "header" in the output dir.)
M3
(Header end.)
G21 (All units in mm)

(Start cutting path id: path15)
(Change tool to Default tool)

G00 Z0.000000
G00 X42.959712 Y104.766890

G01 Z2 F100.0(Penetrate)
G02 X41.803659 Y104.502877 Z2 I-1.869139 J5.521485 F75
G03 X40.281649 Y104.146475 Z2 I0.892063 J-7.237600
G03 X39.290505 Y103.746153 Z2 I3.809755 J-10.859593
G02 X38.241219 Y103.265990 Z2 I-208.155881 J453.489790
G03 X36.017203 Y102.236656 Z2 I93.145863 J-204.171665
G02 X33.777780 Y101.274563 Z2 I-15.623474 J33.278735
G02 X32.669226 Y100.997190 Z2 I-1.636612 J4.186991
G03 X31.941827 Y100.620497 Z2 I0.136534 J-1.154304
G01 X31.737449 Y99.665817 Z2
G03 X31.733673 Y97.667242 Z2 I198.378883 J-1.374146
G02 X31.737351 Y95.329905 Z2 I-742.578237 J-2.337340
G01 X31.737351 Y83.980017 Z2
G01 X31.737351 Y79.771630 Z2
G01 X31.737351 Y78.751420 Z2
G00 Z0.000000

(End cutting path id: path15)


(Start cutting path id: path15)
(Change tool to Default tool)

G00 Z0.000000
G00 X31.737351 Y103.874202

G01 Z2 F100.0(Penetrate)
G01 X31.737351 Y100.813558 Z2 F75
G00 Z0.000000

(End cutting path id: path15)


(Start cutting path id: path15)
(Change tool to Default tool)

G00 Z0.000000
G00 X43.852400 Y93.161949

G01 Z2 F100.0(Penetrate)
G02 X44.707105 Y93.581644 Z2 I3.432248 J-5.909590 F75
G02 X45.637579 Y93.770358 Z2 I0.964929 J-2.369430
G01 X46.350981 Y93.282096 Z2
G02 X45.691650 Y92.262030 Z2 I-1.022593 J-0.062152
G02 X44.362507 Y91.839448 Z2 I-4.527890 J11.939968
G02 X43.118223 Y91.589078 Z2 I-2.911500 J11.252434
G02 X41.939497 Y91.504100 Z2 I-1.178726 J8.132513
G02 X41.264277 Y91.511900 Z2 I0.000000 J29.228372
G02 X40.664229 Y91.558220 Z2 I0.128947 J5.580260
G03 X40.212908 Y91.607647 Z2 I-1.356188 J-10.298128
G02 X39.771541 Y91.653270 Z2 I1.225198 J14.010690
G02 X38.859996 Y91.868035 Z2 I0.493810 J4.137770
G02 X37.986166 Y92.269256 Z2 I1.877924 J5.242165
G00 Z0.000000

(End cutting path id: path15)


(Start cutting path id: path15)
(Change tool to Default tool)

G00 Z0.000000
G00 X52.014117 Y92.651836

G01 Z2 F100.0(Penetrate)
G01 X52.014117 Y92.524310 Z2 F75
G00 Z0.000000

(End cutting path id: path15)


(Start cutting path id: path15)
(Change tool to Default tool)

G00 Z0.000000
G00 X38.241219 Y88.060871

G01 Z2 F100.0(Penetrate)
G03 X39.809517 Y87.774737 Z2 I1.427453 J3.382878 F75
G02 X41.429390 Y87.805817 Z2 I1.619873 J-42.197913
G03 X44.512575 Y87.879185 Z2 I0.000000 J64.819619
G03 X47.550678 Y88.171670 Z2 I-1.500575 J31.511778
G03 X49.744864 Y88.657473 Z2 I-2.200954 J15.138915
G03 X51.373334 Y89.178993 Z2 I-13.261106 J44.211664
G02 X51.833656 Y89.302660 Z2 I1.165696 J-3.420475
G02 X52.014117 Y89.336139 Z2 I1.375304 J-6.910196
G00 Z0.000000

(End cutting path id: path15)


(Footer)
M5
G00 X0.0000 Y0.0000
M2
(Using default footer. To add your own footer create file "footer" in the output dir.)
(end)
%