%
(Header)
(Generated by gcodetools from Inkscape.)
(Using default header. To add your own header create file "header" in the output dir.)
M3
(Header end.)
G21 (All units in mm)

(Start cutting path id: path5)
(Change tool to Default tool)

G00 Z0.000000
G00 X31.714631 Y130.869455

G01 Z2 F100.0(Penetrate)
G02 X31.715814 Y131.145118 Z2 I32.109140 J-0.000000 F75
G02 X31.732341 Y132.654831 Z2 I319.705209 J-2.744832
G03 X31.724854 Y133.520474 Z2 I-19.640684 J0.262969
G02 X31.714631 Y134.185153 Z2 I21.702482 J0.666194
G01 X31.714631 Y136.990743 Z2
G01 X31.714631 Y148.595684 Z2
G03 X31.713601 Y149.312393 Z2 I-249.344278 J0.000000
G02 X31.714729 Y149.870953 Z2 I57.066595 J0.164031
G01 X31.919107 Y150.835867 Z2
G01 X32.734845 Y151.140514 Z2
G02 X33.280790 Y151.141404 Z2 I0.280663 J-4.718975
G03 X33.882587 Y151.128514 Z2 I0.486389 J8.653790
G03 X34.541205 Y151.139774 Z2 I-1.167480 J87.553131
G02 X35.157855 Y151.146224 Z2 I0.618460 J-29.648542
G01 X36.688177 Y151.146224 Z2
G01 X47.145377 Y151.146224 Z2
G01 X50.971182 Y151.146224 Z2
G01 X51.991396 Y151.146224 Z2
G00 Z0.000000

(End cutting path id: path5)


(Start cutting path id: path5)
(Change tool to Default tool)

G00 Z0.000000
G00 X33.755060 Y151.018694

G01 Z2 F100.0(Penetrate)
G03 X33.911467 Y150.403454 Z2 I14.317028 J3.312180 F75
G03 X34.223544 Y149.615899 Z2 I3.831448 J1.062644
G03 X35.568630 Y147.781528 Z2 I6.795226 J3.572384
G02 X37.417421 Y145.790094 Z2 I-29.118268 J-28.886475
G02 X41.379153 Y141.205321 Z2 I-910.117356 J-790.442305
G02 X45.325462 Y136.608163 Z2 I-3065.647399 J-2635.616694
G02 X46.805622 Y134.879408 Z2 I-1625.000883 J-1392.823677
G03 X48.299515 Y133.164938 Z2 I93.873413 J80.287949
G02 X49.022425 Y132.346080 Z2 I-150.518294 J-133.610125
G02 X49.615127 Y131.635206 Z2 I-13.618088 J-11.956816
G02 X49.983501 Y131.066328 Z2 I-2.807083 J-2.221424
G02 X50.078494 Y130.869455 Z2 I-3.201474 J-1.666085
G00 Z0.000000

(End cutting path id: path5)


(Start cutting path id: path5)
(Change tool to Default tool)

G00 Z0.000000
G00 X31.842158 Y132.782358

G01 Z2 F100.0(Penetrate)
G01 X33.117426 Y132.457440 Z2 F75
G01 X34.902801 Y131.512108 Z2
G01 X35.923016 Y130.909897 Z2
G01 X37.198284 Y130.869457 Z2
G00 Z0.000000

(End cutting path id: path5)


(Footer)
M5
G00 X0.0000 Y0.0000
M2
(Using default footer. To add your own footer create file "footer" in the output dir.)
(end)
%