%
(Header)
(Generated by gcodetools from Inkscape.)
(Using default header. To add your own header create file "header" in the output dir.)
M3
(Header end.)
G21 (All units in mm)

(Start cutting path id: path16)
(Change tool to Default tool)

G00 Z0.000000
G00 X64.258677 Y100.941085

G01 Z2 F100.0(Penetrate)
G02 X64.333832 Y101.789951 Z2 I44.523712 J-3.514191 F75
G03 X64.386204 Y102.853988 Z2 I-10.897212 J1.069667
G01 X64.590680 Y103.998186 Z2
G02 X65.531821 Y104.238281 Z2 I0.739340 J-0.933491
G03 X66.809214 Y104.129256 Z2 I1.277393 J7.428758
G01 X68.467063 Y104.129256 Z2
G03 X70.406303 Y104.161258 Z2 I-0.000000 J58.772925
G02 X72.037617 Y104.121956 Z2 I0.471816 J-14.291625
G02 X72.598990 Y103.954789 Z2 I-0.114821 J-1.411761
G02 X72.930502 Y103.746657 Z2 I-1.485460 J-2.734117
G03 X72.689784 Y103.348254 Z2 I3.012020 J-2.091811
G02 X72.148415 Y102.725657 Z2 I-1.566727 J0.815653
G02 X70.110798 Y101.719255 Z2 I-4.125451 J5.786679
G02 X67.574375 Y100.978656 Z2 I-27.537202 J89.596426
G02 X66.330458 Y100.730355 Z2 I-2.320350 J8.384326
G02 X65.278892 Y100.697329 Z2 I-0.703492 J5.641768
G01 X64.368098 Y100.604049 Z2
G01 X64.131150 Y98.518060 Z2
G02 X64.058407 Y95.705142 Z2 I-54.423207 J-0.000000
G02 X63.802690 Y92.906880 Z2 I-35.600494 J1.842510
G01 X63.953046 Y91.070926 Z2
G01 X64.641356 Y90.868910 Z2
G03 X65.532171 Y90.904836 Z2 I0.230700 J5.341769
G03 X66.554160 Y91.124751 Z2 I-0.732817 J5.890202
G03 X69.739503 Y92.447211 Z2 I-5.467402 J17.666476
G02 X72.802975 Y94.023134 Z2 I68.414348 J-129.226640
G01 X74.584807 Y94.874985 Z2
G01 X74.715780 Y96.095051 Z2
G03 X74.467914 Y99.178873 Z2 I-20.520543 J-0.097489
G02 X74.205377 Y102.216338 Z2 I21.705383 J3.406141
G03 X73.862430 Y103.259151 Z2 I-1.851407 J-0.031068
G03 X72.930502 Y103.746660 Z2 I-0.945645 J-0.673210
G00 Z0.000000

(End cutting path id: path16)


(Start cutting path id: path16)
(Change tool to Default tool)

G00 Z0.000000
G00 X69.742823 Y99.696207

G01 Z2 F100.0(Penetrate)
G02 X71.178140 Y98.434779 Z2 I0.186049 J-1.235607 F75
G03 X71.144536 Y96.732685 Z2 I918.951234 J-18.994064
G01 X70.627541 Y95.753011 Z2
G02 X69.763823 Y95.638202 Z2 I-0.851787 J3.101746
G02 X69.042704 Y95.916946 Z2 I0.004015 J1.082537
G01 X68.723986 Y96.987739 Z2
G02 X68.720777 Y98.535232 Z2 I31.684565 J0.839456
G02 X69.742823 Y99.696207 Z2 I1.200897 J-0.026833
G00 Z0.000000

(End cutting path id: path16)


(Start cutting path id: path16)
(Change tool to Default tool)

G00 Z0.000000
G00 X57.244702 Y98.390534

G01 Z2 F100.0(Penetrate)
G02 X58.203560 Y98.959567 Z2 I21.983583 J-35.951374 F75
G02 X59.277652 Y99.098524 Z2 I0.704307 J-1.223396
G01 X59.359222 Y97.706750 Z2
G02 X57.406158 Y96.793860 Z2 I-2.344625 J2.470495
G03 X55.331794 Y96.350104 Z2 I1.278358 J-11.045999
G00 Z0.000000

(End cutting path id: path16)


(Start cutting path id: path16)
(Change tool to Default tool)

G00 Z0.000000
G00 X74.588345 Y94.692256

G01 Z2 F100.0(Penetrate)
G02 X75.019904 Y92.722895 Z2 I-3.280980 J-1.750949 F75
G03 X74.972796 Y89.973763 Z2 I32.976639 J-1.940048
G03 X75.116820 Y87.107290 Z2 I55.812494 J1.367414
G02 X75.225979 Y84.235056 Z2 I-37.796767 J-2.874648
G03 X75.251147 Y83.376351 Z2 I14.694308 J0.000958
G03 X75.312569 Y82.577205 Z2 I22.016449 J1.290241
G02 X75.345570 Y82.039058 Z2 I-7.980302 J-0.759471
G02 X75.353409 Y81.556995 Z2 I-21.224931 J-0.586223
G03 X75.423866 Y80.429719 Z2 I9.813834 J0.047555
G02 X75.480936 Y79.517155 Z2 I-7.892454 J-0.951651
G02 X75.481375 Y78.957374 Z2 I-68.165870 J-0.333357
G03 X75.481033 Y78.751405 Z2 I62.008640 J-0.205970
G00 Z0.000000

(End cutting path id: path16)


(Start cutting path id: path16)
(Change tool to Default tool)

G00 Z0.000000
G00 X52.143629 Y92.779368

G01 Z2 F100.0(Penetrate)
G03 X52.358653 Y92.862453 Z2 I-1.542530 J4.311871 F75
G03 X52.784412 Y93.041998 Z2 I-17.111996 J41.172541
G02 X53.350065 Y93.226713 Z2 I1.322203 J-3.090530
G02 X53.928906 Y93.281997 Z2 I0.497949 J-2.155712
G01 X54.918223 Y92.522346 Z2
G02 X53.532725 Y90.099034 Z2 I-2.193802 J-0.353448
G02 X52.143629 Y89.591198 Z2 I-12.336986 J31.591923
G00 Z0.000000

(End cutting path id: path16)


(Start cutting path id: path16)
(Change tool to Default tool)

G00 Z0.000000
G00 X63.748570 Y90.866466

G01 Z2 F100.0(Penetrate)
G03 X63.636983 Y89.526116 Z2 I6.590128 J-1.223461 F75
G02 X63.616025 Y87.933349 Z2 I-26.029970 J-0.454008
G03 X63.515114 Y85.187545 Z2 I195.379881 J-8.555175
G02 X63.344341 Y82.449700 Z2 I-42.081907 J1.250606
G02 X63.163483 Y80.792425 Z2 I-60.036611 J5.713260
G03 X63.113395 Y79.517170 Z2 I7.615099 J-0.937710
G01 X63.876687 Y78.753880 Z2
G02 X65.337067 Y78.680189 Z2 I-5.203777 J-117.633359
G03 X66.549142 Y78.791380 Z2 I0.233411 J4.117515
G03 X67.012092 Y79.011480 Z2 I-0.299939 J1.227803
G02 X67.579393 Y79.364460 Z2 I2.208953 J-2.917815
G02 X69.756741 Y80.268329 Z2 I7.380658 J-14.704946
G03 X72.037814 Y81.222060 Z2 I-5.270508 J15.810396
G03 X73.014288 Y81.785275 Z2 I-4.829167 J9.500660
G02 X73.950716 Y82.262650 Z2 I2.740896 J-4.219449
G02 X74.684793 Y82.472591 Z2 I1.553606 J-4.043957
G03 X75.225984 Y82.577230 Z2 I-77.817489 J403.924128
G00 Z0.000000

(End cutting path id: path16)


(Start cutting path id: path16)
(Change tool to Default tool)

G00 Z0.000000
G00 X52.016102 Y89.591198

G01 Z2 F100.0(Penetrate)
G01 X52.143629 Y89.591198 Z2 F75
G00 Z0.000000

(End cutting path id: path16)


(Start cutting path id: path16)
(Change tool to Default tool)

G00 Z0.000000
G00 X70.125009 Y88.858804

G01 Z2 F100.0(Penetrate)
G02 X71.857840 Y87.375709 Z2 I0.268145 J-1.440560 F75
G02 X71.777249 Y85.510339 Z2 I-65.976309 J1.915995
G01 X71.131744 Y84.398120 Z2
G02 X70.729896 Y84.305318 Z2 I-0.719468 J2.198981
G02 X70.124911 Y84.246978 Z2 I-1.003653 J7.241839
G01 X69.071830 Y84.545425 Z2
G01 X68.923050 Y85.765393 Z2
G03 X69.015768 Y87.493628 Z2 I-11.347550 J1.475386
G02 X70.125009 Y88.858804 Z2 I1.357769 J0.030009
G00 Z0.000000

(End cutting path id: path16)


(Footer)
M5
G00 X0.0000 Y0.0000
M2
(Using default footer. To add your own footer create file "footer" in the output dir.)
(end)
%