%
(Header)
(Generated by gcodetools from Inkscape.)
(Using default header. To add your own header create file "header" in the output dir.)
M3
(Header end.)
G21 (All units in mm)

(Start cutting path id: path26)
(Change tool to Default tool)

G00 Z0.000000
G00 X56.432798 Y52.630740

G01 Z2 F100.0(Penetrate)
G01 X55.667637 Y52.375690 Z2 F75
G00 Z0.000000

(End cutting path id: path26)


(Start cutting path id: path26)
(Change tool to Default tool)

G00 Z0.000000
G00 X58.728281 Y50.717840

G01 Z2 F100.0(Penetrate)
G02 X60.123152 Y51.019616 Z2 I3.172649 J-11.290059 F75
G02 X61.402310 Y50.427260 Z2 I0.193242 J-1.260017
G02 X61.267617 Y49.203734 Z2 I-0.854121 J-0.525151
G02 X60.258603 Y48.457290 Z2 I-2.769361 J2.688322
G02 X57.711081 Y47.627990 Z2 I-3.861368 J7.534206
G02 X55.030003 Y47.402640 Z2 I-2.903539 J18.482955
G03 X53.873725 Y47.345786 Z2 I0.194686 J-15.745935
G02 X52.865195 Y47.279640 Z2 I-2.124968 J24.677781
G02 X52.408547 Y47.273113 Z2 I-0.333968 J7.387401
G03 X52.224413 Y47.274640 Z2 I-0.184134 J-11.097770
G00 Z0.000000

(End cutting path id: path26)


(Start cutting path id: path26)
(Change tool to Default tool)

G00 Z0.000000
G00 X66.889998 Y48.932490

G01 Z2 F100.0(Penetrate)
G01 X74.414081 Y49.586850 Z2 F75
G01 X77.346606 Y50.069990 Z2
G01 X78.112359 Y50.207750 Z2
G00 Z0.000000

(End cutting path id: path26)


(Start cutting path id: path26)
(Change tool to Default tool)

G00 Z0.000000
G00 X52.096886 Y47.274640

G01 Z2 F100.0(Penetrate)
G01 X52.224413 Y47.274640 Z2 F75
G00 Z0.000000

(End cutting path id: path26)


(Start cutting path id: path26)
(Change tool to Default tool)

G00 Z0.000000
G00 X66.124837 Y42.556140

G01 Z2 F100.0(Penetrate)
G03 X66.053873 Y42.646155 Z2 I-1.515711 J-1.121947 F75
G02 X65.743338 Y43.196930 Z2 I1.319449 J1.106853
G01 X65.747638 Y44.067570 Z2
G01 X67.311122 Y43.828950 Z2
G01 X65.869753 Y42.311420 Z2
G02 X65.146524 Y41.981324 Z2 I-2.872331 J5.335846
G02 X64.339431 Y41.802500 Z2 I-1.018030 J2.683958
G02 X62.205097 Y41.802097 Z2 I-1.069908 J14.519593
G02 X60.131046 Y42.243430 Z2 I0.569716 J7.771572
G02 X58.887584 Y42.892914 Z2 I1.765460 J4.895114
G03 X57.580509 Y43.401800 Z2 I-1.670044 J-2.356455
G03 X55.827980 Y43.111733 Z2 I-0.390289 J-3.081200
G02 X54.009758 Y42.683670 Z2 I-1.853669 J3.798036
G00 Z0.000000

(End cutting path id: path26)


(Start cutting path id: path26)
(Change tool to Default tool)

G00 Z0.000000
G00 X75.434265 Y41.280880

G01 Z2 F100.0(Penetrate)
G02 X77.422411 Y42.049782 Z2 I3.573754 J-6.285819 F75
G02 X78.112329 Y42.173560 Z2 I1.764733 J-7.851686
G00 Z0.000000

(End cutting path id: path26)


(Start cutting path id: path26)
(Change tool to Default tool)

G00 Z0.000000
G00 X68.930397 Y36.052280

G01 Z2 F100.0(Penetrate)
G01 X70.569353 Y36.196040 Z2 F75
G01 X69.568031 Y34.344640 Z2
G02 X65.787819 Y34.688270 Z2 I-1.409016 J5.464200
G03 X62.171475 Y35.525640 Z2 I-3.810488 J-8.228705
G03 X60.036327 Y34.935081 Z2 I-0.082456 J-3.856940
G02 X58.324022 Y33.880380 Z2 I-59.485665 J94.657587
G02 X57.350637 Y33.690238 Z2 I-0.747015 J1.237589
G02 X56.560295 Y34.139370 Z2 I0.202305 J1.275951
G00 Z0.000000

(End cutting path id: path26)


(Start cutting path id: path26)
(Change tool to Default tool)

G00 Z0.000000
G00 X52.096856 Y35.542170

G01 Z2 F100.0(Penetrate)
G01 X52.898720 Y35.140790 Z2 F75
G01 X52.224383 Y34.266900 Z2
G00 Z0.000000

(End cutting path id: path26)


(Start cutting path id: path26)
(Change tool to Default tool)

G00 Z0.000000
G00 X52.096856 Y34.266900

G01 Z2 F100.0(Penetrate)
G01 X52.224383 Y34.266900 Z2 F75
G00 Z0.000000

(End cutting path id: path26)


(Start cutting path id: path26)
(Change tool to Default tool)

G00 Z0.000000
G00 X52.096856 Y31.333780

G01 Z2 F100.0(Penetrate)
G01 X53.244597 Y31.333780 Z2 F75
G01 X54.647392 Y31.333780 Z2
G01 X58.090617 Y31.333780 Z2
G01 X71.608460 Y31.333780 Z2
G01 X75.434265 Y31.333780 Z2
G01 X76.964587 Y31.333780 Z2
G01 X78.112329 Y31.333780 Z2
G00 Z0.000000

(End cutting path id: path26)


(Footer)
M5
G00 X0.0000 Y0.0000
M2
(Using default footer. To add your own footer create file "footer" in the output dir.)
(end)
%