%
(Header)
(Generated by gcodetools from Inkscape.)
(Using default header. To add your own header create file "header" in the output dir.)
M3
(Header end.)
G21 (All units in mm)

(Start cutting path id: path24)
(Change tool to Default tool)

G00 Z0.000000
G00 X147.614600 Y78.749430

G01 Z2 F100.0(Penetrate)
G03 X148.439551 Y78.543197 Z2 I1.674445 J4.944869 F75
G02 X149.655030 Y78.239330 Z2 I-1.251605 J-7.589389
G00 Z0.000000

(End cutting path id: path24)


(Start cutting path id: path24)
(Change tool to Default tool)

G00 Z0.000000
G00 X132.438910 Y78.366850

G01 Z2 F100.0(Penetrate)
G01 X132.566430 Y78.366850 Z2 F75
G00 Z0.000000

(End cutting path id: path24)


(Start cutting path id: path24)
(Change tool to Default tool)

G00 Z0.000000
G00 X151.567930 Y77.856750

G01 Z2 F100.0(Penetrate)
G01 X151.567930 Y60.130520 Z2 F75
G01 X151.567930 Y55.539550 Z2
G01 X151.567930 Y53.754180 Z2
G01 X151.567930 Y52.733960 Z2
G00 Z0.000000

(End cutting path id: path24)


(Start cutting path id: path24)
(Change tool to Default tool)

G00 Z0.000000
G00 X144.681480 Y72.883200

G01 Z2 F100.0(Penetrate)
G01 X144.809010 Y72.883200 Z2 F75
G00 Z0.000000

(End cutting path id: path24)


(Start cutting path id: path24)
(Change tool to Default tool)

G00 Z0.000000
G00 X145.319120 Y70.587720

G01 Z2 F100.0(Penetrate)
G01 X144.681480 Y70.077610 Z2 F75
G00 Z0.000000

(End cutting path id: path24)


(Start cutting path id: path24)
(Change tool to Default tool)

G00 Z0.000000
G00 X132.821490 Y67.527070

G01 Z2 F100.0(Penetrate)
G01 X133.204070 Y67.527070 Z2 F75
G00 Z0.000000

(End cutting path id: path24)


(Start cutting path id: path24)
(Change tool to Default tool)

G00 Z0.000000
G00 X142.768580 Y67.527070

G01 Z2 F100.0(Penetrate)
G01 X143.278690 Y67.272020 Z2 F75
G00 Z0.000000

(End cutting path id: path24)


(Start cutting path id: path24)
(Change tool to Default tool)

G00 Z0.000000
G00 X145.446640 Y67.527070

G01 Z2 F100.0(Penetrate)
G01 X146.466860 Y67.399550 Z2 F75
G00 Z0.000000

(End cutting path id: path24)


(Start cutting path id: path24)
(Change tool to Default tool)

G00 Z0.000000
G00 X136.264710 Y67.399550

G01 Z2 F100.0(Penetrate)
G01 X136.902350 Y67.144490 Z2 F75
G00 Z0.000000

(End cutting path id: path24)


(Start cutting path id: path24)
(Change tool to Default tool)

G00 Z0.000000
G00 X130.270950 Y67.272020

G01 Z2 F100.0(Penetrate)
G01 X130.781060 Y67.272020 Z2 F75
G00 Z0.000000

(End cutting path id: path24)


(Start cutting path id: path24)
(Change tool to Default tool)

G00 Z0.000000
G00 X148.889870 Y67.016970

G01 Z2 F100.0(Penetrate)
G01 X149.399970 Y66.761910 Z2 F75
G00 Z0.000000

(End cutting path id: path24)


(Start cutting path id: path24)
(Change tool to Default tool)

G00 Z0.000000
G00 X139.962990 Y66.761910

G01 Z2 F100.0(Penetrate)
G01 X140.090520 Y66.761910 Z2 F75
G00 Z0.000000

(End cutting path id: path24)


(Start cutting path id: path24)
(Change tool to Default tool)

G00 Z0.000000
G00 X144.171370 Y65.359120

G01 Z2 F100.0(Penetrate)
G02 X145.562252 Y65.693484 Z2 I2.054371 J-5.485668 F75
G02 X146.957580 Y65.347720 Z2 I0.233327 J-2.046711
G01 X145.829220 Y63.541880 Z2
G02 X140.397766 Y62.815701 Z2 I-4.631800 J13.968183
G03 X135.116970 Y61.660860 Z2 I-0.551287 J-10.130398
G00 Z0.000000

(End cutting path id: path24)


(Start cutting path id: path24)
(Change tool to Default tool)

G00 Z0.000000
G00 X130.270950 Y65.486660

G01 Z2 F100.0(Penetrate)
G01 X130.911730 Y65.486660 Z2 F75
G03 X131.539587 Y65.497369 Z2 I-0.000000 J18.410143
G02 X132.310890 Y65.447760 Z2 I0.134234 J-3.933740
G01 X133.041410 Y64.958210 Z2
G01 X132.665230 Y64.161960 Z2
G02 X131.286635 Y63.392351 Z2 I-2.416180 J2.708548
G03 X130.398480 Y63.063610 Z2 I2.097092 J-7.029805
G00 Z0.000000

(End cutting path id: path24)


(Start cutting path id: path24)
(Change tool to Default tool)

G00 Z0.000000
G00 X130.270950 Y63.063610

G01 Z2 F100.0(Penetrate)
G01 X130.398480 Y63.063610 Z2 F75
G00 Z0.000000

(End cutting path id: path24)


(Start cutting path id: path24)
(Change tool to Default tool)

G00 Z0.000000
G00 X142.003420 Y58.982760

G01 Z2 F100.0(Penetrate)
G02 X142.014715 Y59.741484 Z2 I59.781316 J-0.510489 F75
G02 X142.440810 Y60.702600 Z2 I1.362261 J-0.028928
G01 X144.335610 Y60.371680 Z2
G01 X143.151160 Y59.064030 Z2
G02 X142.592019 Y58.963936 Z2 I-0.742488 J2.535872
G03 X142.003420 Y58.874510 Z2 I0.254240 J-3.655193
G02 X141.511152 Y58.775772 Z2 I-1.694486 J7.171515
G02 X140.983200 Y58.728290 Z2 I-0.583416 J3.528131
G02 X139.472963 Y58.722059 Z2 I-1.028334 J66.219718
G03 X137.922560 Y58.727700 Z2 I-1.550403 J-213.065828
G03 X135.536171 Y58.521676 Z2 I0.000000 J-13.923886
G03 X133.459120 Y57.579960 Z2 I0.779454 J-4.480598
G00 Z0.000000

(End cutting path id: path24)


(Start cutting path id: path24)
(Change tool to Default tool)

G00 Z0.000000
G00 X137.284930 Y53.754160

G01 Z2 F100.0(Penetrate)
G01 X139.962990 Y54.110760 Z2 F75
G01 X141.025910 Y53.492710 Z2
G01 X141.880910 Y52.774480 Z2
G01 X143.916320 Y52.733980 Z2
G00 Z0.000000

(End cutting path id: path24)


(Footer)
M5
G00 X0.0000 Y0.0000
M2
(Using default footer. To add your own footer create file "footer" in the output dir.)
(end)
%