%
(Header)
(Generated by gcodetools from Inkscape.)
(Using default header. To add your own header create file "header" in the output dir.)
M3
(Header end.)
G21 (All units in mm)

(Start cutting path id: path10)
(Change tool to Default tool)

G00 Z0.000000
G00 X35.180575 Y130.784350

G01 Z2 F100.0(Penetrate)
G03 X36.152674 Y130.546170 Z2 I1.855798 J5.471358 F75
G02 X37.476058 Y130.130874 Z2 I-0.707376 J-4.570325
G02 X38.955635 Y129.332031 Z2 I-9.126589 J-18.673448
G03 X40.536702 Y128.415460 Z2 I45.920507 J77.389973
G02 X44.164598 Y126.355682 Z2 I-886.956167 J-1566.424769
G03 X47.805731 Y124.319448 Z2 I135.200838 J237.488483
G02 X49.552849 Y123.337308 Z2 I-48.959220 J-89.138048
G03 X51.121232 Y122.461255 Z2 I35.610246 J61.910478
G03 X51.820386 Y122.165056 Z2 I1.886002 J3.478513
G03 X52.014117 Y122.112526 Z2 I0.755632 J2.403253
G00 Z0.000000

(End cutting path id: path10)


(Start cutting path id: path10)
(Change tool to Default tool)

G00 Z0.000000
G00 X50.866375 Y130.274243

G01 Z2 F100.0(Penetrate)
G02 X51.651127 Y129.383033 Z2 I-16.442469 J-15.269475 F75
G02 X52.014117 Y128.488867 Z2 I-1.214828 J-1.013926
G00 Z0.000000

(End cutting path id: path10)


(Start cutting path id: path10)
(Change tool to Default tool)

G00 Z0.000000
G00 X31.737351 Y129.891662

G01 Z2 F100.0(Penetrate)
G01 X31.737351 Y127.341126 Z2 F75
G01 X31.941827 Y126.014787 Z2
G01 X33.140146 Y125.667926 Z2
G02 X34.108547 Y125.360932 Z2 I-1.092696 J-5.127754
G03 X35.180575 Y124.918116 Z2 I18.524171 J43.326735
G03 X40.918030 Y122.663240 Z2 I230.951629 J579.222000
G02 X46.657990 Y120.403706 Z2 I-202.635260 J-523.180724
G01 X49.846161 Y119.153923 Z2
G02 X50.515093 Y118.885167 Z2 I-88.501971 J-221.248067
G03 X51.121232 Y118.645292 Z2 I18.174749 J45.039843
G02 X51.819609 Y118.369174 Z2 I-21.270752 J-54.820776
G02 X52.014117 Y118.286721 Z2 I-2.186600 J-5.428860
G00 Z0.000000

(End cutting path id: path10)


(Start cutting path id: path10)
(Change tool to Default tool)

G00 Z0.000000
G00 X31.737351 Y125.810804

G01 Z2 F100.0(Penetrate)
G01 X31.737351 Y119.689516 Z2 F75
G03 X31.742905 Y118.837513 Z2 I65.351256 J-0.000000
G03 X31.864878 Y118.031667 Z2 I2.979680 J0.038850
G01 X33.140146 Y118.020747 Z2
G01 X38.496273 Y117.256275 Z2
G01 X47.550678 Y115.959850 Z2
G01 X51.248956 Y115.481133 Z2
G00 Z0.000000

(End cutting path id: path10)


(Start cutting path id: path10)
(Change tool to Default tool)

G00 Z0.000000
G00 X31.737351 Y117.904140

G01 Z2 F100.0(Penetrate)
G01 X31.737351 Y116.756399 Z2 F75
G01 X31.737351 Y114.460916 Z2
G01 X31.737351 Y109.232316 Z2
G03 X31.748793 Y108.419386 Z2 I28.883591 J0.000000
G02 X31.755061 Y107.574467 Z2 I-20.372391 J-0.573609
G03 X31.737769 Y105.266595 Z2 I198.435595 J-2.640842
G03 X31.737351 Y104.768877 Z2 I296.644077 J-0.497718
G00 Z0.000000

(End cutting path id: path10)


(Start cutting path id: path10)
(Change tool to Default tool)

G00 Z0.000000
G00 X31.864878 Y107.701994

G01 Z2 F100.0(Penetrate)
G01 X33.012619 Y107.815254 Z2 F75
G01 X36.965951 Y108.867646 Z2
G01 X46.657990 Y111.511662 Z2
G01 X49.973687 Y112.383487 Z2
G01 X51.248364 Y112.737434 Z2
G01 X52.014117 Y112.803064 Z2
G00 Z0.000000

(End cutting path id: path10)


(Start cutting path id: path10)
(Change tool to Default tool)

G00 Z0.000000
G00 X40.281649 Y104.768874

G01 Z2 F100.0(Penetrate)
G01 X42.444586 Y104.809314 Z2 F75
G01 X43.474838 Y105.447343 Z2
G01 X45.127668 Y106.204631 Z2
G01 X49.463580 Y108.138296 Z2
G01 X51.248364 Y108.932387 Z2
G01 X52.014117 Y109.104784 Z2
G00 Z0.000000

(End cutting path id: path10)


(Footer)
M5
G00 X0.0000 Y0.0000
M2
(Using default footer. To add your own footer create file "footer" in the output dir.)
(end)
%