%
(Header)
(Generated by gcodetools from Inkscape.)
(Using default header. To add your own header create file "header" in the output dir.)
M3
(Header end.)
G21 (All units in mm)

(Start cutting path id: path6)
(Change tool to Default tool)

G00 Z0.000000
G00 X52.218575 Y151.164339

G01 Z2 F100.0(Penetrate)
G01 X53.366316 Y151.164339 Z2 F75
G01 X55.406745 Y151.164339 Z2
G01 X59.997711 Y151.164339 Z2
G01 X62.420721 Y151.164339 Z2
G01 X71.347599 Y151.164339 Z2
G01 X75.555984 Y151.164339 Z2
G01 X77.086306 Y151.164339 Z2
G01 X78.234047 Y151.164339 Z2
G00 Z0.000000

(End cutting path id: path6)


(Start cutting path id: path6)
(Change tool to Default tool)

G00 Z0.000000
G00 X60.380291 Y139.431871

G01 Z2 F100.0(Penetrate)
G02 X61.225917 Y140.141139 Z2 I2.210104 J-1.776269 F75
G02 X62.420721 Y140.448345 Z2 I1.198002 J-2.182282
G02 X63.346380 Y140.332481 Z2 I0.004790 J-3.717287
G02 X64.080045 Y139.557428 Z2 I-0.247873 J-0.969407
G02 X63.431957 Y138.038736 Z2 I-1.436778 J-0.284497
G02 X62.038140 Y137.337322 Z2 I-4.109948 J6.431525
G02 X60.413943 Y136.771203 Z2 I-10.758635 J28.253603
G02 X58.722443 Y136.499246 Z2 I-1.760818 J5.555491
G02 X58.216982 Y136.496204 Z2 I-0.511495 J42.991259
G02 X57.702228 Y136.499246 Z2 I-0.005970 J42.539868
G02 X56.522824 Y136.644323 Z2 I0.064319 J5.389393
G02 X55.406745 Y137.136388 Z2 I0.775866 J3.271538
G00 Z0.000000

(End cutting path id: path6)


(Start cutting path id: path6)
(Change tool to Default tool)

G00 Z0.000000
G00 X68.414482 Y137.901549

G01 Z2 F100.0(Penetrate)
G02 X69.597775 Y138.580031 Z2 I2.213070 J-2.488569 F75
G02 X70.965018 Y138.783610 Z2 I1.289090 J-3.964563
G01 X71.900804 Y138.150994 Z2
G02 X70.923639 Y136.453697 Z2 I-1.809587 J-0.088122
G02 X68.924589 Y135.428158 Z2 I-152.457366 J294.719117
G02 X64.419310 Y134.001737 Z2 I-6.562620 J12.899641
G02 X59.997711 Y134.203271 Z2 I-1.681655 J11.710020
G00 Z0.000000

(End cutting path id: path6)


(Footer)
M5
G00 X0.0000 Y0.0000
M2
(Using default footer. To add your own footer create file "footer" in the output dir.)
(end)
%