%
(Header)
(Generated by gcodetools from Inkscape.)
(Using default header. To add your own header create file "header" in the output dir.)
M3
(Header end.)
G21 (All units in mm)

(Start cutting path id: path25)
(Change tool to Default tool)

G00 Z0.000000
G00 X47.678205 Y52.630730

G01 Z2 F100.0(Penetrate)
G02 X46.961463 Y52.445584 Z2 I-1.613481 J4.766253 F75
G03 X45.892829 Y52.248150 Z2 I27.448722 J-151.559774
G00 Z0.000000

(End cutting path id: path25)


(Start cutting path id: path25)
(Change tool to Default tool)

G00 Z0.000000
G00 X52.014117 Y52.375670

G01 Z2 F100.0(Penetrate)
G01 X52.014117 Y51.482990 Z2 F75
G00 Z0.000000

(End cutting path id: path25)


(Start cutting path id: path25)
(Change tool to Default tool)

G00 Z0.000000
G00 X49.718634 Y52.248150

G01 Z2 F100.0(Penetrate)
G01 X49.463580 Y51.993090 Z2 F75
G00 Z0.000000

(End cutting path id: path25)


(Start cutting path id: path25)
(Change tool to Default tool)

G00 Z0.000000
G00 X35.563156 Y52.120620

G01 Z2 F100.0(Penetrate)
G02 X34.506291 Y50.374815 Z2 I-76.261361 J44.973822 F75
G02 X33.358300 Y48.961080 Z2 I-6.147857 J3.819261
G02 X32.656544 Y48.558629 Z2 I-1.166434 J1.220862
G03 X31.941827 Y48.103630 Z2 I0.410299 J-1.433345
G01 X31.732333 Y47.019550 Z2
G03 X31.703741 Y46.127307 Z2 I32.482021 J-1.487477
G03 X31.725933 Y45.234170 Z2 I10.354059 J-0.189572
G02 X31.741194 Y44.679330 Z2 I-6.840447 J-0.465778
G03 X31.737343 Y44.086430 Z2 I45.639687 J-0.592900
G01 X31.737343 Y34.266870 Z2
G02 X31.735978 Y33.401708 Z2 I-274.179296 J0.000002
G03 X31.737441 Y32.609020 Z2 I79.251842 J-0.250077
G01 X32.032938 Y31.555940 Z2
G03 X32.716588 Y31.321794 Z2 I0.653145 J0.791910
G02 X33.522719 Y31.333750 Z2 I0.804454 J-27.058697
G01 X38.113684 Y31.333750 Z2
G01 X47.423143 Y31.333750 Z2
G01 X50.866367 Y31.333750 Z2
G01 X52.014109 Y31.333750 Z2
G00 Z0.000000

(End cutting path id: path25)


(Start cutting path id: path25)
(Change tool to Default tool)

G00 Z0.000000
G00 X39.899068 Y52.120620

G01 Z2 F100.0(Penetrate)
G03 X38.914402 Y50.653198 Z2 I11.649146 J-8.880862 F75
G02 X37.603585 Y49.315030 Z2 I-3.338104 J1.958778
G00 Z0.000000

(End cutting path id: path25)


(Start cutting path id: path25)
(Change tool to Default tool)

G00 Z0.000000
G00 X43.979927 Y52.120620

G01 Z2 F100.0(Penetrate)
G01 X44.745088 Y50.590300 Z2 F75
G00 Z0.000000

(End cutting path id: path25)


(Start cutting path id: path25)
(Change tool to Default tool)

G00 Z0.000000
G00 X31.737351 Y51.738040

G01 Z2 F100.0(Penetrate)
G01 X31.737351 Y48.294820 Z2 F75
G00 Z0.000000

(End cutting path id: path25)


(Start cutting path id: path25)
(Change tool to Default tool)

G00 Z0.000000
G00 X41.046810 Y48.167290

G01 Z2 F100.0(Penetrate)
G01 X43.087239 Y47.711200 Z2 F75
G01 X48.570892 Y47.274600 Z2
G01 X51.248364 Y47.274600 Z2
G01 X52.014117 Y47.274600 Z2
G00 Z0.000000

(End cutting path id: path25)


(Start cutting path id: path25)
(Change tool to Default tool)

G00 Z0.000000
G00 X34.415414 Y42.556110

G01 Z2 F100.0(Penetrate)
G03 X36.298664 Y43.936493 Z2 I-5.684766 J9.730546 F75
G02 X38.496273 Y44.603030 Z2 I1.803382 J-1.989759
G02 X40.131697 Y43.290877 Z2 I-0.305062 J-2.055464
G03 X41.306980 Y41.559510 Z2 I4.275662 J1.637811
G03 X43.299506 Y40.600427 Z2 I2.572891 J2.795952
G02 X45.382722 Y40.133100 Z2 I-2.423411 J-15.679785
G00 Z0.000000

(End cutting path id: path25)


(Start cutting path id: path25)
(Change tool to Default tool)

G00 Z0.000000
G00 X51.631536 Y35.542130

G01 Z2 F100.0(Penetrate)
G01 X52.014117 Y35.542130 Z2 F75
G00 Z0.000000

(End cutting path id: path25)


(Start cutting path id: path25)
(Change tool to Default tool)

G00 Z0.000000
G00 X34.925522 Y34.139340

G01 Z2 F100.0(Penetrate)
G02 X35.488782 Y34.849892 Z2 I19.164601 J-14.613401 F75
G02 X36.583371 Y35.366390 Z2 I1.094686 J-0.901812
G02 X37.693097 Y34.966027 Z2 I0.000123 J-1.737808
G03 X38.878853 Y34.521920 Z2 I1.232399 J1.485455
G00 Z0.000000

(End cutting path id: path25)


(Start cutting path id: path25)
(Change tool to Default tool)

G00 Z0.000000
G00 X42.832185 Y34.394390

G01 Z2 F100.0(Penetrate)
G02 X45.834991 Y34.776616 Z2 I2.011687 J-3.817735 F75
G03 X48.825946 Y34.230950 Z2 I6.810315 J28.859369
G03 X50.134846 Y34.142516 Z2 I1.369308 J10.536249
G03 X51.248364 Y34.139350 Z2 I1.113518 J195.847613
G01 X52.014117 Y34.139350 Z2
G00 Z0.000000

(End cutting path id: path25)


(Footer)
M5
G00 X0.0000 Y0.0000
M2
(Using default footer. To add your own footer create file "footer" in the output dir.)
(end)
%