%
(Header)
(Generated by gcodetools from Inkscape.)
(Using default header. To add your own header create file "header" in the output dir.)
M3
(Header end.)
G21 (All units in mm)

(Start cutting path id: path29)
(Change tool to Default tool)

G00 Z0.000000
G00 X141.238260 Y52.630740

G01 Z2 F100.0(Penetrate)
G03 X142.532708 Y52.388431 Z2 I1.498578 J4.426891 F75
G03 X144.171370 Y52.503220 Z2 I0.316392 J7.237052
G00 Z0.000000

(End cutting path id: path29)


(Start cutting path id: path29)
(Change tool to Default tool)

G00 Z0.000000
G00 X151.567930 Y51.738060

G01 Z2 F100.0(Penetrate)
G01 X151.567930 Y36.434840 Z2 F75
G03 X151.568768 Y34.621704 Z2 I1961.306703 J0.000326
G02 X151.567930 Y32.864090 Z2 I-627.145749 J-0.579801
G01 X151.257580 Y31.538240 Z2
G01 X150.165140 Y31.333760 Z2
G03 X149.006371 Y31.306839 Z2 I0.073942 J-28.135220
G03 X147.869650 Y31.227880 Z2 I0.978110 J-22.302885
G02 X147.075777 Y31.197910 Z2 I-0.659043 J6.927865
G03 X146.211800 Y31.206280 Z2 I-0.863977 J-44.585119
G01 X135.244500 Y31.206280 Z2
G01 X131.291360 Y31.206280 Z2
G01 X130.398480 Y31.206280 Z2
G00 Z0.000000

(End cutting path id: path29)


(Start cutting path id: path29)
(Change tool to Default tool)

G00 Z0.000000
G00 X130.270950 Y48.677450

G01 Z2 F100.0(Penetrate)
G01 X130.941550 Y48.367100 Z2 F75
G01 X130.398480 Y46.764550 Z2
G00 Z0.000000

(End cutting path id: path29)


(Start cutting path id: path29)
(Change tool to Default tool)

G00 Z0.000000
G00 X139.580410 Y48.422400

G01 Z2 F100.0(Penetrate)
G01 X141.105320 Y47.893890 Z2 F75
G02 X140.838288 Y46.574683 Z2 I-0.909109 J-0.502610
G02 X139.707940 Y45.931590 Z2 I-2.706357 J3.441959
G02 X136.557637 Y45.418800 Z2 I-2.796979 J7.249854
G03 X133.459120 Y45.489280 Z2 I-3.098517 J-68.075344
G00 Z0.000000

(End cutting path id: path29)


(Start cutting path id: path29)
(Change tool to Default tool)

G00 Z0.000000
G00 X130.270950 Y46.764550

G01 Z2 F100.0(Penetrate)
G01 X130.398480 Y46.764550 Z2 F75
G00 Z0.000000

(End cutting path id: path29)


(Start cutting path id: path29)
(Change tool to Default tool)

G00 Z0.000000
G00 X145.829220 Y43.831430

G01 Z2 F100.0(Penetrate)
G03 X146.528143 Y44.556711 Z2 I-17.581752 J17.642205 F75
G02 X147.486480 Y44.899770 Z2 I0.808354 J-0.748050
G01 X148.247210 Y43.831430 Z2
G02 X148.043179 Y43.301050 Z2 I-1.549983 J0.291827
G02 X147.693710 Y42.834830 Z2 I-2.624907 J1.603488
G02 X146.804413 Y42.101079 Z2 I-2.995260 J2.724433
G02 X145.701700 Y41.617330 Z2 I-2.351180 J3.860852
G02 X142.738113 Y41.577831 Z2 I-1.554140 J5.408396
G02 X139.962990 Y42.310360 Z2 I73.161554 J282.789209
G03 X137.834992 Y42.383774 Z2 I-1.221832 J-4.538290
G03 X135.882130 Y41.663480 Z2 I1.264673 J-6.436231
G00 Z0.000000

(End cutting path id: path29)


(Start cutting path id: path29)
(Change tool to Default tool)

G00 Z0.000000
G00 X130.270950 Y40.643260

G01 Z2 F100.0(Penetrate)
G03 X130.445323 Y40.579782 Z2 I1.945936 J5.074242 F75
G03 X130.911730 Y40.419500 Z2 I77.404019 J224.479874
G03 X132.519180 Y39.906533 Z2 I13.027304 J38.047730
G03 X134.734390 Y39.422610 Z2 I4.423207 J14.935564
G03 X136.522584 Y39.372353 Z2 I1.113302 J7.774327
G02 X138.305140 Y39.240470 Z2 I0.482383 J-5.592665
G00 Z0.000000

(End cutting path id: path29)


(Start cutting path id: path29)
(Change tool to Default tool)

G00 Z0.000000
G00 X143.788790 Y37.965200

G01 Z2 F100.0(Penetrate)
G02 X144.450993 Y38.531056 Z2 I2.158089 J-1.855134 F75
G02 X145.319120 Y38.674660 Z2 I0.608974 J-0.985583
G02 X146.171572 Y37.870719 Z2 I-0.259005 J-1.128549
G02 X145.822240 Y36.760970 Z2 I-1.004970 J-0.293508
G02 X140.993863 Y35.598598 Z2 I-3.647232 J4.540754
G03 X136.137180 Y36.398370 Z2 I-12.174327 J-58.783410
G03 X133.794203 Y36.432830 Z2 I-1.331153 J-10.838576
G03 X131.673750 Y35.669720 Z2 I0.417659 J-4.488156
G00 Z0.000000

(End cutting path id: path29)


(Start cutting path id: path29)
(Change tool to Default tool)

G00 Z0.000000
G00 X147.869650 Y35.414660

G01 Z2 F100.0(Penetrate)
G02 X147.844245 Y34.075871 Z2 I-0.777018 J-0.654891 F75
G02 X146.466860 Y33.387520 Z2 I-1.578469 J1.436260
G02 X144.079877 Y33.550672 Z2 I-0.696271 J7.356133
G03 X141.748360 Y33.974970 Z2 I-5.334558 J-22.695395
G03 X140.247083 Y33.979043 Z2 I-0.766658 J-5.902583
G03 X138.942770 Y33.629290 Z2 I0.604686 J-4.861943
G00 Z0.000000

(End cutting path id: path29)


(Start cutting path id: path29)
(Change tool to Default tool)

G00 Z0.000000
G00 X130.270950 Y31.206280

G01 Z2 F100.0(Penetrate)
G01 X130.398480 Y31.206280 Z2 F75
G00 Z0.000000

(End cutting path id: path29)


(Footer)
M5
G00 X0.0000 Y0.0000
M2
(Using default footer. To add your own footer create file "footer" in the output dir.)
(end)
%