%
(Header)
(Generated by gcodetools from Inkscape.)
(Using default header. To add your own header create file "header" in the output dir.)
M3
(Header end.)
G21 (All units in mm)

(Start cutting path id: path14)
(Change tool to Default tool)

G00 Z0.000000
G00 X130.398480 Y127.596179

G01 Z2 F100.0(Penetrate)
G03 X131.894658 Y127.748314 Z2 I-0.192526 J9.326577 F75
G02 X135.499550 Y128.393222 Z2 I66.249003 J-359.919534
G01 X142.003420 Y129.540963 Z2
G03 X143.948435 Y129.895197 Z2 I-20.816693 J119.816554
G02 X145.829220 Y130.220123 Z2 I10.381970 J-54.488628
G02 X147.853684 Y130.454929 Z2 I4.068319 J-26.231720
G02 X149.782550 Y130.529296 Z2 I1.928866 J-24.977501
G00 Z0.000000

(End cutting path id: path14)


(Start cutting path id: path14)
(Change tool to Default tool)

G00 Z0.000000
G00 X151.567930 Y129.891662

G01 Z2 F100.0(Penetrate)
G01 X151.567930 Y112.165433 Z2 F75
G01 X151.567930 Y107.574467 Z2
G01 X151.567930 Y105.789092 Z2
G01 X151.567930 Y104.768877 Z2
G00 Z0.000000

(End cutting path id: path14)


(Start cutting path id: path14)
(Change tool to Default tool)

G00 Z0.000000
G00 X130.270950 Y127.596179

G01 Z2 F100.0(Penetrate)
G01 X130.398480 Y127.596179 Z2 F75
G00 Z0.000000

(End cutting path id: path14)


(Start cutting path id: path14)
(Change tool to Default tool)

G00 Z0.000000
G00 X130.398480 Y116.883926

G01 Z2 F100.0(Penetrate)
G01 X135.116970 Y116.883926 Z2 F75
G01 X149.017390 Y117.011452 Z2
G00 Z0.000000

(End cutting path id: path14)


(Start cutting path id: path14)
(Change tool to Default tool)

G00 Z0.000000
G00 X130.270950 Y116.883926

G01 Z2 F100.0(Penetrate)
G01 X130.398480 Y116.883926 Z2 F75
G00 Z0.000000

(End cutting path id: path14)


(Footer)
M5
G00 X0.0000 Y0.0000
M2
(Using default footer. To add your own footer create file "footer" in the output dir.)
(end)
%