%
(Header)
(Generated by gcodetools from Inkscape.)
(Using default header. To add your own header create file "header" in the output dir.)
M3
(Header end.)
G21 (All units in mm)

(Start cutting path id: path28)
(Change tool to Default tool)

G00 Z0.000000
G00 X112.771500 Y50.335260

G01 Z2 F100.0(Penetrate)
G01 X112.388920 Y47.618330 Z2 F75
G02 X109.347804 Y46.576312 Z2 I-3.585403 J5.505213
G03 X106.267630 Y45.999350 Z2 I1.272033 J-15.301294
G00 Z0.000000

(End cutting path id: path28)


(Start cutting path id: path28)
(Change tool to Default tool)

G00 Z0.000000
G00 X121.315800 Y49.315050

G01 Z2 F100.0(Penetrate)
G02 X122.058981 Y47.963260 Z2 I-0.307243 J-1.049101 F75
G02 X120.933220 Y46.820500 Z2 I-1.615413 J0.465496
G02 X116.900189 Y45.977633 Z2 I-6.711657 J22.044340
G02 X112.899030 Y45.744290 Z2 I-4.001159 J34.187438
G00 Z0.000000

(End cutting path id: path28)


(Start cutting path id: path28)
(Change tool to Default tool)

G00 Z0.000000
G00 X129.477510 Y48.422360

G01 Z2 F100.0(Penetrate)
G02 X130.126047 Y48.622536 Z2 I1.924464 J-5.084293 F75
G02 X130.370200 Y48.677410 Z2 I1.854839 J-7.682133
G00 Z0.000000

(End cutting path id: path28)


(Start cutting path id: path28)
(Change tool to Default tool)

G00 Z0.000000
G00 X130.370200 Y46.636980

G01 Z2 F100.0(Penetrate)
G02 X130.185935 Y46.569191 Z2 I-2.699128 J7.052442 F75
G02 X129.729420 Y46.416760 Z2 I-4.643199 J13.146103
G03 X128.513281 Y46.013855 Z2 I12.883414 J-40.924527
G02 X126.799450 Y45.638420 Z2 I-2.424354 J6.967509
G02 X125.141535 Y45.684513 Z2 I-0.644459 J6.659192
G03 X123.483750 Y45.616820 Z2 I-0.655591 J-4.277926
G00 Z0.000000

(End cutting path id: path28)


(Start cutting path id: path28)
(Change tool to Default tool)

G00 Z0.000000
G00 X106.650210 Y41.025850

G01 Z2 F100.0(Penetrate)
G03 X107.909422 Y41.428931 Z2 I-0.806862 J4.689017 F75
G02 X109.328270 Y41.595490 Z2 I0.950717 J-1.972202
G02 X111.258226 Y40.546647 Z2 I-0.842905 J-3.851074
G03 X113.409130 Y40.005640 Z2 I1.533219 J1.549459
G00 Z0.000000

(End cutting path id: path28)


(Start cutting path id: path28)
(Change tool to Default tool)

G00 Z0.000000
G00 X125.524180 Y39.750580

G01 Z2 F100.0(Penetrate)
G03 X127.594124 Y40.399551 Z2 I-0.082908 J3.890052 F75
G02 X129.477320 Y40.982060 Z2 I1.930827 J-2.906827
G02 X130.184788 Y40.922579 Z2 I0.052152 J-3.616749
G03 X130.370200 Y40.898360 Z2 I0.324075 J1.759183
G00 Z0.000000

(End cutting path id: path28)


(Start cutting path id: path28)
(Change tool to Default tool)

G00 Z0.000000
G00 X114.684400 Y37.965240

G01 Z2 F100.0(Penetrate)
G03 X116.693681 Y38.741496 Z2 I-1.164998 J6.004077 F75
G02 X118.765260 Y39.215120 Z2 I1.748191 J-2.879153
G02 X122.498455 Y38.222843 Z2 I-1.138207 J-11.800967
G03 X126.544400 Y37.837710 Z2 I2.587884 J5.742009
G00 Z0.000000

(End cutting path id: path28)


(Start cutting path id: path28)
(Change tool to Default tool)

G00 Z0.000000
G00 X107.797950 Y35.287170

G01 Z2 F100.0(Penetrate)
G02 X111.809516 Y35.087728 Z2 I1.849021 J-3.252833 F75
G03 X115.449560 Y33.891270 Z2 I3.763092 J5.313272
G03 X116.377734 Y33.982140 Z2 I0.075950 J4.009965
G03 X117.221160 Y34.320190 Z2 I-0.580498 J2.669518
G01 X117.754300 Y35.395320 Z2
G01 X116.469780 Y35.542230 Z2
G00 Z0.000000

(End cutting path id: path28)


(Start cutting path id: path28)
(Change tool to Default tool)

G00 Z0.000000
G00 X104.354730 Y31.333840

G01 Z2 F100.0(Penetrate)
G01 X105.502470 Y31.333840 Z2 F75
G01 X107.032790 Y31.333840 Z2
G01 X110.858600 Y31.333840 Z2
G01 X124.376440 Y31.333840 Z2
G01 X127.819660 Y31.333840 Z2
G01 X129.222460 Y31.333840 Z2
G01 X130.370200 Y31.333840 Z2
G00 Z0.000000

(End cutting path id: path28)


(Footer)
M5
G00 X0.0000 Y0.0000
M2
(Using default footer. To add your own footer create file "footer" in the output dir.)
(end)
%