%
(Header)
(Generated by gcodetools from Inkscape.)
(Using default header. To add your own header create file "header" in the output dir.)
M3
(Header end.)
G21 (All units in mm)

(Start cutting path id: path7)
(Change tool to Default tool)

G00 Z0.000000
G00 X78.337273 Y151.164339

G01 Z2 F100.0(Penetrate)
G01 X79.485014 Y151.164339 Z2 F75
G01 X81.015336 Y151.164339 Z2
G01 X85.096195 Y151.164339 Z2
G01 X97.848877 Y151.164339 Z2
G03 X100.573723 Y151.164632 Z2 I0.400413 J12677.350314
G02 X103.077480 Y151.164339 Z2 I0.772147 J-3771.889125
G01 X104.312200 Y150.762866 Z2
G02 X104.027082 Y149.296938 Z2 I-1.548026 J-0.459606
G02 X103.586990 Y148.847208 Z2 I-2.422110 J1.930008
G03 X103.044916 Y148.386232 Z2 I22.267419 J-26.734061
G03 X102.439840 Y147.855037 Z2 I47.806627 J-55.066002
G02 X101.168083 Y146.746885 Z2 I-60.631123 J68.298705
G03 X99.889307 Y145.644769 Z2 I144.085013 J-168.473630
G02 X92.158171 Y138.968734 Z2 I-1176.881920 J1355.065389
G03 X84.458560 Y132.270590 Z2 I511.048897 J-595.232418
G03 X83.437879 Y131.303164 Z2 I12.860676 J-14.590770
G02 X82.545658 Y130.887573 Z2 I-1.000066 J0.981477
G00 Z0.000000

(End cutting path id: path7)


(Start cutting path id: path7)
(Change tool to Default tool)

G00 Z0.000000
G00 X91.727590 Y130.887573

G01 Z2 F100.0(Penetrate)
G02 X92.474814 Y130.864606 Z2 I-0.000000 J-12.166942 F75
G03 X93.118970 Y130.928013 Z2 I0.125088 J2.032944
G03 X93.567649 Y131.169312 Z2 I-0.277937 J1.054597
G02 X94.152469 Y131.611502 Z2 I2.990394 J-3.347136
G02 X95.112145 Y132.186215 Z2 I11.506250 J-18.124929
G03 X96.191029 Y132.800474 Z2 I-75.333278 J133.569950
G02 X98.744959 Y134.260302 Z2 I312.354718 J-543.492346
G03 X101.292100 Y135.732213 Z2 I-103.003379 J181.187128
G03 X102.428795 Y136.399980 Z2 I-3204.398965 J5455.933653
G02 X103.459860 Y136.967532 Z2 I10.624372 J-18.080839
G02 X104.167382 Y137.226124 Z2 I1.385149 J-2.692633
G02 X104.352750 Y137.263913 Z2 I0.860732 J-3.748688
G00 Z0.000000

(End cutting path id: path7)


(Footer)
M5
G00 X0.0000 Y0.0000
M2
(Using default footer. To add your own footer create file "footer" in the output dir.)
(end)
%