%
(Header)
(Generated by gcodetools from Inkscape.)
(Using default header. To add your own header create file "header" in the output dir.)
M3
(Header end.)
G21 (All units in mm)

(Start cutting path id: path23)
(Change tool to Default tool)

G00 Z0.000000
G00 X108.131890 Y78.393150

G01 Z2 F100.0(Penetrate)
G01 X109.152110 Y78.520670 Z2 F75
G00 Z0.000000

(End cutting path id: path23)


(Start cutting path id: path23)
(Change tool to Default tool)

G00 Z0.000000
G00 X123.562640 Y78.010570

G01 Z2 F100.0(Penetrate)
G01 X122.669950 Y77.245400 Z2 F75
G00 Z0.000000

(End cutting path id: path23)


(Start cutting path id: path23)
(Change tool to Default tool)

G00 Z0.000000
G00 X105.708880 Y75.332500

G01 Z2 F100.0(Penetrate)
G01 X105.708880 Y75.204980 Z2 F75
G00 Z0.000000

(End cutting path id: path23)


(Start cutting path id: path23)
(Change tool to Default tool)

G00 Z0.000000
G00 X129.683930 Y74.822390

G01 Z2 F100.0(Penetrate)
G01 X130.066510 Y74.822390 Z2 F75
G00 Z0.000000

(End cutting path id: path23)


(Start cutting path id: path23)
(Change tool to Default tool)

G00 Z0.000000
G00 X113.360490 Y74.694870

G01 Z2 F100.0(Penetrate)
G01 X113.488020 Y74.694870 Z2 F75
G00 Z0.000000

(End cutting path id: path23)


(Start cutting path id: path23)
(Change tool to Default tool)

G00 Z0.000000
G00 X119.226730 Y73.419600

G01 Z2 F100.0(Penetrate)
G01 X119.354250 Y73.419600 Z2 F75
G00 Z0.000000

(End cutting path id: path23)


(Start cutting path id: path23)
(Change tool to Default tool)

G00 Z0.000000
G00 X121.777260 Y72.654440

G01 Z2 F100.0(Penetrate)
G01 X123.435110 Y73.037020 Z2 F75
G00 Z0.000000

(End cutting path id: path23)


(Start cutting path id: path23)
(Change tool to Default tool)

G00 Z0.000000
G00 X126.750810 Y72.016800

G01 Z2 F100.0(Penetrate)
G02 X128.103454 Y73.053136 Z2 I2.668640 J-2.082239 F75
G02 X129.539470 Y72.016800 Z2 I0.402909 J-0.954791
G02 X128.727000 Y69.962624 Z2 I-3.751192 J0.295914
G02 X127.133390 Y68.491910 Z2 I-5.632083 J4.503964
G02 X123.645884 Y66.495449 Z2 I-15.124196 J22.375313
G02 X119.991890 Y64.875300 Z2 I-30.633453 J64.158419
G00 Z0.000000

(End cutting path id: path23)


(Start cutting path id: path23)
(Change tool to Default tool)

G00 Z0.000000
G00 X112.595330 Y72.144330

G01 Z2 F100.0(Penetrate)
G01 X112.977910 Y72.271860 Z2 F75
G00 Z0.000000

(End cutting path id: path23)


(Start cutting path id: path23)
(Change tool to Default tool)

G00 Z0.000000
G00 X129.683930 Y72.144330

G01 Z2 F100.0(Penetrate)
G01 X130.066510 Y72.144330 Z2 F75
G00 Z0.000000

(End cutting path id: path23)


(Start cutting path id: path23)
(Change tool to Default tool)

G00 Z0.000000
G00 X110.044790 Y70.996590

G01 Z2 F100.0(Penetrate)
G01 X109.662210 Y70.614010 Z2 F75
G00 Z0.000000

(End cutting path id: path23)


(Start cutting path id: path23)
(Change tool to Default tool)

G00 Z0.000000
G00 X118.844150 Y70.486480

G01 Z2 F100.0(Penetrate)
G01 X118.844150 Y70.358960 Z2 F75
G00 Z0.000000

(End cutting path id: path23)


(Start cutting path id: path23)
(Change tool to Default tool)

G00 Z0.000000
G00 X116.421140 Y70.358960

G01 Z2 F100.0(Penetrate)
G01 X115.145870 Y69.466270 Z2 F75
G00 Z0.000000

(End cutting path id: path23)


(Start cutting path id: path23)
(Change tool to Default tool)

G00 Z0.000000
G00 X107.111680 Y69.083690

G01 Z2 F100.0(Penetrate)
G01 X107.111680 Y68.956160 Z2 F75
G00 Z0.000000

(End cutting path id: path23)


(Start cutting path id: path23)
(Change tool to Default tool)

G00 Z0.000000
G00 X130.066510 Y67.170790

G01 Z2 F100.0(Penetrate)
G01 X130.066510 Y67.043260 Z2 F75
G00 Z0.000000

(End cutting path id: path23)


(Start cutting path id: path23)
(Change tool to Default tool)

G00 Z0.000000
G00 X111.065010 Y67.043260

G01 Z2 F100.0(Penetrate)
G01 X111.065010 Y66.915730 Z2 F75
G00 Z0.000000

(End cutting path id: path23)


(Start cutting path id: path23)
(Change tool to Default tool)

G00 Z0.000000
G00 X112.467800 Y65.257880

G01 Z2 F100.0(Penetrate)
G02 X113.318555 Y65.901401 Z2 I1.662531 J-1.313795 F75
G02 X114.380710 Y66.137090 Z2 I1.198408 J-2.889544
G01 X115.578530 Y65.613210 Z2
G02 X115.275148 Y64.219255 Z2 I-1.142732 J-0.481286
G03 X114.231530 Y63.258980 Z2 I1868.402788 J-2031.609971
G02 X110.788725 Y61.206243 Z2 I-6.622237 J7.193203
G03 X107.111680 Y59.677800 Z2 I10.326921 J-30.031181
G02 X105.193539 Y58.926127 Z2 I-5.465966 J11.124996
G02 X104.178560 Y58.754010 Z2 I-1.207619 J4.042615
G00 Z0.000000

(End cutting path id: path23)


(Start cutting path id: path23)
(Change tool to Default tool)

G00 Z0.000000
G00 X108.642000 Y65.767990

G01 Z2 F100.0(Penetrate)
G01 X108.897050 Y65.767990 Z2 F75
G00 Z0.000000

(End cutting path id: path23)


(Start cutting path id: path23)
(Change tool to Default tool)

G00 Z0.000000
G00 X129.556400 Y65.002830

G01 Z2 F100.0(Penetrate)
G01 X130.066510 Y65.257880 Z2 F75
G00 Z0.000000

(End cutting path id: path23)


(Start cutting path id: path23)
(Change tool to Default tool)

G00 Z0.000000
G00 X106.091460 Y63.855090

G01 Z2 F100.0(Penetrate)
G01 X106.218990 Y63.855090 Z2 F75
G00 Z0.000000

(End cutting path id: path23)


(Start cutting path id: path23)
(Change tool to Default tool)

G00 Z0.000000
G00 X109.662210 Y63.855090

G01 Z2 F100.0(Penetrate)
G01 X109.662210 Y63.727560 Z2 F75
G00 Z0.000000

(End cutting path id: path23)


(Start cutting path id: path23)
(Change tool to Default tool)

G00 Z0.000000
G00 X114.125650 Y59.264120

G01 Z2 F100.0(Penetrate)
G02 X116.920898 Y59.712083 Z2 I4.360744 J-18.265627 F75
G03 X119.736830 Y60.083400 Z2 I-2.485763 J29.714256
G03 X122.749545 Y60.805122 Z2 I-4.888566 J27.055450
G02 X125.730590 Y61.585980 Z2 I12.542435 J-41.801964
G03 X128.763811 Y62.413152 Z2 I-7.595333 J33.826891
G03 X130.066510 Y62.834870 Z2 I-140.762428 J437.041655
G00 Z0.000000

(End cutting path id: path23)


(Start cutting path id: path23)
(Change tool to Default tool)

G00 Z0.000000
G00 X110.682430 Y56.713590

G01 Z2 F100.0(Penetrate)
G02 X111.688160 Y57.208255 Z2 I2.079391 J-2.957991 F75
G02 X112.842910 Y57.092620 Z2 I0.441115 J-1.418530
G01 X112.465840 Y54.999350 Z2
G02 X109.868942 Y54.440951 Z2 I-2.325400 J4.496756
G03 X107.239200 Y54.543760 Z2 I-4.840082 J-90.119944
G03 X105.973436 Y54.552192 Z2 I-0.869610 J-35.534121
G02 X104.819340 Y54.545760 Z2 I-1.154096 J103.544347
G01 X104.178560 Y54.545760 Z2
G00 Z0.000000

(End cutting path id: path23)


(Start cutting path id: path23)
(Change tool to Default tool)

G00 Z0.000000
G00 X128.153600 Y55.948550

G01 Z2 F100.0(Penetrate)
G01 X129.298300 Y56.071950 Z2 F75
G01 X129.715610 Y55.310820 Z2
G02 X128.571544 Y54.043050 Z2 I-1.870370 J0.537765
G02 X126.878340 Y53.664980 Z2 I-1.997655 J4.966012
G02 X124.308942 Y54.070588 Z2 I-0.349293 J6.128302
G03 X121.777260 Y54.800810 Z2 I-5.345330 J-13.778490
G00 Z0.000000

(End cutting path id: path23)


(Start cutting path id: path23)
(Change tool to Default tool)

G00 Z0.000000
G00 X104.051030 Y54.545760

G01 Z2 F100.0(Penetrate)
G01 X104.178560 Y54.545760 Z2 F75
G00 Z0.000000

(End cutting path id: path23)


(Footer)
M5
G00 X0.0000 Y0.0000
M2
(Using default footer. To add your own footer create file "footer" in the output dir.)
(end)
%