%
(Header)
(Generated by gcodetools from Inkscape.)
(Using default header. To add your own header create file "header" in the output dir.)
M3
(Header end.)
G21 (All units in mm)

(Start cutting path id: path17)
(Change tool to Default tool)

G00 Z0.000000
G00 X91.780174 Y104.665663

G01 Z2 F100.0(Penetrate)
G01 X94.585765 Y104.034326 Z2 F75
G01 X97.136301 Y102.862576 Z2
G01 X101.089630 Y101.006745 Z2
G01 X103.257390 Y100.001782 Z2
G01 X104.150280 Y99.692117 Z2
G00 Z0.000000

(End cutting path id: path17)


(Start cutting path id: path17)
(Change tool to Default tool)

G00 Z0.000000
G00 X101.344690 Y104.665663

G01 Z2 F100.0(Penetrate)
G03 X102.941082 Y104.332077 Z2 I2.455872 J7.766107 F75
G02 X104.150280 Y104.155556 Z2 I-1.643433 J-15.487620
G00 Z0.000000

(End cutting path id: path17)


(Start cutting path id: path17)
(Change tool to Default tool)

G00 Z0.000000
G00 X90.504906 Y98.161795

G01 Z2 F100.0(Penetrate)
G01 X90.247491 Y96.832014 Z2 F75
G02 X88.806762 Y96.705992 Z2 I-1.026986 J3.442387
G02 X87.316735 Y96.886524 Z2 I16.809216 J144.974409
G00 Z0.000000

(End cutting path id: path17)


(Start cutting path id: path17)
(Change tool to Default tool)

G00 Z0.000000
G00 X96.626194 Y95.101148

G01 Z2 F100.0(Penetrate)
G03 X97.900857 Y95.449597 Z2 I-3.559429 J15.526391 F75
G02 X99.176633 Y95.598759 Z2 I1.021654 J-3.207758
G01 X100.060270 Y95.084223 Z2
G01 X99.658204 Y94.182975 Z2
G02 X98.352408 Y93.572094 Z2 I-1.786726 J2.118185
G02 X96.881247 Y93.352280 Z2 I-4.942972 J28.049185
G02 X92.768775 Y92.969433 Z2 I-8.570861 J69.787494
G02 X88.719530 Y93.570826 Z2 I-0.620001 J9.758168
G00 Z0.000000

(End cutting path id: path17)


(Start cutting path id: path17)
(Change tool to Default tool)

G00 Z0.000000
G00 X99.049203 Y87.449538

G01 Z2 F100.0(Penetrate)
G01 X98.794150 Y87.194485 Z2 F75
G00 Z0.000000

(End cutting path id: path17)


(Start cutting path id: path17)
(Change tool to Default tool)

G00 Z0.000000
G00 X100.834580 Y87.066958

G01 Z2 F100.0(Penetrate)
G01 X100.962110 Y87.066958 Z2 F75
G00 Z0.000000

(End cutting path id: path17)


(Start cutting path id: path17)
(Change tool to Default tool)

G00 Z0.000000
G00 X104.150280 Y85.664163

G01 Z2 F100.0(Penetrate)
G01 X103.640170 Y85.154056 Z2 F75
G00 Z0.000000

(End cutting path id: path17)


(Start cutting path id: path17)
(Change tool to Default tool)

G00 Z0.000000
G00 X103.257590 Y81.710827

G01 Z2 F100.0(Penetrate)
G01 X102.875010 Y81.200727 Z2 F75
G00 Z0.000000

(End cutting path id: path17)


(Start cutting path id: path17)
(Change tool to Default tool)

G00 Z0.000000
G00 X92.417808 Y79.415347

G01 Z2 F100.0(Penetrate)
G01 X92.290282 Y78.650187 Z2 F75
G00 Z0.000000

(End cutting path id: path17)


(Start cutting path id: path17)
(Change tool to Default tool)

G00 Z0.000000
G00 X94.840818 Y78.650187

G01 Z2 F100.0(Penetrate)
G01 X94.968345 Y78.650187 Z2 F75
G00 Z0.000000

(End cutting path id: path17)


(Footer)
M5
G00 X0.0000 Y0.0000
M2
(Using default footer. To add your own footer create file "footer" in the output dir.)
(end)
%