%
(Header)
(Generated by gcodetools from Inkscape.)
(Using default header. To add your own header create file "header" in the output dir.)
M3
(Header end.)
G21 (All units in mm)

(Start cutting path id: path9)
(Change tool to Default tool)

G00 Z0.000000
G00 X130.169720 Y151.164339

G01 Z2 F100.0(Penetrate)
G01 X131.317460 Y151.164339 Z2 F75
G01 X134.888220 Y151.164339 Z2
G01 X144.962840 Y151.164339 Z2
G03 X147.460396 Y151.178903 Z2 I-0.000000 J214.157718
G02 X149.936380 Y151.162439 Z2 I0.788498 J-67.606641
G02 X150.602429 Y151.104248 Z2 I-0.134176 J-5.376632
G02 X151.156350 Y150.837325 Z2 I-0.154937 J-1.029738
G01 X151.466210 Y149.761514 Z2
G02 X151.470452 Y148.620552 Z2 I-55.836156 J-0.778060
G03 X151.466700 Y147.466031 Z2 I177.648093 J-1.154521
G01 X151.466700 Y145.043021 Z2
G01 X151.466700 Y135.478509 Z2
G01 X151.466700 Y131.907758 Z2
G01 X151.466700 Y130.887543 Z2
G00 Z0.000000

(End cutting path id: path9)


(Start cutting path id: path9)
(Change tool to Default tool)

G00 Z0.000000
G00 X135.653380 Y139.941948

G01 Z2 F100.0(Penetrate)
G01 X137.205050 Y139.523845 Z2 F75
G01 X136.291010 Y137.952883 Z2
G02 X134.543279 Y137.364894 Z2 I-3.219593 J6.678411
G02 X132.720260 Y137.141376 Z2 I-2.344104 J11.572546
G02 X131.158044 Y137.127637 Z2 I-0.975323 J22.076935
G02 X130.297250 Y137.263885 Z2 I0.088988 J3.349525
G00 Z0.000000

(End cutting path id: path9)


(Start cutting path id: path9)
(Change tool to Default tool)

G00 Z0.000000
G00 X142.539830 Y138.921733

G01 Z2 F100.0(Penetrate)
G02 X143.405918 Y139.439727 Z2 I6.313862 J-9.573757 F75
G02 X144.325200 Y139.678924 Z2 I0.947430 J-1.755071
G01 X144.981430 Y138.169954 Z2
G02 X143.548047 Y137.233617 Z2 I-1.824073 J1.227056
G03 X141.902190 Y136.777492 Z2 I1.657560 J-9.178525
G02 X139.381099 Y135.921979 Z2 I-13.516103 J35.687868
G02 X136.801120 Y135.301782 Z2 I-6.787480 J22.559091
G02 X135.730814 Y135.143004 Z2 I-2.992861 J16.487714
G03 X134.760690 Y135.022521 Z2 I6.538736 J-56.615803
G02 X133.805508 Y134.963581 Z2 I-0.894851 J6.732629
G03 X132.720260 Y134.968401 Z2 I-1.085248 J-122.168708
G00 Z0.000000

(End cutting path id: path9)


(Start cutting path id: path9)
(Change tool to Default tool)

G00 Z0.000000
G00 X130.169720 Y137.263884

G01 Z2 F100.0(Penetrate)
G01 X130.297250 Y137.263884 Z2 F75
G00 Z0.000000

(End cutting path id: path9)


(Start cutting path id: path9)
(Change tool to Default tool)

G00 Z0.000000
G00 X146.110580 Y130.887542

G01 Z2 F100.0(Penetrate)
G01 X149.553800 Y130.887542 Z2 F75
G00 Z0.000000

(End cutting path id: path9)


(Footer)
M5
G00 X0.0000 Y0.0000
M2
(Using default footer. To add your own footer create file "footer" in the output dir.)
(end)
%