%
(Header)
(Generated by gcodetools from Inkscape.)
(Using default header. To add your own header create file "header" in the output dir.)
M3
(Header end.)
G21 (All units in mm)

(Start cutting path id: path12)
(Change tool to Default tool)

G00 Z0.000000
G00 X78.464799 Y127.213602

G01 Z2 F100.0(Penetrate)
G02 X78.673880 Y127.354023 Z2 I9.090274 J-13.309224 F400.000000
G03 X79.105582 Y127.664866 Z2 I-3.624518 J5.488956
G03 X80.517171 Y128.929949 Z2 I-8.832091 J11.274979
G02 X82.035551 Y130.147408 Z2 I5.761496 J-5.630006
G02 X82.814487 Y130.494118 Z2 I1.656510 J-2.673240
G02 X83.438346 Y130.656827 Z2 I3.250565 J-11.186002
G00 Z0.000000

(End cutting path id: path12)


(Start cutting path id: path12)
(Change tool to Default tool)

G00 Z0.000000
G00 X79.867595 Y123.387798

G01 Z2 F100.0(Penetrate)
G02 X84.225411 Y126.088670 Z2 I20.531194 J-28.260694 F400.000000
G03 X88.921999 Y128.652216 Z2 I-67.860543 J129.909085
G03 X90.281540 Y129.469508 Z2 I-16.798454 J29.483160
G02 X91.600063 Y130.162071 Z2 I4.925283 J-7.775501
G02 X92.878814 Y130.542108 Z2 I2.302338 J-5.405520
G02 X93.768019 Y130.656827 Z2 I1.669194 J-9.434683
G00 Z0.000000

(End cutting path id: path12)


(Start cutting path id: path12)
(Change tool to Default tool)

G00 Z0.000000
G00 X93.257911 Y127.851237

G01 Z2 F100.0(Penetrate)
G02 X94.422769 Y127.211970 Z2 I-9.914441 J-19.446801 F400.000000
G02 X95.935975 Y126.291689 Z2 I-32.002894 J-54.326140
G02 X96.502171 Y125.899070 Z2 I-3.994610 J-6.365196
G03 X97.083716 Y125.536269 Z2 I2.206949 J2.890097
G03 X97.648708 Y125.334086 Z2 I1.122734 J2.246913
G02 X98.103931 Y125.203677 Z2 I-0.954905 J-4.193072
G02 X98.972342 Y124.789364 Z2 I-1.423175 J-4.100274
G03 X100.016830 Y124.151091 Z2 I41.991718 J67.542690
G02 X101.229269 Y123.309574 Z2 I-5.769492 J-9.606749
G03 X102.439840 Y122.485958 Z2 I6.070097 J7.620500
G01 X103.284510 Y122.282467 Z2
G01 X102.652980 Y122.807531 Z2
G01 X102.439840 Y122.622637 Z2
G00 Z0.000000

(End cutting path id: path12)


(Start cutting path id: path12)
(Change tool to Default tool)

G00 Z0.000000
G00 X97.083716 Y125.428227

G01 Z2 F100.0(Penetrate)
G03 X97.205384 Y124.519289 Z2 I3.458853 J0.000383 F400.000000
G03 X98.087005 Y123.067210 Z2 I2.969187 J0.809048
G02 X98.403071 Y122.646189 Z2 I-0.990117 J-1.072444
G03 X98.720999 Y122.238482 Z2 I1.166299 J0.581660
G03 X99.194600 Y122.010960 Z2 I0.662772 J0.772924
G02 X99.745249 Y121.767834 Z2 I-0.246430 J-1.303271
G02 X100.211054 Y121.170077 Z2 I-0.872188 J-1.160027
G03 X100.614710 Y120.476821 Z2 I2.864628 J1.203814
G03 X102.389516 Y118.687961 Z2 I8.020957 J6.183080
G02 X103.587580 Y116.756403 Z2 I-2.038498 J-2.601728
G02 X101.023598 Y116.475195 Z2 I-2.405588 J10.104075
G03 X97.593824 Y116.501349 Z2 I-3.429774 J-224.876326
G01 X81.780497 Y116.373822 Z2
G00 Z0.000000

(End cutting path id: path12)


(Start cutting path id: path12)
(Change tool to Default tool)

G00 Z0.000000
G00 X103.715110 Y122.750164

G01 Z2 F100.0(Penetrate)
G01 X104.352750 Y122.877690 Z2 F400.000000
G00 Z0.000000

(End cutting path id: path12)


(Start cutting path id: path12)
(Change tool to Default tool)

G00 Z0.000000
G00 X98.614038 Y122.112529

G01 Z2 F100.0(Penetrate)
G02 X97.093163 Y121.535532 Z2 I-2.043004 J3.092151 F400.000000
G03 X94.023072 Y121.060827 Z2 I18.154069 J-127.573923
G02 X87.680458 Y120.066331 Z2 I-53.231789 J318.774273
G03 X81.397917 Y118.796832 Z2 I8.648746 J-58.981607
G00 Z0.000000

(End cutting path id: path12)


(Start cutting path id: path12)
(Change tool to Default tool)

G00 Z0.000000
G00 X103.332530 Y122.112529

G01 Z2 F100.0(Penetrate)
G03 X103.979208 Y121.351629 Z2 I4.102913 J2.831759 F400.000000
G03 X104.352750 Y121.092315 Z2 I0.994201 J1.033444
G00 Z0.000000

(End cutting path id: path12)


(Start cutting path id: path12)
(Change tool to Default tool)

G00 Z0.000000
G00 X78.337273 Y117.521564

G01 Z2 F100.0(Penetrate)
G02 X78.699313 Y117.162374 Z2 I-2.766857 J-3.150866 F400.000000
G02 X78.802214 Y115.410975 Z2 I-1.054294 J-0.940666
G01 X78.464799 Y115.098554 Z2
G00 Z0.000000

(End cutting path id: path12)


(Start cutting path id: path12)
(Change tool to Default tool)

G00 Z0.000000
G00 X103.587580 Y116.756403

G01 Z2 F100.0(Penetrate)
G03 X103.962402 Y116.339727 Z2 I6.177725 J5.180267 F400.000000
G02 X104.277660 Y115.842067 Z2 I-1.053340 J-1.015955
G02 X104.533244 Y114.488797 Z2 I-3.691018 J-1.397872
G02 X104.312160 Y112.951361 Z2 I-5.058698 J-0.057170
G01 X103.077440 Y112.803071 Z2
G00 Z0.000000

(End cutting path id: path12)


(Start cutting path id: path12)
(Change tool to Default tool)

G00 Z0.000000
G00 X78.337273 Y115.098554

G01 Z2 F100.0(Penetrate)
G01 X78.464799 Y115.098554 Z2 F400.000000
G00 Z0.000000

(End cutting path id: path12)


(Start cutting path id: path12)
(Change tool to Default tool)

G00 Z0.000000
G00 X80.122648 Y113.185651

G01 Z2 F100.0(Penetrate)
G03 X82.663387 Y112.136417 Z2 I5.811502 J10.471813 F400.000000
G02 X85.733829 Y111.120719 Z2 I-10.309036 J-36.312901
G03 X92.556210 Y108.606398 Z2 I139.734196 J368.642875
G02 X99.379199 Y106.098171 Z2 I-145.774966 J-407.077633
G03 X100.434227 Y105.734482 Z2 I6.856456 J18.177816
G02 X101.280690 Y105.371681 Z2 I-1.354582 J-4.329278
G02 X101.737049 Y105.054234 Z2 I-1.335360 J-2.406456
G03 X102.314190 Y104.787774 Z2 I0.758236 J0.884046
G03 X103.151718 Y104.744201 Z2 I0.627185 J3.984292
G02 X104.097690 Y104.768884 Z2 I0.945972 J-18.114467
G00 Z0.000000

(End cutting path id: path12)


(Start cutting path id: path12)
(Change tool to Default tool)

G00 Z0.000000
G00 X78.337273 Y111.400276

G01 Z2 F100.0(Penetrate)
G02 X78.602826 Y111.392352 Z2 I-0.327044 J-15.413172 F400.000000
G02 X79.485014 Y111.213119 Z2 I-0.107273 J-2.788695
G02 X81.364361 Y110.361892 Z2 I-5.821976 J-15.354042
G03 X83.310819 Y109.399206 Z2 I17.651930 J33.241388
G02 X86.186350 Y108.071748 Z2 I-324.243250 J-706.152029
G02 X89.049526 Y106.714747 Z2 I-82.724089 J-178.240975
G03 X90.395361 Y106.115361 Z2 I10.135624 J20.947454
G02 X91.714305 Y105.466638 Z2 I-3.981635 J-9.760376
G01 X92.633562 Y104.809323 Z2
G03 X93.509815 Y104.724014 Z2 I0.690831 J2.553016
G02 X94.788233 Y104.768883 Z2 I1.278418 J-18.190256
G00 Z0.000000

(End cutting path id: path12)


(Footer)
M5
G00 X0.0000 Y0.0000
M2
(Using default footer. To add your own footer create file "footer" in the output dir.)
(end)
%