%
(Header)
(Generated by gcodetools from Inkscape.)
(Using default header. To add your own header create file "header" in the output dir.)
M3
(Header end.)
G21 (All units in mm)

(Start cutting path id: path13)
(Change tool to Default tool)

G00 Z0.000000
G00 X104.482260 Y123.005213

G01 Z2 F100.0(Penetrate)
G03 X106.387302 Y123.211077 Z2 I-0.227574 J11.023412 F75
G02 X110.220970 Y123.947494 Z2 I77.559329 J-393.414276
G02 X117.739129 Y125.300055 Z2 I101.606756 J-543.206179
G02 X125.269140 Y126.586297 Z2 I340.859640 J-1972.801194
G03 X126.863982 Y126.868455 Z2 I-17.217400 J101.966133
G02 X128.457310 Y127.159479 Z2 I64.658274 J-349.491049
G02 X129.151858 Y127.277778 Z2 I6.456760 J-35.810561
G03 X129.729430 Y127.372515 Z2 I-13.034443 J81.273078
G02 X130.176990 Y127.442402 Z2 I3.337212 J-19.903532
G02 X130.370210 Y127.468655 Z2 I1.616573 J-11.173836
G00 Z0.000000

(End cutting path id: path13)


(Start cutting path id: path13)
(Change tool to Default tool)

G00 Z0.000000
G00 X104.354740 Y123.005216

G01 Z2 F100.0(Penetrate)
G01 X104.482260 Y123.005216 Z2 F75
G00 Z0.000000

(End cutting path id: path13)


(Start cutting path id: path13)
(Change tool to Default tool)

G00 Z0.000000
G00 X104.354740 Y120.454680

G01 Z2 F100.0(Penetrate)
G02 X105.039168 Y119.535676 Z2 I-0.733623 J-1.260732 F75
G03 X106.029610 Y117.271626 Z2 I6.864133 J1.654148
G03 X106.481231 Y116.793209 Z2 I1.633505 J1.089642
G02 X106.997470 Y116.332395 Z2 I-2.516468 J-3.338712
G02 X107.381419 Y115.766750 Z2 I-1.529029 J-1.451008
G03 X107.814980 Y115.195576 Z2 I1.519449 J0.703230
G03 X109.088866 Y114.672528 Z2 I1.436608 J1.686062
G02 X110.220770 Y114.580968 Z2 I-5.803323 J-78.785901
G01 X110.887340 Y113.948842 Z2
G02 X110.529450 Y113.403724 Z2 I-0.993574 J0.262275
G02 X109.838390 Y112.870081 Z2 I-28.723143 J36.481764
G02 X108.541227 Y111.920241 Z2 I-30.099718 J39.745462
G02 X107.032800 Y111.327852 Z2 I-1.955714 J2.763240
G02 X105.367353 Y111.404926 Z2 I-0.619443 J4.647186
G02 X104.482260 Y111.655329 Z2 I2.024652 J8.845944
G00 Z0.000000

(End cutting path id: path13)


(Start cutting path id: path13)
(Change tool to Default tool)

G00 Z0.000000
G00 X124.631500 Y113.950812

G01 Z2 F100.0(Penetrate)
G01 X121.953440 Y114.354548 Z2 F75
G01 X120.169930 Y114.623968 Z2
G01 X119.139580 Y115.478083 Z2
G01 X118.510210 Y116.118768 Z2
G02 X118.838726 Y116.408867 Z2 I6.509357 J-7.040324
G02 X119.657960 Y116.748924 Z2 I0.945815 J-1.121728
G02 X120.552350 Y116.773001 Z2 I0.649412 J-7.499639
G03 X121.570860 Y116.756424 Z2 I1.018510 J31.280284
G01 X126.161820 Y116.756424 Z2
G03 X129.165756 Y116.838571 Z2 I0.000000 J54.964647
G02 X130.370210 Y116.883951 Z2 I1.935189 J-35.356278
G00 Z0.000000

(End cutting path id: path13)


(Start cutting path id: path13)
(Change tool to Default tool)

G00 Z0.000000
G00 X107.160330 Y116.373843

G01 Z2 F100.0(Penetrate)
G02 X109.014564 Y116.748424 Z2 I1.552714 J-2.909511 F75
G03 X111.623770 Y116.628897 Z2 I2.609206 J28.418922
G03 X112.641551 Y116.633008 Z2 I0.000000 J125.988962
G02 X113.536670 Y116.628306 Z2 I0.271217 J-33.572255
G02 X114.407834 Y116.396365 Z2 I-0.035141 J-1.883992
G02 X114.811940 Y116.118790 Z2 I-1.179697 J-2.150401
G02 X114.573757 Y115.890392 Z2 I-19.496202 J20.093047
G02 X113.666060 Y115.280222 Z2 I-2.266997 J2.392181
G03 X113.144519 Y114.966253 Z2 I1.077719 J-2.380375
G02 X112.862630 Y114.748663 Z2 I-85.497546 J110.471496
G02 X112.170798 Y114.439116 Z2 I-0.991334 J1.287725
G03 X111.241190 Y114.205887 Z2 I1.461631 J-7.795025
G00 Z0.000000

(End cutting path id: path13)


(Start cutting path id: path13)
(Change tool to Default tool)

G00 Z0.000000
G00 X114.811940 Y116.118790

G01 Z2 F100.0(Penetrate)
G01 X118.510210 Y116.118790 Z2 F75
G00 Z0.000000

(End cutting path id: path13)


(Start cutting path id: path13)
(Change tool to Default tool)

G00 Z0.000000
G00 X112.771510 Y114.588468

G01 Z2 F100.0(Penetrate)
G03 X113.100754 Y114.309139 Z2 I6.249293 J7.032317 F75
G03 X113.791720 Y113.974941 Z2 I1.058773 J1.307654
G03 X116.114679 Y113.561615 Z2 I5.823867 J25.996732
G03 X118.382690 Y113.587146 Z2 I1.045377 J7.886089
G03 X119.335821 Y114.110013 Z2 I-0.245360 J1.577426
G02 X119.785480 Y114.588468 Z2 I7.520106 J-6.616983
G00 Z0.000000

(End cutting path id: path13)


(Start cutting path id: path13)
(Change tool to Default tool)

G00 Z0.000000
G00 X104.354740 Y111.782878

G01 Z2 F100.0(Penetrate)
G01 X104.482260 Y111.655351 Z2 F75
G00 Z0.000000

(End cutting path id: path13)


(Start cutting path id: path13)
(Change tool to Default tool)

G00 Z0.000000
G00 X126.544400 Y104.768902

G01 Z2 F100.0(Penetrate)
G02 X128.614071 Y104.714796 Z2 I-0.000000 J-39.611525 F75
G03 X130.370210 Y105.023956 Z2 I0.207408 J3.964171
G00 Z0.000000

(End cutting path id: path13)


(Start cutting path id: path13)
(Change tool to Default tool)

G00 Z0.000000
G00 X104.354740 Y104.768902

G01 Z2 F100.0(Penetrate)
G01 X104.737320 Y104.768902 Z2 F75
G00 Z0.000000

(End cutting path id: path13)


(Footer)
M5
G00 X0.0000 Y0.0000
M2
(Using default footer. To add your own footer create file "footer" in the output dir.)
(end)
%