%
(Header)
(Generated by gcodetools from Inkscape.)
(Using default header. To add your own header create file "header" in the output dir.)
M3
(Header end.)
G21 (All units in mm)

(Start cutting path id: path21)
(Change tool to Default tool)

G00 Z0.000000
G00 X67.037975 Y78.749430

G01 Z2 F100.0(Penetrate)
G02 X65.901213 Y78.537942 Z2 I-1.428443 J4.517146 F75
G02 X64.487439 Y78.494380 Z2 I-1.413774 J22.919675
G00 Z0.000000

(End cutting path id: path21)


(Start cutting path id: path21)
(Change tool to Default tool)

G00 Z0.000000
G00 X63.084643 Y78.111800

G01 Z2 F100.0(Penetrate)
G02 X62.986670 Y74.149649 Z2 I-80.525191 J0.008887 F75
G02 X62.609075 Y70.205140 Z2 I-42.939103 J2.120088
G03 X62.475619 Y69.240398 Z2 I118.441032 J-16.875940
G03 X62.355890 Y68.292230 Z2 I60.865338 J-8.167359
G03 X62.325391 Y67.845442 Z2 I4.477176 J-0.530059
G03 X62.319380 Y67.399550 Z2 I44.665946 J-0.825126
G01 X62.115003 Y66.419280 Z2
G02 X61.048822 Y65.468518 Z2 I-3.603600 J2.967878
G02 X59.513888 Y64.859830 Z2 I-2.291536 J3.538912
G02 X57.659139 Y64.939790 Z2 I-0.751492 J4.119747
G03 X56.084046 Y64.791830 Z2 I-0.591157 J-2.164634
G03 X55.355059 Y63.894339 Z2 I0.601928 J-1.233722
G02 X54.768237 Y62.821950 Z2 I-2.365249 J0.597536
G02 X53.958449 Y62.175072 Z2 I-2.654125 J2.492242
G03 X53.191667 Y61.640850 Z2 I3.064775 J-5.216343
G02 X52.467531 Y61.226809 Z2 I-1.594552 J1.948527
G02 X52.244859 Y61.150720 Z2 I-1.714841 J4.654587
G00 Z0.000000

(End cutting path id: path21)


(Start cutting path id: path21)
(Change tool to Default tool)

G00 Z0.000000
G00 X75.582269 Y78.111790

G01 Z2 F100.0(Penetrate)
G02 X75.870060 Y75.394447 Z2 I-7.243549 J-2.141067 F75
G03 X76.012672 Y72.755660 Z2 I10.135030 J-0.775503
G03 X76.128710 Y72.238964 Z2 I7.122618 J1.328193
G02 X76.225807 Y71.735450 Z2 I-3.705474 J-0.975681
G02 X76.316270 Y70.721580 Z2 I-14.624746 J-1.815863
G02 X76.347527 Y69.695020 Z2 I-21.360024 J-1.164142
G03 X76.580209 Y68.473018 Z2 I3.442493 J0.022332
G03 X77.063194 Y67.673480 Z2 I2.521313 J0.977427
G03 X77.882664 Y67.281013 Z2 I0.864779 J0.753899
G03 X78.132805 Y67.272010 Z2 I1.401961 J35.471121
G00 Z0.000000

(End cutting path id: path21)


(Start cutting path id: path21)
(Change tool to Default tool)

G00 Z0.000000
G00 X70.228012 Y76.869390

G01 Z2 F100.0(Penetrate)
G02 X72.096144 Y75.727070 Z2 I0.500292 J-1.280547 F75
G02 X72.127630 Y73.648350 Z2 I-12.101258 J-1.222892
G01 X71.493932 Y72.322600 Z2
G02 X70.928686 Y72.258205 Z2 I-0.401157 J1.008267
G03 X70.353669 Y72.336700 Z2 I-2.721155 J-17.788418
G01 X69.373995 Y72.504180 Z2
G01 X69.078400 Y73.648380 Z2
G02 X69.145834 Y75.410616 Z2 I22.103371 J0.036597
G02 X70.228012 Y76.869420 Z2 I1.704250 J-0.133460
G00 Z0.000000

(End cutting path id: path21)


(Start cutting path id: path21)
(Change tool to Default tool)

G00 Z0.000000
G00 X75.964849 Y72.628170

G01 Z2 F100.0(Penetrate)
G02 X75.357038 Y72.363334 Z2 I-1.473739 J2.552401 F75
G03 X74.562054 Y72.011100 Z2 I1.077070 J-3.504171
G03 X73.703520 Y71.469028 Z2 I9.523676 J-16.034523
G02 X72.776678 Y70.971790 Z2 I-2.992262 J4.465088
G02 X69.970334 Y69.926710 Z2 I-15.177154 J36.464615
G03 X67.165498 Y68.904400 Z2 I15.109355 J-45.813274
G02 X65.560970 Y68.326441 Z2 I-9.121273 J22.806235
G02 X64.232381 Y68.164730 Z2 I-1.084959 J3.375252
G00 Z0.000000

(End cutting path id: path21)


(Start cutting path id: path21)
(Change tool to Default tool)

G00 Z0.000000
G00 X65.125069 Y68.037200

G01 Z2 F100.0(Penetrate)
G03 X65.151355 Y67.119009 Z2 I16.111840 J0.001772 F75
G03 X65.435423 Y66.469880 Z2 I1.016554 J0.058139
G03 X65.874779 Y66.060400 Z2 I4.100822 J3.959571
G02 X66.346216 Y65.627480 Z2 I-4.537297 J-5.414137
G03 X68.735126 Y65.593237 Z2 I1.211977 J1.205283
G02 X70.608230 Y66.343240 Z2 I1.879141 J-1.979080
G02 X71.386456 Y65.981440 Z2 I0.001539 J-1.014565
G03 X72.266668 Y65.314860 Z2 I1.904926 J1.600991
G03 X73.706611 Y65.246285 Z2 I0.806609 J1.784930
G02 X75.072161 Y65.484300 Z2 I1.436053 J-4.202730
G02 X75.570920 Y65.454014 Z2 I0.052688 J-3.254338
G03 X76.085390 Y65.490300 Z2 I0.171228 J1.237576
G01 X76.662606 Y66.126360 Z2
G02 X76.901281 Y66.716885 Z2 I7.953242 J-2.871007
G02 X77.240117 Y67.272130 Z2 I2.358541 J-1.058279
G00 Z0.000000

(End cutting path id: path21)


(Start cutting path id: path21)
(Change tool to Default tool)

G00 Z0.000000
G00 X62.191952 Y66.251910

G01 Z2 F100.0(Penetrate)
G03 X63.561711 Y66.177004 Z2 I0.842870 J2.851601 F75
G02 X65.125069 Y66.379440 Z2 I2.830613 J-15.722117
G00 Z0.000000

(End cutting path id: path21)


(Start cutting path id: path21)
(Change tool to Default tool)

G00 Z0.000000
G00 X78.132805 Y65.231700

G01 Z2 F100.0(Penetrate)
G01 X78.132805 Y64.721590 Z2 F75
G00 Z0.000000

(End cutting path id: path21)


(Start cutting path id: path21)
(Change tool to Default tool)

G00 Z0.000000
G00 X61.936898 Y63.573850

G01 Z2 F100.0(Penetrate)
G03 X64.237208 Y63.491652 Z2 I1.309988 J4.431825 F75
G02 X66.527864 Y63.063740 Z2 I0.640184 J-2.918044
G03 X65.971440 Y62.493049 Z2 I21.496652 J-21.515837
G02 X65.380122 Y62.061730 Z2 I-1.474371 J1.400299
G02 X64.834231 Y61.900463 Z2 I-0.766392 J1.589688
G03 X64.104854 Y61.682010 Z2 I0.288325 J-2.289529
G03 X62.384705 Y60.508743 Z2 I3.247446 J-6.608748
G02 X60.661630 Y59.239410 Z2 I-6.852740 J7.498181
G02 X59.504241 Y58.588666 Z2 I-19.532780 J33.385667
G02 X58.366147 Y57.997110 Z2 I-19.416941 J35.965656
G02 X56.613485 Y57.145001 Z2 I-39.210751 J78.422180
G03 X54.922922 Y56.109790 Z2 I3.927292 J-8.311510
G03 X53.682838 Y54.675687 Z2 I2.911086 J-3.770457
G02 X52.942517 Y53.374160 Z2 I-143.767636 J80.915035
G01 X52.244859 Y52.734070 Z2
G00 Z0.000000

(End cutting path id: path21)


(Start cutting path id: path21)
(Change tool to Default tool)

G00 Z0.000000
G00 X78.132805 Y63.446320

G01 Z2 F100.0(Penetrate)
G01 X76.985064 Y62.426110 Z2 F75
G00 Z0.000000

(End cutting path id: path21)


(Start cutting path id: path21)
(Change tool to Default tool)

G00 Z0.000000
G00 X66.527864 Y63.063740

G01 Z2 F100.0(Penetrate)
G01 X67.803132 Y62.681160 Z2 F75
G00 Z0.000000

(End cutting path id: path21)


(Start cutting path id: path21)
(Change tool to Default tool)

G00 Z0.000000
G00 X69.971088 Y62.808690

G01 Z2 F100.0(Penetrate)
G01 X70.226142 Y61.916000 Z2 F75
G00 Z0.000000

(End cutting path id: path21)


(Start cutting path id: path21)
(Change tool to Default tool)

G00 Z0.000000
G00 X73.286786 Y62.681160

G01 Z2 F100.0(Penetrate)
G01 X72.649152 Y61.660950 Z2 F75
G00 Z0.000000

(End cutting path id: path21)


(Start cutting path id: path21)
(Change tool to Default tool)

G00 Z0.000000
G00 X59.896469 Y62.298580

G01 Z2 F100.0(Penetrate)
G01 X59.896469 Y62.043530 Z2 F75
G00 Z0.000000

(End cutting path id: path21)


(Start cutting path id: path21)
(Change tool to Default tool)

G00 Z0.000000
G00 X65.635176 Y61.916000

G01 Z2 F100.0(Penetrate)
G02 X66.401087 Y61.236232 Z2 I-1.458673 J-2.414892 F75
G03 X67.176913 Y60.467060 Z2 I3.392853 J2.646347
G03 X68.123329 Y59.978298 Z2 I1.838683 J2.399660
G02 X69.078400 Y59.620520 Z2 I-2.560502 J-8.288786
G00 Z0.000000

(End cutting path id: path21)


(Start cutting path id: path21)
(Change tool to Default tool)

G00 Z0.000000
G00 X55.050449 Y60.258150

G01 Z2 F100.0(Penetrate)
G03 X55.693446 Y60.559016 Z2 I-0.842167 J2.637366 F75
G03 X56.325718 Y61.032860 Z2 I-2.757671 J4.338444
G02 X57.111629 Y61.432179 Z2 I1.175050 J-1.339603
G02 X57.983566 Y61.278370 Z2 I0.251380 J-1.123327
G00 Z0.000000

(End cutting path id: path21)


(Start cutting path id: path21)
(Change tool to Default tool)

G00 Z0.000000
G00 X52.117332 Y61.150840

G01 Z2 F100.0(Penetrate)
G01 X52.244859 Y61.150840 Z2 F75
G00 Z0.000000

(End cutting path id: path21)


(Start cutting path id: path21)
(Change tool to Default tool)

G00 Z0.000000
G00 X71.118830 Y60.640730

G01 Z2 F100.0(Penetrate)
G01 X71.883991 Y59.365470 Z2 F75
G00 Z0.000000

(End cutting path id: path21)


(Start cutting path id: path21)
(Change tool to Default tool)

G00 Z0.000000
G00 X74.434527 Y60.640730

G01 Z2 F100.0(Penetrate)
G03 X73.973317 Y59.520656 Z2 I11.717958 J-5.480063 F75
G02 X73.541839 Y58.472780 Z2 I-11.394633 J4.079135
G00 Z0.000000

(End cutting path id: path21)


(Start cutting path id: path21)
(Change tool to Default tool)

G00 Z0.000000
G00 X78.132805 Y57.452560

G01 Z2 F100.0(Penetrate)
G03 X77.985126 Y57.412247 Z2 I2.156810 J-8.191709 F75
G03 X77.403462 Y57.141320 Z2 I0.546569 J-1.933314
G01 X76.239288 Y57.106120 Z2
G01 X75.971638 Y57.962690 Z2
G02 X76.297407 Y58.611084 Z2 I1.927722 J-0.562501
G03 X76.736603 Y59.237860 Z2 I-8.470567 J6.402782
G03 X77.043146 Y59.743241 Z2 I-8.283043 J5.369799
G02 X77.395589 Y60.107820 Z2 I0.880738 J-0.498776
G01 X78.132805 Y60.258170 Z2
G00 Z0.000000

(End cutting path id: path21)


(Start cutting path id: path21)
(Change tool to Default tool)

G00 Z0.000000
G00 X56.580771 Y59.493010

G01 Z2 F100.0(Penetrate)
G01 X56.708298 Y59.493010 Z2 F75
G00 Z0.000000

(End cutting path id: path21)


(Start cutting path id: path21)
(Change tool to Default tool)

G00 Z0.000000
G00 X63.594747 Y59.365490

G01 Z2 F100.0(Penetrate)
G01 X64.232381 Y59.493010 Z2 F75
G00 Z0.000000

(End cutting path id: path21)


(Start cutting path id: path21)
(Change tool to Default tool)

G00 Z0.000000
G00 X52.117332 Y58.217740

G01 Z2 F100.0(Penetrate)
G01 X53.010020 Y57.962690 Z2 F75
G00 Z0.000000

(End cutting path id: path21)


(Start cutting path id: path21)
(Change tool to Default tool)

G00 Z0.000000
G00 X61.554318 Y57.580110

G01 Z2 F100.0(Penetrate)
G01 X65.380122 Y57.707640 Z2 F75
G01 X66.910444 Y57.580110 Z2
G00 Z0.000000

(End cutting path id: path21)


(Start cutting path id: path21)
(Change tool to Default tool)

G00 Z0.000000
G00 X75.709795 Y57.325060

G01 Z2 F100.0(Penetrate)
G02 X75.162095 Y56.126789 Z2 I-3.219747 J0.747360 F75
G02 X74.307000 Y55.157100 Z2 I-5.608133 J4.083522
G00 Z0.000000

(End cutting path id: path21)


(Start cutting path id: path21)
(Change tool to Default tool)

G00 Z0.000000
G00 X64.359908 Y53.754310

G01 Z2 F100.0(Penetrate)
G02 X64.771114 Y54.445427 Z2 I2.321860 J-0.913587 F75
G02 X65.380221 Y54.968470 Z2 I1.897869 J-1.593967
G02 X67.534653 Y55.616480 Z2 I2.321873 J-3.814097
G03 X69.588508 Y56.315080 Z2 I-0.142074 J3.786114
G01 X71.219197 Y56.610370 Z2
G02 X71.862194 Y55.167894 Z2 I-0.953677 J-1.289659
G02 X71.636808 Y54.538360 Z2 I-1.353787 J0.129570
G02 X70.233371 Y53.943075 Z2 I-1.158559 J0.779399
G03 X68.185713 Y53.626780 Z2 I-0.561425 J-3.151702
G00 Z0.000000

(End cutting path id: path21)


(Start cutting path id: path21)
(Change tool to Default tool)

G00 Z0.000000
G00 X56.198191 Y52.734090

G01 Z2 F100.0(Penetrate)
G02 X56.958463 Y53.428835 Z2 I2.621651 J-2.105557 F75
G03 X58.324720 Y54.647090 Z2 I-3.591329 J5.402877
G01 X59.385771 Y55.607770 Z2
G01 X60.216959 Y54.519960 Z2
G01 X61.426791 Y52.734090 Z2
G00 Z0.000000

(End cutting path id: path21)


(Start cutting path id: path21)
(Change tool to Default tool)

G00 Z0.000000
G00 X52.117332 Y52.734090

G01 Z2 F100.0(Penetrate)
G01 X52.244859 Y52.734090 Z2 F75
G00 Z0.000000

(End cutting path id: path21)


(Footer)
M5
G00 X0.0000 Y0.0000
M2
(Using default footer. To add your own footer create file "footer" in the output dir.)
(end)
%