%
(Header)
(Generated by gcodetools from Inkscape.)
(Using default header. To add your own header create file "header" in the output dir.)
M3
(Header end.)
G21 (All units in mm)

(Start cutting path id: path8)
(Change tool to Default tool)

G00 Z0.000000
G00 X104.583490 Y150.909285

G01 Z2 F100.0(Penetrate)
G02 X104.767539 Y150.976574 Z2 I4.405888 J-11.765540 F75
G02 X105.603700 Y151.152827 Z2 I1.067069 J-2.990746
G02 X106.044969 Y151.166920 Z2 I0.393036 J-5.391029
G03 X106.623920 Y151.164337 Z2 I0.578951 J64.879634
G01 X109.812090 Y151.164337 Z2
G01 X122.182190 Y151.164337 Z2
G03 X123.612828 Y151.169571 Z2 I-0.000000 J195.531347
G02 X124.860260 Y151.163747 Z2 I0.380772 J-52.040297
G02 X125.478183 Y151.079523 Z2 I-0.043939 J-2.631216
G03 X126.263050 Y151.004140 Z2 I0.628261 J2.417688
G03 X126.999367 Y151.096976 Z2 I-0.371439 J5.912454
G02 X127.665850 Y151.163845 Z2 I0.711760 J-3.739244
G02 X128.553473 Y151.166551 Z2 I0.597596 J-50.433976
G03 X129.323690 Y151.164337 Z2 I0.770217 J133.943161
G01 X130.471440 Y151.164337 Z2
G00 Z0.000000

(End cutting path id: path8)


(Start cutting path id: path8)
(Change tool to Default tool)

G00 Z0.000000
G00 X104.455960 Y150.909283

G01 Z2 F100.0(Penetrate)
G01 X104.583490 Y150.909283 Z2 F75
G00 Z0.000000

(End cutting path id: path8)


(Start cutting path id: path8)
(Change tool to Default tool)

G00 Z0.000000
G00 X126.008000 Y150.909283

G01 Z2 F100.0(Penetrate)
G03 X125.657158 Y150.257231 Z2 I2.889355 J-1.975057 F75
G02 X125.088050 Y149.456698 Z2 I-1.991271 J0.813056
G02 X123.375033 Y148.321161 Z2 I-4.973352 J5.642704
G03 X121.161980 Y147.156492 Z2 I15.012512 J-31.211033
G03 X116.260707 Y144.332846 Z2 I667.419415 J-1164.169596
G02 X111.342410 Y141.508115 Z2 I-413.022051 J713.441521
G03 X108.975379 Y140.157710 Z2 I1206.937887 J-2118.306844
G03 X106.623920 Y138.795612 Z2 I111.990970 J-196.046506
G03 X105.869093 Y138.352209 Z2 I2769.861018 J-4716.133701
G02 X105.224270 Y138.006737 Z2 I-4.709369 J8.015520
G02 X104.770666 Y137.829292 Z2 I-1.338821 J2.753936
G02 X104.583490 Y137.774020 Z2 I-4.595735 J15.218718
G00 Z0.000000

(End cutting path id: path8)


(Start cutting path id: path8)
(Change tool to Default tool)

G00 Z0.000000
G00 X130.471440 Y137.263913

G01 Z2 F100.0(Penetrate)
G01 X130.216380 Y137.136386 Z2 F75
G00 Z0.000000

(End cutting path id: path8)


(Footer)
M5
G00 X0.0000 Y0.0000
M2
(Using default footer. To add your own footer create file "footer" in the output dir.)
(end)
%