%
(Header)
(Generated by gcodetools from Inkscape.)
(Using default header. To add your own header create file "header" in the output dir.)
M3
(Header end.)
G21 (All units in mm)

(Start cutting path id: path22)
(Change tool to Default tool)

G00 Z0.000000
G00 X94.713291 Y78.366850

G01 Z2 F100.0(Penetrate)
G01 X95.223399 Y78.366850 Z2 F75
G00 Z0.000000

(End cutting path id: path22)


(Start cutting path id: path22)
(Change tool to Default tool)

G00 Z0.000000
G00 X101.472210 Y77.984270

G01 Z2 F100.0(Penetrate)
G01 X101.599740 Y77.984270 Z2 F75
G00 Z0.000000

(End cutting path id: path22)


(Start cutting path id: path22)
(Change tool to Default tool)

G00 Z0.000000
G00 X99.686838 Y75.688790

G01 Z2 F100.0(Penetrate)
G01 X99.814364 Y75.433740 Z2 F75
G00 Z0.000000

(End cutting path id: path22)


(Start cutting path id: path22)
(Change tool to Default tool)

G00 Z0.000000
G00 X95.733506 Y74.668580

G01 Z2 F100.0(Penetrate)
G01 X96.243613 Y74.285990 Z2 F75
G00 Z0.000000

(End cutting path id: path22)


(Start cutting path id: path22)
(Change tool to Default tool)

G00 Z0.000000
G00 X91.907701 Y73.648360

G01 Z2 F100.0(Penetrate)
G01 X92.162755 Y73.775890 Z2 F75
G00 Z0.000000

(End cutting path id: path22)


(Start cutting path id: path22)
(Change tool to Default tool)

G00 Z0.000000
G00 X102.619950 Y71.607930

G01 Z2 F100.0(Penetrate)
G01 X102.619950 Y71.480400 Z2 F75
G00 Z0.000000

(End cutting path id: path22)


(Start cutting path id: path22)
(Change tool to Default tool)

G00 Z0.000000
G00 X94.330711 Y71.352880

G01 Z2 F100.0(Penetrate)
G01 X94.330711 Y71.225350 Z2 F75
G00 Z0.000000

(End cutting path id: path22)


(Start cutting path id: path22)
(Change tool to Default tool)

G00 Z0.000000
G00 X98.921677 Y70.587720

G01 Z2 F100.0(Penetrate)
G01 X99.049203 Y70.587720 Z2 F75
G00 Z0.000000

(End cutting path id: path22)


(Start cutting path id: path22)
(Change tool to Default tool)

G00 Z0.000000
G00 X90.759960 Y67.909650

G01 Z2 F100.0(Penetrate)
G01 X91.142540 Y68.419760 Z2 F75
G00 Z0.000000

(End cutting path id: path22)


(Start cutting path id: path22)
(Change tool to Default tool)

G00 Z0.000000
G00 X101.599740 Y67.654600

G01 Z2 F100.0(Penetrate)
G01 X101.854790 Y67.527070 Z2 F75
G00 Z0.000000

(End cutting path id: path22)


(Start cutting path id: path22)
(Change tool to Default tool)

G00 Z0.000000
G00 X94.458238 Y67.399550

G01 Z2 F100.0(Penetrate)
G01 X94.585765 Y67.144490 Z2 F75
G00 Z0.000000

(End cutting path id: path22)


(Start cutting path id: path22)
(Change tool to Default tool)

G00 Z0.000000
G00 X78.262331 Y66.761910

G01 Z2 F100.0(Penetrate)
G02 X78.514863 Y66.762747 Z2 I0.194419 J-20.567927 F75
G03 X79.155215 Y66.821510 Z2 I0.009644 J3.413298
G03 X80.029653 Y67.130054 Z2 I-0.561385 J2.984388
G02 X81.178424 Y67.135900 Z2 I0.579900 J-1.080719
G02 X81.783320 Y66.377458 Z2 I-0.557726 J-1.065254
G03 X82.201493 Y65.231560 Z2 I6.426087 J1.695822
G02 X83.457847 Y62.431906 Z2 I-69.375238 J-32.814089
G02 X84.511145 Y59.620380 Z2 I-31.865151 J-13.540888
G00 Z0.000000

(End cutting path id: path22)


(Start cutting path id: path22)
(Change tool to Default tool)

G00 Z0.000000
G00 X78.134804 Y66.889410

G01 Z2 F100.0(Penetrate)
G01 X78.262331 Y66.761880 Z2 F75
G00 Z0.000000

(End cutting path id: path22)


(Start cutting path id: path22)
(Change tool to Default tool)

G00 Z0.000000
G00 X96.116086 Y64.211350

G01 Z2 F100.0(Penetrate)
G02 X97.692237 Y65.119703 Z2 I8.324215 J-12.622346 F75
G02 X99.431784 Y65.602230 Z2 I2.110603 J-4.232018
G01 X100.485260 Y64.095330 Z2
G02 X99.015677 Y62.876734 Z2 I-2.813732 J1.897829
G03 X97.263828 Y62.116800 Z2 I181.115248 J-419.917929
G02 X93.096092 Y60.556457 Z2 I-16.748239 J38.388919
G02 X88.847057 Y59.365330 Z2 I-20.865914 J66.259502
G00 Z0.000000

(End cutting path id: path22)


(Start cutting path id: path22)
(Change tool to Default tool)

G00 Z0.000000
G00 X78.134804 Y64.976510

G01 Z2 F100.0(Penetrate)
G01 X78.262331 Y63.446180 Z2 F75
G00 Z0.000000

(End cutting path id: path22)


(Start cutting path id: path22)
(Change tool to Default tool)

G00 Z0.000000
G00 X78.134804 Y63.446180

G01 Z2 F100.0(Penetrate)
G01 X78.262331 Y63.446180 Z2 F75
G00 Z0.000000

(End cutting path id: path22)


(Start cutting path id: path22)
(Change tool to Default tool)

G00 Z0.000000
G00 X78.772438 Y63.318660

G01 Z2 F100.0(Penetrate)
G01 X81.450501 Y60.640590 Z2 F75
G00 Z0.000000

(End cutting path id: path22)


(Start cutting path id: path22)
(Change tool to Default tool)

G00 Z0.000000
G00 X78.134804 Y60.002960

G01 Z2 F100.0(Penetrate)
G02 X78.567661 Y59.751012 Z2 I-0.353993 J-1.105979 F75
G03 X79.920179 Y58.780930 Z2 I4.623278 J5.018016
G03 X81.525819 Y58.199779 Z2 I2.691474 J4.927513
G02 X83.108350 Y57.452420 Z2 I-0.693297 J-3.517238
G00 Z0.000000

(End cutting path id: path22)


(Start cutting path id: path22)
(Change tool to Default tool)

G00 Z0.000000
G00 X95.095872 Y56.942320

G01 Z2 F100.0(Penetrate)
G01 X100.962110 Y57.946390 Z2 F75
G01 X103.384520 Y58.521740 Z2
G01 X104.150280 Y58.600140 Z2
G00 Z0.000000

(End cutting path id: path22)


(Start cutting path id: path22)
(Change tool to Default tool)

G00 Z0.000000
G00 X78.134804 Y57.324870

G01 Z2 F100.0(Penetrate)
G02 X78.570608 Y57.178037 Z2 I-6.773671 J-20.824536 F75
G03 X79.792653 Y56.942290 Z2 I1.418748 J4.069151
G00 Z0.000000

(End cutting path id: path22)


(Start cutting path id: path22)
(Change tool to Default tool)

G00 Z0.000000
G00 X86.551574 Y55.411960

G01 Z2 F100.0(Penetrate)
G02 X87.956593 Y55.983378 Z2 I1.932135 J-2.737728 F75
G02 X89.484691 Y56.037590 Z2 I0.984210 J-6.178696
G01 X90.702198 Y54.776300 Z2
G02 X89.854081 Y53.814139 Z2 I-1.327178 J0.314993
G03 X88.852076 Y53.327250 Z2 I2.096270 J-5.588563
G03 X88.374477 Y52.990742 Z2 I2.230387 J-3.672721
G02 X87.942955 Y52.773950 Z2 I-0.709121 J0.873631
G02 X87.056356 Y52.692261 Z2 I-0.700728 J2.753111
G03 X85.786413 Y52.733850 Z2 I-1.269943 J-19.368412
G00 Z0.000000

(End cutting path id: path22)


(Start cutting path id: path22)
(Change tool to Default tool)

G00 Z0.000000
G00 X104.150280 Y54.519230

G01 Z2 F100.0(Penetrate)
G01 X104.150280 Y54.391700 Z2 F75
G00 Z0.000000

(End cutting path id: path22)


(Start cutting path id: path22)
(Change tool to Default tool)

G00 Z0.000000
G00 X94.840818 Y52.733850

G01 Z2 F100.0(Penetrate)
G01 X99.559311 Y52.733850 Z2 F75
G00 Z0.000000

(End cutting path id: path22)


(Footer)
M5
G00 X0.0000 Y0.0000
M2
(Using default footer. To add your own footer create file "footer" in the output dir.)
(end)
%