%
(Header)
(Generated by gcodetools from Inkscape.)
(Using default header. To add your own header create file "header" in the output dir.)
M3
(Header end.)
G21 (All units in mm)

(Start cutting path id: path17)
(Change tool to Default tool)

G00 Z0.000000
G00 X92.372290 Y120.060663

G01 Z2 F100.0(Penetrate)
G01 X95.177881 Y119.429326 Z2 F75
G01 X97.728417 Y118.257576 Z2
G01 X101.681746 Y116.401745 Z2
G01 X103.849506 Y115.396782 Z2
G01 X104.742396 Y115.087117 Z2
G00 Z0.000000

(End cutting path id: path17)


(Start cutting path id: path17)
(Change tool to Default tool)

G00 Z0.000000
G00 X101.936806 Y120.060663

G01 Z2 F100.0(Penetrate)
G03 X103.533198 Y119.727077 Z2 I2.455872 J7.766107 F75
G02 X104.742396 Y119.550556 Z2 I-1.643433 J-15.487620
G00 Z0.000000

(End cutting path id: path17)


(Start cutting path id: path17)
(Change tool to Default tool)

G00 Z0.000000
G00 X91.097022 Y113.556795

G01 Z2 F100.0(Penetrate)
G01 X90.839607 Y112.227014 Z2 F75
G02 X89.398878 Y112.100992 Z2 I-1.026986 J3.442387
G02 X87.908851 Y112.281524 Z2 I16.809216 J144.974409
G00 Z0.000000

(End cutting path id: path17)


(Start cutting path id: path17)
(Change tool to Default tool)

G00 Z0.000000
G00 X97.218310 Y110.496148

G01 Z2 F100.0(Penetrate)
G03 X98.492973 Y110.844597 Z2 I-3.559429 J15.526391 F75
G02 X99.768749 Y110.993759 Z2 I1.021654 J-3.207758
G01 X100.652386 Y110.479223 Z2
G01 X100.250320 Y109.577975 Z2
G02 X98.944524 Y108.967094 Z2 I-1.786726 J2.118185
G02 X97.473363 Y108.747280 Z2 I-4.942972 J28.049185
G02 X93.360891 Y108.364433 Z2 I-8.570861 J69.787494
G02 X89.311646 Y108.965826 Z2 I-0.620001 J9.758168
G00 Z0.000000

(End cutting path id: path17)


(Start cutting path id: path17)
(Change tool to Default tool)

G00 Z0.000000
G00 X99.641319 Y102.844538

G01 Z2 F100.0(Penetrate)
G01 X99.386266 Y102.589485 Z2 F75
G00 Z0.000000

(End cutting path id: path17)


(Start cutting path id: path17)
(Change tool to Default tool)

G00 Z0.000000
G00 X101.426696 Y102.461958

G01 Z2 F100.0(Penetrate)
G01 X101.554226 Y102.461958 Z2 F75
G00 Z0.000000

(End cutting path id: path17)


(Start cutting path id: path17)
(Change tool to Default tool)

G00 Z0.000000
G00 X104.742396 Y101.059163

G01 Z2 F100.0(Penetrate)
G01 X104.232286 Y100.549056 Z2 F75
G00 Z0.000000

(End cutting path id: path17)


(Start cutting path id: path17)
(Change tool to Default tool)

G00 Z0.000000
G00 X103.849706 Y97.105827

G01 Z2 F100.0(Penetrate)
G01 X103.467126 Y96.595727 Z2 F75
G00 Z0.000000

(End cutting path id: path17)


(Start cutting path id: path17)
(Change tool to Default tool)

G00 Z0.000000
G00 X93.009924 Y94.810347

G01 Z2 F100.0(Penetrate)
G01 X92.882398 Y94.045187 Z2 F75
G00 Z0.000000

(End cutting path id: path17)


(Start cutting path id: path17)
(Change tool to Default tool)

G00 Z0.000000
G00 X95.432934 Y94.045187

G01 Z2 F100.0(Penetrate)
G01 X95.560461 Y94.045187 Z2 F75
G00 Z0.000000

(End cutting path id: path17)


(Footer)
M5
G00 X0.0000 Y0.0000
M2
(Using default footer. To add your own footer create file "footer" in the output dir.)
(end)
%