%
(Header)
(Generated by gcodetools from Inkscape.)
(Using default header. To add your own header create file "header" in the output dir.)
M3
(Header end.)
G21 (All units in mm)

(Start cutting path id: path6)
(Change tool to Default tool)

G00 Z0.000000
G00 X52.810691 Y166.559339

G01 Z2 F100.0(Penetrate)
G01 X53.958432 Y166.559339 Z2 F75
G01 X55.998861 Y166.559339 Z2
G01 X60.589827 Y166.559339 Z2
G01 X63.012837 Y166.559339 Z2
G01 X71.939715 Y166.559339 Z2
G01 X76.148100 Y166.559339 Z2
G01 X77.678422 Y166.559339 Z2
G01 X78.826163 Y166.559339 Z2
G00 Z0.000000

(End cutting path id: path6)


(Start cutting path id: path6)
(Change tool to Default tool)

G00 Z0.000000
G00 X60.972407 Y154.826871

G01 Z2 F100.0(Penetrate)
G02 X61.818033 Y155.536139 Z2 I2.210104 J-1.776269 F75
G02 X63.012837 Y155.843345 Z2 I1.198002 J-2.182282
G02 X63.938496 Y155.727481 Z2 I0.004790 J-3.717287
G02 X64.672161 Y154.952428 Z2 I-0.247873 J-0.969407
G02 X64.024073 Y153.433736 Z2 I-1.436778 J-0.284497
G02 X62.630256 Y152.732322 Z2 I-4.109948 J6.431525
G02 X61.006059 Y152.166203 Z2 I-10.758635 J28.253603
G02 X59.314559 Y151.894246 Z2 I-1.760818 J5.555491
G02 X58.809098 Y151.891204 Z2 I-0.511495 J42.991259
G02 X58.294344 Y151.894246 Z2 I-0.005970 J42.539868
G02 X57.114940 Y152.039323 Z2 I0.064319 J5.389393
G02 X55.998861 Y152.531388 Z2 I0.775866 J3.271538
G00 Z0.000000

(End cutting path id: path6)


(Start cutting path id: path6)
(Change tool to Default tool)

G00 Z0.000000
G00 X69.006598 Y153.296549

G01 Z2 F100.0(Penetrate)
G02 X70.189891 Y153.975031 Z2 I2.213070 J-2.488569 F75
G02 X71.557134 Y154.178610 Z2 I1.289090 J-3.964563
G01 X72.492920 Y153.545994 Z2
G02 X71.515755 Y151.848697 Z2 I-1.809587 J-0.088122
G02 X69.516705 Y150.823158 Z2 I-152.457366 J294.719117
G02 X65.011426 Y149.396737 Z2 I-6.562620 J12.899641
G02 X60.589827 Y149.598271 Z2 I-1.681655 J11.710020
G00 Z0.000000

(End cutting path id: path6)


(Footer)
M5
;G00 X0.0000 Y0.0000
M2
(Using default footer. To add your own footer create file "footer" in the output dir.)
(end)
%