%
(Header)
(Generated by gcodetools from Inkscape.)
(Using default header. To add your own header create file "header" in the output dir.)
M3
(Header end.)
G21 (All units in mm)

(Start cutting path id: path15)
(Change tool to Default tool)

G00 Z0.000000
G00 X43.551828 Y120.161890

G01 Z2 F100.0(Penetrate)
G02 X42.395775 Y119.897877 Z2 I-1.869139 J5.521485 F75
G03 X40.873765 Y119.541475 Z2 I0.892063 J-7.237600
G03 X39.882621 Y119.141153 Z2 I3.809755 J-10.859593
G02 X38.833335 Y118.660990 Z2 I-208.155881 J453.489790
G03 X36.609319 Y117.631656 Z2 I93.145863 J-204.171665
G02 X34.369896 Y116.669563 Z2 I-15.623474 J33.278735
G02 X33.261342 Y116.392190 Z2 I-1.636612 J4.186991
G03 X32.533943 Y116.015497 Z2 I0.136534 J-1.154304
G01 X32.329565 Y115.060817 Z2
G03 X32.325789 Y113.062242 Z2 I198.378883 J-1.374146
G02 X32.329467 Y110.724905 Z2 I-742.578237 J-2.337338
G01 X32.329467 Y99.375017 Z2
G01 X32.329467 Y95.166630 Z2
G01 X32.329467 Y94.146420 Z2
G00 Z0.000000

(End cutting path id: path15)


(Start cutting path id: path15)
(Change tool to Default tool)

G00 Z0.000000
G00 X32.329467 Y119.269202

G01 Z2 F100.0(Penetrate)
G01 X32.329467 Y116.208558 Z2 F75
G00 Z0.000000

(End cutting path id: path15)


(Start cutting path id: path15)
(Change tool to Default tool)

G00 Z0.000000
G00 X44.444516 Y108.556949

G01 Z2 F100.0(Penetrate)
G02 X45.299221 Y108.976644 Z2 I3.432248 J-5.909590 F75
G02 X46.229695 Y109.165358 Z2 I0.964929 J-2.369430
G01 X46.943097 Y108.677096 Z2
G02 X46.283766 Y107.657030 Z2 I-1.022593 J-0.062152
G02 X44.954623 Y107.234448 Z2 I-4.527890 J11.939968
G02 X43.710339 Y106.984078 Z2 I-2.911500 J11.252434
G02 X42.531613 Y106.899100 Z2 I-1.178726 J8.132513
G02 X41.856393 Y106.906900 Z2 I0.000000 J29.228372
G02 X41.256345 Y106.953220 Z2 I0.128947 J5.580260
G03 X40.805024 Y107.002647 Z2 I-1.356188 J-10.298128
G02 X40.363657 Y107.048270 Z2 I1.225198 J14.010690
G02 X39.452112 Y107.263035 Z2 I0.493810 J4.137770
G02 X38.578282 Y107.664256 Z2 I1.877924 J5.242165
G00 Z0.000000

(End cutting path id: path15)


(Start cutting path id: path15)
(Change tool to Default tool)

G00 Z0.000000
G00 X52.606233 Y108.046836

G01 Z2 F100.0(Penetrate)
G01 X52.606233 Y107.919310 Z2 F75
G00 Z0.000000

(End cutting path id: path15)


(Start cutting path id: path15)
(Change tool to Default tool)

G00 Z0.000000
G00 X38.833335 Y103.455871

G01 Z2 F100.0(Penetrate)
G03 X40.401633 Y103.169737 Z2 I1.427453 J3.382878 F75
G02 X42.021506 Y103.200817 Z2 I1.619873 J-42.197913
G03 X45.104691 Y103.274185 Z2 I0.000000 J64.819619
G03 X48.142794 Y103.566670 Z2 I-1.500575 J31.511778
G03 X50.336980 Y104.052473 Z2 I-2.200954 J15.138915
G03 X51.965450 Y104.573993 Z2 I-13.261106 J44.211664
G02 X52.425772 Y104.697660 Z2 I1.165696 J-3.420475
G02 X52.606233 Y104.731139 Z2 I1.375304 J-6.910196
G00 Z0.000000

(End cutting path id: path15)


(Footer)
M5
G00 X0.0000 Y0.0000
M2
(Using default footer. To add your own footer create file "footer" in the output dir.)
(end)
%