%
(Header)
(Generated by gcodetools from Inkscape.)
(Using default header. To add your own header create file "header" in the output dir.)
M3
(Header end.)
G21 (All units in mm)

(Start cutting path id: path22)
(Change tool to Default tool)

G00 Z0.000000
G00 X95.305407 Y93.761850

G01 Z2 F100.0(Penetrate)
G01 X95.815515 Y93.761850 Z2 F75
G00 Z0.000000

(End cutting path id: path22)


(Start cutting path id: path22)
(Change tool to Default tool)

G00 Z0.000000
G00 X102.064326 Y93.379270

G01 Z2 F100.0(Penetrate)
G01 X102.191856 Y93.379270 Z2 F75
G00 Z0.000000

(End cutting path id: path22)


(Start cutting path id: path22)
(Change tool to Default tool)

G00 Z0.000000
G00 X100.278954 Y91.083790

G01 Z2 F100.0(Penetrate)
G01 X100.406480 Y90.828740 Z2 F75
G00 Z0.000000

(End cutting path id: path22)


(Start cutting path id: path22)
(Change tool to Default tool)

G00 Z0.000000
G00 X96.325622 Y90.063580

G01 Z2 F100.0(Penetrate)
G01 X96.835729 Y89.680990 Z2 F75
G00 Z0.000000

(End cutting path id: path22)


(Start cutting path id: path22)
(Change tool to Default tool)

G00 Z0.000000
G00 X92.499817 Y89.043360

G01 Z2 F100.0(Penetrate)
G01 X92.754871 Y89.170890 Z2 F75
G00 Z0.000000

(End cutting path id: path22)


(Start cutting path id: path22)
(Change tool to Default tool)

G00 Z0.000000
G00 X103.212066 Y87.002930

G01 Z2 F100.0(Penetrate)
G01 X103.212066 Y86.875400 Z2 F75
G00 Z0.000000

(End cutting path id: path22)


(Start cutting path id: path22)
(Change tool to Default tool)

G00 Z0.000000
G00 X94.922827 Y86.747880

G01 Z2 F100.0(Penetrate)
G01 X94.922827 Y86.620350 Z2 F75
G00 Z0.000000

(End cutting path id: path22)


(Start cutting path id: path22)
(Change tool to Default tool)

G00 Z0.000000
G00 X99.513793 Y85.982720

G01 Z2 F100.0(Penetrate)
G01 X99.641319 Y85.982720 Z2 F75
G00 Z0.000000

(End cutting path id: path22)


(Start cutting path id: path22)
(Change tool to Default tool)

G00 Z0.000000
G00 X91.352076 Y83.304650

G01 Z2 F100.0(Penetrate)
G01 X91.734656 Y83.814760 Z2 F75
G00 Z0.000000

(End cutting path id: path22)


(Start cutting path id: path22)
(Change tool to Default tool)

G00 Z0.000000
G00 X102.191856 Y83.049600

G01 Z2 F100.0(Penetrate)
G01 X102.446906 Y82.922070 Z2 F75
G00 Z0.000000

(End cutting path id: path22)


(Start cutting path id: path22)
(Change tool to Default tool)

G00 Z0.000000
G00 X95.050354 Y82.794550

G01 Z2 F100.0(Penetrate)
G01 X95.177881 Y82.539490 Z2 F75
G00 Z0.000000

(End cutting path id: path22)


(Start cutting path id: path22)
(Change tool to Default tool)

G00 Z0.000000
G00 X78.854447 Y82.156910

G01 Z2 F100.0(Penetrate)
G02 X79.106979 Y82.157747 Z2 I0.194419 J-20.567927 F75
G03 X79.747331 Y82.216510 Z2 I0.009644 J3.413298
G03 X80.621769 Y82.525054 Z2 I-0.561385 J2.984388
G02 X81.770540 Y82.530900 Z2 I0.579900 J-1.080719
G02 X82.375436 Y81.772458 Z2 I-0.557726 J-1.065254
G03 X82.793609 Y80.626560 Z2 I6.426087 J1.695822
G02 X84.049963 Y77.826906 Z2 I-69.375238 J-32.814089
G02 X85.103261 Y75.015380 Z2 I-31.865151 J-13.540888
G00 Z0.000000

(End cutting path id: path22)


(Start cutting path id: path22)
(Change tool to Default tool)

G00 Z0.000000
G00 X78.726920 Y82.284410

G01 Z2 F100.0(Penetrate)
G01 X78.854447 Y82.156880 Z2 F75
G00 Z0.000000

(End cutting path id: path22)


(Start cutting path id: path22)
(Change tool to Default tool)

G00 Z0.000000
G00 X96.708202 Y79.606350

G01 Z2 F100.0(Penetrate)
G02 X98.284353 Y80.514703 Z2 I8.324215 J-12.622346 F75
G02 X100.023900 Y80.997230 Z2 I2.110603 J-4.232018
G01 X101.077376 Y79.490330 Z2
G02 X99.607793 Y78.271734 Z2 I-2.813732 J1.897829
G03 X97.855944 Y77.511800 Z2 I181.115248 J-419.917929
G02 X93.688208 Y75.951457 Z2 I-16.748239 J38.388919
G02 X89.439173 Y74.760330 Z2 I-20.865914 J66.259502
G00 Z0.000000

(End cutting path id: path22)


(Start cutting path id: path22)
(Change tool to Default tool)

G00 Z0.000000
G00 X78.726920 Y80.371510

G01 Z2 F100.0(Penetrate)
G01 X78.854447 Y78.841180 Z2 F75
G00 Z0.000000

(End cutting path id: path22)


(Start cutting path id: path22)
(Change tool to Default tool)

G00 Z0.000000
G00 X78.726920 Y78.841180

G01 Z2 F100.0(Penetrate)
G01 X78.854447 Y78.841180 Z2 F75
G00 Z0.000000

(End cutting path id: path22)


(Start cutting path id: path22)
(Change tool to Default tool)

G00 Z0.000000
G00 X79.364554 Y78.713660

G01 Z2 F100.0(Penetrate)
G01 X82.042617 Y76.035590 Z2 F75
G00 Z0.000000

(End cutting path id: path22)


(Start cutting path id: path22)
(Change tool to Default tool)

G00 Z0.000000
G00 X78.726920 Y75.397960

G01 Z2 F100.0(Penetrate)
G02 X79.159777 Y75.146012 Z2 I-0.353993 J-1.105979 F75
G03 X80.512295 Y74.175930 Z2 I4.623278 J5.018016
G03 X82.117935 Y73.594779 Z2 I2.691474 J4.927513
G02 X83.700466 Y72.847420 Z2 I-0.693297 J-3.517238
G00 Z0.000000

(End cutting path id: path22)


(Start cutting path id: path22)
(Change tool to Default tool)

G00 Z0.000000
G00 X95.687988 Y72.337320

G01 Z2 F100.0(Penetrate)
G01 X101.554226 Y73.341390 Z2 F75
G01 X103.976636 Y73.916740 Z2
G01 X104.742396 Y73.995140 Z2
G00 Z0.000000

(End cutting path id: path22)


(Start cutting path id: path22)
(Change tool to Default tool)

G00 Z0.000000
G00 X78.726920 Y72.719870

G01 Z2 F100.0(Penetrate)
G02 X79.162724 Y72.573037 Z2 I-6.773671 J-20.824536 F75
G03 X80.384769 Y72.337290 Z2 I1.418748 J4.069151
G00 Z0.000000

(End cutting path id: path22)


(Start cutting path id: path22)
(Change tool to Default tool)

G00 Z0.000000
G00 X87.143690 Y70.806960

G01 Z2 F100.0(Penetrate)
G02 X88.548709 Y71.378378 Z2 I1.932135 J-2.737728 F75
G02 X90.076807 Y71.432590 Z2 I0.984210 J-6.178696
G01 X91.294314 Y70.171300 Z2
G02 X90.446197 Y69.209139 Z2 I-1.327178 J0.314993
G03 X89.444192 Y68.722250 Z2 I2.096270 J-5.588563
G03 X88.966593 Y68.385742 Z2 I2.230387 J-3.672721
G02 X88.535071 Y68.168950 Z2 I-0.709121 J0.873631
G02 X87.648472 Y68.087261 Z2 I-0.700728 J2.753111
G03 X86.378529 Y68.128850 Z2 I-1.269943 J-19.368412
G00 Z0.000000

(End cutting path id: path22)


(Start cutting path id: path22)
(Change tool to Default tool)

G00 Z0.000000
G00 X104.742396 Y69.914230

G01 Z2 F100.0(Penetrate)
G01 X104.742396 Y69.786700 Z2 F75
G00 Z0.000000

(End cutting path id: path22)


(Start cutting path id: path22)
(Change tool to Default tool)

G00 Z0.000000
G00 X95.432934 Y68.128850

G01 Z2 F100.0(Penetrate)
G01 X100.151427 Y68.128850 Z2 F75
G00 Z0.000000

(End cutting path id: path22)


(Footer)
M5
G00 X0.0000 Y0.0000
M2
(Using default footer. To add your own footer create file "footer" in the output dir.)
(end)
%