%
(Header)
(Generated by gcodetools from Inkscape.)
(Using default header. To add your own header create file "header" in the output dir.)
M3
(Header end.)
G21 (All units in mm)

(Start cutting path id: path29)
(Change tool to Default tool)

G00 Z0.000000
G00 X141.830376 Y68.025740

G01 Z2 F100.0(Penetrate)
G03 X143.124824 Y67.783431 Z2 I1.498578 J4.426891 F75
G03 X144.763486 Y67.898220 Z2 I0.316392 J7.237052
G00 Z0.000000

(End cutting path id: path29)


(Start cutting path id: path29)
(Change tool to Default tool)

G00 Z0.000000
G00 X152.160046 Y67.133060

G01 Z2 F100.0(Penetrate)
G01 X152.160046 Y51.829840 Z2 F75
G03 X152.160884 Y50.016704 Z2 I1961.306703 J0.000326
G02 X152.160046 Y48.259090 Z2 I-627.145749 J-0.579801
G01 X151.849696 Y46.933240 Z2
G01 X150.757256 Y46.728760 Z2
G03 X149.598487 Y46.701839 Z2 I0.073942 J-28.135220
G03 X148.461766 Y46.622880 Z2 I0.978110 J-22.302885
G02 X147.667893 Y46.592910 Z2 I-0.659043 J6.927865
G03 X146.803916 Y46.601280 Z2 I-0.863977 J-44.585119
G01 X135.836616 Y46.601280 Z2
G01 X131.883476 Y46.601280 Z2
G01 X130.990596 Y46.601280 Z2
G00 Z0.000000

(End cutting path id: path29)


(Start cutting path id: path29)
(Change tool to Default tool)

G00 Z0.000000
G00 X130.863066 Y64.072450

G01 Z2 F100.0(Penetrate)
G01 X131.533666 Y63.762100 Z2 F75
G01 X130.990596 Y62.159550 Z2
G00 Z0.000000

(End cutting path id: path29)


(Start cutting path id: path29)
(Change tool to Default tool)

G00 Z0.000000
G00 X140.172526 Y63.817400

G01 Z2 F100.0(Penetrate)
G01 X141.697436 Y63.288890 Z2 F75
G02 X141.430404 Y61.969683 Z2 I-0.909109 J-0.502610
G02 X140.300056 Y61.326590 Z2 I-2.706357 J3.441959
G02 X137.149753 Y60.813800 Z2 I-2.796979 J7.249854
G03 X134.051236 Y60.884280 Z2 I-3.098517 J-68.075344
G00 Z0.000000

(End cutting path id: path29)


(Start cutting path id: path29)
(Change tool to Default tool)

G00 Z0.000000
G00 X130.863066 Y62.159550

G01 Z2 F100.0(Penetrate)
G01 X130.990596 Y62.159550 Z2 F75
G00 Z0.000000

(End cutting path id: path29)


(Start cutting path id: path29)
(Change tool to Default tool)

G00 Z0.000000
G00 X146.421336 Y59.226430

G01 Z2 F100.0(Penetrate)
G03 X147.120259 Y59.951711 Z2 I-17.581752 J17.642205 F75
G02 X148.078596 Y60.294770 Z2 I0.808354 J-0.748050
G01 X148.839326 Y59.226430 Z2
G02 X148.635295 Y58.696050 Z2 I-1.549983 J0.291827
G02 X148.285826 Y58.229830 Z2 I-2.624907 J1.603488
G02 X147.396529 Y57.496079 Z2 I-2.995260 J2.724433
G02 X146.293816 Y57.012330 Z2 I-2.351180 J3.860852
G02 X143.330229 Y56.972831 Z2 I-1.554140 J5.408396
G02 X140.555106 Y57.705360 Z2 I73.161554 J282.789209
G03 X138.427108 Y57.778774 Z2 I-1.221832 J-4.538290
G03 X136.474246 Y57.058480 Z2 I1.264673 J-6.436231
G00 Z0.000000

(End cutting path id: path29)


(Start cutting path id: path29)
(Change tool to Default tool)

G00 Z0.000000
G00 X130.863066 Y56.038260

G01 Z2 F100.0(Penetrate)
G03 X131.037439 Y55.974782 Z2 I1.945936 J5.074242 F75
G03 X131.503846 Y55.814500 Z2 I77.404019 J224.479874
G03 X133.111296 Y55.301533 Z2 I13.027304 J38.047730
G03 X135.326506 Y54.817610 Z2 I4.423207 J14.935564
G03 X137.114700 Y54.767353 Z2 I1.113302 J7.774327
G02 X138.897256 Y54.635470 Z2 I0.482383 J-5.592665
G00 Z0.000000

(End cutting path id: path29)


(Start cutting path id: path29)
(Change tool to Default tool)

G00 Z0.000000
G00 X144.380906 Y53.360200

G01 Z2 F100.0(Penetrate)
G02 X145.043109 Y53.926056 Z2 I2.158089 J-1.855134 F75
G02 X145.911236 Y54.069660 Z2 I0.608974 J-0.985583
G02 X146.763688 Y53.265719 Z2 I-0.259005 J-1.128549
G02 X146.414356 Y52.155970 Z2 I-1.004970 J-0.293508
G02 X141.585979 Y50.993598 Z2 I-3.647232 J4.540754
G03 X136.729296 Y51.793370 Z2 I-12.174327 J-58.783410
G03 X134.386319 Y51.827830 Z2 I-1.331153 J-10.838576
G03 X132.265866 Y51.064720 Z2 I0.417659 J-4.488156
G00 Z0.000000

(End cutting path id: path29)


(Start cutting path id: path29)
(Change tool to Default tool)

G00 Z0.000000
G00 X148.461766 Y50.809660

G01 Z2 F100.0(Penetrate)
G02 X148.436361 Y49.470871 Z2 I-0.777018 J-0.654891 F75
G02 X147.058976 Y48.782520 Z2 I-1.578469 J1.436260
G02 X144.671993 Y48.945672 Z2 I-0.696271 J7.356133
G03 X142.340476 Y49.369970 Z2 I-5.334558 J-22.695395
G03 X140.839199 Y49.374043 Z2 I-0.766658 J-5.902583
G03 X139.534886 Y49.024290 Z2 I0.604686 J-4.861943
G00 Z0.000000

(End cutting path id: path29)


(Start cutting path id: path29)
(Change tool to Default tool)

G00 Z0.000000
G00 X130.863066 Y46.601280

G01 Z2 F100.0(Penetrate)
G01 X130.990596 Y46.601280 Z2 F75
G00 Z0.000000

(End cutting path id: path29)


(Footer)
M5
G00 X0.0000 Y0.0000
M2
(Using default footer. To add your own footer create file "footer" in the output dir.)
(end)
%