%
(Header)
(Generated by gcodetools from Inkscape.)
(Using default header. To add your own header create file "header" in the output dir.)
M3
(Header end.)
G21 (All units in mm)

(Start cutting path id: path5)
(Change tool to Default tool)

G00 Z0.000000
G00 X32.306747 Y146.264455

G01 Z2 F100.0(Penetrate)
G02 X32.307930 Y146.540118 Z2 I32.109140 J-0.000000 F75
G02 X32.324457 Y148.049831 Z2 I319.705209 J-2.744832
G03 X32.316970 Y148.915474 Z2 I-19.640684 J0.262969
G02 X32.306747 Y149.580153 Z2 I21.702482 J0.666194
G01 X32.306747 Y152.385743 Z2
G01 X32.306747 Y163.990684 Z2
G03 X32.305717 Y164.707393 Z2 I-249.344278 J0.000000
G02 X32.306845 Y165.265953 Z2 I57.066595 J0.164031
G01 X32.511223 Y166.230867 Z2
G01 X33.326961 Y166.535514 Z2
G02 X33.872906 Y166.536404 Z2 I0.280663 J-4.718975
G03 X34.474703 Y166.523514 Z2 I0.486389 J8.653790
G03 X35.133321 Y166.534774 Z2 I-1.167480 J87.553131
G02 X35.749971 Y166.541224 Z2 I0.618460 J-29.648542
G01 X37.280293 Y166.541224 Z2
G01 X47.737493 Y166.541224 Z2
G01 X51.563298 Y166.541224 Z2
G01 X52.583512 Y166.541224 Z2
G00 Z0.000000

(End cutting path id: path5)


(Start cutting path id: path5)
(Change tool to Default tool)

G00 Z0.000000
G00 X34.347176 Y166.413694

G01 Z2 F100.0(Penetrate)
G03 X34.503583 Y165.798454 Z2 I14.317028 J3.312180 F75
G03 X34.815660 Y165.010899 Z2 I3.831448 J1.062644
G03 X36.160746 Y163.176528 Z2 I6.795226 J3.572384
G02 X38.009537 Y161.185094 Z2 I-29.118268 J-28.886475
G02 X41.971269 Y156.600321 Z2 I-910.117351 J-790.442311
G02 X45.917578 Y152.003163 Z2 I-3065.647460 J-2635.616624
G02 X47.397738 Y150.274408 Z2 I-1625.000885 J-1392.823675
G03 X48.891631 Y148.559938 Z2 I93.873413 J80.287949
G02 X49.614541 Y147.741080 Z2 I-150.518294 J-133.610125
G02 X50.207243 Y147.030206 Z2 I-13.618088 J-11.956816
G02 X50.575617 Y146.461328 Z2 I-2.807083 J-2.221424
G02 X50.670610 Y146.264455 Z2 I-3.201474 J-1.666085
G00 Z0.000000

(End cutting path id: path5)


(Start cutting path id: path5)
(Change tool to Default tool)

G00 Z0.000000
G00 X32.434274 Y148.177358

G01 Z2 F100.0(Penetrate)
G01 X33.709542 Y147.852440 Z2 F75
G01 X35.494917 Y146.907108 Z2
G01 X36.515132 Y146.304897 Z2
G01 X37.790400 Y146.264457 Z2
G00 Z0.000000

(End cutting path id: path5)


(Footer)
M5
;G00 X0.0000 Y0.0000
M2
(Using default footer. To add your own footer create file "footer" in the output dir.)
(end)
%