%
(Header)
(Generated by gcodetools from Inkscape.)
(Using default header. To add your own header create file "header" in the output dir.)
M3
(Header end.)
G21 (All units in mm)

(Start cutting path id: path9)
(Change tool to Default tool)

G00 Z0.000000
G00 X130.761836 Y166.559339

G01 Z2 F100.0(Penetrate)
G01 X131.909576 Y166.559339 Z2 F75
G01 X135.480336 Y166.559339 Z2
G01 X145.554956 Y166.559339 Z2
G03 X148.052512 Y166.573903 Z2 I0.000000 J214.157718
G02 X150.528496 Y166.557439 Z2 I0.788498 J-67.606641
G02 X151.194545 Y166.499248 Z2 I-0.134176 J-5.376632
G02 X151.748466 Y166.232325 Z2 I-0.154937 J-1.029738
G01 X152.058326 Y165.156514 Z2
G02 X152.062568 Y164.015552 Z2 I-55.836156 J-0.778060
G03 X152.058816 Y162.861031 Z2 I177.648093 J-1.154521
G01 X152.058816 Y160.438021 Z2
G01 X152.058816 Y150.873509 Z2
G01 X152.058816 Y147.302758 Z2
G01 X152.058816 Y146.282543 Z2
G00 Z0.000000

(End cutting path id: path9)


(Start cutting path id: path9)
(Change tool to Default tool)

G00 Z0.000000
G00 X136.245496 Y155.336948

G01 Z2 F100.0(Penetrate)
G01 X137.797166 Y154.918845 Z2 F75
G01 X136.883126 Y153.347883 Z2
G02 X135.135395 Y152.759894 Z2 I-3.219593 J6.678411
G02 X133.312376 Y152.536376 Z2 I-2.344104 J11.572546
G02 X131.750160 Y152.522637 Z2 I-0.975323 J22.076935
G02 X130.889366 Y152.658885 Z2 I0.088988 J3.349525
G00 Z0.000000

(End cutting path id: path9)


(Start cutting path id: path9)
(Change tool to Default tool)

G00 Z0.000000
G00 X143.131946 Y154.316733

G01 Z2 F100.0(Penetrate)
G02 X143.998034 Y154.834727 Z2 I6.313862 J-9.573757 F75
G02 X144.917316 Y155.073924 Z2 I0.947430 J-1.755071
G01 X145.573546 Y153.564954 Z2
G02 X144.140163 Y152.628617 Z2 I-1.824073 J1.227056
G03 X142.494306 Y152.172492 Z2 I1.657560 J-9.178525
G02 X139.973215 Y151.316979 Z2 I-13.516103 J35.687868
G02 X137.393236 Y150.696782 Z2 I-6.787480 J22.559091
G02 X136.322930 Y150.538004 Z2 I-2.992861 J16.487714
G03 X135.352806 Y150.417521 Z2 I6.538736 J-56.615803
G02 X134.397624 Y150.358581 Z2 I-0.894851 J6.732629
G03 X133.312376 Y150.363401 Z2 I-1.085248 J-122.168708
G00 Z0.000000

(End cutting path id: path9)


(Start cutting path id: path9)
(Change tool to Default tool)

G00 Z0.000000
G00 X130.761836 Y152.658884

G01 Z2 F100.0(Penetrate)
G01 X130.889366 Y152.658884 Z2 F75
G00 Z0.000000

(End cutting path id: path9)


(Start cutting path id: path9)
(Change tool to Default tool)

G00 Z0.000000
G00 X146.702696 Y146.282542

G01 Z2 F100.0(Penetrate)
G01 X150.145916 Y146.282542 Z2 F75
G00 Z0.000000

(End cutting path id: path9)


(Footer)
M5
G00 X0.0000 Y0.0000
M2
(Using default footer. To add your own footer create file "footer" in the output dir.)
(end)
%