%
(Header)
(Generated by gcodetools from Inkscape.)
(Using default header. To add your own header create file "header" in the output dir.)
M3
(Header end.)
G21 (All units in mm)

(Start cutting path id: path10)
(Change tool to Default tool)

G00 Z0.000000
G00 X35.772691 Y146.179350

G01 Z2 F100.0(Penetrate)
G03 X36.744790 Y145.941170 Z2 I1.855798 J5.471358 F75
G02 X38.068174 Y145.525874 Z2 I-0.707376 J-4.570325
G02 X39.547751 Y144.727031 Z2 I-9.126589 J-18.673448
G03 X41.128818 Y143.810460 Z2 I45.920507 J77.389973
G02 X44.756714 Y141.750682 Z2 I-886.956167 J-1566.424769
G03 X48.397847 Y139.714448 Z2 I135.200838 J237.488483
G02 X50.144965 Y138.732308 Z2 I-48.959220 J-89.138048
G03 X51.713348 Y137.856255 Z2 I35.610246 J61.910478
G03 X52.412502 Y137.560056 Z2 I1.886002 J3.478513
G03 X52.606233 Y137.507526 Z2 I0.755632 J2.403253
G00 Z0.000000

(End cutting path id: path10)


(Start cutting path id: path10)
(Change tool to Default tool)

G00 Z0.000000
G00 X51.458491 Y145.669243

G01 Z2 F100.0(Penetrate)
G02 X52.243243 Y144.778033 Z2 I-16.442469 J-15.269475 F75
G02 X52.606233 Y143.883867 Z2 I-1.214828 J-1.013926
G00 Z0.000000

(End cutting path id: path10)


(Start cutting path id: path10)
(Change tool to Default tool)

G00 Z0.000000
G00 X32.329467 Y145.286662

G01 Z2 F100.0(Penetrate)
G01 X32.329467 Y142.736126 Z2 F75
G01 X32.533943 Y141.409787 Z2
G01 X33.732262 Y141.062926 Z2
G02 X34.700663 Y140.755932 Z2 I-1.092696 J-5.127754
G03 X35.772691 Y140.313116 Z2 I18.524171 J43.326735
G03 X41.510146 Y138.058240 Z2 I230.951629 J579.222000
G02 X47.250106 Y135.798706 Z2 I-202.635260 J-523.180724
G01 X50.438277 Y134.548923 Z2
G02 X51.107209 Y134.280167 Z2 I-88.501969 J-221.248067
G03 X51.713348 Y134.040292 Z2 I18.174749 J45.039843
G02 X52.411725 Y133.764174 Z2 I-21.270752 J-54.820776
G02 X52.606233 Y133.681721 Z2 I-2.186600 J-5.428860
G00 Z0.000000

(End cutting path id: path10)


(Start cutting path id: path10)
(Change tool to Default tool)

G00 Z0.000000
G00 X32.329467 Y141.205804

G01 Z2 F100.0(Penetrate)
G01 X32.329467 Y135.084516 Z2 F75
G03 X32.335021 Y134.232513 Z2 I65.351256 J-0.000000
G03 X32.456994 Y133.426667 Z2 I2.979680 J0.038850
G01 X33.732262 Y133.415747 Z2
G01 X39.088389 Y132.651275 Z2
G01 X48.142794 Y131.354850 Z2
G01 X51.841072 Y130.876133 Z2
G00 Z0.000000

(End cutting path id: path10)


(Start cutting path id: path10)
(Change tool to Default tool)

G00 Z0.000000
G00 X32.329467 Y133.299140

G01 Z2 F100.0(Penetrate)
G01 X32.329467 Y132.151399 Z2 F75
G01 X32.329467 Y129.855916 Z2
G01 X32.329467 Y124.627316 Z2
G03 X32.340909 Y123.814386 Z2 I28.883591 J0.000000
G02 X32.347177 Y122.969467 Z2 I-20.372391 J-0.573609
G03 X32.329885 Y120.661595 Z2 I198.435595 J-2.640842
G03 X32.329467 Y120.163877 Z2 I296.644077 J-0.497718
G00 Z0.000000

(End cutting path id: path10)


(Start cutting path id: path10)
(Change tool to Default tool)

G00 Z0.000000
G00 X32.456994 Y123.096994

G01 Z2 F100.0(Penetrate)
G01 X33.604735 Y123.210254 Z2 F75
G01 X37.558067 Y124.262646 Z2
G01 X47.250106 Y126.906662 Z2
G01 X50.565803 Y127.778487 Z2
G01 X51.840480 Y128.132434 Z2
G01 X52.606233 Y128.198064 Z2
G00 Z0.000000

(End cutting path id: path10)


(Start cutting path id: path10)
(Change tool to Default tool)

G00 Z0.000000
G00 X40.873765 Y120.163874

G01 Z2 F100.0(Penetrate)
G01 X43.036702 Y120.204314 Z2 F75
G01 X44.066954 Y120.842343 Z2
G01 X45.719784 Y121.599631 Z2
G01 X50.055696 Y123.533296 Z2
G01 X51.840480 Y124.327387 Z2
G01 X52.606233 Y124.499784 Z2
G00 Z0.000000

(End cutting path id: path10)


(Footer)
M5
G00 X0.0000 Y0.0000
M2
(Using default footer. To add your own footer create file "footer" in the output dir.)
(end)
%