%
(Header)
(Generated by gcodetools from Inkscape.)
(Using default header. To add your own header create file "header" in the output dir.)
M3
(Header end.)
G21 (All units in mm)

(Start cutting path id: path26)
(Change tool to Default tool)

G00 Z0.000000
G00 X57.024914 Y68.025740

G01 Z2 F100.0(Penetrate)
G01 X56.259753 Y67.770690 Z2 F75
G00 Z0.000000

(End cutting path id: path26)


(Start cutting path id: path26)
(Change tool to Default tool)

G00 Z0.000000
G00 X59.320397 Y66.112840

G01 Z2 F100.0(Penetrate)
G02 X60.715268 Y66.414616 Z2 I3.172649 J-11.290059 F75
G02 X61.994426 Y65.822260 Z2 I0.193242 J-1.260017
G02 X61.859733 Y64.598734 Z2 I-0.854121 J-0.525151
G02 X60.850719 Y63.852290 Z2 I-2.769361 J2.688322
G02 X58.303197 Y63.022990 Z2 I-3.861368 J7.534206
G02 X55.622119 Y62.797640 Z2 I-2.903539 J18.482955
G03 X54.465841 Y62.740786 Z2 I0.194686 J-15.745935
G02 X53.457311 Y62.674640 Z2 I-2.124968 J24.677781
G02 X53.000663 Y62.668113 Z2 I-0.333968 J7.387401
G03 X52.816529 Y62.669640 Z2 I-0.184134 J-11.097770
G00 Z0.000000

(End cutting path id: path26)


(Start cutting path id: path26)
(Change tool to Default tool)

G00 Z0.000000
G00 X67.482114 Y64.327490

G01 Z2 F100.0(Penetrate)
G01 X75.006197 Y64.981850 Z2 F75
G01 X77.938722 Y65.464990 Z2
G01 X78.704475 Y65.602750 Z2
G00 Z0.000000

(End cutting path id: path26)


(Start cutting path id: path26)
(Change tool to Default tool)

G00 Z0.000000
G00 X52.689002 Y62.669640

G01 Z2 F100.0(Penetrate)
G01 X52.816529 Y62.669640 Z2 F75
G00 Z0.000000

(End cutting path id: path26)


(Start cutting path id: path26)
(Change tool to Default tool)

G00 Z0.000000
G00 X66.716953 Y57.951140

G01 Z2 F100.0(Penetrate)
G03 X66.645989 Y58.041155 Z2 I-1.515711 J-1.121947 F75
G02 X66.335454 Y58.591930 Z2 I1.319449 J1.106853
G01 X66.339754 Y59.462570 Z2
G01 X67.903238 Y59.223950 Z2
G01 X66.461869 Y57.706420 Z2
G02 X65.738640 Y57.376324 Z2 I-2.872331 J5.335846
G02 X64.931547 Y57.197500 Z2 I-1.018030 J2.683958
G02 X62.797213 Y57.197097 Z2 I-1.069908 J14.519593
G02 X60.723162 Y57.638430 Z2 I0.569716 J7.771572
G02 X59.479700 Y58.287914 Z2 I1.765460 J4.895114
G03 X58.172625 Y58.796800 Z2 I-1.670044 J-2.356455
G03 X56.420096 Y58.506733 Z2 I-0.390289 J-3.081200
G02 X54.601874 Y58.078670 Z2 I-1.853669 J3.798036
G00 Z0.000000

(End cutting path id: path26)


(Start cutting path id: path26)
(Change tool to Default tool)

G00 Z0.000000
G00 X76.026381 Y56.675880

G01 Z2 F100.0(Penetrate)
G02 X78.014527 Y57.444782 Z2 I3.573754 J-6.285819 F75
G02 X78.704445 Y57.568560 Z2 I1.764733 J-7.851686
G00 Z0.000000

(End cutting path id: path26)


(Start cutting path id: path26)
(Change tool to Default tool)

G00 Z0.000000
G00 X69.522513 Y51.447280

G01 Z2 F100.0(Penetrate)
G01 X71.161469 Y51.591040 Z2 F75
G01 X70.160147 Y49.739640 Z2
G02 X66.379935 Y50.083270 Z2 I-1.409016 J5.464200
G03 X62.763591 Y50.920640 Z2 I-3.810488 J-8.228705
G03 X60.628443 Y50.330081 Z2 I-0.082456 J-3.856940
G02 X58.916138 Y49.275380 Z2 I-59.485665 J94.657587
G02 X57.942753 Y49.085238 Z2 I-0.747015 J1.237589
G02 X57.152411 Y49.534370 Z2 I0.202305 J1.275951
G00 Z0.000000

(End cutting path id: path26)


(Start cutting path id: path26)
(Change tool to Default tool)

G00 Z0.000000
G00 X52.688972 Y50.937170

G01 Z2 F100.0(Penetrate)
G01 X53.490836 Y50.535790 Z2 F75
G01 X52.816499 Y49.661900 Z2
G00 Z0.000000

(End cutting path id: path26)


(Start cutting path id: path26)
(Change tool to Default tool)

G00 Z0.000000
G00 X52.688972 Y49.661900

G01 Z2 F100.0(Penetrate)
G01 X52.816499 Y49.661900 Z2 F75
G00 Z0.000000

(End cutting path id: path26)


(Start cutting path id: path26)
(Change tool to Default tool)

G00 Z0.000000
G00 X52.688972 Y46.728780

G01 Z2 F100.0(Penetrate)
G01 X53.836713 Y46.728780 Z2 F75
G01 X55.239508 Y46.728780 Z2
G01 X58.682733 Y46.728780 Z2
G01 X72.200576 Y46.728780 Z2
G01 X76.026381 Y46.728780 Z2
G01 X77.556703 Y46.728780 Z2
G01 X78.704445 Y46.728780 Z2
G00 Z0.000000

(End cutting path id: path26)


(Footer)
M5
G00 X0.0000 Y0.0000
M2
(Using default footer. To add your own footer create file "footer" in the output dir.)
(end)
%