%
(Header)
(Generated by gcodetools from Inkscape.)
(Using default header. To add your own header create file "header" in the output dir.)
M3
(Header end.)
G21 (All units in mm)

(Start cutting path id: path21)
(Change tool to Default tool)

G00 Z0.000000
G00 X67.630091 Y94.144430

G01 Z2 F100.0(Penetrate)
G02 X66.493329 Y93.932942 Z2 I-1.428443 J4.517146 F75
G02 X65.079555 Y93.889380 Z2 I-1.413774 J22.919675
G00 Z0.000000

(End cutting path id: path21)


(Start cutting path id: path21)
(Change tool to Default tool)

G00 Z0.000000
G00 X63.676759 Y93.506800

G01 Z2 F100.0(Penetrate)
G02 X63.578786 Y89.544649 Z2 I-80.525191 J0.008887 F75
G02 X63.201191 Y85.600140 Z2 I-42.939103 J2.120088
G03 X63.067735 Y84.635398 Z2 I118.441032 J-16.875940
G03 X62.948006 Y83.687230 Z2 I60.865338 J-8.167359
G03 X62.917507 Y83.240442 Z2 I4.477176 J-0.530059
G03 X62.911496 Y82.794550 Z2 I44.665946 J-0.825126
G01 X62.707119 Y81.814280 Z2
G02 X61.640938 Y80.863518 Z2 I-3.603600 J2.967878
G02 X60.106004 Y80.254830 Z2 I-2.291536 J3.538912
G02 X58.251255 Y80.334790 Z2 I-0.751492 J4.119747
G03 X56.676162 Y80.186830 Z2 I-0.591157 J-2.164634
G03 X55.947175 Y79.289339 Z2 I0.601928 J-1.233722
G02 X55.360353 Y78.216950 Z2 I-2.365249 J0.597536
G02 X54.550565 Y77.570072 Z2 I-2.654125 J2.492242
G03 X53.783783 Y77.035850 Z2 I3.064775 J-5.216343
G02 X53.059647 Y76.621809 Z2 I-1.594552 J1.948527
G02 X52.836975 Y76.545720 Z2 I-1.714841 J4.654587
G00 Z0.000000

(End cutting path id: path21)


(Start cutting path id: path21)
(Change tool to Default tool)

G00 Z0.000000
G00 X76.174385 Y93.506790

G01 Z2 F100.0(Penetrate)
G02 X76.462176 Y90.789447 Z2 I-7.243549 J-2.141067 F75
G03 X76.604788 Y88.150660 Z2 I10.135030 J-0.775503
G03 X76.720826 Y87.633964 Z2 I7.122618 J1.328193
G02 X76.817923 Y87.130450 Z2 I-3.705474 J-0.975681
G02 X76.908386 Y86.116580 Z2 I-14.624746 J-1.815863
G02 X76.939643 Y85.090020 Z2 I-21.360024 J-1.164142
G03 X77.172325 Y83.868018 Z2 I3.442493 J0.022332
G03 X77.655310 Y83.068480 Z2 I2.521313 J0.977427
G03 X78.474780 Y82.676013 Z2 I0.864779 J0.753899
G03 X78.724921 Y82.667010 Z2 I1.401961 J35.471121
G00 Z0.000000

(End cutting path id: path21)


(Start cutting path id: path21)
(Change tool to Default tool)

G00 Z0.000000
G00 X70.820128 Y92.264390

G01 Z2 F100.0(Penetrate)
G02 X72.688260 Y91.122070 Z2 I0.500292 J-1.280547 F75
G02 X72.719746 Y89.043350 Z2 I-12.101258 J-1.222892
G01 X72.086048 Y87.717600 Z2
G02 X71.520802 Y87.653205 Z2 I-0.401157 J1.008267
G03 X70.945785 Y87.731700 Z2 I-2.721155 J-17.788418
G01 X69.966111 Y87.899180 Z2
G01 X69.670516 Y89.043380 Z2
G02 X69.737950 Y90.805616 Z2 I22.103371 J0.036597
G02 X70.820128 Y92.264420 Z2 I1.704250 J-0.133460
G00 Z0.000000

(End cutting path id: path21)


(Start cutting path id: path21)
(Change tool to Default tool)

G00 Z0.000000
G00 X76.556965 Y88.023170

G01 Z2 F100.0(Penetrate)
G02 X75.949154 Y87.758334 Z2 I-1.473739 J2.552401 F75
G03 X75.154170 Y87.406100 Z2 I1.077070 J-3.504171
G03 X74.295636 Y86.864028 Z2 I9.523676 J-16.034523
G02 X73.368794 Y86.366790 Z2 I-2.992262 J4.465088
G02 X70.562450 Y85.321710 Z2 I-15.177154 J36.464615
G03 X67.757614 Y84.299400 Z2 I15.109355 J-45.813274
G02 X66.153086 Y83.721441 Z2 I-9.121273 J22.806235
G02 X64.824497 Y83.559730 Z2 I-1.084959 J3.375252
G00 Z0.000000

(End cutting path id: path21)


(Start cutting path id: path21)
(Change tool to Default tool)

G00 Z0.000000
G00 X65.717185 Y83.432200

G01 Z2 F100.0(Penetrate)
G03 X65.743471 Y82.514009 Z2 I16.111840 J0.001772 F75
G03 X66.027539 Y81.864880 Z2 I1.016554 J0.058139
G03 X66.466895 Y81.455400 Z2 I4.100822 J3.959571
G02 X66.938332 Y81.022480 Z2 I-4.537297 J-5.414137
G03 X69.327242 Y80.988237 Z2 I1.211977 J1.205283
G02 X71.200346 Y81.738240 Z2 I1.879141 J-1.979080
G02 X71.978572 Y81.376440 Z2 I0.001539 J-1.014565
G03 X72.858784 Y80.709860 Z2 I1.904926 J1.600991
G03 X74.298727 Y80.641285 Z2 I0.806609 J1.784930
G02 X75.664277 Y80.879300 Z2 I1.436053 J-4.202730
G02 X76.163036 Y80.849014 Z2 I0.052688 J-3.254338
G03 X76.677506 Y80.885300 Z2 I0.171228 J1.237576
G01 X77.254722 Y81.521360 Z2
G02 X77.493397 Y82.111885 Z2 I7.953242 J-2.871007
G02 X77.832233 Y82.667130 Z2 I2.358541 J-1.058279
G00 Z0.000000

(End cutting path id: path21)


(Start cutting path id: path21)
(Change tool to Default tool)

G00 Z0.000000
G00 X62.784068 Y81.646910

G01 Z2 F100.0(Penetrate)
G03 X64.153827 Y81.572004 Z2 I0.842870 J2.851601 F75
G02 X65.717185 Y81.774440 Z2 I2.830613 J-15.722117
G00 Z0.000000

(End cutting path id: path21)


(Start cutting path id: path21)
(Change tool to Default tool)

G00 Z0.000000
G00 X78.724921 Y80.626700

G01 Z2 F100.0(Penetrate)
G01 X78.724921 Y80.116590 Z2 F75
G00 Z0.000000

(End cutting path id: path21)


(Start cutting path id: path21)
(Change tool to Default tool)

G00 Z0.000000
G00 X62.529014 Y78.968850

G01 Z2 F100.0(Penetrate)
G03 X64.829324 Y78.886652 Z2 I1.309988 J4.431825 F75
G02 X67.119980 Y78.458740 Z2 I0.640184 J-2.918044
G03 X66.563556 Y77.888049 Z2 I21.496652 J-21.515837
G02 X65.972238 Y77.456730 Z2 I-1.474371 J1.400299
G02 X65.426347 Y77.295463 Z2 I-0.766392 J1.589688
G03 X64.696970 Y77.077010 Z2 I0.288325 J-2.289529
G03 X62.976821 Y75.903743 Z2 I3.247446 J-6.608748
G02 X61.253746 Y74.634410 Z2 I-6.852740 J7.498181
G02 X60.096357 Y73.983666 Z2 I-19.532780 J33.385667
G02 X58.958263 Y73.392110 Z2 I-19.416941 J35.965656
G02 X57.205601 Y72.540001 Z2 I-39.210751 J78.422180
G03 X55.515038 Y71.504790 Z2 I3.927292 J-8.311510
G03 X54.274954 Y70.070687 Z2 I2.911086 J-3.770457
G02 X53.534633 Y68.769160 Z2 I-143.767636 J80.915035
G01 X52.836975 Y68.129070 Z2
G00 Z0.000000

(End cutting path id: path21)


(Start cutting path id: path21)
(Change tool to Default tool)

G00 Z0.000000
G00 X78.724921 Y78.841320

G01 Z2 F100.0(Penetrate)
G01 X77.577180 Y77.821110 Z2 F75
G00 Z0.000000

(End cutting path id: path21)


(Start cutting path id: path21)
(Change tool to Default tool)

G00 Z0.000000
G00 X67.119980 Y78.458740

G01 Z2 F100.0(Penetrate)
G01 X68.395248 Y78.076160 Z2 F75
G00 Z0.000000

(End cutting path id: path21)


(Start cutting path id: path21)
(Change tool to Default tool)

G00 Z0.000000
G00 X70.563204 Y78.203690

G01 Z2 F100.0(Penetrate)
G01 X70.818258 Y77.311000 Z2 F75
G00 Z0.000000

(End cutting path id: path21)


(Start cutting path id: path21)
(Change tool to Default tool)

G00 Z0.000000
G00 X73.878902 Y78.076160

G01 Z2 F100.0(Penetrate)
G01 X73.241268 Y77.055950 Z2 F75
G00 Z0.000000

(End cutting path id: path21)


(Start cutting path id: path21)
(Change tool to Default tool)

G00 Z0.000000
G00 X60.488585 Y77.693580

G01 Z2 F100.0(Penetrate)
G01 X60.488585 Y77.438530 Z2 F75
G00 Z0.000000

(End cutting path id: path21)


(Start cutting path id: path21)
(Change tool to Default tool)

G00 Z0.000000
G00 X66.227292 Y77.311000

G01 Z2 F100.0(Penetrate)
G02 X66.993203 Y76.631232 Z2 I-1.458673 J-2.414892 F75
G03 X67.769029 Y75.862060 Z2 I3.392853 J2.646347
G03 X68.715445 Y75.373298 Z2 I1.838683 J2.399660
G02 X69.670516 Y75.015520 Z2 I-2.560502 J-8.288786
G00 Z0.000000

(End cutting path id: path21)


(Start cutting path id: path21)
(Change tool to Default tool)

G00 Z0.000000
G00 X55.642565 Y75.653150

G01 Z2 F100.0(Penetrate)
G03 X56.285562 Y75.954016 Z2 I-0.842167 J2.637366 F75
G03 X56.917834 Y76.427860 Z2 I-2.757671 J4.338444
G02 X57.703745 Y76.827179 Z2 I1.175050 J-1.339603
G02 X58.575682 Y76.673370 Z2 I0.251380 J-1.123327
G00 Z0.000000

(End cutting path id: path21)


(Start cutting path id: path21)
(Change tool to Default tool)

G00 Z0.000000
G00 X52.709448 Y76.545840

G01 Z2 F100.0(Penetrate)
G01 X52.836975 Y76.545840 Z2 F75
G00 Z0.000000

(End cutting path id: path21)


(Start cutting path id: path21)
(Change tool to Default tool)

G00 Z0.000000
G00 X71.710946 Y76.035730

G01 Z2 F100.0(Penetrate)
G01 X72.476107 Y74.760470 Z2 F75
G00 Z0.000000

(End cutting path id: path21)


(Start cutting path id: path21)
(Change tool to Default tool)

G00 Z0.000000
G00 X75.026643 Y76.035730

G01 Z2 F100.0(Penetrate)
G03 X74.565433 Y74.915656 Z2 I11.717958 J-5.480063 F75
G02 X74.133955 Y73.867780 Z2 I-11.394633 J4.079135
G00 Z0.000000

(End cutting path id: path21)


(Start cutting path id: path21)
(Change tool to Default tool)

G00 Z0.000000
G00 X78.724921 Y72.847560

G01 Z2 F100.0(Penetrate)
G03 X78.577242 Y72.807247 Z2 I2.156810 J-8.191709 F75
G03 X77.995578 Y72.536320 Z2 I0.546569 J-1.933314
G01 X76.831404 Y72.501120 Z2
G01 X76.563754 Y73.357690 Z2
G02 X76.889523 Y74.006084 Z2 I1.927722 J-0.562501
G03 X77.328719 Y74.632860 Z2 I-8.470567 J6.402782
G03 X77.635262 Y75.138241 Z2 I-8.283043 J5.369799
G02 X77.987705 Y75.502820 Z2 I0.880738 J-0.498776
G01 X78.724921 Y75.653170 Z2
G00 Z0.000000

(End cutting path id: path21)


(Start cutting path id: path21)
(Change tool to Default tool)

G00 Z0.000000
G00 X57.172887 Y74.888010

G01 Z2 F100.0(Penetrate)
G01 X57.300414 Y74.888010 Z2 F75
G00 Z0.000000

(End cutting path id: path21)


(Start cutting path id: path21)
(Change tool to Default tool)

G00 Z0.000000
G00 X64.186863 Y74.760490

G01 Z2 F100.0(Penetrate)
G01 X64.824497 Y74.888010 Z2 F75
G00 Z0.000000

(End cutting path id: path21)


(Start cutting path id: path21)
(Change tool to Default tool)

G00 Z0.000000
G00 X52.709448 Y73.612740

G01 Z2 F100.0(Penetrate)
G01 X53.602136 Y73.357690 Z2 F75
G00 Z0.000000

(End cutting path id: path21)


(Start cutting path id: path21)
(Change tool to Default tool)

G00 Z0.000000
G00 X62.146434 Y72.975110

G01 Z2 F100.0(Penetrate)
G01 X65.972238 Y73.102640 Z2 F75
G01 X67.502560 Y72.975110 Z2
G00 Z0.000000

(End cutting path id: path21)


(Start cutting path id: path21)
(Change tool to Default tool)

G00 Z0.000000
G00 X76.301911 Y72.720060

G01 Z2 F100.0(Penetrate)
G02 X75.754211 Y71.521789 Z2 I-3.219747 J0.747360 F75
G02 X74.899116 Y70.552100 Z2 I-5.608133 J4.083522
G00 Z0.000000

(End cutting path id: path21)


(Start cutting path id: path21)
(Change tool to Default tool)

G00 Z0.000000
G00 X64.952024 Y69.149310

G01 Z2 F100.0(Penetrate)
G02 X65.363230 Y69.840427 Z2 I2.321860 J-0.913587 F75
G02 X65.972337 Y70.363470 Z2 I1.897869 J-1.593967
G02 X68.126769 Y71.011480 Z2 I2.321873 J-3.814097
G03 X70.180624 Y71.710080 Z2 I-0.142074 J3.786114
G01 X71.811313 Y72.005370 Z2
G02 X72.454310 Y70.562894 Z2 I-0.953677 J-1.289659
G02 X72.228924 Y69.933360 Z2 I-1.353787 J0.129570
G02 X70.825487 Y69.338075 Z2 I-1.158559 J0.779399
G03 X68.777829 Y69.021780 Z2 I-0.561425 J-3.151702
G00 Z0.000000

(End cutting path id: path21)


(Start cutting path id: path21)
(Change tool to Default tool)

G00 Z0.000000
G00 X56.790307 Y68.129090

G01 Z2 F100.0(Penetrate)
G02 X57.550579 Y68.823835 Z2 I2.621651 J-2.105557 F75
G03 X58.916836 Y70.042090 Z2 I-3.591329 J5.402877
G01 X59.977887 Y71.002770 Z2
G01 X60.809075 Y69.914960 Z2
G01 X62.018907 Y68.129090 Z2
G00 Z0.000000

(End cutting path id: path21)


(Start cutting path id: path21)
(Change tool to Default tool)

G00 Z0.000000
G00 X52.709448 Y68.129090

G01 Z2 F100.0(Penetrate)
G01 X52.836975 Y68.129090 Z2 F75
G00 Z0.000000

(End cutting path id: path21)


(Footer)
M5
G00 X0.0000 Y0.0000
M2
(Using default footer. To add your own footer create file "footer" in the output dir.)
(end)
%