%
(Header)
(Generated by gcodetools from Inkscape.)
(Using default header. To add your own header create file "header" in the output dir.)
M3
(Header end.)
G21 (All units in mm)

(Start cutting path id: path23)
(Change tool to Default tool)

G00 Z0.000000
G00 X108.724006 Y93.788150

G01 Z2 F100.0(Penetrate)
G01 X109.744226 Y93.915670 Z2 F75
G00 Z0.000000

(End cutting path id: path23)


(Start cutting path id: path23)
(Change tool to Default tool)

G00 Z0.000000
G00 X124.154756 Y93.405570

G01 Z2 F100.0(Penetrate)
G01 X123.262066 Y92.640400 Z2 F75
G00 Z0.000000

(End cutting path id: path23)


(Start cutting path id: path23)
(Change tool to Default tool)

G00 Z0.000000
G00 X106.300996 Y90.727500

G01 Z2 F100.0(Penetrate)
G01 X106.300996 Y90.599980 Z2 F75
G00 Z0.000000

(End cutting path id: path23)


(Start cutting path id: path23)
(Change tool to Default tool)

G00 Z0.000000
G00 X130.276046 Y90.217390

G01 Z2 F100.0(Penetrate)
G01 X130.658626 Y90.217390 Z2 F75
G00 Z0.000000

(End cutting path id: path23)


(Start cutting path id: path23)
(Change tool to Default tool)

G00 Z0.000000
G00 X113.952606 Y90.089870

G01 Z2 F100.0(Penetrate)
G01 X114.080136 Y90.089870 Z2 F75
G00 Z0.000000

(End cutting path id: path23)


(Start cutting path id: path23)
(Change tool to Default tool)

G00 Z0.000000
G00 X119.818846 Y88.814600

G01 Z2 F100.0(Penetrate)
G01 X119.946366 Y88.814600 Z2 F75
G00 Z0.000000

(End cutting path id: path23)


(Start cutting path id: path23)
(Change tool to Default tool)

G00 Z0.000000
G00 X122.369376 Y88.049440

G01 Z2 F100.0(Penetrate)
G01 X124.027226 Y88.432020 Z2 F75
G00 Z0.000000

(End cutting path id: path23)


(Start cutting path id: path23)
(Change tool to Default tool)

G00 Z0.000000
G00 X127.342926 Y87.411800

G01 Z2 F100.0(Penetrate)
G02 X128.695570 Y88.448136 Z2 I2.668640 J-2.082239 F75
G02 X130.131586 Y87.411800 Z2 I0.402909 J-0.954791
G02 X129.319116 Y85.357624 Z2 I-3.751192 J0.295914
G02 X127.725506 Y83.886910 Z2 I-5.632083 J4.503964
G02 X124.238000 Y81.890449 Z2 I-15.124196 J22.375313
G02 X120.584006 Y80.270300 Z2 I-30.633453 J64.158419
G00 Z0.000000

(End cutting path id: path23)


(Start cutting path id: path23)
(Change tool to Default tool)

G00 Z0.000000
G00 X113.187446 Y87.539330

G01 Z2 F100.0(Penetrate)
G01 X113.570026 Y87.666860 Z2 F75
G00 Z0.000000

(End cutting path id: path23)


(Start cutting path id: path23)
(Change tool to Default tool)

G00 Z0.000000
G00 X130.276046 Y87.539330

G01 Z2 F100.0(Penetrate)
G01 X130.658626 Y87.539330 Z2 F75
G00 Z0.000000

(End cutting path id: path23)


(Start cutting path id: path23)
(Change tool to Default tool)

G00 Z0.000000
G00 X110.636906 Y86.391590

G01 Z2 F100.0(Penetrate)
G01 X110.254326 Y86.009010 Z2 F75
G00 Z0.000000

(End cutting path id: path23)


(Start cutting path id: path23)
(Change tool to Default tool)

G00 Z0.000000
G00 X119.436266 Y85.881480

G01 Z2 F100.0(Penetrate)
G01 X119.436266 Y85.753960 Z2 F75
G00 Z0.000000

(End cutting path id: path23)


(Start cutting path id: path23)
(Change tool to Default tool)

G00 Z0.000000
G00 X117.013256 Y85.753960

G01 Z2 F100.0(Penetrate)
G01 X115.737986 Y84.861270 Z2 F75
G00 Z0.000000

(End cutting path id: path23)


(Start cutting path id: path23)
(Change tool to Default tool)

G00 Z0.000000
G00 X107.703796 Y84.478690

G01 Z2 F100.0(Penetrate)
G01 X107.703796 Y84.351160 Z2 F75
G00 Z0.000000

(End cutting path id: path23)


(Start cutting path id: path23)
(Change tool to Default tool)

G00 Z0.000000
G00 X130.658626 Y82.565790

G01 Z2 F100.0(Penetrate)
G01 X130.658626 Y82.438260 Z2 F75
G00 Z0.000000

(End cutting path id: path23)


(Start cutting path id: path23)
(Change tool to Default tool)

G00 Z0.000000
G00 X111.657126 Y82.438260

G01 Z2 F100.0(Penetrate)
G01 X111.657126 Y82.310730 Z2 F75
G00 Z0.000000

(End cutting path id: path23)


(Start cutting path id: path23)
(Change tool to Default tool)

G00 Z0.000000
G00 X113.059916 Y80.652880

G01 Z2 F100.0(Penetrate)
G02 X113.910671 Y81.296401 Z2 I1.662531 J-1.313795 F75
G02 X114.972826 Y81.532090 Z2 I1.198408 J-2.889544
G01 X116.170646 Y81.008210 Z2
G02 X115.867264 Y79.614255 Z2 I-1.142732 J-0.481286
G03 X114.823646 Y78.653980 Z2 I1868.402788 J-2031.609971
G02 X111.380841 Y76.601243 Z2 I-6.622237 J7.193203
G03 X107.703796 Y75.072800 Z2 I10.326921 J-30.031181
G02 X105.785655 Y74.321127 Z2 I-5.465966 J11.124996
G02 X104.770676 Y74.149010 Z2 I-1.207619 J4.042615
G00 Z0.000000

(End cutting path id: path23)


(Start cutting path id: path23)
(Change tool to Default tool)

G00 Z0.000000
G00 X109.234116 Y81.162990

G01 Z2 F100.0(Penetrate)
G01 X109.489166 Y81.162990 Z2 F75
G00 Z0.000000

(End cutting path id: path23)


(Start cutting path id: path23)
(Change tool to Default tool)

G00 Z0.000000
G00 X130.148516 Y80.397830

G01 Z2 F100.0(Penetrate)
G01 X130.658626 Y80.652880 Z2 F75
G00 Z0.000000

(End cutting path id: path23)


(Start cutting path id: path23)
(Change tool to Default tool)

G00 Z0.000000
G00 X106.683576 Y79.250090

G01 Z2 F100.0(Penetrate)
G01 X106.811106 Y79.250090 Z2 F75
G00 Z0.000000

(End cutting path id: path23)


(Start cutting path id: path23)
(Change tool to Default tool)

G00 Z0.000000
G00 X110.254326 Y79.250090

G01 Z2 F100.0(Penetrate)
G01 X110.254326 Y79.122560 Z2 F75
G00 Z0.000000

(End cutting path id: path23)


(Start cutting path id: path23)
(Change tool to Default tool)

G00 Z0.000000
G00 X114.717766 Y74.659120

G01 Z2 F100.0(Penetrate)
G02 X117.513014 Y75.107083 Z2 I4.360744 J-18.265627 F75
G03 X120.328946 Y75.478400 Z2 I-2.485763 J29.714256
G03 X123.341661 Y76.200122 Z2 I-4.888566 J27.055450
G02 X126.322706 Y76.980980 Z2 I12.542435 J-41.801964
G03 X129.355927 Y77.808152 Z2 I-7.595333 J33.826891
G03 X130.658626 Y78.229870 Z2 I-140.762428 J437.041655
G00 Z0.000000

(End cutting path id: path23)


(Start cutting path id: path23)
(Change tool to Default tool)

G00 Z0.000000
G00 X111.274546 Y72.108590

G01 Z2 F100.0(Penetrate)
G02 X112.280276 Y72.603255 Z2 I2.079391 J-2.957991 F75
G02 X113.435026 Y72.487620 Z2 I0.441115 J-1.418530
G01 X113.057956 Y70.394350 Z2
G02 X110.461058 Y69.835951 Z2 I-2.325400 J4.496756
G03 X107.831316 Y69.938760 Z2 I-4.840082 J-90.119944
G03 X106.565552 Y69.947192 Z2 I-0.869610 J-35.534121
G02 X105.411456 Y69.940760 Z2 I-1.154096 J103.544347
G01 X104.770676 Y69.940760 Z2
G00 Z0.000000

(End cutting path id: path23)


(Start cutting path id: path23)
(Change tool to Default tool)

G00 Z0.000000
G00 X128.745716 Y71.343550

G01 Z2 F100.0(Penetrate)
G01 X129.890416 Y71.466950 Z2 F75
G01 X130.307726 Y70.705820 Z2
G02 X129.163660 Y69.438050 Z2 I-1.870370 J0.537765
G02 X127.470456 Y69.059980 Z2 I-1.997655 J4.966012
G02 X124.901058 Y69.465588 Z2 I-0.349293 J6.128302
G03 X122.369376 Y70.195810 Z2 I-5.345330 J-13.778490
G00 Z0.000000

(End cutting path id: path23)


(Start cutting path id: path23)
(Change tool to Default tool)

G00 Z0.000000
G00 X104.643146 Y69.940760

G01 Z2 F100.0(Penetrate)
G01 X104.770676 Y69.940760 Z2 F75
G00 Z0.000000

(End cutting path id: path23)


(Footer)
M5
;G00 X0.0000 Y0.0000
M2
(Using default footer. To add your own footer create file "footer" in the output dir.)
(end)
%