%
(Header)
(Generated by gcodetools from Inkscape.)
(Using default header. To add your own header create file "header" in the output dir.)
M3
(Header end.)
G21 (All units in mm)

(Start cutting path id: path18)
(Change tool to Default tool)

G00 Z0.000000
G00 X126.806506 Y120.060648

G01 Z2 F100.0(Penetrate)
G01 X126.041346 Y119.933121 Z2 F75
G00 Z0.000000

(End cutting path id: path18)


(Start cutting path id: path18)
(Change tool to Default tool)

G00 Z0.000000
G00 X129.739626 Y120.060648

G01 Z2 F100.0(Penetrate)
G01 X127.316616 Y117.528710 Z2 F75
G02 X122.334677 Y117.375756 Z2 I-3.049486 J18.115285
G03 X117.369526 Y117.637638 Z2 I-4.965151 J-46.937531
G00 Z0.000000

(End cutting path id: path18)


(Start cutting path id: path18)
(Change tool to Default tool)

G00 Z0.000000
G00 X104.744366 Y119.423014

G01 Z2 F100.0(Penetrate)
G01 X105.510116 Y119.325994 Z2 F75
G01 X106.912326 Y118.829171 Z2
G01 X110.355546 Y117.553903 Z2
G01 X125.403716 Y112.020065 Z2
G01 X128.719416 Y110.791831 Z2
G01 X129.994086 Y110.326693 Z2
G01 X130.759846 Y110.113558 Z2
G00 Z0.000000

(End cutting path id: path18)


(Start cutting path id: path18)
(Change tool to Default tool)

G00 Z0.000000
G00 X104.744366 Y114.704524

G01 Z2 F100.0(Penetrate)
G02 X104.955549 Y114.679774 Z2 I-0.632758 J-6.312413 F75
G02 X105.510116 Y114.545904 Z2 I-0.367499 J-2.738001
G02 X106.331912 Y114.194028 Z2 I-2.326033 J-6.567969
G03 X107.294906 Y113.717273 Z2 I26.810631 J52.943591
G03 X108.896437 Y112.979456 Z2 I20.275403 J41.902179
G02 X110.483076 Y112.248551 Z2 I-18.526533 J-42.303558
G03 X114.086847 Y110.510706 Z2 I685.832031 J1417.604889
G03 X117.752106 Y108.838290 Z2 I43.660301 J90.833134
G02 X121.712981 Y106.990215 Z2 I-30.461885 J-70.455828
G03 X125.658766 Y105.122299 Z2 I42.759329 J85.223308
G02 X128.200115 Y103.911895 Z2 I-22.690200 J-50.913156
G03 X130.119056 Y103.051071 Z2 I9.907453 J19.516348
G03 X130.548598 Y102.904331 Z2 I1.865382 J4.758347
G03 X130.759846 Y102.844529 Z2 I3.465696 J11.839440
G00 Z0.000000

(End cutting path id: path18)


(Start cutting path id: path18)
(Change tool to Default tool)

G00 Z0.000000
G00 X128.209306 Y114.194417

G01 Z2 F100.0(Penetrate)
G02 X130.068772 Y114.225081 Z2 I1.175650 J-14.897001 F75
G03 X130.759846 Y114.194417 Z2 I11.038138 J240.961952
G00 Z0.000000

(End cutting path id: path18)


(Start cutting path id: path18)
(Change tool to Default tool)

G00 Z0.000000
G00 X108.187596 Y102.717002

G01 Z2 F100.0(Penetrate)
G01 X108.315116 Y102.717002 Z2 F75
G00 Z0.000000

(End cutting path id: path18)


(Start cutting path id: path18)
(Change tool to Default tool)

G00 Z0.000000
G00 X113.671246 Y100.549046

G01 Z2 F100.0(Penetrate)
G01 X113.543716 Y100.421519 Z2 F75
G00 Z0.000000

(End cutting path id: path18)


(Start cutting path id: path18)
(Change tool to Default tool)

G00 Z0.000000
G00 X125.276186 Y99.783885

G01 Z2 F100.0(Penetrate)
G01 X125.403716 Y99.656359 Z2 F75
G00 Z0.000000

(End cutting path id: path18)


(Start cutting path id: path18)
(Change tool to Default tool)

G00 Z0.000000
G00 X113.033616 Y97.615933

G01 Z2 F100.0(Penetrate)
G01 X112.906086 Y97.488403 Z2 F75
G00 Z0.000000

(End cutting path id: path18)


(Start cutting path id: path18)
(Change tool to Default tool)

G00 Z0.000000
G00 X130.504786 Y95.830553

G01 Z2 F100.0(Penetrate)
G01 X130.759846 Y95.830553 Z2 F75
G00 Z0.000000

(End cutting path id: path18)


(Start cutting path id: path18)
(Change tool to Default tool)

G00 Z0.000000
G00 X109.080276 Y94.045183

G01 Z2 F100.0(Penetrate)
G01 X109.462856 Y94.045183 Z2 F75
G00 Z0.000000

(End cutting path id: path18)


(Footer)
M5
G00 X0.0000 Y0.0000
M2
(Using default footer. To add your own footer create file "footer" in the output dir.)
(end)
%