%
(Header)
(Generated by gcodetools from Inkscape.)
(Using default header. To add your own header create file "header" in the output dir.)
M3
(Header end.)
G21 (All units in mm)

(Start cutting path id: path12)
(Change tool to Default tool)

G00 Z0.000000
G00 X79.056915 Y142.608602

G01 Z2 F100.0(Penetrate)
G02 X79.265996 Y142.749023 Z2 I9.090274 J-13.309224 F75
G03 X79.697698 Y143.059866 Z2 I-3.624518 J5.488956
G03 X81.109287 Y144.324949 Z2 I-8.832091 J11.274979
G02 X82.627667 Y145.542408 Z2 I5.761496 J-5.630006
G02 X83.406603 Y145.889118 Z2 I1.656510 J-2.673240
G02 X84.030462 Y146.051827 Z2 I3.250565 J-11.186002
G00 Z0.000000

(End cutting path id: path12)


(Start cutting path id: path12)
(Change tool to Default tool)

G00 Z0.000000
G00 X80.459711 Y138.782798

G01 Z2 F100.0(Penetrate)
G02 X84.817527 Y141.483670 Z2 I20.531194 J-28.260694 F75
G03 X89.514115 Y144.047216 Z2 I-67.860543 J129.909085
G03 X90.873656 Y144.864508 Z2 I-16.798454 J29.483160
G02 X92.192179 Y145.557071 Z2 I4.925283 J-7.775501
G02 X93.470930 Y145.937108 Z2 I2.302338 J-5.405520
G02 X94.360135 Y146.051827 Z2 I1.669194 J-9.434683
G00 Z0.000000

(End cutting path id: path12)


(Start cutting path id: path12)
(Change tool to Default tool)

G00 Z0.000000
G00 X93.850027 Y143.246237

G01 Z2 F100.0(Penetrate)
G02 X95.014885 Y142.606970 Z2 I-9.914441 J-19.446801 F75
G02 X96.528091 Y141.686689 Z2 I-32.002894 J-54.326140
G02 X97.094287 Y141.294070 Z2 I-3.994610 J-6.365196
G03 X97.675832 Y140.931269 Z2 I2.206949 J2.890097
G03 X98.240824 Y140.729086 Z2 I1.122734 J2.246913
G02 X98.696047 Y140.598677 Z2 I-0.954905 J-4.193072
G02 X99.564458 Y140.184364 Z2 I-1.423175 J-4.100274
G03 X100.608946 Y139.546091 Z2 I41.991718 J67.542690
G02 X101.821385 Y138.704574 Z2 I-5.769492 J-9.606749
G03 X103.031956 Y137.880958 Z2 I6.070097 J7.620500
G01 X103.876626 Y137.677467 Z2
G01 X103.245096 Y138.202531 Z2
G01 X103.031956 Y138.017637 Z2
G00 Z0.000000

(End cutting path id: path12)


(Start cutting path id: path12)
(Change tool to Default tool)

G00 Z0.000000
G00 X97.675832 Y140.823227

G01 Z2 F100.0(Penetrate)
G03 X97.797500 Y139.914289 Z2 I3.458853 J0.000383 F75
G03 X98.679121 Y138.462210 Z2 I2.969187 J0.809048
G02 X98.995187 Y138.041189 Z2 I-0.990117 J-1.072444
G03 X99.313115 Y137.633482 Z2 I1.166299 J0.581660
G03 X99.786716 Y137.405960 Z2 I0.662772 J0.772924
G02 X100.337365 Y137.162834 Z2 I-0.246430 J-1.303271
G02 X100.803170 Y136.565077 Z2 I-0.872188 J-1.160027
G03 X101.206826 Y135.871821 Z2 I2.864628 J1.203814
G03 X102.981632 Y134.082961 Z2 I8.020957 J6.183080
G02 X104.179696 Y132.151403 Z2 I-2.038498 J-2.601728
G02 X101.615714 Y131.870195 Z2 I-2.405588 J10.104075
G03 X98.185940 Y131.896349 Z2 I-3.429774 J-224.876326
G01 X82.372613 Y131.768822 Z2
G00 Z0.000000

(End cutting path id: path12)


(Start cutting path id: path12)
(Change tool to Default tool)

G00 Z0.000000
G00 X104.307226 Y138.145164

G01 Z2 F100.0(Penetrate)
G01 X104.944866 Y138.272690 Z2 F75
G00 Z0.000000

(End cutting path id: path12)


(Start cutting path id: path12)
(Change tool to Default tool)

G00 Z0.000000
G00 X99.206154 Y137.507529

G01 Z2 F100.0(Penetrate)
G02 X97.685279 Y136.930532 Z2 I-2.043004 J3.092151 F75
G03 X94.615188 Y136.455827 Z2 I18.154069 J-127.573923
G02 X88.272574 Y135.461331 Z2 I-53.231789 J318.774273
G03 X81.990033 Y134.191832 Z2 I8.648746 J-58.981607
G00 Z0.000000

(End cutting path id: path12)


(Start cutting path id: path12)
(Change tool to Default tool)

G00 Z0.000000
G00 X103.924646 Y137.507529

G01 Z2 F100.0(Penetrate)
G03 X104.571324 Y136.746629 Z2 I4.102913 J2.831759 F75
G03 X104.944866 Y136.487315 Z2 I0.994201 J1.033444
G00 Z0.000000

(End cutting path id: path12)


(Start cutting path id: path12)
(Change tool to Default tool)

G00 Z0.000000
G00 X78.929389 Y132.916564

G01 Z2 F100.0(Penetrate)
G02 X79.291429 Y132.557374 Z2 I-2.766857 J-3.150866 F75
G02 X79.394330 Y130.805975 Z2 I-1.054294 J-0.940666
G01 X79.056915 Y130.493554 Z2
G00 Z0.000000

(End cutting path id: path12)


(Start cutting path id: path12)
(Change tool to Default tool)

G00 Z0.000000
G00 X104.179696 Y132.151403

G01 Z2 F100.0(Penetrate)
G03 X104.554518 Y131.734727 Z2 I6.177725 J5.180267 F75
G02 X104.869776 Y131.237067 Z2 I-1.053340 J-1.015955
G02 X105.125360 Y129.883797 Z2 I-3.691018 J-1.397872
G02 X104.904276 Y128.346361 Z2 I-5.058698 J-0.057170
G01 X103.669556 Y128.198071 Z2
G00 Z0.000000

(End cutting path id: path12)


(Start cutting path id: path12)
(Change tool to Default tool)

G00 Z0.000000
G00 X78.929389 Y130.493554

G01 Z2 F100.0(Penetrate)
G01 X79.056915 Y130.493554 Z2 F75
G00 Z0.000000

(End cutting path id: path12)


(Start cutting path id: path12)
(Change tool to Default tool)

G00 Z0.000000
G00 X80.714764 Y128.580651

G01 Z2 F100.0(Penetrate)
G03 X83.255503 Y127.531417 Z2 I5.811502 J10.471813 F75
G02 X86.325945 Y126.515719 Z2 I-10.309036 J-36.312901
G03 X93.148326 Y124.001398 Z2 I139.734181 J368.642880
G02 X99.971315 Y121.493171 Z2 I-145.774948 J-407.077639
G03 X101.026343 Y121.129482 Z2 I6.856456 J18.177816
G02 X101.872806 Y120.766681 Z2 I-1.354582 J-4.329278
G02 X102.329165 Y120.449234 Z2 I-1.335360 J-2.406456
G03 X102.906306 Y120.182774 Z2 I0.758236 J0.884046
G03 X103.743834 Y120.139201 Z2 I0.627185 J3.984292
G02 X104.689806 Y120.163884 Z2 I0.945972 J-18.114467
G00 Z0.000000

(End cutting path id: path12)


(Start cutting path id: path12)
(Change tool to Default tool)

G00 Z0.000000
G00 X78.929389 Y126.795276

G01 Z2 F100.0(Penetrate)
G02 X79.194942 Y126.787352 Z2 I-0.327044 J-15.413172 F75
G02 X80.077130 Y126.608119 Z2 I-0.107273 J-2.788695
G02 X81.956477 Y125.756892 Z2 I-5.821976 J-15.354042
G03 X83.902935 Y124.794206 Z2 I17.651930 J33.241388
G02 X86.778466 Y123.466748 Z2 I-324.243249 J-706.152029
G02 X89.641642 Y122.109747 Z2 I-82.724089 J-178.240975
G03 X90.987477 Y121.510361 Z2 I10.135624 J20.947454
G02 X92.306421 Y120.861638 Z2 I-3.981635 J-9.760376
G01 X93.225678 Y120.204323 Z2
G03 X94.101931 Y120.119014 Z2 I0.690831 J2.553016
G02 X95.380349 Y120.163883 Z2 I1.278418 J-18.190256
G00 Z0.000000

(End cutting path id: path12)


(Footer)
M5
G00 X0.0000 Y0.0000
M2
(Using default footer. To add your own footer create file "footer" in the output dir.)
(end)
%