%
(Header)
(Generated by gcodetools from Inkscape.)
(Using default header. To add your own header create file "header" in the output dir.)
M3
(Header end.)
G21 (All units in mm)

(Start cutting path id: path27)
(Change tool to Default tool)

G00 Z0.000000
G00 X88.827832 Y68.025730

G01 Z2 F100.0(Penetrate)
G02 X87.741804 Y67.789366 Z2 I-1.824270 J5.768841 F75
G03 X86.404822 Y67.511000 Z2 I1.005526 J-8.179424
G02 X83.961614 Y66.842057 Z2 I-17.157370 J57.868387
G02 X81.176222 Y66.186230 Z2 I-23.221152 J92.380681
G03 X80.231169 Y65.967125 Z2 I8.970737 J-40.840638
G02 X79.393995 Y65.789380 Z2 I-3.359422 J13.762379
G02 X78.945951 Y65.738848 Z2 I-0.601955 J3.325686
G02 X78.753212 Y65.730280 Z2 I-3.884885 J85.219474
G00 Z0.000000

(End cutting path id: path27)


(Start cutting path id: path27)
(Change tool to Default tool)

G00 Z0.000000
G00 X95.204173 Y67.260600

G01 Z2 F100.0(Penetrate)
G02 X96.114998 Y67.653980 Z2 I1.329623 J-1.827442 F75
G02 X97.372129 Y67.770700 Z2 I1.248858 J-6.622495
G02 X98.400812 Y67.713401 Z2 I-0.011338 J-9.466180
G03 X99.667612 Y67.643180 Z2 I1.274472 J11.529908
G00 Z0.000000

(End cutting path id: path27)


(Start cutting path id: path27)
(Change tool to Default tool)

G00 Z0.000000
G00 X78.625685 Y65.730280

G01 Z2 F100.0(Penetrate)
G01 X78.753212 Y65.730280 Z2 F75
G00 Z0.000000

(End cutting path id: path27)


(Start cutting path id: path27)
(Change tool to Default tool)

G00 Z0.000000
G00 X81.048695 Y62.797160

G01 Z2 F100.0(Penetrate)
G02 X83.422283 Y62.976886 Z2 I1.329661 J-1.796940 F75
G03 X85.894715 Y63.179740 Z2 I1.077192 J2.039651
G00 Z0.000000

(End cutting path id: path27)


(Start cutting path id: path27)
(Change tool to Default tool)

G00 Z0.000000
G00 X98.902451 Y62.669630

G01 Z2 F100.0(Penetrate)
G01 X99.795139 Y60.688830 Z2 F75
G02 X97.596742 Y60.210078 Z2 I-2.614202 J6.717422
G02 X95.331700 Y60.283130 Z2 I-0.727583 J12.591998
G02 X93.240244 Y60.594721 Z2 I5.016081 J40.843774
G03 X91.378368 Y60.756730 Z2 I-1.861876 J-10.617727
G00 Z0.000000

(End cutting path id: path27)


(Start cutting path id: path27)
(Change tool to Default tool)

G00 Z0.000000
G00 X78.625685 Y57.696090

G01 Z2 F100.0(Penetrate)
G02 X78.805077 Y57.668239 Z2 I-2.594831 J-17.305063 F75
G02 X79.391437 Y57.508830 Z2 I-0.454268 J-2.829077
G02 X80.242403 Y57.056172 Z2 I-1.500194 J-3.846467
G03 X81.176222 Y56.542640 Z2 I2.949101 J4.256914
G03 X82.506181 Y56.267858 Z2 I1.357050 J3.212268
G03 X83.854285 Y56.420820 Z2 I0.043752 J5.631533
G00 Z0.000000

(End cutting path id: path27)


(Start cutting path id: path27)
(Change tool to Default tool)

G00 Z0.000000
G00 X91.633422 Y54.252860

G01 Z2 F100.0(Penetrate)
G02 X92.067676 Y54.922233 Z2 I5.270940 J-2.943963 F75
G02 X92.781261 Y55.351600 Z2 I0.882800 J-0.659512
G02 X93.951967 Y54.955848 Z2 I0.205400 J-1.321846
G02 X94.142925 Y53.744620 Z2 I-0.774167 J-0.742720
G02 X92.175830 Y52.293542 Z2 I-2.366034 J1.148573
G02 X89.720519 Y52.248840 Z2 I-1.393372 J9.079782
G03 X87.551509 Y52.437430 Z2 I-4.320691 J-37.125797
G02 X85.384607 Y52.752650 Z2 I0.726568 J12.600116
G03 X82.553173 Y53.409476 Z2 I-98.800365 J-419.475439
G03 X79.518373 Y52.850050 Z2 I-0.868273 J-3.801123
G00 Z0.000000

(End cutting path id: path27)


(Start cutting path id: path27)
(Change tool to Default tool)

G00 Z0.000000
G00 X95.204173 Y49.789400

G01 Z2 F100.0(Penetrate)
G02 X96.382996 Y50.433352 Z2 I3.812836 J-5.578850 F75
G02 X97.754709 Y50.638700 Z2 I1.084933 J-2.563131
G02 X98.684192 Y50.316741 Z2 I-0.222252 J-2.144306
G03 X99.540085 Y49.855430 Z2 I3.752118 J5.936835
G03 X100.856147 Y49.488167 Z2 I1.849347 J4.085364
G03 X102.218146 Y49.406820 Z2 I1.363254 J11.382403
G00 Z0.000000

(End cutting path id: path27)


(Start cutting path id: path27)
(Change tool to Default tool)

G00 Z0.000000
G00 X78.625685 Y46.728760

G01 Z2 F100.0(Penetrate)
G01 X79.773427 Y46.728760 Z2 F75
G01 X81.303749 Y46.728760 Z2
G01 X85.129554 Y46.728760 Z2
G01 X98.647397 Y46.728760 Z2
G01 X102.090626 Y46.728760 Z2
G01 X103.493416 Y46.728760 Z2
G01 X104.641156 Y46.728760 Z2
G00 Z0.000000

(End cutting path id: path27)


(Footer)
M5
;G00 X0.0000 Y0.0000
M2
(Using default footer. To add your own footer create file "footer" in the output dir.)
(end)
%