%
(Header)
(Generated by gcodetools from Inkscape.)
(Using default header. To add your own header create file "header" in the output dir.)
M3
(Header end.)
G21 (All units in mm)

(Start cutting path id: path24)
(Change tool to Default tool)

G00 Z0.000000
G00 X148.206716 Y94.144430

G01 Z2 F100.0(Penetrate)
G03 X149.031667 Y93.938197 Z2 I1.674445 J4.944869 F75
G02 X150.247146 Y93.634330 Z2 I-1.251605 J-7.589389
G00 Z0.000000

(End cutting path id: path24)


(Start cutting path id: path24)
(Change tool to Default tool)

G00 Z0.000000
G00 X133.031026 Y93.761850

G01 Z2 F100.0(Penetrate)
G01 X133.158546 Y93.761850 Z2 F75
G00 Z0.000000

(End cutting path id: path24)


(Start cutting path id: path24)
(Change tool to Default tool)

G00 Z0.000000
G00 X152.160046 Y93.251750

G01 Z2 F100.0(Penetrate)
G01 X152.160046 Y75.525520 Z2 F75
G01 X152.160046 Y70.934550 Z2
G01 X152.160046 Y69.149180 Z2
G01 X152.160046 Y68.128960 Z2
G00 Z0.000000

(End cutting path id: path24)


(Start cutting path id: path24)
(Change tool to Default tool)

G00 Z0.000000
G00 X145.273596 Y88.278200

G01 Z2 F100.0(Penetrate)
G01 X145.401126 Y88.278200 Z2 F75
G00 Z0.000000

(End cutting path id: path24)


(Start cutting path id: path24)
(Change tool to Default tool)

G00 Z0.000000
G00 X145.911236 Y85.982720

G01 Z2 F100.0(Penetrate)
G01 X145.273596 Y85.472610 Z2 F75
G00 Z0.000000

(End cutting path id: path24)


(Start cutting path id: path24)
(Change tool to Default tool)

G00 Z0.000000
G00 X133.413606 Y82.922070

G01 Z2 F100.0(Penetrate)
G01 X133.796186 Y82.922070 Z2 F75
G00 Z0.000000

(End cutting path id: path24)


(Start cutting path id: path24)
(Change tool to Default tool)

G00 Z0.000000
G00 X143.360696 Y82.922070

G01 Z2 F100.0(Penetrate)
G01 X143.870806 Y82.667020 Z2 F75
G00 Z0.000000

(End cutting path id: path24)


(Start cutting path id: path24)
(Change tool to Default tool)

G00 Z0.000000
G00 X146.038756 Y82.922070

G01 Z2 F100.0(Penetrate)
G01 X147.058976 Y82.794550 Z2 F75
G00 Z0.000000

(End cutting path id: path24)


(Start cutting path id: path24)
(Change tool to Default tool)

G00 Z0.000000
G00 X136.856826 Y82.794550

G01 Z2 F100.0(Penetrate)
G01 X137.494466 Y82.539490 Z2 F75
G00 Z0.000000

(End cutting path id: path24)


(Start cutting path id: path24)
(Change tool to Default tool)

G00 Z0.000000
G00 X130.863066 Y82.667020

G01 Z2 F100.0(Penetrate)
G01 X131.373176 Y82.667020 Z2 F75
G00 Z0.000000

(End cutting path id: path24)


(Start cutting path id: path24)
(Change tool to Default tool)

G00 Z0.000000
G00 X149.481986 Y82.411970

G01 Z2 F100.0(Penetrate)
G01 X149.992086 Y82.156910 Z2 F75
G00 Z0.000000

(End cutting path id: path24)


(Start cutting path id: path24)
(Change tool to Default tool)

G00 Z0.000000
G00 X140.555106 Y82.156910

G01 Z2 F100.0(Penetrate)
G01 X140.682636 Y82.156910 Z2 F75
G00 Z0.000000

(End cutting path id: path24)


(Start cutting path id: path24)
(Change tool to Default tool)

G00 Z0.000000
G00 X144.763486 Y80.754120

G01 Z2 F100.0(Penetrate)
G02 X146.154368 Y81.088484 Z2 I2.054371 J-5.485668 F75
G02 X147.549696 Y80.742720 Z2 I0.233327 J-2.046711
G01 X146.421336 Y78.936880 Z2
G02 X140.989882 Y78.210701 Z2 I-4.631800 J13.968183
G03 X135.709086 Y77.055860 Z2 I-0.551287 J-10.130398
G00 Z0.000000

(End cutting path id: path24)


(Start cutting path id: path24)
(Change tool to Default tool)

G00 Z0.000000
G00 X130.863066 Y80.881660

G01 Z2 F100.0(Penetrate)
G01 X131.503846 Y80.881660 Z2 F75
G03 X132.131703 Y80.892369 Z2 I0.000000 J18.410143
G02 X132.903006 Y80.842760 Z2 I0.134234 J-3.933740
G01 X133.633526 Y80.353210 Z2
G01 X133.257346 Y79.556960 Z2
G02 X131.878751 Y78.787351 Z2 I-2.416180 J2.708548
G03 X130.990596 Y78.458610 Z2 I2.097092 J-7.029805
G00 Z0.000000

(End cutting path id: path24)


(Start cutting path id: path24)
(Change tool to Default tool)

G00 Z0.000000
G00 X130.863066 Y78.458610

G01 Z2 F100.0(Penetrate)
G01 X130.990596 Y78.458610 Z2 F75
G00 Z0.000000

(End cutting path id: path24)


(Start cutting path id: path24)
(Change tool to Default tool)

G00 Z0.000000
G00 X142.595536 Y74.377760

G01 Z2 F100.0(Penetrate)
G02 X142.606831 Y75.136484 Z2 I59.781316 J-0.510489 F75
G02 X143.032926 Y76.097600 Z2 I1.362261 J-0.028928
G01 X144.927726 Y75.766680 Z2
G01 X143.743276 Y74.459030 Z2
G02 X143.184135 Y74.358936 Z2 I-0.742488 J2.535872
G03 X142.595536 Y74.269510 Z2 I0.254240 J-3.655193
G02 X142.103268 Y74.170772 Z2 I-1.694486 J7.171515
G02 X141.575316 Y74.123290 Z2 I-0.583416 J3.528131
G02 X140.065079 Y74.117059 Z2 I-1.028334 J66.219718
G03 X138.514676 Y74.122700 Z2 I-1.550403 J-213.065828
G03 X136.128287 Y73.916676 Z2 I-0.000000 J-13.923886
G03 X134.051236 Y72.974960 Z2 I0.779454 J-4.480598
G00 Z0.000000

(End cutting path id: path24)


(Start cutting path id: path24)
(Change tool to Default tool)

G00 Z0.000000
G00 X137.877046 Y69.149160

G01 Z2 F100.0(Penetrate)
G01 X140.555106 Y69.505760 Z2 F75
G01 X141.618026 Y68.887710 Z2
G01 X142.473026 Y68.169480 Z2
G01 X144.508436 Y68.128980 Z2
G00 Z0.000000

(End cutting path id: path24)


(Footer)
M5
;G00 X0.0000 Y0.0000
M2
(Using default footer. To add your own footer create file "footer" in the output dir.)
(end)
%