%
(Header)
(Generated by gcodetools from Inkscape.)
(Using default header. To add your own header create file "header" in the output dir.)
M3
(Header end.)
G21 (All units in mm)

(Start cutting path id: path14)
(Change tool to Default tool)

G00 Z0.000000
G00 X130.990596 Y142.991179

G01 Z2 F100.0(Penetrate)
G03 X132.486774 Y143.143314 Z2 I-0.192526 J9.326577 F75
G02 X136.091666 Y143.788222 Z2 I66.249003 J-359.919534
G01 X142.595536 Y144.935963 Z2
G03 X144.540551 Y145.290197 Z2 I-20.816693 J119.816554
G02 X146.421336 Y145.615123 Z2 I10.381970 J-54.488628
G02 X148.445800 Y145.849929 Z2 I4.068319 J-26.231720
G02 X150.374666 Y145.924296 Z2 I1.928866 J-24.977501
G00 Z0.000000

(End cutting path id: path14)


(Start cutting path id: path14)
(Change tool to Default tool)

G00 Z0.000000
G00 X152.160046 Y145.286662

G01 Z2 F100.0(Penetrate)
G01 X152.160046 Y127.560433 Z2 F75
G01 X152.160046 Y122.969467 Z2
G01 X152.160046 Y121.184092 Z2
G01 X152.160046 Y120.163877 Z2
G00 Z0.000000

(End cutting path id: path14)


(Start cutting path id: path14)
(Change tool to Default tool)

G00 Z0.000000
G00 X130.863066 Y142.991179

G01 Z2 F100.0(Penetrate)
G01 X130.990596 Y142.991179 Z2 F75
G00 Z0.000000

(End cutting path id: path14)


(Start cutting path id: path14)
(Change tool to Default tool)

G00 Z0.000000
G00 X130.990596 Y132.278926

G01 Z2 F100.0(Penetrate)
G01 X135.709086 Y132.278926 Z2 F75
G01 X149.609506 Y132.406452 Z2
G00 Z0.000000

(End cutting path id: path14)


(Start cutting path id: path14)
(Change tool to Default tool)

G00 Z0.000000
G00 X130.863066 Y132.278926

G01 Z2 F100.0(Penetrate)
G01 X130.990596 Y132.278926 Z2 F75
G00 Z0.000000

(End cutting path id: path14)


(Footer)
M5
;G00 X0.0000 Y0.0000
M2
(Using default footer. To add your own footer create file "footer" in the output dir.)
(end)
%