%
(Header)
(Generated by gcodetools from Inkscape.)
(Using default header. To add your own header create file "header" in the output dir.)
M3
(Header end.)
G21 (All units in mm)

(Start cutting path id: path19)
(Change tool to Default tool)

G00 Z0.000000
G00 X141.575316 Y118.657860

G01 Z2 F100.0(Penetrate)
G02 X143.519419 Y119.258521 Z2 I2.095265 J-3.335073 F75
G02 X145.526286 Y118.894514 Z2 I0.181117 J-4.715656
G02 X146.135855 Y117.607328 Z2 I-0.412544 J-0.983296
G02 X145.273106 Y116.529854 Z2 I-1.756348 J0.522189
G02 X140.831693 Y114.892706 Z2 I-7.415886 J13.275405
G02 X136.219196 Y114.158014 Z2 I-11.739636 J58.856791
G03 X135.763723 Y114.101825 Z2 I7.364201 J-61.568986
G02 X135.326506 Y114.068764 Z2 I-0.542639 J4.268620
G02 X134.810707 Y114.064695 Z2 I-0.381281 J15.639091
G03 X134.306286 Y114.066864 Z2 I-0.504421 J-58.659260
G01 X130.990596 Y114.066864 Z2
G00 Z0.000000

(End cutting path id: path19)


(Start cutting path id: path19)
(Change tool to Default tool)

G00 Z0.000000
G00 X152.160046 Y119.167937

G01 Z2 F100.0(Penetrate)
G01 X152.160046 Y104.247298 Z2 F75
G01 X152.140746 Y102.589449 Z2
G01 X152.160046 Y101.059127 Z2
G01 X152.160046 Y96.595689 Z2
G01 X152.160046 Y94.938039 Z2
G01 X152.160046 Y94.045149 Z2
G00 Z0.000000

(End cutting path id: path19)


(Start cutting path id: path19)
(Change tool to Default tool)

G00 Z0.000000
G00 X130.863066 Y114.066895

G01 Z2 F100.0(Penetrate)
G01 X130.990596 Y114.066895 Z2 F75
G00 Z0.000000

(End cutting path id: path19)


(Start cutting path id: path19)
(Change tool to Default tool)

G00 Z0.000000
G00 X130.863066 Y109.858509

G01 Z2 F100.0(Penetrate)
G01 X131.628816 Y109.719076 Z2 F75
G01 X133.031026 Y109.196373 Z2
G01 X136.856826 Y107.793578 Z2
G01 X146.803916 Y104.119802 Z2
G01 X150.629726 Y102.722518 Z2
G01 X152.032516 Y102.589480 Z2
G00 Z0.000000

(End cutting path id: path19)


(Start cutting path id: path19)
(Change tool to Default tool)

G00 Z0.000000
G00 X130.863066 Y102.461953

G01 Z2 F100.0(Penetrate)
G02 X131.061785 Y102.433813 Z2 I-0.264897 J-2.586407 F75
G02 X131.883276 Y102.173837 Z2 I-0.605499 J-3.341187
G03 X133.631368 Y101.371430 Z2 I119.403070 J257.821471
G02 X135.454036 Y100.516087 Z2 I-35.244418 J-77.472694
G01 X143.615746 Y96.690280 Z2
G03 X145.792495 Y95.713437 Z2 I18.056437 J37.322363
G02 X147.694736 Y94.764100 Z2 I-5.833402 J-14.069210
G02 X148.275678 Y94.333225 Z2 I-1.745914 J-2.961061
G03 X148.728236 Y94.085620 Z2 I0.725839 J0.789266
G03 X149.538415 Y94.010336 Z2 I0.631129 J2.394920
G02 X150.502196 Y94.045220 Z2 I0.963781 J-13.296434
G00 Z0.000000

(End cutting path id: path19)


(Start cutting path id: path19)
(Change tool to Default tool)

G00 Z0.000000
G00 X132.648446 Y97.360920

G01 Z2 F100.0(Penetrate)
G01 X132.775966 Y97.360920 Z2 F75
G00 Z0.000000

(End cutting path id: path19)


(Start cutting path id: path19)
(Change tool to Default tool)

G00 Z0.000000
G00 X133.031026 Y94.045220

G01 Z2 F100.0(Penetrate)
G01 X133.413606 Y94.045220 Z2 F75
G00 Z0.000000

(End cutting path id: path19)


(Footer)
M5
;G00 X0.0000 Y0.0000
M2
(Using default footer. To add your own footer create file "footer" in the output dir.)
(end)
%