%
(Header)
(Generated by gcodetools from Inkscape.)
(Using default header. To add your own header create file "header" in the output dir.)
M3
(Header end.)
G21 (All units in mm)

(Start cutting path id: path7)
(Change tool to Default tool)

G00 Z0.000000
G00 X78.929389 Y166.559339

G01 Z2 F100.0(Penetrate)
G01 X80.077130 Y166.559339 Z2 F75
G01 X81.607452 Y166.559339 Z2
G01 X85.688311 Y166.559339 Z2
G01 X98.440993 Y166.559339 Z2
G03 X101.165839 Y166.559632 Z2 I0.400413 J12677.350314
G02 X103.669596 Y166.559339 Z2 I0.772147 J-3771.889125
G01 X104.904316 Y166.157866 Z2
G02 X104.619198 Y164.691938 Z2 I-1.548026 J-0.459606
G02 X104.179106 Y164.242208 Z2 I-2.422110 J1.930008
G03 X103.637032 Y163.781232 Z2 I22.267419 J-26.734061
G03 X103.031956 Y163.250037 Z2 I47.806627 J-55.066002
G02 X101.760199 Y162.141885 Z2 I-60.631123 J68.298705
G03 X100.481423 Y161.039769 Z2 I144.085013 J-168.473629
G02 X92.750287 Y154.363734 Z2 I-1176.881932 J1355.065378
G03 X85.050676 Y147.665590 Z2 I511.048899 J-595.232416
G03 X84.029995 Y146.698164 Z2 I12.860676 J-14.590770
G02 X83.137774 Y146.282573 Z2 I-1.000066 J0.981477
G00 Z0.000000

(End cutting path id: path7)


(Start cutting path id: path7)
(Change tool to Default tool)

G00 Z0.000000
G00 X92.319706 Y146.282573

G01 Z2 F100.0(Penetrate)
G02 X93.066930 Y146.259606 Z2 I0.000000 J-12.166942 F75
G03 X93.711086 Y146.323013 Z2 I0.125088 J2.032944
G03 X94.159765 Y146.564312 Z2 I-0.277937 J1.054597
G02 X94.744585 Y147.006502 Z2 I2.990394 J-3.347136
G02 X95.704261 Y147.581215 Z2 I11.506250 J-18.124929
G03 X96.783145 Y148.195474 Z2 I-75.333278 J133.569950
G02 X99.337075 Y149.655302 Z2 I312.354718 J-543.492346
G03 X101.884216 Y151.127213 Z2 I-103.003379 J181.187128
G03 X103.020911 Y151.794980 Z2 I-3204.398971 J5455.933648
G02 X104.051976 Y152.362532 Z2 I10.624372 J-18.080839
G02 X104.759498 Y152.621124 Z2 I1.385149 J-2.692633
G02 X104.944866 Y152.658913 Z2 I0.860732 J-3.748688
G00 Z0.000000

(End cutting path id: path7)


(Footer)
M5
G00 X0.0000 Y0.0000
M2
(Using default footer. To add your own footer create file "footer" in the output dir.)
(end)
%