%
(Header)
(Generated by gcodetools from Inkscape.)
(Using default header. To add your own header create file "header" in the output dir.)
M3
(Header end.)
G21 (All units in mm)

(Start cutting path id: path28)
(Change tool to Default tool)

G00 Z0.000000
G00 X113.363616 Y65.730260

G01 Z2 F100.0(Penetrate)
G01 X112.981036 Y63.013330 Z2 F75
G02 X109.939920 Y61.971312 Z2 I-3.585403 J5.505213
G03 X106.859746 Y61.394350 Z2 I1.272033 J-15.301294
G00 Z0.000000

(End cutting path id: path28)


(Start cutting path id: path28)
(Change tool to Default tool)

G00 Z0.000000
G00 X121.907916 Y64.710050

G01 Z2 F100.0(Penetrate)
G02 X122.651097 Y63.358260 Z2 I-0.307243 J-1.049101 F75
G02 X121.525336 Y62.215500 Z2 I-1.615413 J0.465496
G02 X117.492305 Y61.372633 Z2 I-6.711657 J22.044340
G02 X113.491146 Y61.139290 Z2 I-4.001159 J34.187438
G00 Z0.000000

(End cutting path id: path28)


(Start cutting path id: path28)
(Change tool to Default tool)

G00 Z0.000000
G00 X130.069626 Y63.817360

G01 Z2 F100.0(Penetrate)
G02 X130.718163 Y64.017536 Z2 I1.924464 J-5.084293 F75
G02 X130.962316 Y64.072410 Z2 I1.854839 J-7.682133
G00 Z0.000000

(End cutting path id: path28)


(Start cutting path id: path28)
(Change tool to Default tool)

G00 Z0.000000
G00 X130.962316 Y62.031980

G01 Z2 F100.0(Penetrate)
G02 X130.778051 Y61.964191 Z2 I-2.699128 J7.052442 F75
G02 X130.321536 Y61.811760 Z2 I-4.643199 J13.146103
G03 X129.105397 Y61.408855 Z2 I12.883414 J-40.924527
G02 X127.391566 Y61.033420 Z2 I-2.424354 J6.967509
G02 X125.733651 Y61.079513 Z2 I-0.644459 J6.659192
G03 X124.075866 Y61.011820 Z2 I-0.655591 J-4.277926
G00 Z0.000000

(End cutting path id: path28)


(Start cutting path id: path28)
(Change tool to Default tool)

G00 Z0.000000
G00 X107.242326 Y56.420850

G01 Z2 F100.0(Penetrate)
G03 X108.501538 Y56.823931 Z2 I-0.806862 J4.689017 F75
G02 X109.920386 Y56.990490 Z2 I0.950717 J-1.972202
G02 X111.850342 Y55.941647 Z2 I-0.842905 J-3.851074
G03 X114.001246 Y55.400640 Z2 I1.533219 J1.549459
G00 Z0.000000

(End cutting path id: path28)


(Start cutting path id: path28)
(Change tool to Default tool)

G00 Z0.000000
G00 X126.116296 Y55.145580

G01 Z2 F100.0(Penetrate)
G03 X128.186240 Y55.794551 Z2 I-0.082908 J3.890052 F75
G02 X130.069436 Y56.377060 Z2 I1.930827 J-2.906827
G02 X130.776904 Y56.317579 Z2 I0.052152 J-3.616749
G03 X130.962316 Y56.293360 Z2 I0.324075 J1.759183
G00 Z0.000000

(End cutting path id: path28)


(Start cutting path id: path28)
(Change tool to Default tool)

G00 Z0.000000
G00 X115.276516 Y53.360240

G01 Z2 F100.0(Penetrate)
G03 X117.285797 Y54.136496 Z2 I-1.164998 J6.004077 F75
G02 X119.357376 Y54.610120 Z2 I1.748191 J-2.879153
G02 X123.090571 Y53.617843 Z2 I-1.138207 J-11.800967
G03 X127.136516 Y53.232710 Z2 I2.587884 J5.742009
G00 Z0.000000

(End cutting path id: path28)


(Start cutting path id: path28)
(Change tool to Default tool)

G00 Z0.000000
G00 X108.390066 Y50.682170

G01 Z2 F100.0(Penetrate)
G02 X112.401632 Y50.482728 Z2 I1.849021 J-3.252833 F75
G03 X116.041676 Y49.286270 Z2 I3.763092 J5.313272
G03 X116.969850 Y49.377140 Z2 I0.075950 J4.009965
G03 X117.813276 Y49.715190 Z2 I-0.580498 J2.669518
G01 X118.346416 Y50.790320 Z2
G01 X117.061896 Y50.937230 Z2
G00 Z0.000000

(End cutting path id: path28)


(Start cutting path id: path28)
(Change tool to Default tool)

G00 Z0.000000
G00 X104.946846 Y46.728840

G01 Z2 F100.0(Penetrate)
G01 X106.094586 Y46.728840 Z2 F75
G01 X107.624906 Y46.728840 Z2
G01 X111.450716 Y46.728840 Z2
G01 X124.968556 Y46.728840 Z2
G01 X128.411776 Y46.728840 Z2
G01 X129.814576 Y46.728840 Z2
G01 X130.962316 Y46.728840 Z2
G00 Z0.000000

(End cutting path id: path28)


(Footer)
M5
;G00 X0.0000 Y0.0000
M2
(Using default footer. To add your own footer create file "footer" in the output dir.)
(end)
%