%
(Header)
(Generated by gcodetools from Inkscape.)
(Using default header. To add your own header create file "header" in the output dir.)
M3
(Header end.)
G21 (All units in mm)

(Start cutting path id: path5)
(Change tool to Default tool)

G00 Z0.000000
G00 X82.148748 Y59.390780

G01 Z2 F100.0(Penetrate)
G01 X82.445312 Y59.416280 Z2 F100
G02 X82.769519 Y59.375039 Z2 I-0.490004 J-5.146991
G02 X83.100586 Y59.315570 Z2 I-1.351779 J-8.476728
G01 X83.440036 Y59.200040 Z2
G01 X83.488226 Y58.855420 Z2
G01 X83.726095 Y58.489380 Z2
G01 X84.589841 Y58.503880 Z2
G01 X84.977048 Y58.671230 Z2
G01 X85.212664 Y58.497510 Z2
G01 X85.565145 Y57.991620 Z2
G01 X85.551475 Y57.634200 Z2
G03 X85.541456 Y57.444691 Z2 I1.458437 J-0.172125
G02 X85.542975 Y57.276780 Z2 I-30.077843 J-0.356072
G01 X85.573565 Y57.076550 Z2
G01 X85.781234 Y56.945600 Z2
G01 X86.138656 Y56.786170 Z2
G01 X86.376937 Y56.753270 Z2
G01 X86.667986 Y56.739770 Z2
G01 X86.785425 Y56.293830 Z2
G02 X86.812388 Y56.018429 Z2 I-6.400309 J-0.765634
G03 X86.832195 Y55.817260 Z2 I4.577550 J0.349148
G01 X86.835095 Y55.613180 Z2
G01 X86.644984 Y55.502930 Z2
G01 X86.236978 Y54.953490 Z2
G01 X86.444187 Y54.238650 Z2
G01 X86.559857 Y53.911010 Z2
G01 X86.251112 Y53.188490 Z2
G01 X86.019519 Y53.135390 Z2
G01 X85.816517 Y53.076690 Z2
G01 X85.565617 Y52.749330 Z2
G01 X85.423816 Y51.855780 Z2
G01 X85.417016 Y51.617520 Z2
G01 X85.327666 Y51.447290 Z2
G03 X85.129107 Y51.226536 Z2 I7.734960 J-7.156956
G02 X84.908950 Y50.998790 Z2 I-2.384386 J2.084647
G01 X84.649410 Y50.902790 Z2
G01 X84.262203 Y51.017480 Z2
G03 X83.876282 Y50.975574 Z2 I-0.061353 J-1.232948
G03 X83.517574 Y50.830630 Z2 I0.432150 J-1.585826
G01 X83.077323 Y50.306910 Z2
G01 X82.771751 Y49.906710 Z2
G01 X81.880563 Y49.719200 Z2
G01 X81.551730 Y50.018570 Z2
G03 X81.149381 Y50.216041 Z2 I-0.684337 J-0.885711
G03 X80.717769 Y50.276690 Z2 I-0.478155 J-1.836709
G03 X80.241152 Y50.199745 Z2 I-0.031948 J-1.316713
G03 X79.794430 Y50.037370 Z2 I18.859500 J-52.581602
G01 X79.529052 Y49.999870 Z2
G01 X79.227339 Y50.262810 Z2
G01 X78.859713 Y50.516650 Z2
G01 X78.859644 Y50.694080 Z2
G03 X78.886986 Y50.873210 Z2 I-5.899811 J0.992174
G03 X78.900854 Y51.081280 Z2 I-1.481803 J0.203263
G01 X78.762731 Y51.557730 Z2
G01 X77.858397 Y52.025470 Z2
G01 X77.563785 Y52.068570 Z2
G01 X77.453885 Y52.185040 Z2
G02 X77.378321 Y52.485205 Z2 I2.139864 J0.698283
G02 X77.327229 Y52.838570 Z2 I5.136809 J0.923099
G01 X77.331629 Y53.073720 Z2
G01 X77.679696 Y53.330890 Z2
G01 X78.001841 Y53.940620 Z2
G01 X77.703162 Y54.932380 Z2
G01 X77.411677 Y55.029680 Z2
G01 X77.186288 Y55.163500 Z2
G01 X77.173488 Y55.429830 Z2
G02 X77.200624 Y55.773337 Z2 I2.581424 J-0.031098
G03 X77.250208 Y56.114880 Z2 I-117.759387 J17.270306
G01 X77.326468 Y56.438110 Z2
G01 X77.649945 Y56.536910 Z2
G01 X78.156178 Y56.642650 Z2
G01 X78.361664 Y56.829850 Z2
G03 X78.490858 Y57.064656 Z2 I-1.202505 J0.814581
G03 X78.568229 Y57.336060 Z2 I-0.976336 J0.425063
G02 X78.589186 Y57.478196 Z2 I44.493734 J-6.487724
G03 X78.600729 Y57.633910 Z2 I-1.044522 J0.155714
G01 X78.574459 Y57.901970 Z2
G02 X78.572929 Y57.987689 Z2 I1.626269 J0.071893
G03 X78.573259 Y58.080680 Z2 I-9.394736 J0.079796
G01 X78.600429 Y58.423260 Z2
G01 X78.811544 Y58.551160 Z2
G03 X79.121484 Y58.755196 Z2 I-0.994245 J1.847728
G02 X79.437033 Y58.947280 Z2 I0.928835 J-1.170630
G01 X79.761981 Y59.010780 Z2
G01 X79.982106 Y58.801040 Z2
G01 X80.866720 Y58.559930 Z2
G03 X81.021920 Y58.576264 Z2 I-0.145124 J2.124401
G03 X81.164572 Y58.602330 Z2 I-0.260826 J1.830815
G01 X81.757493 Y58.888000 Z2
G01 X82.148769 Y59.390400 Z2
G00 Z0.000000

(End cutting path id: path5)


(Start cutting path id: path5)
(Change tool to Default tool)

G00 Z0.000000
G00 X88.372580 Y58.259390

G01 Z2 F100.0(Penetrate)
G01 X88.590107 Y58.956260 Z2 F100
G01 X89.027853 Y59.004060 Z2
G02 X89.317757 Y58.999997 Z2 I0.000000 J-10.344039
G02 X89.653341 Y58.979360 Z2 I-0.141139 J-5.033995
G03 X90.122156 Y58.965089 Z2 I0.344847 J3.620761
G02 X90.666037 Y58.974360 Z2 I0.543881 J-15.947838
G03 X90.833982 Y58.975881 Z2 I-0.000000 J9.270570
G02 X91.023458 Y58.973360 Z2 I0.054632 J-3.015173
G02 X91.289354 Y58.955696 Z2 I-0.226516 J-5.419840
G03 X91.529806 Y58.944760 Z2 I0.240452 J2.637960
G01 X92.185080 Y58.944760 Z2
G03 X92.340400 Y58.945326 Z2 I-0.000000 J21.319658
G02 X92.512716 Y58.944650 Z2 I0.056010 J-7.687821
G02 X92.813072 Y58.928015 Z2 I-0.043202 J-3.499865
G03 X93.078634 Y58.914950 Z2 I0.265562 J2.692453
G01 X93.763693 Y58.914950 Z2
G02 X93.983359 Y58.914786 Z2 I0.000000 J-147.176848
G02 X94.240255 Y58.897850 Z2 I-0.002988 J-2.002172
G03 X94.382812 Y58.886768 Z2 I0.176107 J1.342912
G03 X94.508322 Y58.885150 Z2 I0.130801 J5.278859
G03 X94.952450 Y58.885118 Z2 I0.298754 J763.726032
G02 X95.372091 Y58.885150 Z2 I0.239394 J-1487.249863
G01 X95.914063 Y58.761600 Z2
G01 X95.967793 Y58.319240 Z2
G03 X95.970059 Y58.103699 Z2 I10.252906 J-0.000000
G02 X95.965093 Y57.902240 Z2 I-2.206631 J-0.046399
G01 X95.844229 Y57.593940 Z2
G01 X95.312485 Y57.371830 Z2
G02 X94.687191 Y57.139319 Z2 I-16.714982 J43.994692
G03 X94.061508 Y56.909840 Z2 I43.484107 J-119.528758
G01 X91.499985 Y55.956720 Z2
G02 X90.931078 Y55.748948 Z2 I-26.380464 J71.350594
G03 X90.368149 Y55.536460 Z2 I6.919448 J-19.183049
G01 X89.948375 Y55.231030 Z2
G02 X89.678115 Y55.194305 Z2 I-0.271073 J0.982055
G03 X89.385284 Y55.191730 Z2 I0.014603 J-18.308924
G01 X89.176743 Y55.162030 Z2
G01 X89.112113 Y55.698160 Z2
G03 X89.099490 Y55.800197 Z2 I-1.822780 J-0.173706
G02 X89.088443 Y55.906660 Z2 I1.107744 J0.168743
G03 X89.072733 Y56.159563 Z2 I-19.629104 J-1.092398
G03 X89.049093 Y56.413010 Z2 I-5.178758 J-0.355216
G01 X89.028963 Y56.591720 Z2
G03 X89.013877 Y56.860178 Z2 I-17.208513 J-0.832405
G03 X88.989523 Y57.127850 Z2 I-5.006284 J-0.320543
G01 X88.969393 Y57.306560 Z2
G01 X88.959693 Y57.485270 Z2
G01 X88.939563 Y57.663980 Z2
G01 X88.929863 Y57.842690 Z2
G01 X88.908583 Y58.229900 Z2
G00 Z0.000000

(End cutting path id: path5)


(Start cutting path id: path5)
(Change tool to Default tool)

G00 Z0.000000
G00 X67.820693 Y50.396400

G01 Z2 F100.0(Penetrate)
G02 X67.753713 Y50.719525 Z2 I2.285453 J0.642248 F100
G03 X67.703942 Y51.051680 Z2 I-11.968549 J-1.623612
G02 X67.601846 Y51.752981 Z2 I19.347763 J3.174747
G03 X67.500387 Y52.451580 Z2 I-19.746942 J-2.511226
G02 X67.216646 Y54.311685 Z2 I87.740660 J14.335672
G02 X66.956923 Y56.174720 Z2 I409.346325 J58.016042
G03 X66.870048 Y56.770295 Z2 I-34.630632 J-4.747379
G02 X66.782096 Y57.366130 Z2 I43.109370 J6.667815
G03 X66.742508 Y57.624529 Z2 I-10.464915 J-1.471042
G02 X66.719076 Y57.872480 Z2 I1.752206 J0.290671
G01 X66.736606 Y58.101290 Z2
G01 X67.016486 Y58.170190 Z2
G02 X67.533541 Y58.120379 Z2 I-0.040159 J-3.125339
G03 X68.058966 Y58.033930 Z2 I2.936800 J16.209596
G01 X71.603400 Y57.527580 Z2
G03 X72.022925 Y57.469235 Z2 I3.570395 J24.135255
G02 X72.437384 Y57.413040 Z2 I-5.136301 J-39.438505
G01 X72.922794 Y57.242990 Z2
G01 X73.152963 Y56.293850 Z2
G01 X73.150963 Y55.996550 Z2
G01 X72.824590 Y55.787500 Z2
G02 X71.963784 Y55.504858 Z2 I-22.902380 J68.298666
G02 X71.097051 Y55.238720 Z2 I-10.632631 J33.082926
G03 X70.681766 Y55.114273 Z2 I9.550848 J-32.626756
G03 X70.292874 Y54.982720 Z2 I2.099491 J-6.847019
G01 X70.112601 Y54.715250 Z2
G01 X71.305547 Y53.787690 Z2
G03 X72.554742 Y52.904449 Z2 I131.717915 J184.967757
G03 X73.807500 Y52.026230 Z2 I670.269105 J954.789661
G03 X74.368942 Y51.638354 Z2 I31.545605 J45.061285
G02 X74.849981 Y51.289940 Z2 I-5.873495 J-8.615545
G00 Z0.000000

(End cutting path id: path5)


(Start cutting path id: path5)
(Change tool to Default tool)

G00 Z0.000000
G00 X83.308965 Y57.485250

G01 Z2 F100.0(Penetrate)
G01 X83.159305 Y57.391550 Z2 F100
G02 X82.841920 Y57.282895 Z2 I-1.505094 J3.878572
G02 X82.445195 Y57.185420 Z2 I-1.200786 J4.031127
G03 X82.295451 Y57.155354 Z2 I2.596127 J-13.318129
G03 X82.177129 Y57.127820 Z2 I0.494422 J-2.392651
G01 X82.096279 Y57.663950 Z2
G01 X82.101279 Y57.984790 Z2
G01 X82.266568 Y58.080390 Z2
G02 X82.480323 Y58.104892 Z2 I0.283514 J-1.528709
G02 X82.743085 Y58.110790 Z2 I0.262762 J-5.850464
G01 X83.129832 Y58.038590 Z2
G01 X83.236516 Y57.948690 Z2
G01 X83.308546 Y57.723600 Z2
G02 X83.309735 Y57.582317 Z2 I-3.011760 J-0.095992
G03 X83.309006 Y57.485320 Z2 I6.452728 J-0.096997
G02 X83.384100 Y57.474122 Z2 I-0.384374 J-2.835036
G03 X83.517548 Y57.458220 Z2 I0.252849 J1.553982
G01 X83.713196 Y57.425020 Z2
G01 X83.804506 Y57.247110 Z2
G03 X83.899513 Y56.981155 Z2 I2.242685 J0.651206
G02 X83.984940 Y56.711020 Z2 I-1.340821 J-0.572595
G01 X84.063100 Y56.542050 Z2
G01 X84.381269 Y56.571450 Z2
G03 X84.633962 Y56.644536 Z2 I-0.301678 J1.516424
G03 X84.857786 Y56.732190 Z2 I-6.584583 J17.143327
G01 X85.017903 Y56.863160 Z2
G01 X84.967963 Y57.098220 Z2
G01 X84.589766 Y57.494850 Z2
G01 X84.172774 Y57.674020 Z2
G01 X83.997166 Y57.711420 Z2
G01 X83.458068 Y57.994750 Z2
G01 X83.373358 Y57.995460 Z2
G01 X83.279228 Y57.961960 Z2
G00 Z0.000000

(End cutting path id: path5)


(Start cutting path id: path5)
(Change tool to Default tool)

G00 Z0.000000
G00 X79.526298 Y51.975150

G01 Z2 F100.0(Penetrate)
G01 X79.143389 Y52.213890 Z2 F100
G01 X79.061899 Y52.509540 Z2
G01 X79.228590 Y52.633750 Z2
G01 X79.544228 Y52.656750 Z2
G01 X79.615658 Y52.302810 Z2
G01 X79.574078 Y51.975180 Z2
G01 X79.636018 Y51.737010 Z2
G01 X79.854328 Y51.379930 Z2
G01 X80.241144 Y51.173250 Z2
G01 X80.777024 Y51.029130 Z2
G01 X80.911539 Y51.115830 Z2
G01 X80.881959 Y51.349700 Z2
G01 X80.866289 Y51.528390 Z2
G01 X80.734255 Y51.765770 Z2
G01 X80.624906 Y52.302820 Z2
G02 X80.599898 Y52.499304 Z2 I1.161889 J0.247713
G02 X80.598566 Y52.660250 Z2 I2.307047 J0.099578
G03 X80.600017 Y52.847081 Z2 I-4.932741 J0.131736
G02 X80.598566 Y53.107020 Z2 I23.279579 J0.259939
G03 X80.584436 Y53.448745 Z2 I-4.139305 J-0.000000
G02 X80.569216 Y53.732510 Z2 I4.872578 J0.403639
G02 X80.566728 Y54.089316 Z2 I10.121725 J0.249002
G03 X80.568780 Y54.477140 Z2 I-36.205765 J0.385524
G03 X80.558689 Y54.727100 Z2 I-3.105882 J-0.000196
G02 X80.564580 Y54.983490 Z2 I1.235907 J0.099868
G03 X80.591870 Y55.309234 Z2 I-3.767472 J0.479649
G03 X80.598550 Y55.638760 Z2 I-8.124967 J0.329526
G02 X80.620554 Y56.014774 Z2 I3.223797 J-0.000000
G02 X80.710864 Y56.442960 Z2 I2.392257 J-0.280943
G03 X80.753400 Y56.668167 Z2 I-0.978536 J0.301442
G02 X80.779814 Y57.008880 Z2 I59.867847 J-4.469883
G01 X80.827984 Y57.396090 Z2
G01 X81.075228 Y57.694950 Z2
G02 X81.404744 Y57.861893 Z2 I0.888894 J-1.345849
G02 X81.789957 Y57.957270 Z2 I0.618693 J-1.673204
G02 X81.941871 Y57.977014 Z2 I4.172317 J-31.508189
G02 X82.058023 Y57.991770 Z2 I15.715198 J-123.238307
G00 Z0.000000

(End cutting path id: path5)


(Start cutting path id: path5)
(Change tool to Default tool)

G00 Z0.000000
G00 X102.967208 Y57.919570

G01 Z2 F100.0(Penetrate)
G02 X103.160054 Y57.932431 Z2 I0.190089 J-1.398086 F100
G03 X103.324628 Y57.932270 Z2 I0.164574 J84.237999
G03 X103.489641 Y57.933648 Z2 I-0.000000 J9.880987
G02 X103.652258 Y57.931270 Z2 I0.043362 J-2.596179
G02 X103.823501 Y57.913015 Z2 I-0.071172 J-1.479942
G02 X104.009688 Y57.876270 Z2 I-0.509064 J-3.069507
G02 X104.205564 Y57.828518 Z2 I-1.675255 J-7.297456
G02 X104.396888 Y57.773310 Z2 I-0.878029 J-3.401925
G02 X104.950705 Y57.546153 Z2 I-1.134488 J-3.554615
G02 X105.439368 Y57.212470 Z2 I-1.035975 J-2.041788
G02 X105.531909 Y57.125121 Z2 I-1.532184 J-1.715947
G02 X105.618058 Y57.038930 Z2 I-30.042931 J-30.114537
G02 X105.704999 Y56.950817 Z2 I-8.669490 J-8.641065
G02 X105.787848 Y56.860220 Z2 I-1.335644 J-1.304607
G02 X106.287031 Y56.011261 Z2 I-2.131954 J-1.824815
G02 X106.510138 Y55.073110 Z2 I-3.724325 J-1.381307
G03 X106.528628 Y54.933040 Z2 I3.613199 J0.405716
G02 X106.540538 Y54.775260 Z2 I-1.039188 J-0.157780
G02 X106.528451 Y54.617102 Z2 I-1.040792 J0.000000
G03 X106.511638 Y54.477410 Z2 I2.122357 J-0.326300
G02 X106.237423 Y53.336116 Z2 I-3.953196 J0.346234
G02 X105.609138 Y52.303090 Z2 I-3.470767 J1.403340
G02 X105.484324 Y52.168801 Z2 I-1.724097 J1.477304
G03 X105.350018 Y52.035030 Z2 I36.305870 J-36.585324
G02 X105.216926 Y51.902990 Z2 I-16.704411 J16.704411
G02 X105.081948 Y51.780040 Z2 I-1.656709 J1.683216
G02 X104.227938 Y51.228790 Z2 I-2.585785 J3.068812
G02 X103.265058 Y50.941390 Z2 I-1.394259 J2.914525
G02 X102.432022 Y50.892168 Z2 I-0.744583 J5.527570
G02 X101.626868 Y51.046580 Z2 I0.037631 J2.372593
G02 X100.982868 Y51.364743 Z2 I1.333031 J3.509065
G02 X100.435488 Y51.796860 Z2 I1.620608 J2.615640
G02 X100.310873 Y51.926071 Z2 I2.949535 J2.969309
G02 X100.191458 Y52.064810 Z2 I1.912444 J1.766838
G02 X99.884657 Y52.528491 Z2 I2.388621 J1.913804
G02 X99.673784 Y53.047720 Z2 I2.293482 J1.233881
G02 X99.583549 Y53.393962 Z2 I7.475433 J2.133079
G02 X99.542027 Y53.732780 Z2 I1.513291 J0.357404
G02 X99.541484 Y53.889445 Z2 I9.275577 J0.110467
G03 X99.541910 Y54.060420 Z2 I-34.330815 J0.170975
G03 X99.541489 Y54.231953 Z2 I-34.983144 J0.000000
G02 X99.542027 Y54.388060 Z2 I9.351477 J0.045854
G02 X99.590548 Y54.820601 Z2 I2.183621 J-0.025958
G02 X99.711546 Y55.251820 Z2 I3.531921 J-0.758458
G02 X100.162389 Y56.138639 Z2 I3.496087 J-1.219338
G02 X100.792888 Y56.889890 Z2 I4.336126 J-2.998958
G02 X101.279109 Y57.287242 Z2 I2.344520 J-2.372722
G02 X101.835368 Y57.597980 Z2 I2.181367 J-3.251656
G02 X102.394794 Y57.801894 Z2 I1.576583 J-3.455936
G02 X102.967208 Y57.919830 Z2 I1.153437 J-4.150204
G00 Z0.000000

(End cutting path id: path5)


(Start cutting path id: path5)
(Change tool to Default tool)

G00 Z0.000000
G00 X108.447668 Y57.783560

G01 Z2 F100.0(Penetrate)
G01 X109.013588 Y57.664420 Z2 F100
G01 X111.009198 Y57.664420 Z2
G02 X111.205420 Y57.662465 Z2 I0.000000 J-9.849268
G03 X111.396398 Y57.669420 Z2 I0.033816 J1.697024
G01 X111.604898 Y57.693020 Z2
G02 X111.974181 Y57.697733 Z2 I0.260409 J-5.934102
G03 X112.379308 Y57.694020 Z2 I0.405127 J22.098759
G01 X112.796308 Y57.689020 Z2
G01 X113.183508 Y57.694020 Z2
G01 X114.702558 Y57.694020 Z2
G02 X115.869005 Y57.655623 Z2 I-0.000000 J-17.736505
G03 X117.025798 Y57.723820 Z2 I0.306366 J4.648387
G00 Z0.000000

(End cutting path id: path5)


(Start cutting path id: path5)
(Change tool to Default tool)

G00 Z0.000000
G00 X83.934488 Y57.694020

G01 Z2 F100.0(Penetrate)
G03 X83.874725 Y57.611013 Z2 I4.369114 J-3.208663 F100
G02 X83.755777 Y57.455740 Z2 I-2.042599 J1.441553
G00 Z0.000000

(End cutting path id: path5)


(Start cutting path id: path5)
(Change tool to Default tool)

G00 Z0.000000
G00 X112.796308 Y57.664230

G01 Z2 F100.0(Penetrate)
G03 X112.812245 Y57.497899 Z2 I5.768903 J0.468826 F100
G02 X112.826108 Y57.247240 Z2 I-2.281552 J-0.251895
G03 X112.849751 Y56.840439 Z2 I3.539615 J0.001630
G02 X112.886408 Y56.443040 Z2 I-8.376996 J-0.973110
G03 X112.905428 Y56.208082 Z2 I9.441203 J0.646020
G03 X112.932608 Y55.966480 Z2 I6.438744 J0.602025
G02 X112.958232 Y55.724876 Z2 I-4.860707 J-0.637675
G02 X112.975808 Y55.489920 Z2 I-18.898990 J-1.531892
G03 X112.994827 Y55.254965 Z2 I9.445534 J0.646358
G03 X113.022008 Y55.013350 Z2 I6.437847 J0.601894
G02 X113.047631 Y54.771762 Z2 I-4.862474 J-0.637866
G02 X113.065208 Y54.536790 Z2 I-18.860162 J-1.528990
G03 X113.108463 Y53.978654 Z2 I30.384795 J2.074047
G03 X113.170968 Y53.404960 Z2 I13.074404 J1.134228
G02 X113.196026 Y53.169581 Z2 I-4.774965 J-0.627363
G02 X113.214168 Y52.928390 Z2 I-18.814997 J-1.536489
G03 X113.233394 Y52.691092 Z2 I9.350338 J0.638161
G03 X113.260368 Y52.451830 Z2 I6.405167 J0.600942
G02 X113.291637 Y52.129952 Z2 I-4.702051 J-0.619239
G03 X113.332568 Y51.856130 Z2 I1.615196 J0.101471
G00 Z0.000000

(End cutting path id: path5)


(Start cutting path id: path5)
(Change tool to Default tool)

G00 Z0.000000
G00 X80.568896 Y56.145190

G01 Z2 F100.0(Penetrate)
G03 X80.424690 Y56.121762 Z2 I0.291816 J-2.251698 F100
G03 X80.181689 Y56.060990 Z2 I0.464284 J-2.372700
G01 X79.766880 Y55.999690 Z2
G01 X79.685110 Y56.087290 Z2
G01 X79.701700 Y56.294020 Z2
G02 X79.737865 Y56.420557 Z2 I2.371051 J-0.609224
G02 X79.790780 Y56.562080 Z2 I1.372122 J-0.432378
G02 X79.872724 Y56.727652 Z2 I1.721817 J-0.749093
G02 X80.034370 Y56.949270 Z2 I0.989151 J-0.551715
G02 X80.567544 Y57.321508 Z2 I1.140944 J-1.066263
G02 X80.807175 Y57.396070 Z2 I0.498638 J-1.180202
G00 Z0.000000

(End cutting path id: path5)


(Start cutting path id: path5)
(Change tool to Default tool)

G00 Z0.000000
G00 X82.177292 Y57.128000

G01 Z2 F100.0(Penetrate)
G01 X81.819870 Y56.853730 Z2 F100
G03 X81.397017 Y56.672370 Z2 I0.584468 J-1.946362
G02 X81.045456 Y56.516440 Z2 I-0.943977 J1.654013
G01 X80.777390 Y56.442940 Z2
G00 Z0.000000

(End cutting path id: path5)


(Start cutting path id: path5)
(Change tool to Default tool)

G00 Z0.000000
G00 X85.543015 Y57.068430

G01 Z2 F100.0(Penetrate)
G02 X85.506062 Y57.037453 Z2 I-0.675606 J0.768416 F100
G02 X85.394480 Y56.948550 Z2 I-33.569555 J42.018544
G01 X85.295590 Y56.799810 Z2
G01 X85.341510 Y56.591870 Z2
G03 X85.525154 Y56.017115 Z2 I5.082057 J1.307087
G02 X85.661424 Y55.400460 Z2 I-1.981626 J-0.761289
G03 X85.681745 Y55.174222 Z2 I5.294996 J0.361579
G02 X85.679304 Y54.923900 Z2 I-1.032830 J-0.115100
G03 X85.665656 Y54.707812 Z2 I1.593036 J-0.209088
G02 X85.659034 Y54.566480 Z2 I-1.382873 J-0.006025
G01 X85.533251 Y54.238840 Z2
G01 X85.483331 Y53.940990 Z2
G02 X85.409407 Y53.655008 Z2 I-1.381671 J0.204604
G02 X85.265411 Y53.315500 Z2 I-4.088106 J1.533606
G02 X84.868392 Y52.843047 Z2 I-1.102971 J0.523824
G02 X84.679706 Y52.737560 Z2 I-0.586806 J0.828133
G01 X84.508120 Y52.596700 Z2
G01 X84.476520 Y52.451730 Z2
G01 X84.302498 Y52.010010 Z2
G02 X83.846816 Y51.599506 Z2 I-1.357620 J1.048867
G02 X83.279346 Y51.282750 Z2 I-3.843388 J6.218750
G01 X82.802783 Y51.086690 Z2
G01 X82.509988 Y51.047390 Z2
G01 X82.266536 Y50.930990 Z2
G02 X81.895758 Y50.870429 Z2 I-0.417681 J1.391896
G02 X81.432666 Y50.871990 Z2 I-0.209661 J6.492696
G01 X80.956104 Y51.081630 Z2
G00 Z0.000000

(End cutting path id: path5)


(Start cutting path id: path5)
(Change tool to Default tool)

G00 Z0.000000
G00 X82.147510 Y56.949310

G01 Z2 F100.0(Penetrate)
G01 X82.228360 Y56.591890 Z2 F100
G01 X82.237960 Y56.442960 Z2
G03 X82.248455 Y56.341213 Z2 I1.072292 J0.059189
G02 X82.261630 Y56.234460 Z2 I-1.924775 J-0.291738
G01 X82.296470 Y55.936610 Z2
G02 X82.411090 Y55.965593 Z2 I0.304869 J-0.964536
G02 X82.564536 Y55.993910 Z2 I2.185715 J-11.414225
G03 X82.991129 Y56.111020 Z2 I-0.419744 J2.364510
G02 X83.487876 Y56.283790 Z2 I3.642778 J-9.673188
G02 X83.648216 Y56.332468 Z2 I1.829606 J-5.738128
G02 X83.785728 Y56.368490 Z2 I0.799656 J-2.772148
G01 X84.083579 Y56.502500 Z2
G00 Z0.000000

(End cutting path id: path5)


(Start cutting path id: path5)
(Change tool to Default tool)

G00 Z0.000000
G00 X85.096274 Y56.830140

G01 Z2 F100.0(Penetrate)
G01 X85.245200 Y56.830140 Z2 F100
G00 Z0.000000

(End cutting path id: path5)


(Start cutting path id: path5)
(Change tool to Default tool)

G00 Z0.000000
G00 X84.053794 Y56.442930

G01 Z2 F100.0(Penetrate)
G01 X84.133034 Y56.204650 Z2 F100
G02 X84.183574 Y55.969367 Z2 I-35.986253 J-7.853134
G02 X84.238362 Y55.698300 Z2 I-15.214784 J-3.216268
G02 X84.330175 Y55.147391 Z2 I-10.792412 J-2.081729
G02 X84.407329 Y54.596250 Z2 I-428.753556 J-60.302388
G02 X84.429630 Y54.400067 Z2 I-3.873516 J-0.539673
G03 X84.449499 Y54.209040 Z2 I6.093608 J0.537267
G01 X84.500569 Y53.911190 Z2
G02 X84.613048 Y53.942399 Z2 I0.333778 J-0.984645
G03 X84.738851 Y53.971990 Z2 I-0.832612 J3.822033
G01 X85.483479 Y54.209000 Z2
G00 Z0.000000

(End cutting path id: path5)


(Start cutting path id: path5)
(Change tool to Default tool)

G00 Z0.000000
G00 X79.645589 Y56.085470

G01 Z2 F100.0(Penetrate)
G01 X79.490318 Y55.823770 Z2 F100
G01 X78.976386 Y55.400410 Z2
G01 X78.875472 Y55.132340 Z2
G03 X78.774649 Y54.763952 Z2 I9.857138 J-2.895762
G03 X78.723422 Y54.417500 Z2 I1.670841 J-0.424067
G03 X78.723653 Y54.291621 Z2 I1.334258 J-0.060492
G02 X78.721322 Y54.149430 Z2 I-1.087250 J-0.053291
G02 X78.703208 Y53.941090 Z2 I-20.815317 J1.704773
G03 X78.692462 Y53.702660 Z2 I2.546127 J-0.234216
G01 X78.697562 Y53.523950 Z2
G03 X78.763419 Y53.136424 Z2 I2.849562 J0.284902
G03 X78.868321 Y52.779340 Z2 I3.714467 J0.897262
G01 X79.049905 Y52.570820 Z2
G00 Z0.000000

(End cutting path id: path5)


(Start cutting path id: path5)
(Change tool to Default tool)

G00 Z0.000000
G00 X82.266702 Y55.906760

G01 Z2 F100.0(Penetrate)
G03 X82.257464 Y55.669133 Z2 I1.171684 J-0.164543 F100
G02 X82.266702 Y55.370630 Z2 I-4.828467 J-0.298822
G02 X82.263785 Y55.013996 Z2 I-21.638393 J-0.001357
G03 X82.267902 Y54.715350 Z2 I4.944464 J-0.081193
G01 X82.288012 Y54.536640 Z2
G02 X82.321873 Y54.220327 Z2 I-14.145206 J-1.674204
G02 X82.353862 Y53.881370 Z2 I-122.761990 J-11.756586
G03 X82.368975 Y53.750822 Z2 I2.896905 J0.269207
G02 X82.383212 Y53.613300 Z2 I-1.974917 J-0.273956
G01 X82.395832 Y53.111250 Z2
G01 X82.028458 Y52.974020 Z2
G03 X81.612514 Y52.890305 Z2 I1.975405 J-10.890162
G03 X81.194474 Y52.790350 Z2 I2.744698 J-12.403222
G02 X81.015050 Y52.745129 Z2 I-4.662543 J18.121277
G02 X80.866837 Y52.718250 Z2 I-0.288730 J1.169993
G03 X80.705651 Y52.698071 Z2 I1.219976 J-10.398647
G02 X80.628556 Y52.689950 Z2 I-0.186940 J1.404719
G00 Z0.000000

(End cutting path id: path5)


(Start cutting path id: path5)
(Change tool to Default tool)

G00 Z0.000000
G00 X79.496720 Y55.757820

G01 Z2 F100.0(Penetrate)
G01 X79.599221 Y55.637350 Z2 F100
G01 X79.636221 Y55.549250 Z2
G01 X79.617031 Y55.162090 Z2
G03 X79.615330 Y55.063264 Z2 I1.873761 J-0.081683
G02 X79.615831 Y54.953590 Z2 I-11.998855 J-0.109674
G02 X79.604262 Y54.701503 Z2 I-2.748399 J-0.000177
G02 X79.557621 Y54.357890 Z2 I-4.004617 J0.368603
G01 X79.556221 Y53.970680 Z2
G01 X79.556221 Y52.987770 Z2
G01 X79.556221 Y52.689920 Z2
G00 Z0.000000

(End cutting path id: path5)


(Start cutting path id: path5)
(Change tool to Default tool)

G00 Z0.000000
G00 X80.628487 Y55.102520

G01 Z2 F100.0(Penetrate)
G01 X80.926339 Y55.179920 Z2 F100
G03 X81.422123 Y55.438321 Z2 I-0.536879 J1.634912
G02 X81.909249 Y55.671560 Z2 I0.827614 J-1.103187
G02 X82.067057 Y55.706129 Z2 I0.592816 J-2.328712
G02 X82.207100 Y55.728060 Z2 I0.480703 J-2.611522
G00 Z0.000000

(End cutting path id: path5)


(Start cutting path id: path5)
(Change tool to Default tool)

G00 Z0.000000
G00 X90.040596 Y55.221710

G01 Z2 F100.0(Penetrate)
G01 X90.398018 Y55.025880 Z2 F100
G03 X90.733138 Y54.964929 Z2 I6.077142 J32.461517
G02 X91.112862 Y54.894090 Z2 I-3.469344 J-19.650156
G03 X92.539841 Y54.630204 Z2 I12.263634 J62.326155
G02 X93.972237 Y54.363890 Z2 I-10.034105 J-57.954692
G03 X94.491732 Y54.264957 Z2 I6.484321 J32.635678
G03 X95.014717 Y54.171780 Z2 I12.127589 J66.555486
G01 X95.406040 Y54.044810 Z2
G01 X95.414440 Y53.583530 Z2
G02 X95.325833 Y52.973348 Z2 I-190.981234 J27.421531
G02 X95.235751 Y52.362330 Z2 I-534.060077 J78.424269
G01 X95.116312 Y51.805450 Z2
G01 X94.776426 Y51.707150 Z2
G02 X94.603374 Y51.706024 Z2 I-0.156783 J10.794065
G03 X94.419004 Y51.694350 Z2 I-0.002152 J-1.427791
G02 X94.257905 Y51.680246 Z2 I-0.242530 J1.843188
G02 X94.121153 Y51.677250 Z2 I-0.136752 J3.119045
G02 X93.933608 Y51.677228 Z2 I-0.126712 J279.004475
G03 X93.733946 Y51.677250 Z2 I-0.196024 J-910.277195
G02 X93.451741 Y51.680522 Z2 I0.000000 J12.173245
G03 X93.197813 Y51.668250 Z2 I-0.041264 J-1.779485
G02 X93.007532 Y51.651659 Z2 I-0.365810 J3.096003
G02 X92.840391 Y51.646950 Z2 I-0.167141 J2.963855
G01 X92.363829 Y51.646950 Z2
G02 X92.164836 Y51.648907 Z2 I0.000000 J10.115876
G03 X91.976621 Y51.641950 Z2 I-0.032735 J-1.663752
G02 X91.744336 Y51.623800 Z2 I-0.652363 J6.853523
G02 X91.529844 Y51.617250 Z2 I-0.214492 J3.508681
G01 X91.023496 Y51.617250 Z2
G02 X90.868587 Y51.617982 Z2 I0.000000 J16.383307
G03 X90.695860 Y51.608250 Z2 I-0.012450 J-1.316659
G02 X90.505581 Y51.591659 Z2 I-0.365806 J3.095947
G02 X90.338438 Y51.586950 Z2 I-0.167143 J2.963877
G03 X90.049161 Y51.586373 Z2 I0.005763 J-75.344961
G02 X89.772520 Y51.587070 Z2 I-0.084146 J21.488460
G01 X89.500110 Y51.661870 Z2
G01 X89.428930 Y51.855060 Z2
G01 X89.406590 Y52.152910 Z2
G01 X89.386460 Y52.331620 Z2
G01 X89.376760 Y52.510330 Z2
G02 X89.347173 Y52.778041 Z2 I18.016661 J2.126657
G02 X89.326840 Y53.046460 Z2 I4.951795 J0.510085
G01 X89.317140 Y53.225170 Z2
G01 X89.297010 Y53.403890 Z2
G01 X89.287310 Y53.582600 Z2
G01 X89.267180 Y53.761310 Z2
G01 X89.257480 Y53.940020 Z2
G01 X89.237350 Y54.118730 Z2
G01 X89.227650 Y54.297440 Z2
G03 X89.216153 Y54.386777 Z2 I-4.081064 J-0.479777
G02 X89.207430 Y54.476150 Z2 I1.067989 J0.149354
G01 X89.197830 Y54.625080 Z2
G02 X89.177030 Y54.963740 Z2 I2.984654 J0.353279
G02 X89.176550 Y55.161210 Z2 I40.595599 J0.197470
G00 Z0.000000

(End cutting path id: path5)


(Start cutting path id: path5)
(Change tool to Default tool)

G00 Z0.000000
G00 X79.645300 Y54.625080

G01 Z2 F100.0(Penetrate)
G03 X79.853833 Y54.677654 Z2 I-0.371899 J1.914984 F100
G02 X80.270788 Y54.791030 Z2 I1.755781 J-5.633713
G02 X80.380409 Y54.813660 Z2 I0.502079 J-2.155229
G02 X80.509069 Y54.833530 Z2 I0.460584 J-2.555911
G00 Z0.000000

(End cutting path id: path5)


(Start cutting path id: path5)
(Change tool to Default tool)

G00 Z0.000000
G00 X78.751745 Y54.118690

G01 Z2 F100.0(Penetrate)
G03 X79.017052 Y54.185798 Z2 I-0.195747 J1.331864 F100
G02 X79.346714 Y54.284570 Z2 I1.008586 J-2.766737
G03 X79.410008 Y54.300720 Z2 I-0.438738 J1.851630
G03 X79.496374 Y54.327170 Z2 I-0.394536 J1.442464
G00 Z0.000000

(End cutting path id: path5)


(Start cutting path id: path5)
(Change tool to Default tool)

G00 Z0.000000
G00 X84.470495 Y53.880390

G01 Z2 F100.0(Penetrate)
G03 X84.445867 Y53.631716 Z2 I2.529311 J-0.376049 F100
G02 X84.428075 Y53.433610 Z2 I-2.500125 J0.124691
G03 X84.408528 Y53.096653 Z2 I2.345936 J-0.305135
G02 X84.407625 Y52.957050 Z2 I-3.504088 J-0.047140
G01 X84.411625 Y52.867850 Z2
G01 X84.448075 Y52.783150 Z2
G01 X84.530075 Y52.689050 Z2
G00 Z0.000000

(End cutting path id: path5)


(Start cutting path id: path5)
(Change tool to Default tool)

G00 Z0.000000
G00 X82.445114 Y53.195400

G01 Z2 F100.0(Penetrate)
G03 X82.548997 Y53.201704 Z2 I-0.036546 J1.461298 F100
G03 X82.713181 Y53.221300 Z2 I-0.351872 J3.645772
G03 X82.867396 Y53.253154 Z2 I-0.184474 J1.282315
G03 X83.040818 Y53.304300 Z2 I-1.060631 J3.915916
G03 X83.624419 Y53.510531 Z2 I-3.040279 J9.532365
G02 X84.113083 Y53.659310 Z2 I1.233371 J-3.174109
G02 X84.275033 Y53.689092 Z2 I0.462802 J-2.061440
G02 X84.410935 Y53.701810 Z2 I0.196124 J-1.363261
G00 Z0.000000

(End cutting path id: path5)


(Start cutting path id: path5)
(Change tool to Default tool)

G00 Z0.000000
G00 X82.415329 Y52.986960

G01 Z2 F100.0(Penetrate)
G02 X82.410652 Y52.729813 Z2 I-7.070955 J0.000000 F100
G03 X82.418129 Y52.331690 Z2 I3.609279 J-0.131344
G01 X82.395539 Y52.051370 Z2
G01 X82.087736 Y51.974670 Z2
G03 X81.702919 Y51.942467 Z2 I0.099387 J-3.502938
G03 X81.283536 Y51.858540 Z2 I0.502000 J-3.598295
G02 X81.133802 Y51.819874 Z2 I-4.690519 J17.854946
G02 X81.016204 Y51.795640 Z2 I-0.326181 J1.285365
G03 X80.910299 Y51.775761 Z2 I0.303363 J-1.908218
G03 X80.866544 Y51.765740 Z2 I0.405915 J-1.872865
G00 Z0.000000

(End cutting path id: path5)


(Start cutting path id: path5)
(Change tool to Default tool)

G00 Z0.000000
G00 X79.615568 Y52.629510

G01 Z2 F100.0(Penetrate)
G01 X79.883634 Y52.629510 Z2 F100
G01 X80.568693 Y52.629510 Z2
G00 Z0.000000

(End cutting path id: path5)


(Start cutting path id: path5)
(Change tool to Default tool)

G00 Z0.000000
G00 X82.474943 Y52.123160

G01 Z2 F100.0(Penetrate)
G02 X82.572528 Y52.122392 Z2 I-0.000000 J-6.199452 F100
G03 X82.802579 Y52.135860 Z2 I0.024460 J1.553697
G02 X82.946450 Y52.153496 Z2 I0.937034 J-7.048405
G03 X83.100431 Y52.179460 Z2 I-0.157680 J1.404720
G03 X83.669948 Y52.350434 Z2 I-0.935180 J4.149130
G02 X84.083341 Y52.452350 Z2 I0.629693 J-1.664798
G03 X84.374953 Y52.532134 Z2 I-0.127018 J1.037062
G02 X84.470548 Y52.570000 Z2 I0.586819 J-1.341874
G00 Z0.000000

(End cutting path id: path5)


(Start cutting path id: path5)
(Change tool to Default tool)

G00 Z0.000000
G00 X82.445157 Y51.974300

G01 Z2 F100.0(Penetrate)
G01 X82.445157 Y51.676450 Z2 F100
G03 X82.461983 Y51.211226 Z2 I6.439980 J-0.000000
G03 X82.474947 Y51.080740 Z2 I2.447190 J0.177248
G00 Z0.000000

(End cutting path id: path5)


(Start cutting path id: path5)
(Change tool to Default tool)

G00 Z0.000000
G00 X79.824068 Y51.527520

G01 Z2 F100.0(Penetrate)
G01 X80.032609 Y51.679660 Z2 F100
G01 X80.658052 Y51.736060 Z2
G00 Z0.000000

(End cutting path id: path5)


(Start cutting path id: path5)
(Change tool to Default tool)

G00 Z0.000000
G00 X119.825529 Y50.425510

G01 Z2 F100.0(Penetrate)
G02 X118.982756 Y49.978721 Z2 I-2.114171 J2.969687 F100
G03 X118.097989 Y49.612120 Z2 I4.569753 J-12.279749
G03 X117.597108 Y49.381056 Z2 I40.598254 J-88.663773
G03 X117.115079 Y49.152450 Z2 I14.432310 J-31.053897
G02 X115.821083 Y48.560927 Z2 I-14.163780 J29.273102
G03 X114.523779 Y47.960720 Z2 I10.698753 J-24.826697
G02 X113.872868 Y47.664235 Z2 I-4.906437 J9.908957
G03 X113.213229 Y47.364900 Z2 I4.506829 J-10.808108
G01 X112.782029 Y47.086450 Z2
G01 X112.922729 Y45.838600 Z2
G03 X113.023220 Y45.269897 Z2 I29.063356 J4.842318
G02 X113.094819 Y44.706760 Z2 I-4.794016 J-0.895648
G03 X113.131376 Y44.435654 Z2 I2.077321 J0.142097
G02 X113.185819 Y44.140840 Z2 I-8.560729 J-1.733333
G03 X113.317301 Y43.371118 Z2 I98.695068 J16.462778
G02 X113.444159 Y42.621800 Z2 I-69.583100 J-12.165657
G02 X113.530749 Y42.062287 Z2 I-32.027904 J-5.243109
G03 X113.617999 Y41.489960 Z2 I44.322536 J6.464023
G01 X113.732029 Y41.192940 Z2
G01 X114.106759 Y41.192110 Z2
G03 X114.641543 Y41.252448 Z2 I-0.943183 J10.759640
G03 X115.179029 Y41.328510 Z2 I-11.212100 J81.166636
G02 X115.894091 Y41.429227 Z2 I13.392369 J-92.492872
G02 X116.608719 Y41.518250 Z2 I4.025448 J-29.401410
G03 X116.820165 Y41.545323 Z2 I-0.784569 J6.966977
G03 X117.025709 Y41.576950 Z2 I-1.458725 J10.163908
G02 X117.855999 Y41.687534 Z2 I2.246272 J-13.693234
G03 X118.693679 Y41.787830 Z2 I-2.540847 J24.769671
G02 X119.440329 Y41.839305 Z2 I0.755651 J-5.519956
G03 X120.032379 Y41.983600 Z2 I-0.002093 J1.295336
G01 X120.174429 Y42.592030 Z2
G02 X120.150051 Y43.061846 Z2 I3.573801 J0.420977
G03 X120.153129 Y43.515370 Z2 I-33.413289 J0.453524
G02 X120.153859 Y43.647559 Z2 I11.975111 J-0.000000
G03 X120.148129 Y43.783440 Z2 I-1.279212 J0.014122
G02 X120.123516 Y44.065184 Z2 I18.125919 J1.725424
G03 X120.098729 Y44.349360 Z2 I-18.631944 J-1.481971
G02 X120.093321 Y44.470637 Z2 I1.173047 J0.113065
G03 X120.093729 Y44.587640 Z2 I-16.789059 J0.117003
G01 X120.093729 Y45.153560 Z2
G01 X119.997529 Y45.510150 Z2
G01 X119.736269 Y45.511100 Z2
G02 X119.595086 Y45.521727 Z2 I0.011264 J1.092784
G03 X119.438419 Y45.538100 Z2 I-0.306758 J-2.177537
G03 X118.931756 Y45.557631 Z2 I-0.581261 J-8.497358
G03 X118.425719 Y45.536100 Z2 I-0.043273 J-4.940446
G02 X118.236833 Y45.519253 Z2 I-1.560411 J16.427842
G02 X118.068299 Y45.511200 Z2 I-0.197761 J2.371164
G03 X117.714470 Y45.478888 Z2 I0.031025 J-2.293133
G03 X117.353459 Y45.412000 Z2 I2.111623 J-12.404728
G02 X117.175930 Y45.386746 Z2 I-0.314479 J1.574058
G03 X116.996029 Y45.362400 Z2 I0.157829 J-1.843141
G00 Z0.000000

(End cutting path id: path5)


(Start cutting path id: path5)
(Change tool to Default tool)

G00 Z0.000000
G00 X110.651799 Y48.579200

G01 Z2 F100.0(Penetrate)
G03 X110.659422 Y48.426499 Z2 I1.621524 J0.004407 F100
G03 X110.676499 Y48.251560 Z2 I326.637977 J31.797132
G02 X110.696470 Y48.018190 Z2 I-11.692071 J-1.118094
G02 X110.712399 Y47.775000 Z2 I-12.164879 J-0.918931
G03 X110.721160 Y47.685644 Z2 I1.123105 J0.065013
G02 X110.732599 Y47.596290 Z2 I-4.318607 J-0.598254
G02 X110.755917 Y47.346705 Z2 I-5.171163 J-0.609007
G02 X110.771899 Y47.089940 Z2 I-18.546933 J-1.283316
G03 X110.780673 Y47.000345 Z2 I1.129403 J0.065378
G02 X110.792099 Y46.911230 Z2 I-4.494286 J-0.621519
G02 X110.818680 Y46.568758 Z2 I-4.261277 J-0.503011
G03 X110.847499 Y46.226170 Z2 I3.695505 J0.138361
G02 X110.856069 Y46.136974 Z2 I-1.274647 J-0.167472
G02 X110.861199 Y46.047460 Z2 I-12.184966 J-0.743281
G03 X110.882417 Y45.790874 Z2 I4.381170 J0.233124
G03 X110.911199 Y45.541110 Z2 I43.380798 J4.872528
G02 X110.934517 Y45.291522 Z2 I-5.172594 J-0.609138
G02 X110.950499 Y45.034770 Z2 I-18.538472 J-1.282835
G03 X110.959261 Y44.945408 Z2 I1.123274 J0.065023
G02 X110.970699 Y44.856060 Z2 I-4.323142 J-0.598854
G01 X110.980699 Y44.677340 Z2
G01 X111.000799 Y44.498630 Z2
G02 X111.024944 Y44.238605 Z2 I-5.222991 J-0.616117
G02 X111.040099 Y43.992290 Z2 I-19.510702 J-1.324077
G03 X111.048876 Y43.902645 Z2 I1.130842 J0.065461
G02 X111.060299 Y43.813570 Z2 I-4.532591 J-0.626553
G02 X111.084071 Y43.568604 Z2 I-5.928241 J-0.698935
G02 X111.098599 Y43.337010 Z2 I-8.584044 J-0.654719
G03 X111.107723 Y43.229289 Z2 I1.422428 J0.066236
G02 X111.119899 Y43.128520 Z2 I-22.645649 J-2.787356
G01 X111.129899 Y42.949810 Z2
G01 X111.149999 Y42.771090 Z2
G01 X111.161199 Y42.592380 Z2
G01 X111.183299 Y42.413670 Z2
G01 X111.166299 Y42.090040 Z2
G01 X110.746689 Y42.146940 Z2
G02 X110.473073 Y42.455114 Z2 I3.655831 J3.521425
G03 X110.183779 Y42.800900 Z2 I-15.557665 J-12.722065
G02 X109.705930 Y43.362090 Z2 I109.757601 J93.941876
G03 X109.218699 Y43.932740 Z2 I-73.468694 J-62.235487
G01 X106.984819 Y46.553830 Z2
G03 X106.765249 Y46.808938 Z2 I-7790.191993 J-6704.771472
G02 X106.550009 Y47.060180 Z2 I54.209343 J46.659197
G02 X106.340965 Y47.315825 Z2 I6.100073 J5.201389
G03 X106.119869 Y47.563280 Z2 I-2.030545 J-1.591753
G01 X105.696129 Y47.684720 Z2
G01 X105.648329 Y47.477170 Z2
G02 X105.639767 Y47.336436 Z2 I-1.419570 J0.015738
G03 X105.623629 Y47.179320 Z2 I9.704495 J-1.076165
G03 X105.615681 Y46.958775 Z2 I1.861256 J-0.177492
G02 X105.618629 Y46.702760 Z2 I-11.115142 J-0.256015
G02 X105.613786 Y46.511379 Z2 I-3.783466 J-0.000000
G02 X105.597329 Y46.315550 Z2 I-2.953430 J0.149587
G03 X105.586220 Y46.081074 Z2 I1.661347 J-0.196215
G02 X105.589329 Y45.809200 Z2 I-11.884269 J-0.271874
G02 X105.584256 Y45.636824 Z2 I-2.938590 J0.000212
G02 X105.568029 Y45.451780 Z2 I-3.230335 J0.190051
G03 X105.557980 Y45.263594 Z2 I1.465656 J-0.172627
G02 X105.559029 Y45.064570 Z2 I-18.877049 J-0.199024
G02 X105.558003 Y44.816882 Z2 I-29.893770 J-0.000000
G02 X105.541929 Y44.588010 Z2 I-1.856500 J0.015383
G03 X105.530266 Y44.426793 Z2 I1.370500 J-0.180177
G03 X105.529329 Y44.290160 Z2 I9.960616 J-0.136633
G02 X105.512908 Y43.839147 Z2 I-6.211904 J0.000365
G03 X105.499529 Y43.485960 Z2 I5.056373 J-0.368387
G00 Z0.000000

(End cutting path id: path5)


(Start cutting path id: path5)
(Change tool to Default tool)

G00 Z0.000000
G00 X93.972677 Y41.490350

G01 Z2 F100.0(Penetrate)
G03 X94.010231 Y41.984071 Z2 I-2.265332 J0.420599 F100
G02 X94.002467 Y42.473260 Z2 I15.406444 J0.489189
G01 X94.002467 Y42.741330 Z2
G03 X94.001105 Y42.916059 Z2 I-11.205126 J0.000000
G02 X94.003667 Y43.098750 Z2 I3.084362 J0.048102
G02 X94.021657 Y43.381022 Z2 I7.073247 J-0.309082
G03 X94.032277 Y43.634880 Z2 I-3.028692 J0.253858
G01 X94.032277 Y44.588010 Z2
G01 X94.032277 Y44.915650 Z2
G02 X94.047392 Y45.475008 Z2 I10.357466 J-0.000000
G03 X94.062057 Y46.017700 Z2 I-10.034200 J0.542692
G01 X94.062057 Y47.209100 Z2
G01 X94.092667 Y47.497600 Z2
G01 X94.598189 Y47.601370 Z2
G03 X95.483437 Y47.707697 Z2 I-1.706138 J17.943119
G02 X96.415084 Y47.775020 Z2 I0.931647 J-6.412632
G01 X97.993697 Y47.775020 Z2
G00 Z0.000000

(End cutting path id: path5)


(Start cutting path id: path5)
(Change tool to Default tool)

G00 Z0.000000
G00 X101.031783 Y47.596310

G01 Z2 F100.0(Penetrate)
G01 X101.031783 Y43.188110 Z2 F100
G01 X101.031783 Y41.817990 Z2
G01 X101.031783 Y41.103150 Z2
G00 Z0.000000

(End cutting path id: path5)


(Start cutting path id: path5)
(Change tool to Default tool)

G00 Z0.000000
G00 X90.338912 Y47.447380

G01 Z2 F100.0(Penetrate)
G01 X92.751510 Y47.447380 Z2 F100
G01 X93.079146 Y47.447820 Z2
G01 X93.347213 Y47.474920 Z2
G01 X93.764205 Y47.506920 Z2
G01 X94.062056 Y47.506920 Z2
G00 Z0.000000

(End cutting path id: path5)


(Start cutting path id: path5)
(Change tool to Default tool)

G00 Z0.000000
G00 X78.514205 Y40.388270

G01 Z2 F100.0(Penetrate)
G02 X78.359429 Y40.400537 Z2 I0.025735 J1.307281 F100
G03 X78.216353 Y40.415370 Z2 I-0.282198 J-2.024537
G03 X78.091764 Y40.418094 Z2 I-0.091593 J-1.338716
G02 X77.948287 Y40.419370 Z2 I-0.052692 J2.142147
G02 X77.832250 Y40.431330 Z2 I0.047346 J1.028242
G03 X77.710006 Y40.445270 Z2 I-0.213005 J-1.324936
G03 X77.596428 Y40.447961 Z2 I-0.088612 J-1.342026
G02 X77.471724 Y40.448270 Z2 I-0.055001 J2.962474
G02 X77.335301 Y40.460498 Z2 I0.031847 J1.122431
G03 X77.203658 Y40.474970 Z2 I-0.242525 J-1.600121
G03 X77.078384 Y40.477689 Z2 I-0.091825 J-1.343211
G02 X76.935592 Y40.478970 Z2 I-0.052468 J2.111187
G02 X76.813664 Y40.491478 Z2 I0.044967 J1.038847
G03 X76.697310 Y40.504870 Z2 I-0.201729 J-1.240555
G03 X76.570374 Y40.507845 Z2 I-0.095302 J-1.356826
G02 X76.429244 Y40.507870 Z2 I-0.070030 J3.010248
G01 X76.190963 Y40.532170 Z2
G03 X76.059176 Y40.537290 Z2 I-0.108752 J-1.100526
G02 X75.922896 Y40.537170 Z2 I-0.071156 J3.415335
G01 X75.684615 Y40.561470 Z2
G03 X75.542713 Y40.566306 Z2 I-0.110533 J-1.158934
G02 X75.386763 Y40.567470 Z2 I-0.061073 J2.265720
G02 X75.264837 Y40.579995 Z2 I0.044861 J1.036408
G03 X75.148482 Y40.593470 Z2 I-0.203956 J-1.252056
G03 X75.032091 Y40.596648 Z2 I-0.096829 J-1.413383
G02 X74.910201 Y40.596470 Z2 I-0.068146 J4.934663
G02 X74.767254 Y40.606676 Z2 I0.009700 J1.142062
G03 X74.642135 Y40.621070 Z2 I-0.431302 J-3.198029
G03 X74.519782 Y40.626232 Z2 I-0.106769 J-1.078012
G02 X74.403853 Y40.626070 Z2 I-0.064214 J4.463110
G02 X74.260234 Y40.636331 Z2 I0.009648 J1.145264
G03 X74.135787 Y40.650670 Z2 I-0.429667 J-3.181841
G03 X73.993886 Y40.655506 Z2 I-0.110532 J-1.158903
G02 X73.837935 Y40.656670 Z2 I-0.061074 J2.265691
G01 X73.186960 Y40.835950 Z2
G02 X73.093711 Y41.174282 Z2 I1.099844 J0.485148
G02 X73.064808 Y41.549050 Z2 I4.103891 J0.505003
G01 X73.102778 Y41.784550 Z2
G01 X73.331591 Y41.983190 Z2
G03 X73.657743 Y42.188748 Z2 I-118.041004 J187.652947
G02 X73.986864 Y42.395680 Z2 I53.150666 J-84.169926
G03 X74.509494 Y42.724599 Z2 I-68.770246 J109.850674
G03 X75.029345 Y43.057870 Z2 I-27.617182 J43.650695
G01 X75.464516 Y43.351580 Z2
G01 X75.625048 Y43.574440 Z2
G01 X75.356981 Y43.741450 Z2
G03 X75.098530 Y43.805458 Z2 I-0.910443 J-3.122396
G02 X74.820848 Y43.868520 Z2 I1.328643 J6.493319
G03 X74.270946 Y44.005678 Z2 I-247.821494 J-992.407986
G03 X73.718798 Y44.134110 Z2 I-4.387255 J-17.610388
G02 X73.356427 Y44.219321 Z2 I2.181692 J10.091081
G03 X73.003977 Y44.306570 Z2 I-7.090484 J-27.887061
G01 X72.791850 Y44.441460 Z2
G01 X72.915908 Y45.226550 Z2
G02 X73.465970 Y45.473211 Z2 I1.642958 J-2.927191
G03 X74.046434 Y45.697560 Z2 I-2.724868 J7.913222
G02 X75.432398 Y46.281364 Z2 I40.502161 J-94.215959
G02 X76.816454 Y46.850810 Z2 I281.393957 J-681.970207
G00 Z0.000000

(End cutting path id: path5)


(Start cutting path id: path5)
(Change tool to Default tool)

G00 Z0.000000
G00 X81.850145 Y41.161850

G01 Z2 F100.0(Penetrate)
G01 X82.207567 Y41.192750 Z2 F100
G03 X82.324603 Y41.204747 Z2 I-0.044832 J1.014208
G02 X82.445848 Y41.218650 Z2 I0.211771 J-1.311191
G02 X82.570441 Y41.221374 Z2 I0.091597 J-1.338911
G03 X82.713915 Y41.222650 Z2 I0.052687 J2.142244
G03 X82.829946 Y41.234609 Z2 I-0.047353 J1.028266
G02 X82.952196 Y41.248550 Z2 I0.213021 J-1.325065
G02 X83.076787 Y41.251274 Z2 I0.091595 J-1.338851
G03 X83.220263 Y41.252550 Z2 I0.052689 J2.142250
G03 X83.336293 Y41.264509 Z2 I-0.047352 J1.028249
G02 X83.458544 Y41.278450 Z2 I0.213019 J-1.325049
G02 X83.583136 Y41.281174 Z2 I0.091595 J-1.338850
G03 X83.726610 Y41.282450 Z2 I0.052688 J2.142217
G03 X83.842644 Y41.294410 Z2 I-0.047354 J1.028301
G02 X83.964891 Y41.308350 Z2 I0.213024 J-1.325099
G02 X84.077468 Y41.311029 Z2 I0.087967 J-1.329768
G03 X84.203173 Y41.311350 Z2 I0.055222 J2.989919
G01 X84.441454 Y41.335650 Z2
G02 X84.570972 Y41.340669 Z2 I0.108820 J-1.134594
G03 X84.709520 Y41.340650 Z2 I0.069792 J3.842730
G01 X84.947802 Y41.364950 Z2
G02 X85.077341 Y41.369552 Z2 I0.103065 J-1.075724
G03 X85.215868 Y41.370950 Z2 I0.049062 J2.002080
G03 X85.332902 Y41.382947 Z2 I-0.044831 J1.014192
G02 X85.454149 Y41.396850 Z2 I0.211769 J-1.311175
G02 X85.567724 Y41.399544 Z2 I0.088666 J-1.342845
G03 X85.692431 Y41.399850 Z2 I0.055046 J2.973429
G01 X85.930712 Y41.424150 Z2
G02 X86.053064 Y41.429312 Z2 I0.106768 J-1.078006
G03 X86.168993 Y41.429150 Z2 I0.064213 J4.463226
G03 X86.312612 Y41.439411 Z2 I-0.009650 J1.145304
G02 X86.437059 Y41.453750 Z2 I0.429777 J-3.182747
G02 X86.549135 Y41.458601 Z2 I0.100606 J-1.027191
G03 X86.645556 Y41.458750 Z2 I0.042338 J3.809480
G03 X86.804705 Y41.471178 Z2 I-0.019268 J1.271932
G02 X86.943407 Y41.485750 Z2 I0.271387 J-1.915813
G02 X87.045196 Y41.488103 Z2 I0.080521 J-1.280610
G03 X87.151903 Y41.489750 Z2 I0.027633 J1.666964
G01 X87.432953 Y41.569850 Z2
G01 X87.506203 Y41.786450 Z2
G01 X87.484603 Y42.024740 Z2
G02 X87.478962 Y42.171998 Z2 I1.296928 J0.123417
G03 X87.479403 Y42.322590 Z2 I-4.897349 J0.089634
G03 X87.471193 Y42.451067 Z2 I-1.236443 J-0.014509
G03 X87.458233 Y42.560870 Z2 I-34.475132 J-4.013470
G01 X87.436513 Y42.799150 Z2
G01 X87.326199 Y43.024950 Z2
G03 X86.749931 Y43.317426 Z2 I-0.848033 J-0.956936
G02 X86.109396 Y43.504500 Z2 I1.014213 J4.662746
G03 X84.769238 Y43.998858 Z2 I-331.984106 J-897.914144
G02 X83.428732 Y44.495410 Z2 I117.468558 J319.179341
G03 X82.937000 Y44.676920 Z2 I-28.122140 J-75.429390
G02 X82.445821 Y44.860050 Z2 I13.797173 J37.756108
G03 X82.213589 Y44.941532 Z2 I-1.703473 J-4.483375
G02 X82.000353 Y45.030530 Z2 I0.424409 J1.316826
G01 X81.863471 Y45.183250 Z2
G01 X81.880341 Y45.420240 Z2
G02 X81.969075 Y45.718040 Z2 I1.981293 J-0.428236
G03 X82.082678 Y46.015950 Z2 I-74.417590 J28.548552
G01 X82.329807 Y46.444750 Z2
G01 X82.892600 Y46.462750 Z2
G02 X83.193672 Y46.459142 Z2 I-0.000000 J-12.564028
G02 X83.547873 Y46.438050 Z2 I-0.119738 J-4.995362
G03 X83.820830 Y46.428737 Z2 I0.212933 J2.236194
G02 X84.143576 Y46.433050 Z2 I0.322746 J-12.074000
G03 X84.394080 Y46.436833 Z2 I-0.000000 J8.296418
G02 X84.679709 Y46.424050 Z2 I0.057667 J-1.908999
G03 X84.951957 Y46.405497 Z2 I0.324002 J2.747653
G03 X85.245627 Y46.402750 Z2 I0.293670 J15.696297
G03 X85.513391 Y46.403045 Z2 I-0.000003 J121.472034
G02 X85.751975 Y46.402730 Z2 I0.074596 J-33.840605
G02 X86.083309 Y46.386651 Z2 I-0.013938 J-3.709064
G03 X86.377463 Y46.372930 Z2 I0.294154 J3.146239
G03 X86.847147 Y46.373240 Z2 I0.000000 J355.315937
G02 X87.330588 Y46.343130 Z2 I0.005043 J-3.815057
G00 Z0.000000

(End cutting path id: path5)


(Start cutting path id: path5)
(Change tool to Default tool)

G00 Z0.000000
G00 X64.306662 Y40.296750

G01 Z2 F100.0(Penetrate)
G03 X64.291055 Y40.406190 Z2 I-3.505012 J-0.444003 F100
G02 X64.278052 Y40.535030 Z2 I1.128192 J0.178939
G02 X64.276859 Y40.634468 Z2 I1.533671 J0.068120
G03 X64.274252 Y40.743520 Z2 I-1.231127 J0.025121
G03 X64.262324 Y40.845331 Z2 I-1.051316 J-0.071562
G02 X64.249802 Y40.952020 Z2 I1.094043 J0.182490
G02 X64.247073 Y41.058707 Z2 I1.234995 J0.084970
G03 X64.244502 Y41.160520 Z2 I-1.190224 J0.020884
G03 X64.230764 Y41.280057 Z2 I-1.294235 J-0.088182
G02 X64.218552 Y41.398800 Z2 I1.010593 J0.163935
G02 X64.216904 Y41.498302 Z2 I1.793721 J0.079469
G03 X64.212352 Y41.607290 Z2 I-1.031414 J0.011509
G01 X64.188792 Y41.815790 Z2
G02 X64.187600 Y41.915287 Z2 I1.536847 J0.068174
G03 X64.184992 Y42.024290 Z2 I-1.231346 J0.025077
G03 X64.173064 Y42.126096 Z2 I-1.051146 J-0.071551
G02 X64.160542 Y42.232780 Z2 I1.093864 J0.182473
G02 X64.157813 Y42.339467 Z2 I1.234995 J0.084970
G03 X64.155242 Y42.441280 Z2 I-1.190224 J0.020884
G03 X64.141504 Y42.560817 Z2 I-1.294235 J-0.088182
G02 X64.129292 Y42.679560 Z2 I1.010593 J0.163935
G02 X64.127919 Y42.768565 Z2 I1.522128 J0.067991
G03 X64.125492 Y42.858270 Z2 I-1.098788 J0.015156
G03 X64.111754 Y42.977813 Z2 I-1.294343 J-0.088189
G02 X64.099542 Y43.096550 Z2 I1.010606 J0.163934
G02 X64.097894 Y43.196057 Z2 I1.793715 J0.079468
G03 X64.093342 Y43.305050 Z2 I-1.031436 J0.011512
G01 X64.069782 Y43.513540 Z2
G02 X64.068590 Y43.613043 Z2 I1.536858 J0.068175
G03 X64.065982 Y43.722040 Z2 I-1.231121 J0.025076
G03 X64.054055 Y43.823845 Z2 I-1.051208 J-0.071555
G02 X64.041532 Y43.930540 Z2 I1.093968 J0.182482
G02 X64.038803 Y44.037222 Z2 I1.234971 J0.084968
G03 X64.036232 Y44.139030 Z2 I-1.190201 J0.020881
G03 X64.023463 Y44.248005 Z2 I-1.124531 J-0.076525
G02 X64.011782 Y44.347530 Z2 I1.019545 J0.170114
G02 X64.009028 Y44.455835 Z2 I1.268116 J0.086450
G03 X64.006482 Y44.556020 Z2 I-1.175795 J0.020220
G03 X63.992735 Y44.675562 Z2 I-1.292244 J-0.088046
G02 X63.980532 Y44.794310 Z2 I1.006601 J0.163441
G02 X63.978837 Y44.893729 Z2 I1.901350 J0.082142
G03 X63.979332 Y45.002800 Z2 I-12.013832 J0.109071
G01 X63.988832 Y45.328710 Z2
G01 X64.396356 Y45.479800 Z2
G03 X64.537638 Y45.492416 Z2 I-0.028036 J1.111359
G02 X64.664422 Y45.506500 Z2 I0.229904 J-1.491897
G02 X64.778500 Y45.509053 Z2 I0.086492 J-1.314821
G03 X64.902703 Y45.511500 Z2 I0.032009 J1.528592
G01 X65.111200 Y45.536000 Z2
G02 X65.212079 Y45.538363 Z2 I0.080685 J-1.290322
G03 X65.319696 Y45.541000 Z2 I0.020959 J1.341681
G03 X65.425065 Y45.553471 Z2 I-0.085078 J1.170254
G02 X65.528192 Y45.565500 Z2 I0.179684 J-1.092345
G02 X65.631338 Y45.568236 Z2 I0.080067 J-1.072898
G03 X65.736688 Y45.570500 Z2 I0.026328 J1.227064
G03 X65.842052 Y45.582970 Z2 I-0.085124 J1.170592
G02 X65.945184 Y45.595000 Z2 I0.179722 J-1.092671
G02 X66.048329 Y45.597736 Z2 I0.080067 J-1.072896
G03 X66.153680 Y45.600000 Z2 I0.026328 J1.227089
G03 X66.259043 Y45.612470 Z2 I-0.085123 J1.170579
G02 X66.362176 Y45.624500 Z2 I0.179721 J-1.092663
G02 X66.465322 Y45.627236 Z2 I0.080067 J-1.072898
G03 X66.570672 Y45.629500 Z2 I0.026328 J1.227064
G03 X66.676035 Y45.641970 Z2 I-0.085123 J1.170579
G02 X66.779168 Y45.654000 Z2 I0.179721 J-1.092663
G02 X66.882309 Y45.656726 Z2 I0.079910 J-1.071065
G03 X66.987664 Y45.658000 Z2 I0.033792 J1.561977
G01 X67.196160 Y45.681600 Z2
G02 X67.306220 Y45.686192 Z2 I0.098555 J-1.040864
G03 X67.404657 Y45.687600 Z2 I0.021407 J1.945313
G03 X67.528898 Y45.700275 Z2 I-0.040616 J1.013365
G02 X67.642938 Y45.713500 Z2 I0.195181 J-1.184759
G02 X67.735579 Y45.716117 Z2 I0.076917 J-1.081612
G03 X67.821649 Y45.717500 Z2 I0.020424 J1.408359
G03 X67.945747 Y45.730159 Z2 I-0.040966 J1.016167
G02 X68.059930 Y45.743400 Z2 I0.196115 J-1.192279
G02 X68.147062 Y45.746556 Z2 I0.106562 J-1.737488
G02 X68.238641 Y45.746400 Z2 I0.039718 J-3.558265
G01 X68.491424 Y45.652800 Z2
G01 X68.769603 Y44.644520 Z2
G01 X68.744163 Y44.379580 Z2
G01 X68.327998 Y44.130470 Z2
G02 X67.672130 Y43.826142 Z2 I-9.750915 J20.155630
G03 X67.017452 Y43.519940 Z2 I7.649149 J-17.207308
G02 X66.676816 Y43.361553 Z2 I-3.837751 J7.808210
G03 X66.363465 Y43.209410 Z2 I1.825217 J-4.157933
G01 X66.245818 Y42.860100 Z2
G03 X66.641570 Y42.473070 Z2 I0.934222 J0.559427
G02 X67.225948 Y42.086440 Z2 I-2.578869 J-4.532815
G01 X69.281123 Y40.537610 Z2
G02 X69.734800 Y40.190815 Z2 I-180.996124 J-237.249544
G03 X70.115108 Y39.908680 Z2 I9.383066 J12.250629
G00 Z0.000000

(End cutting path id: path5)


(Start cutting path id: path5)
(Change tool to Default tool)

G00 Z0.000000
G00 X75.625362 Y43.572250

G01 Z2 F100.0(Penetrate)
G01 X75.774287 Y43.602050 Z2 F100
G00 Z0.000000

(End cutting path id: path5)


(Start cutting path id: path5)
(Change tool to Default tool)

G00 Z0.000000
G00 X104.129760 Y39.074710

G01 Z2 F100.0(Penetrate)
G03 X104.302446 Y39.031524 Z2 I0.350732 J1.035616 F100
G03 X104.487180 Y39.015210 Z2 I0.200229 J1.213210
G01 X104.904170 Y38.965310 Z2
G01 X105.370600 Y38.389600 Z2
G01 X105.053530 Y37.811040 Z2
G01 X104.783860 Y37.556440 Z2
G01 X104.546750 Y37.525840 Z2
G03 X104.230956 Y37.514221 Z2 I0.009298 J-4.550028
G02 X103.742550 Y37.496040 Z2 I-0.509119 J7.107482
G00 Z0.000000

(End cutting path id: path5)


(Start cutting path id: path5)
(Change tool to Default tool)

G00 Z0.000000
G00 X104.814810 Y37.525840

G01 Z2 F100.0(Penetrate)
G01 X104.923130 Y36.989700 Z2 F100
G01 X104.549530 Y36.572690 Z2
G01 X104.385480 Y36.334430 Z2
G01 X104.546860 Y36.133770 Z2
G01 X104.837890 Y35.738730 Z2
G01 X104.166620 Y35.131300 Z2
G01 X104.099820 Y34.815390 Z2
G01 X104.010620 Y34.428180 Z2
G00 Z0.000000

(End cutting path id: path5)


(Start cutting path id: path5)
(Change tool to Default tool)

G00 Z0.000000
G00 X103.146850 Y36.334430

G01 Z2 F100.0(Penetrate)
G02 X103.627864 Y36.317835 Z2 I0.000000 J-6.979524 F100
G03 X104.010620 Y36.304630 Z2 I0.382756 J5.540604
G01 X104.308470 Y36.334430 Z2
G00 Z0.000000

(End cutting path id: path5)


(Start cutting path id: path5)
(Change tool to Default tool)

G00 Z0.000000
G00 X103.265990 Y35.321740

G01 Z2 F100.0(Penetrate)
G03 X103.636041 Y35.171300 Z2 I0.907984 J1.703103 F100
G03 X104.040400 Y35.113240 Z2 I0.408403 J1.407222
G00 Z0.000000

(End cutting path id: path5)


(Start cutting path id: path5)
(Change tool to Default tool)

G00 Z0.000000
G00 X71.217159 Y27.815880

G01 Z2 F100.0(Penetrate)
G03 X70.935117 Y28.964153 Z2 I-37.195087 J-8.527186 F100
G03 X70.621455 Y30.109330 Z2 I-52.238469 J-13.692482
G02 X70.269852 Y31.417561 Z2 I41.281127 J11.796159
G02 X69.940166 Y32.730430 Z2 I876.153882 J220.716698
G03 X69.742847 Y33.420301 Z2 I-10.452339 J-2.616451
G02 X69.582974 Y34.100540 Z2 I4.107189 J1.324199
G01 X69.579874 Y34.412760 Z2
G01 X70.085280 Y34.457960 Z2
G03 X70.376957 Y34.457986 Z2 I-0.086894 J1638.796663
G02 X70.651198 Y34.457960 Z2 I0.098222 J-502.953502
G02 X70.775529 Y34.456378 Z2 I-0.002057 J-5.048534
G02 X70.919264 Y34.445260 Z2 I-0.034612 J-1.382117
G03 X71.081414 Y34.431127 Z2 I0.244463 J1.867483
G03 X71.217116 Y34.428160 Z2 I0.135702 J3.102038
G03 X71.390321 Y34.428143 Z2 I0.112909 J299.431840
G02 X71.574537 Y34.428160 Z2 I0.221741 J-975.643156
G03 X71.833344 Y34.429965 Z2 I0.000000 J18.556097
G02 X72.080885 Y34.415560 Z2 I0.024013 J-1.721497
G03 X72.241280 Y34.401499 Z2 I0.242740 J1.847137
G03 X72.378737 Y34.398460 Z2 I0.137457 J3.106875
G03 X72.595548 Y34.398435 Z2 I0.147269 J326.390915
G02 X72.825514 Y34.398460 Z2 I0.217094 J-1059.585274
G03 X73.010549 Y34.399991 Z2 I0.000000 J11.185414
G02 X73.212721 Y34.389460 Z2 I0.024434 J-1.476866
G03 X73.533440 Y34.369468 Z2 I0.341684 J2.898936
G03 X73.897780 Y34.368160 Z2 I0.364340 J50.727020
G03 X74.142532 Y34.370324 Z2 I0.000000 J13.840793
G02 X74.404127 Y34.355560 Z2 I0.031307 J-1.770163
G03 X74.587943 Y34.340917 Z2 I0.234825 J1.786786
G03 X74.761549 Y34.338460 Z2 I0.173606 J6.131085
G03 X75.006929 Y34.338480 Z2 I-0.027164 J1491.201383
G02 X75.238112 Y34.338460 Z2 I0.078246 J-458.912028
G02 X75.349755 Y34.337921 Z2 I-0.006026 J-12.810521
G02 X75.476393 Y34.329460 Z2 I-0.010138 J-1.103686
G03 X75.643507 Y34.313796 Z2 I0.408750 J3.461465
G03 X75.804030 Y34.308160 Z2 I0.162411 J2.337090
G01 X76.459303 Y34.308160 Z2
G03 X76.560736 Y34.308294 Z2 I0.011619 J29.671124
G02 X76.667799 Y34.303160 Z2 I0.003186 J-1.052523
G02 X76.831554 Y34.286225 Z2 I-1.006700 J-10.534532
G03 X76.965651 Y34.278460 Z2 I0.140249 J1.260260
G03 X77.439525 Y34.286163 Z2 I0.054233 J11.243005
G02 X77.829375 Y34.276460 Z2 I0.117047 J-3.133774
G01 X77.994549 Y34.184460 Z2
G01 X77.969379 Y33.891020 Z2
G02 X77.831205 Y33.553301 Z2 I-1.587792 J0.452501
G03 X77.657576 Y33.205960 Z2 I4.797946 J-2.615470
G03 X77.312865 Y32.446204 Z2 I183.019913 J-83.496441
G02 X76.957947 Y31.686920 Z2 I-28.512292 J12.865145
G03 X76.572263 Y30.817298 Z2 I12.894855 J-6.239305
G02 X76.150622 Y29.959400 Z2 I-6.110591 J2.470678
G02 X75.558441 Y29.436806 Z2 I-1.088956 J0.637145
G03 X74.821114 Y29.059870 Z2 I2.403632 J-5.611366
G03 X73.154926 Y28.046893 Z2 I86.569102 J-144.269323
G02 X71.485177 Y27.040430 Z2 I-53.259060 J86.469918
G00 Z0.000000

(End cutting path id: path5)


(Start cutting path id: path5)
(Change tool to Default tool)

G00 Z0.000000
G00 X84.411935 Y34.295370

G01 Z2 F100.0(Penetrate)
G02 X84.540910 Y34.306014 Z2 I0.176056 J-1.346584 F100
G02 X84.650216 Y34.307970 Z2 I0.112932 J-3.255590
G03 X84.771321 Y34.308363 Z2 I-0.056351 J36.031133
G02 X84.888497 Y34.302970 Z2 I0.005676 J-1.152359
G02 X85.000526 Y34.289926 Z2 I-0.271358 J-2.818208
G03 X85.126779 Y34.278270 Z2 I0.196201 J1.435559
G02 X85.515630 Y34.228309 Z2 I-0.122074 J-2.488338
G02 X85.901193 Y34.115650 Z2 I-0.530411 J-2.531370
G02 X86.472925 Y33.872541 Z2 I-2.762260 J-7.289984
G02 X87.003243 Y33.535920 Z2 I-1.088845 J-2.301432
G02 X87.123520 Y33.434456 Z2 I-4.209172 J-5.111637
G02 X87.240352 Y33.324710 Z2 I-1.263290 J-1.461919
G02 X87.439136 Y33.092146 Z2 I-1.608658 J-1.576236
G02 X87.622663 Y32.818800 Z2 I-2.753871 J-2.047258
G02 X87.892860 Y32.216248 Z2 I-2.327157 J-1.405403
G02 X88.028579 Y31.597610 Z2 I-3.613535 J-1.116957
G02 X88.041147 Y31.470441 Z2 I-1.882897 J-0.250297
G02 X88.045719 Y31.329540 Z2 I-2.169071 J-0.140901
G02 X88.041394 Y31.192403 Z2 I-2.176112 J-0.000000
G02 X88.028579 Y31.061480 Z2 I-1.902713 J0.120147
G02 X87.813412 Y30.203700 Z2 I-3.865746 J0.513814
G02 X87.389691 Y29.393510 Z2 I-3.503057 J1.316167
G02 X87.163131 Y29.096831 Z2 I-3.211731 J2.217805
G02 X86.913864 Y28.828030 Z2 I-2.940770 J2.477085
G02 X85.971667 Y28.115606 Z2 I-3.238613 J3.303888
G02 X84.858712 Y27.669850 Z2 I-2.155937 J3.770623
G02 X84.372929 Y27.579223 Z2 I-1.021008 J4.125572
G02 X83.935372 Y27.525550 Z2 I-6.586126 J51.881762
G02 X83.594754 Y27.518634 Z2 I-0.205601 J1.734584
G02 X83.280099 Y27.548350 Z2 I0.727650 J9.385495
G02 X82.708862 Y27.645320 Z2 I0.573447 J5.109106
G02 X82.148263 Y27.827660 Z2 I0.730704 J3.199477
G02 X81.571161 Y28.159365 Z2 I1.119096 J2.614880
G02 X81.076112 Y28.589340 Z2 I2.567804 J3.456402
G02 X80.813873 Y28.897079 Z2 I1.953565 J1.930329
G02 X80.596148 Y29.244610 Z2 I2.287241 J1.674902
G02 X80.437820 Y29.652490 Z2 I1.655833 J0.877417
G02 X80.345181 Y30.078600 Z2 I5.388122 J1.394542
G02 X80.326935 Y30.332302 Z2 I1.216788 J0.215015
G03 X80.331371 Y30.614730 Z2 I-9.043016 J0.283270
G02 X80.351590 Y30.909427 Z2 I2.160017 J-0.000156
G02 X80.409601 Y31.210430 Z2 I2.841635 J-0.391563
G02 X80.792991 Y32.148832 Z2 I3.426717 J-0.852488
G02 X81.403635 Y32.937970 Z2 I3.403514 J-2.002847
G02 X81.661477 Y33.186705 Z2 I6.977794 J-6.975276
G02 X81.939768 Y33.413360 Z2 I1.859691 J-1.999185
G02 X82.470961 Y33.744022 Z2 I2.974776 J-4.186835
G02 X83.041819 Y34.004490 Z2 I2.203832 J-4.074264
G02 X83.759384 Y34.197897 Z2 I1.352387 J-3.589708
G02 X84.411936 Y34.295450 Z2 I3.057217 J-18.218959
G00 Z0.000000

(End cutting path id: path5)


(Start cutting path id: path5)
(Change tool to Default tool)

G00 Z0.000000
G00 X95.938791 Y33.474110

G01 Z2 F100.0(Penetrate)
G02 X96.257314 Y33.473273 Z2 I0.000000 J-60.604604 F100
G03 X96.564280 Y33.474220 Z2 I0.096713 J18.401110
G03 X96.692801 Y33.483157 Z2 I-0.011564 J1.094844
G02 X96.832346 Y33.498820 Z2 I0.543782 J-4.215296
G02 X96.963455 Y33.504582 Z2 I0.117840 J-1.186863
G03 X97.100412 Y33.503820 Z2 I0.136957 J12.309914
G01 X98.202463 Y33.503820 Z2
G03 X98.382579 Y33.506642 Z2 I0.000000 J5.749310
G03 X98.559885 Y33.520920 Z2 I-0.056863 J1.814186
G02 X98.726683 Y33.532750 Z2 I0.181887 J-1.382733
G02 X98.887522 Y33.533620 Z2 I0.160839 J-14.865164
G01 X99.810862 Y33.533620 Z2
G03 X100.068625 Y33.544441 Z2 I0.000000 J3.075513
G02 X100.346993 Y33.562220 Z2 I0.580806 J-6.905543
G02 X100.583513 Y33.565262 Z2 I0.169157 J-3.955310
G03 X100.823553 Y33.563220 Z2 I0.240040 J14.104977
G01 X101.627753 Y33.563220 Z2
G03 X101.808849 Y33.570175 Z2 I-0.000153 J2.365340
G03 X102.014963 Y33.587920 Z2 I-0.863312 J11.233271
G02 X102.251370 Y33.596063 Z2 I0.185300 J-1.943764
G03 X102.491523 Y33.592920 Z2 I0.240153 J9.172102
G01 X103.265943 Y33.592920 Z2
G03 X103.474508 Y33.603831 Z2 I-0.000111 J2.001011
G02 X103.712713 Y33.621520 Z2 I0.410427 J-3.914144
G02 X103.926346 Y33.624176 Z2 I0.153046 J-3.716835
G03 X104.129713 Y33.622520 Z2 I0.203367 J12.485035
G01 X104.963693 Y33.622520 Z2
G03 X105.132057 Y33.627382 Z2 I-0.000208 J2.924477
G03 X105.321113 Y33.643820 Z2 I-0.188275 J3.260867
G02 X105.559850 Y33.655165 Z2 I0.200243 J-1.696260
G03 X105.767893 Y33.652820 Z2 I0.208043 J9.228974
G01 X106.512523 Y33.652820 Z2
G03 X106.794319 Y33.661486 Z2 I-0.000000 J4.586123
G03 X107.078443 Y33.679920 Z2 I-2.645776 J42.977617
G02 X107.280279 Y33.684779 Z2 I0.155941 J-2.283201
G03 X107.465643 Y33.682920 Z2 I0.185364 J9.241106
G01 X108.359203 Y33.682920 Z2
G03 X108.491389 Y33.683215 Z2 I-0.003025 J30.922208
G03 X108.627263 Y33.691920 Z2 I-0.004997 J1.142829
G02 X108.982176 Y33.712977 Z2 I0.358733 J-3.044822
G02 X109.371893 Y33.713220 Z2 I0.389717 J-312.820230
G01 X110.056953 Y33.713220 Z2
G03 X110.237295 Y33.720145 Z2 I-0.000153 J2.355875
G03 X110.444163 Y33.737920 Z2 I-0.881218 J11.468093
G02 X110.628251 Y33.744738 Z2 I0.150755 J-1.581736
G03 X110.801583 Y33.742920 Z2 I0.173332 J8.260572
G01 X111.724923 Y33.742920 Z2
G03 X111.857107 Y33.743215 Z2 I-0.003025 J30.918173
G03 X111.992993 Y33.751920 Z2 I-0.004999 J1.143041
G01 X112.528553 Y33.763720 Z2
G01 X112.716343 Y33.296620 Z2
G02 X112.745652 Y33.028577 Z2 I-13.666389 J-1.629951
G02 X112.768143 Y32.760490 Z2 I-8.683657 J-0.863508
G03 X112.798393 Y32.384424 Z2 I15.628145 J1.067842
G03 X112.839643 Y32.015860 Z2 I9.642679 J0.892630
G02 X112.917688 Y31.242809 Z2 I-12.809933 J-1.683709
G03 X112.993073 Y30.496820 Z2 I12.397278 J0.875985
G03 X113.028774 Y30.290272 Z2 I2.604590 J0.343834
G02 X113.061673 Y30.109610 Z2 I-2.903153 J-0.621997
G01 X113.065673 Y29.871330 Z2
G03 X113.089517 Y29.496067 Z2 I2.987525 J0.001441
G02 X113.127773 Y29.126700 Z2 I-7.930962 J-1.008078
G03 X113.188068 Y28.532737 Z2 I14.194198 J1.140848
G02 X113.245093 Y27.935300 Z2 I-11.045271 J-1.355709
G03 X113.254236 Y27.847189 Z2 I1.510667 J0.112234
G02 X113.265593 Y27.756590 Z2 I-5.696501 J-0.760070
G02 X113.287898 Y27.533231 Z2 I-5.987060 J-0.710680
G02 X113.304593 Y27.309810 Z2 I-17.632558 J-1.429888
G03 X113.314014 Y27.219730 Z2 I1.567081 J0.118360
G02 X113.325193 Y27.131100 Z2 I-5.858460 J-0.783956
G01 X113.381493 Y26.821430 Z2
G01 X113.750723 Y26.773630 Z2
G01 X114.554923 Y26.773630 Z2
G03 X114.668571 Y26.774369 Z2 I0.000000 J8.734617
G02 X114.793203 Y26.770630 Z2 I0.018868 J-1.449996
G01 X115.268023 Y26.786230 Z2
G01 X115.406033 Y27.071170 Z2
G03 X115.422271 Y27.238509 Z2 I-1.603743 J0.240081
G02 X115.439933 Y27.458370 Z2 I3.122882 J-0.140226
G03 X115.463810 Y27.715215 Z2 I-5.178691 J0.610962
G03 X115.479233 Y27.964720 Z2 I-20.029287 J1.363308
G02 X115.487995 Y28.054089 Z2 I1.123444 J-0.065033
G03 X115.499433 Y28.143430 Z2 I-4.327688 J0.599456
G01 X115.509433 Y28.322140 Z2
G01 X115.529533 Y28.500850 Z2
G01 X115.539533 Y28.679570 Z2
G01 X115.559633 Y28.858280 Z2
G01 X115.569633 Y29.036990 Z2
G01 X115.589733 Y29.215700 Z2
G01 X115.599733 Y29.394410 Z2
G01 X115.619833 Y29.573120 Z2
G01 X115.573033 Y29.913740 Z2
G01 X115.151813 Y29.998640 Z2
G03 X114.808250 Y30.028682 Z2 I-0.668027 J-5.660032
G02 X114.466763 Y30.054740 Z2 I0.507833 J8.905798
G02 X114.377582 Y30.066401 Z2 I0.162244 J1.587678
G03 X114.288043 Y30.076840 Z2 I-0.168574 J-1.056677
G03 X114.198570 Y30.081381 Z2 I-0.147669 J-2.026023
G02 X114.109333 Y30.087940 Z2 I0.028669 J1.000316
G01 X113.930623 Y30.108040 Z2
G01 X113.751913 Y30.118040 Z2
G01 X113.573203 Y30.138140 Z2
G03 X113.473290 Y30.139698 Z2 I-0.080060 J-1.929436
G02 X113.364703 Y30.139140 Z2 I-0.108587 J10.561202
G01 X113.096643 Y30.139140 Z2
G00 Z0.000000

(End cutting path id: path5)


(Start cutting path id: path5)
(Change tool to Default tool)

G00 Z0.000000
G00 X95.878418 Y32.704100

G01 Z2 F100.0(Penetrate)
G03 X95.895649 Y32.433419 Z2 I3.168399 J0.065808 F100
G02 X95.908208 Y32.197750 Z2 I-2.209076 J-0.235890
G02 X95.907252 Y32.047113 Z2 I-11.758120 J-0.000689
G03 X95.913308 Y31.899900 Z2 I1.368113 J-0.017449
G03 X95.929665 Y31.734099 Z2 I24.036605 J2.287671
G02 X95.938038 Y31.572270 Z2 I-1.609605 J-0.164408
G02 X95.937201 Y31.433221 Z2 I-9.133579 J-0.014548
G03 X95.940738 Y31.304200 Z2 I1.572842 J-0.021441
G03 X95.956362 Y31.155383 Z2 I2.078816 J0.143021
G02 X95.967738 Y31.006350 Z2 I-1.151011 J-0.162810
G02 X95.966916 Y30.830674 Z2 I-5.395013 J-0.062600
G03 X95.970538 Y30.678710 Z2 I1.697134 J-0.035576
G03 X95.986234 Y30.520437 Z2 I2.581580 J0.176106
G02 X95.997638 Y30.351070 Z2 I-1.350596 J-0.176006
G02 X95.996494 Y30.175323 Z2 I-7.761660 J-0.037346
G03 X96.000338 Y30.023440 Z2 I1.761304 J-0.031411
G03 X96.015645 Y29.861021 Z2 I3.202347 J0.219878
G02 X96.027458 Y29.666020 Z2 I-1.648100 J-0.197696
G01 X96.017958 Y29.368190 Z2
G01 X95.818908 Y29.169140 Z2
G01 X95.550863 Y29.158540 Z2
G01 X95.342367 Y29.134940 Z2
G02 X95.225537 Y29.130239 Z2 I-0.106000 J1.180314
G03 X95.104086 Y29.124840 Z2 I-0.010375 J-1.135266
G03 X94.991601 Y29.111146 Z2 I0.247120 J-2.498658
G02 X94.865805 Y29.100540 Z2 I-0.151760 J1.048699
G02 X94.747162 Y29.099947 Z2 I-0.077316 J3.600599
G03 X94.627523 Y29.095540 Z2 I-0.014228 J-1.239862
G01 X94.419027 Y29.071940 Z2
G01 X94.139032 Y29.001740 Z2
G01 X94.091392 Y28.445290 Z2
G01 X94.091392 Y27.909160 Z2
G01 X94.091392 Y27.164530 Z2
G01 X94.168822 Y26.492390 Z2
G01 X94.448817 Y26.421090 Z2
G03 X94.572297 Y26.433690 Z2 I-0.041868 J1.021681
G02 X94.687099 Y26.446990 Z2 I0.198560 J-1.211770
G02 X94.803504 Y26.449794 Z2 I0.089854 J-1.312616
G03 X94.925380 Y26.449990 Z2 I0.056439 J2.796139
G03 X95.066593 Y26.462642 Z2 I-0.030478 J1.134589
G02 X95.193446 Y26.476690 Z2 I0.232352 J-1.518334
G03 X95.421763 Y26.494341 Z2 I-0.916824 J13.344373
G02 X95.699794 Y26.509190 Z2 I0.368350 J-4.286723
G00 Z0.000000

(End cutting path id: path5)


(Start cutting path id: path5)
(Change tool to Default tool)

G00 Z0.000000
G00 X102.282317 Y30.530190

G01 Z2 F100.0(Penetrate)
G01 X102.042857 Y30.222820 Z2 F100
G02 X101.413857 Y29.900152 Z2 I-1.089872 J1.350154
G02 X100.733487 Y29.759650 Z2 I-1.416266 J5.140598
G03 X100.629191 Y29.744177 Z2 I0.858712 J-6.147418
G02 X100.524987 Y29.731050 Z2 I-0.267509 J1.703360
G02 X100.352417 Y29.724387 Z2 I-0.145095 J1.519730
G03 X100.167567 Y29.726050 Z2 I-0.184850 J-10.269684
G03 X99.995508 Y29.725405 Z2 I-0.000000 J-22.940351
G02 X99.839931 Y29.734050 Z2 I-0.009280 J1.237191
G02 X99.083863 Y29.890967 Z2 I0.536811 J4.486441
G02 X98.440028 Y30.380820 Z2 I0.328369 J1.099625
G00 Z0.000000

(End cutting path id: path5)


(Start cutting path id: path5)
(Change tool to Default tool)

G00 Z0.000000
G00 X109.132897 Y30.529750

G01 Z2 F100.0(Penetrate)
G02 X108.614363 Y30.014340 Z2 I-1.604979 J1.096162 F100
G02 X107.941497 Y29.696840 Z2 I-1.370830 J2.033413
G02 X107.480138 Y29.601521 Z2 I-0.791959 J2.669016
G02 X107.018157 Y29.576740 Z2 I-0.420060 J3.512365
G02 X106.721394 Y29.598479 Z2 I0.023279 J2.354277
G02 X106.422447 Y29.649540 Z2 I0.628253 J4.578848
G02 X105.948578 Y29.822324 Z2 I0.343612 J1.678571
G02 X105.559117 Y30.113140 Z2 I0.807883 J1.488108
G02 X105.427510 Y30.264152 Z2 I1.033914 J1.033914
G02 X105.320397 Y30.440340 Z2 I0.806655 J0.611055
G00 Z0.000000

(End cutting path id: path5)


(Start cutting path id: path5)
(Change tool to Default tool)

G00 Z0.000000
G00 X96.057216 Y29.248930

G01 Z2 F100.0(Penetrate)
G02 X96.054839 Y29.012360 Z2 I-11.771976 J-0.000000 F100
G03 X96.059916 Y28.802160 Z2 I2.376268 J-0.047763
G03 X96.074811 Y28.661249 Z2 I1.920829 J0.131792
G02 X96.086916 Y28.504300 Z2 I-1.196963 J-0.171263
G02 X96.086182 Y28.334815 Z2 I-5.319081 J-0.061721
G03 X96.092116 Y28.176670 Z2 I1.370359 J-0.027767
G03 X96.107167 Y28.035775 Z2 I6.100049 J0.580378
G02 X96.116816 Y27.878820 Z2 I-1.380633 J-0.163651
G02 X96.115864 Y27.722503 Z2 I-7.165597 J-0.034507
G03 X96.119516 Y27.580960 Z2 I1.654434 J-0.028128
G03 X96.134496 Y27.439111 Z2 I1.939265 J0.133082
G02 X96.146516 Y27.283110 Z2 I-1.192027 J-0.170310
G02 X96.145706 Y27.107870 Z2 I-5.409771 J-0.062618
G03 X96.149316 Y26.955480 Z2 I1.712805 J-0.035663
G03 X96.164488 Y26.803461 Z2 I2.436213 J0.166381
G02 X96.176416 Y26.627840 Z2 I-1.387117 J-0.182425
G02 X96.175620 Y26.478994 Z2 I-7.318140 J-0.035279
G03 X96.181516 Y26.329990 Z2 I1.354467 J-0.021022
G03 X96.196569 Y26.189095 Z2 I6.093240 J0.579730
G02 X96.206226 Y26.032140 Z2 I-1.381265 J-0.163762
G02 X96.205274 Y25.875821 Z2 I-7.165369 J-0.034506
G03 X96.208926 Y25.734290 Z2 I1.654163 J-0.028125
G03 X96.223907 Y25.592429 Z2 I1.939372 J0.133077
G02 X96.235926 Y25.436430 Z2 I-1.192055 J-0.170309
G02 X96.235116 Y25.261190 Z2 I-5.409771 J-0.062618
G03 X96.238726 Y25.108800 Z2 I1.712805 J-0.035663
G03 X96.253650 Y24.967333 Z2 I1.911157 J0.130092
G02 X96.265726 Y24.810950 Z2 I-1.192015 J-0.170708
G02 X96.265076 Y24.654100 Z2 I-4.924835 J-0.058021
G03 X96.268526 Y24.513090 Z2 I1.584066 J-0.031792
G03 X96.284175 Y24.364012 Z2 I2.086886 J0.143702
G02 X96.295526 Y24.215240 Z2 I-1.150088 J-0.162570
G02 X96.294949 Y24.037624 Z2 I-5.810133 J-0.069950
G03 X96.296826 Y23.887610 Z2 I2.416712 J-0.044788
G03 X96.309528 Y23.764241 Z2 I1.059395 J0.046738
G02 X96.322776 Y23.649320 Z2 I-1.232471 J-0.200300
G02 X96.325626 Y23.442147 Z2 I-1.893138 J-0.129647
G03 X96.330476 Y23.262120 Z2 I1.327985 J-0.054301
G03 X96.345942 Y23.124194 Z2 I4.120657 J0.392223
G02 X96.355086 Y22.994050 Z2 I-1.110650 J-0.143431
G02 X96.354104 Y22.805226 Z2 I-5.613671 J-0.065208
G03 X96.360286 Y22.636630 Z2 I1.438156 J-0.031674
G03 X96.374486 Y22.515170 Z2 I2.879857 J0.275127
G02 X96.384696 Y22.398350 Z2 I-1.154198 J-0.159733
G01 X96.459896 Y22.126050 Z2
G01 X96.712655 Y22.070850 Z2
G03 X97.076342 Y22.084024 Z2 I0.051534 J3.604071
G02 X97.457284 Y22.100550 Z2 I0.380942 J-4.382205
G03 X97.734593 Y22.113477 Z2 I0.000000 J2.980888
G02 X97.963632 Y22.129150 Z2 I0.429931 J-4.601436
G02 X98.158948 Y22.131490 Z2 I0.131727 J-2.843009
G03 X98.380624 Y22.130150 Z2 I0.151922 J6.797892
G03 X98.516738 Y22.139783 Z2 I-0.011059 J1.122701
G02 X98.648690 Y22.154750 Z2 I0.470057 J-3.555026
G02 X98.835924 Y22.161600 Z2 I0.152276 J-1.599871
G03 X99.065683 Y22.159750 Z2 I0.182394 J8.383117
G03 X99.221314 Y22.169285 Z2 I-0.006715 J1.384410
G02 X99.363534 Y22.184450 Z2 I0.741438 J-6.279086
G02 X99.495631 Y22.190016 Z2 I0.121181 J-1.305653
G03 X99.631601 Y22.189450 Z2 I0.135970 J16.331250
G03 X99.923534 Y22.200862 Z2 I0.000000 J3.739796
G02 X100.137953 Y22.216550 Z2 I1.643941 J-20.995387
G02 X100.325505 Y22.220736 Z2 I0.139517 J-2.047219
G03 X100.554943 Y22.219550 Z2 I0.147231 J6.287824
G03 X100.672928 Y22.226855 Z2 I-0.012934 J1.165374
G03 X100.793223 Y22.240750 Z2 I-2.802642 J24.791194
G02 X100.980544 Y22.250408 Z2 I0.166779 J-1.413396
G03 X101.210213 Y22.248750 Z2 I0.229669 J15.910441
G03 X101.384900 Y22.258106 Z2 I-0.002665 J1.685326
G02 X101.537853 Y22.273450 Z2 I1.486306 J-14.045469
G02 X101.666577 Y22.279076 Z2 I0.117721 J-1.217940
G03 X101.805913 Y22.278450 Z2 I0.139336 J15.494190
G02 X101.932782 Y22.274891 Z2 I-0.008417 J-2.562907
G03 X102.073983 Y22.275450 Z2 I0.065681 J1.242552
G03 X102.365733 Y22.296348 Z2 I-0.572984 J10.046325
G02 X102.639903 Y22.308150 Z2 I0.274170 J-3.178626
G03 X102.808615 Y22.314408 Z2 I-0.000872 J2.300890
G03 X102.967543 Y22.329450 Z2 I-0.285658 J3.865219
G02 X103.126596 Y22.338625 Z2 I0.156287 J-1.326143
G03 X103.295173 Y22.338450 Z2 I0.168577 J81.364310
G03 X103.524342 Y22.347128 Z2 I-0.000000 J3.030269
G03 X103.712163 Y22.363150 Z2 I-0.758353 J9.998869
G02 X103.889535 Y22.370012 Z2 I0.149440 J-1.567001
G03 X104.099373 Y22.368150 Z2 I0.209838 J11.823851
G03 X104.267977 Y22.374377 Z2 I-0.000881 J2.309637
G03 X104.427013 Y22.389450 Z2 I-0.278485 J3.784794
G02 X104.596268 Y22.398657 Z2 I0.157208 J-1.329619
G03 X104.784433 Y22.398450 Z2 I0.107213 J11.915148
G03 X104.972463 Y22.404243 Z2 I-0.000000 J3.054647
G03 X105.141853 Y22.419750 Z2 I-0.176299 J2.858641
G02 X105.290726 Y22.428121 Z2 I0.142800 J-1.211654
G03 X105.439703 Y22.427750 Z2 I0.148977 J29.930360
G03 X105.665295 Y22.433293 Z2 I0.000000 J4.593495
G03 X105.856703 Y22.449050 Z2 I-0.142910 J2.906423
G02 X106.025959 Y22.458561 Z2 I0.161779 J-1.368279
G03 X106.214123 Y22.458050 Z2 I0.188164 J34.673750
G03 X106.414481 Y22.463317 Z2 I-0.000000 J3.813389
G03 X106.601323 Y22.479350 Z2 I-0.149154 J2.834899
G02 X106.770617 Y22.488366 Z2 I0.154978 J-1.316070
G03 X106.958753 Y22.487350 Z2 I0.188136 J17.414465
G03 X107.140106 Y22.495637 Z2 I-0.000734 J2.004519
G03 X107.316173 Y22.512050 Z2 I-4.041980 J44.312603
G02 X107.494117 Y22.518899 Z2 I0.149904 J-1.579617
G03 X107.703383 Y22.517050 Z2 I0.209266 J11.840040
G03 X107.871975 Y22.523276 Z2 I-0.000881 J2.309427
G03 X108.031013 Y22.538350 Z2 I-0.278506 J3.784983
G02 X108.189959 Y22.547044 Z2 I0.148522 J-1.257998
G03 X108.358653 Y22.546350 Z2 I0.168694 J20.498521
G03 X108.568144 Y22.555139 Z2 I-0.000157 J2.504693
G03 X108.745863 Y22.571050 Z2 I-1.360698 J16.199337
G02 X108.911181 Y22.577591 Z2 I0.141433 J-1.482191
G03 X109.103283 Y22.576050 Z2 I0.192102 J11.973442
G03 X109.291123 Y22.582102 Z2 I-0.000199 J2.924127
G03 X109.460703 Y22.597350 Z2 I-0.216207 J3.355204
G02 X109.640958 Y22.606726 Z2 I0.161859 J-1.374427
G03 X109.847913 Y22.605350 Z2 I0.206955 J15.567977
G03 X110.022686 Y22.614708 Z2 I-0.002775 J1.688565
G02 X110.175543 Y22.630050 Z2 I1.521593 J-14.390905
G02 X110.328460 Y22.636236 Z2 I0.133670 J-1.411082
G03 X110.503183 Y22.635050 Z2 I0.174723 J12.865934
G03 X110.714706 Y22.643976 Z2 I-0.000155 J2.514514
G03 X110.890393 Y22.659750 Z2 I-1.410277 J16.693178
G02 X111.032692 Y22.665653 Z2 I0.126712 J-1.336434
G03 X111.188243 Y22.664750 Z2 I0.155551 J13.395707
G03 X111.417013 Y22.676100 Z2 I-0.000135 J2.313905
G02 X111.605233 Y22.691850 Z2 I0.598737 J-6.022702
G02 X111.722560 Y22.695456 Z2 I0.102887 J-1.436983
G03 X111.843513 Y22.694850 Z2 I0.120953 J12.066150
G03 X112.139184 Y22.709669 Z2 I-0.001098 J2.979050
G02 X112.439213 Y22.724650 Z2 I0.300029 J-2.996789
G03 X112.909918 Y22.737204 Z2 I-0.000637 J8.854203
G02 X113.362553 Y22.754850 Z2 I0.843489 J-15.822587
G01 X113.623823 Y22.812150 Z2
G01 X113.711423 Y23.171410 Z2
G03 X113.699074 Y23.277691 Z2 I-11.893571 J-1.328066
G02 X113.689423 Y23.379910 Z2 I1.960085 J0.236629
G03 X113.669846 Y23.603547 Z2 I-5.829582 J-0.397641
G03 X113.643223 Y23.826690 Z2 I-9.143025 J-0.977686
G02 X113.548912 Y24.668320 Z2 I21.951385 J2.885927
G02 X113.482393 Y25.494650 Z2 I33.998652 J3.152695
G03 X113.428175 Y26.008262 Z2 I-6.991598 J-0.478383
G02 X113.392293 Y26.507350 Z2 I3.527999 J0.504478
G02 X113.392246 Y26.693329 Z2 I67.029307 J0.109800
G03 X113.392293 Y26.775420 Z2 I-72.233682 J0.082096
G00 Z0.000000

(End cutting path id: path5)


(Start cutting path id: path5)
(Change tool to Default tool)

G00 Z0.000000
G00 X107.524613 Y26.745620

G01 Z2 F100.0(Penetrate)
G01 X107.047593 Y26.136750 Z2 F100
G01 X106.779993 Y26.093050 Z2
G02 X106.674580 Y26.090300 Z2 I-0.082083 J1.124538
G03 X106.571493 Y26.088050 Z2 I-0.025101 J-1.212848
G03 X106.468233 Y26.075783 Z2 I0.087877 J-1.180486
G02 X106.362993 Y26.063550 Z2 I-0.184190 J1.125755
G02 X106.271493 Y26.060911 Z2 I-0.075551 J1.032022
G03 X106.184283 Y26.059550 Z2 I-0.021672 J-1.405916
G03 X106.077977 Y26.048710 Z2 I0.052576 J-1.042315
G02 X105.975793 Y26.035950 Z2 I-0.274121 J1.779622
G02 X105.867431 Y26.031338 Z2 I-0.096828 J0.999754
G03 X105.767293 Y26.029950 Z2 I-0.022689 J-1.975806
G03 X105.660968 Y26.019110 Z2 I0.052595 J-1.042702
G02 X105.558793 Y26.006350 Z2 I-0.274278 J1.780878
G02 X105.438141 Y26.001365 Z2 I-0.103304 J1.037629
G03 X105.320513 Y25.998350 Z2 I-0.023168 J-1.392363
G03 X104.733953 Y25.951441 Z2 I1.775983 J-25.897706
G02 X104.129113 Y25.910450 Z2 I-1.175480 J12.862031
G03 X104.023775 Y25.899704 Z2 I0.051660 J-1.028029
G02 X103.920613 Y25.886850 Z2 I-0.271886 J1.761711
G01 X103.712113 Y25.878850 Z2
G03 X103.608845 Y25.866582 Z2 I0.087882 J-1.180543
G02 X103.503623 Y25.854350 Z2 I-0.184190 J1.125742
G02 X103.412123 Y25.851711 Z2 I-0.075551 J1.032022
G03 X103.324913 Y25.850350 Z2 I-0.021672 J-1.405916
G03 X103.218602 Y25.839510 Z2 I0.052584 J-1.042474
G02 X103.116413 Y25.826750 Z2 I-0.274166 J1.780043
G02 X103.008058 Y25.822138 Z2 I-0.096826 J0.999732
G03 X102.907913 Y25.820750 Z2 I-0.022687 J-1.976308
G03 X102.801594 Y25.809909 Z2 I0.052587 J-1.042543
G02 X102.699423 Y25.797150 Z2 I-0.274233 J1.780457
G02 X102.591068 Y25.792538 Z2 I-0.096826 J0.999732
G03 X102.490923 Y25.791150 Z2 I-0.022687 J-1.976308
G03 X102.385586 Y25.780437 Z2 I0.051973 J-1.034269
G02 X102.282433 Y25.767550 Z2 I-0.279944 J1.821490
G01 X102.073933 Y25.759550 Z2
G03 X101.970666 Y25.747283 Z2 I0.087887 J-1.180617
G02 X101.865433 Y25.735050 Z2 I-0.184199 J1.125843
G02 X101.762155 Y25.731880 Z2 I-0.098359 J1.520629
G03 X101.656943 Y25.732050 Z2 I-0.105212 J-32.592580
G01 X101.388873 Y25.757750 Z2
G01 X100.852743 Y26.149050 Z2
G00 Z0.000000

(End cutting path id: path5)


(Start cutting path id: path5)
(Change tool to Default tool)

G00 Z0.000000
G00 X69.280476 Y25.315060

G01 Z2 F100.0(Penetrate)
G02 X69.354359 Y24.738030 Z2 I-5.090009 J-0.944971 F100
G03 X69.416762 Y24.123660 Z2 I10.236090 J0.729348
G02 X69.612085 Y22.529045 Z2 I-84.467888 J-11.155652
G02 X69.756304 Y20.936640 Z2 I-35.895167 J-4.053650
G03 X69.799832 Y20.446056 Z2 I12.098689 J0.826256
G03 X69.859035 Y19.953730 Z2 I22.666686 J2.475984
G01 X69.799075 Y19.552440 Z2
G01 X69.399619 Y19.659100 Z2
G02 X69.199221 Y19.844448 Z2 I5.216965 J5.841578
G03 X69.012412 Y20.018360 Z2 I-6.229143 J-6.503804
G02 X68.883134 Y20.142977 Z2 I1.912561 J2.113463
G03 X68.744346 Y20.278710 Z2 I-2.864644 J-2.790295
G03 X68.658544 Y20.354493 Z2 I-1.463174 J-1.570147
G02 X68.565635 Y20.435350 Z2 I2.042677 J2.440956
G02 X68.448528 Y20.547790 Z2 I1.827152 J2.020192
G03 X68.327353 Y20.667410 Z2 I-3.813591 J-3.741985
G03 X68.223943 Y20.760405 Z2 I-1.582407 J-1.655629
G02 X68.118857 Y20.852340 Z2 I2.701097 J3.193519
G02 X68.013403 Y20.953118 Z2 I1.787487 J1.975986
G03 X67.910361 Y21.055350 Z2 I-5.959152 J-5.903327
G03 X67.790480 Y21.165022 Z2 I-1.775404 J-1.820316
G02 X67.672080 Y21.269340 Z2 I3.875282 J4.517756
G02 X67.569751 Y21.367070 Z2 I1.750893 J1.935737
G03 X67.463584 Y21.472340 Z2 I-6.348274 J-6.296155
G03 X67.342918 Y21.582694 Z2 I-1.801574 J-1.848783
G02 X67.225303 Y21.686330 Z2 I3.868937 J4.509335
G02 X67.119845 Y21.787105 Z2 I1.785774 J1.974342
G03 X67.016807 Y21.889330 Z2 I-5.961238 J-5.905557
G03 X66.896924 Y21.999007 Z2 I-1.776269 J-1.821203
G02 X66.778525 Y22.103320 Z2 I3.889768 J4.534375
G02 X66.676196 Y22.201055 Z2 I1.749346 J1.934027
G03 X66.570029 Y22.306330 Z2 I-6.330099 J-6.277511
G03 X66.449362 Y22.416683 Z2 I-1.801210 J-1.848410
G02 X66.331748 Y22.520310 Z2 I3.876948 J4.518791
G02 X66.214640 Y22.632750 Z2 I1.827198 J2.020243
G03 X66.093467 Y22.752370 Z2 I-3.815012 J-3.743388
G03 X65.990056 Y22.845361 Z2 I-1.584308 J-1.657841
G02 X65.884971 Y22.937300 Z2 I2.698323 J3.190170
G02 X65.780683 Y23.037114 Z2 I1.754387 J1.937422
G03 X65.676475 Y23.139580 Z2 I-3.678776 J-3.637078
G03 X65.570673 Y23.234699 Z2 I-1.606999 J-1.681068
G02 X65.467978 Y23.324510 Z2 I2.609134 J3.087077
G02 X65.358825 Y23.428907 Z2 I1.843922 J2.037177
G03 X65.259482 Y23.527520 Z2 I-5.581463 J-5.523464
G03 X65.137357 Y23.639195 Z2 I-1.804115 J-1.850333
G02 X65.021201 Y23.741500 Z2 I3.765278 J4.392121
G02 X64.915750 Y23.842268 Z2 I1.781182 J1.969514
G03 X64.812705 Y23.944510 Z2 I-5.943705 J-5.887353
G01 X64.365928 Y24.290810 Z2
G01 X64.137115 Y24.338510 Z2
G01 X64.068075 Y24.004560 Z2
G01 X64.068075 Y22.872720 Z2
G02 X64.067350 Y21.022005 Z2 I-2362.351537 J0.000778
G03 X64.068075 Y19.179360 Z2 I782.873843 J-0.613406
G01 X64.102935 Y18.851720 Z2
G03 X64.303264 Y18.422940 Z2 I1.447011 J0.414867
G02 X64.574419 Y18.017740 Z2 I-38.967495 J-26.369866
G00 Z0.000000

(End cutting path id: path5)


(Start cutting path id: path5)
(Change tool to Default tool)

G00 Z0.000000
G00 X77.054399 Y24.885040

G01 Z2 F100.0(Penetrate)
G02 X77.652067 Y24.840825 Z2 I0.177468 J-1.662641 F100
G02 X78.216020 Y24.636570 Z2 I-0.807556 J-3.110354
G02 X79.029922 Y24.016902 Z2 I-1.048816 J-2.221909
G02 X79.554538 Y23.140790 Z2 I-2.277014 J-1.958603
G02 X79.666818 Y22.733864 Z2 I-1.982092 J-0.765856
G02 X79.722423 Y22.366370 Z2 I-9.365017 J-1.604963
G02 X79.731997 Y22.263269 Z2 I-1.350182 J-0.177367
G02 X79.735043 Y22.157880 Z2 I-2.051278 J-0.112034
G02 X79.730943 Y22.022906 Z2 I-2.010693 J-0.006469
G02 X79.717923 Y21.889810 Z2 I-1.988796 J0.127365
G02 X79.523784 Y21.090727 Z2 I-3.802518 J0.500705
G02 X79.109144 Y20.340980 Z2 I-2.538712 J0.914479
G02 X79.009430 Y20.220199 Z2 I-2.402487 J1.881904
G02 X78.900648 Y20.102820 Z2 I-1.911731 J1.662601
G02 X78.729786 Y19.946074 Z2 I-1.666897 J1.645515
G02 X78.543662 Y19.805700 Z2 I-1.596886 J1.923755
G02 X77.831148 Y19.454710 Z2 I-1.585449 J2.319782
G02 X77.084189 Y19.303670 Z2 I-1.019430 J3.118982
G02 X76.654600 Y19.319517 Z2 I-0.149186 J1.786493
G02 X76.250205 Y19.419990 Z2 I0.377362 J2.382908
G02 X75.845378 Y19.595570 Z2 I0.901225 J2.632395
G02 X75.475791 Y19.831650 Z2 I1.290745 J2.428023
G02 X75.324191 Y19.960185 Z2 I1.095650 J1.445933
G02 X75.177962 Y20.102700 Z2 I4.846243 J5.118802
G02 X74.745956 Y20.672303 Z2 I1.882397 J1.876300
G02 X74.474219 Y21.353680 Z2 I2.381788 J1.344742
G01 X74.403959 Y21.740880 Z2
G02 X74.400130 Y21.905936 Z2 I42.330466 J1.064442
G02 X74.399359 Y22.098310 Z2 I5.581122 J0.118570
G03 X74.400929 Y22.253749 Z2 I-25.368697 J0.333916
G02 X74.404659 Y22.396160 Z2 I3.719151 J-0.026164
G02 X74.445846 Y22.688036 Z2 I1.557968 J-0.071003
G02 X74.528741 Y22.991860 Z2 I4.858299 J-1.162313
G02 X74.752992 Y23.503022 Z2 I2.314636 J-0.710677
G02 X75.067699 Y23.944990 Z2 I2.610876 J-1.526069
G02 X75.148944 Y24.034144 Z2 I1.524862 J-1.307988
G02 X75.237493 Y24.123260 Z2 I3.427512 J-3.317167
G02 X75.675496 Y24.478519 Z2 I2.104872 J-2.147481
G02 X76.190596 Y24.729210 Z2 I1.183057 J-1.776314
G02 X76.494648 Y24.822911 Z2 I2.569472 J-7.797583
G02 X76.786299 Y24.867890 Z2 I0.322598 J-1.123728
G03 X76.915027 Y24.873621 Z2 I-0.141421 J4.624931
G03 X77.054365 Y24.884990 Z2 I-0.177505 J3.035102
G00 Z0.000000

(End cutting path id: path5)


(Start cutting path id: path5)
(Change tool to Default tool)

G00 Z0.000000
G00 X82.147627 Y24.391710

G01 Z2 F100.0(Penetrate)
G01 X82.624189 Y24.391710 Z2 F100
G01 X82.922041 Y24.413010 Z2
G01 X83.190107 Y24.422010 Z2
G01 X83.696455 Y24.422010 Z2
G01 X84.053877 Y24.439110 Z2
G01 X84.321943 Y24.451710 Z2
G01 X84.709150 Y24.451710 Z2
G01 X85.215498 Y24.473010 Z2
G01 X85.483564 Y24.482010 Z2
G01 X85.960127 Y24.482010 Z2
G01 X86.347334 Y24.499210 Z2
G01 X86.615400 Y24.511810 Z2
G01 X87.121748 Y24.511810 Z2
G01 X87.479170 Y24.524410 Z2
G01 X87.777021 Y24.541510 Z2
G01 X88.104658 Y24.541510 Z2
G00 Z0.000000

(End cutting path id: path5)


(Start cutting path id: path5)
(Change tool to Default tool)

G00 Z0.000000
G00 X85.364424 Y23.558600

G01 Z2 F100.0(Penetrate)
G03 X85.371295 Y23.278102 Z2 I5.728736 J-0.000000 F100
G03 X85.391544 Y22.933110 Z2 I17.896904 J0.877343
G02 X85.395591 Y22.780366 Z2 I-1.820159 J-0.124649
G03 X85.394244 Y22.605470 Z2 I11.355587 J-0.174896
G01 X85.394244 Y22.039560 Z2
G02 X85.393754 Y21.871610 Z2 I-28.792522 J-0.000000
G03 X85.394358 Y21.682130 Z2 I10.503355 J-0.061268
G03 X85.410954 Y21.396606 Z2 I3.096940 J0.036761
G02 X85.424028 Y21.146000 Z2 I-2.395250 J-0.250606
G01 X85.424028 Y20.699220 Z2
G03 X85.425223 Y20.121467 Z2 I139.669979 J0.000000
G03 X85.453818 Y19.626960 Z2 I4.620716 J0.019114
G00 Z0.000000

(End cutting path id: path5)


(Start cutting path id: path5)
(Change tool to Default tool)

G00 Z0.000000
G00 X102.044155 Y22.248050

G01 Z2 F100.0(Penetrate)
G02 X102.043798 Y22.200170 Z2 I-3.212764 J-0.000000 F100
G03 X102.044585 Y22.069200 Z2 I3.131497 J-0.046675
G03 X102.057327 Y21.919863 Z2 I1.187813 J0.026135
G02 X102.071685 Y21.801270 Z2 I-2.129216 J-0.317953
G03 X102.148425 Y21.397803 Z2 I2.155796 J0.201004
G02 X102.222845 Y21.086430 Z2 I-3.181057 J-0.924871
G00 Z0.000000

(End cutting path id: path5)


(Start cutting path id: path5)
(Change tool to Default tool)

G00 Z0.000000
G00 X107.911805 Y21.979990

G01 Z2 F100.0(Penetrate)
G03 X107.921152 Y21.494226 Z2 I12.626902 J-0.000000 F100
G03 X107.941605 Y21.146000 Z2 I8.634217 J0.332409
G00 Z0.000000

(End cutting path id: path5)


(Start cutting path id: path5)
(Change tool to Default tool)

G00 Z0.000000
G00 X113.005075 Y21.026860

G01 Z2 F100.0(Penetrate)
G01 X113.213575 Y21.026860 Z2 F100
G00 Z0.000000

(End cutting path id: path5)


(Start cutting path id: path5)
(Change tool to Default tool)

G00 Z0.000000
G00 X97.427441 Y12.835940

G01 Z2 F100.0(Penetrate)
G02 X97.234754 Y13.074165 Z2 I35.241126 J28.701612 F100
G03 X97.037569 Y13.267550 Z2 I-0.911517 J-0.732206
G01 X96.771662 Y13.610360 Z2
G01 X96.955314 Y14.027350 Z2
G03 X97.613482 Y15.600379 Z2 I-72.282148 J31.167655
G02 X98.261749 Y17.184580 Z2 I266.513178 J-108.134406
G02 X98.451316 Y17.616953 Z2 I10.005572 J-4.129042
G03 X98.575573 Y17.988770 Z2 I-1.583646 J0.735907
G01 X98.653503 Y18.316410 Z2
G01 X98.865031 Y18.644050 Z2
G03 X99.087270 Y19.133871 Z2 I-41.632892 J19.184757
G03 X99.276395 Y19.656740 Z2 I-3.480094 J1.554412
G01 X99.363125 Y19.969070 Z2
G01 X99.780462 Y20.044070 Z2
G03 X99.936571 Y20.055980 Z2 I-0.009514 J1.153802
G02 X100.078319 Y20.071070 Z2 I0.269452 J-1.857738
G02 X100.216390 Y20.074195 Z2 I0.101635 J-1.438769
G03 X100.376169 Y20.074070 Z2 I0.082442 J3.262460
G03 X100.516514 Y20.086683 Z2 I-0.032938 J1.153586
G02 X100.644229 Y20.100770 Z2 I0.236105 J-1.554620
G02 X100.783033 Y20.103994 Z2 I0.107381 J-1.633269
G03 X100.942079 Y20.103770 Z2 I0.085833 J4.470161
G03 X101.097664 Y20.115658 Z2 I-0.010301 J1.158899
G02 X101.239939 Y20.130770 Z2 I0.270904 J-1.873154
G02 X101.378017 Y20.133895 Z2 I0.101639 J-1.438959
G03 X101.537789 Y20.133770 Z2 I0.082435 J3.262450
G03 X101.678127 Y20.146383 Z2 I-0.032935 J1.153506
G02 X101.805849 Y20.160470 Z2 I0.236094 J-1.554522
G02 X101.982483 Y20.162729 Z2 I0.108487 J-1.575884
G03 X102.193059 Y20.165470 Z2 I0.080916 J1.873841
G03 X102.288974 Y20.176828 Z2 I-0.077554 J1.065588
G02 X102.401559 Y20.189970 Z2 I0.196358 J-1.193342
G02 X102.538950 Y20.193064 Z2 I0.101293 J-1.446088
G03 X102.699409 Y20.192970 Z2 I0.082157 J3.298232
G03 X102.834721 Y20.204823 Z2 I-0.020599 J1.013466
G02 X102.967479 Y20.219670 Z2 I0.238734 J-1.533685
G02 X103.093971 Y20.223119 Z2 I0.103780 J-1.484641
G03 X103.235539 Y20.222670 Z2 I0.089377 J5.855916
G03 X103.411341 Y20.234600 Z2 I-0.006783 J1.401204
G02 X103.563179 Y20.249770 Z2 I0.319733 J-2.432824
G02 X103.700582 Y20.252864 Z2 I0.101300 J-1.446307
G03 X103.861029 Y20.252770 Z2 I0.082147 J3.297865
G03 X103.996334 Y20.264622 Z2 I-0.020598 J1.013397
G02 X104.129099 Y20.279470 Z2 I0.238724 J-1.533598
G02 X104.266458 Y20.282890 Z2 I0.106559 J-1.519670
G03 X104.426949 Y20.282470 Z2 I0.092176 J4.558279
G03 X104.563542 Y20.292138 Z2 I-0.010739 J1.121481
G02 X104.695009 Y20.307070 Z2 I0.465968 J-3.516343
G02 X104.836558 Y20.312661 Z2 I0.121350 J-1.277523
G03 X104.992869 Y20.312070 Z2 I0.102886 J6.535409
G03 X105.148690 Y20.323939 Z2 I-0.009967 J1.159612
G02 X105.290719 Y20.339070 Z2 I0.273628 J-1.894315
G02 X105.428797 Y20.342192 Z2 I0.101596 J-1.438344
G03 X105.588569 Y20.342070 Z2 I0.082372 J3.254671
G03 X105.728912 Y20.354683 Z2 I-0.032933 J1.153542
G02 X105.856639 Y20.368770 Z2 I0.236086 J-1.554500
G02 X105.984378 Y20.371994 Z2 I0.106233 J-1.676714
G03 X106.124699 Y20.371770 Z2 I0.080174 J6.262914
G03 X106.300508 Y20.383701 Z2 I-0.006784 J1.401278
G02 X106.452339 Y20.398870 Z2 I0.319753 J-2.433002
G02 X106.589737 Y20.401964 Z2 I0.101298 J-1.446277
G03 X106.750189 Y20.401870 Z2 I0.082150 J3.298223
G03 X106.885494 Y20.413722 Z2 I-0.020598 J1.013397
G02 X107.018259 Y20.428570 Z2 I0.238724 J-1.533598
G02 X107.144752 Y20.432019 Z2 I0.103783 J-1.484833
G03 X107.286319 Y20.431570 Z2 I0.089372 J5.856937
G03 X107.446222 Y20.441488 Z2 I-0.006781 J1.403338
G02 X107.584169 Y20.456270 Z2 I0.669612 J-5.597726
G02 X107.726310 Y20.461869 Z2 I0.121231 J-1.270626
G03 X107.882029 Y20.461270 Z2 I0.101749 J6.210205
G03 X108.024248 Y20.471422 Z2 I-0.009856 J1.139354
G02 X108.150089 Y20.485870 Z2 I0.432281 J-3.209813
G02 X108.282981 Y20.491495 Z2 I0.120950 J-1.284762
G03 X108.418159 Y20.490870 Z2 I0.135178 J14.607496
G03 X108.578731 Y20.500839 Z2 I-0.006795 J1.407607
G02 X108.716009 Y20.515570 Z2 I0.668219 J-5.580117
G02 X108.839477 Y20.520881 Z2 I0.116556 J-1.271922
G03 X108.954289 Y20.520570 Z2 I0.114812 J21.217423
G03 X109.167786 Y20.532253 Z2 I-0.000932 J1.973533
G02 X109.341499 Y20.547670 Z2 I0.465556 J-4.259465
G02 X109.478902 Y20.550764 Z2 I0.101300 J-1.446307
G03 X109.639349 Y20.550670 Z2 I0.082147 J3.297865
G03 X109.774654 Y20.562522 Z2 I-0.020598 J1.013397
G02 X109.907419 Y20.577370 Z2 I0.238724 J-1.533598
G02 X110.045496 Y20.580495 Z2 I0.101637 J-1.438800
G03 X110.205269 Y20.580370 Z2 I0.082439 J3.262101
G03 X110.345614 Y20.592983 Z2 I-0.032938 J1.153586
G02 X110.473329 Y20.607070 Z2 I0.236105 J-1.554620
G02 X110.623778 Y20.610199 Z2 I0.109203 J-1.632172
G03 X110.800969 Y20.610070 Z2 I0.091229 J3.616936
G01 X111.039249 Y20.634370 Z2
G02 X111.144789 Y20.639250 Z2 I0.108348 J-1.199572
G02 X111.247749 Y20.639370 Z2 I0.102960 J-44.148908
G01 X111.454939 Y20.621370 Z2
G01 X111.631649 Y20.341490 Z2
G03 X111.912920 Y19.708923 Z2 I3.553401 J1.201204
G02 X112.237919 Y19.090520 Z2 I-11.314565 J-6.340921
G02 X112.453394 Y18.642507 Z2 I-25.920307 J-12.742399
G03 X112.670079 Y18.196960 Z2 I17.292668 J8.134547
G03 X112.743803 Y18.065190 Z2 I1.532292 J0.770799
G03 X112.824409 Y17.946040 Z2 I1.505038 J0.931324
G01 X112.919309 Y17.720400 Z2
G03 X113.011090 Y17.477757 Z2 I1.001362 J0.240090
G02 X113.131619 Y17.243840 Z2 I-9.576084 J-5.082224
G01 X114.338099 Y14.771670 Z2
G02 X114.657522 Y14.113676 Z2 I-28.041744 J-14.019358
G03 X114.963699 Y13.490910 Z2 I18.836243 J8.874032
G01 X115.122999 Y13.279610 Z2
G01 X115.298579 Y13.318510 Z2
G03 X115.436369 Y13.415198 Z2 I-0.663393 J1.091929
G03 X115.626219 Y13.581380 Z2 I-1.919289 J2.384171
G02 X115.966739 Y13.894708 Z2 I9.680494 J-10.178919
G03 X116.311279 Y14.208380 Z2 I-13.863156 J15.573454
G03 X116.416820 Y14.310737 Z2 I-2.465766 J2.648047
G02 X116.519769 Y14.409160 Z2 I1.841783 J-1.823434
G02 X116.609297 Y14.487125 Z2 I2.036344 J-2.247957
G03 X116.698479 Y14.565810 Z2 I-1.465785 J1.751219
G03 X116.965690 Y14.816051 Z2 I-35.369768 J38.036149
G02 X117.234619 Y15.064430 Z2 I12.024576 J-12.749664
G02 X117.324189 Y15.142408 Z2 I2.101370 J-2.323321
G03 X117.413329 Y15.221080 Z2 I-1.483719 J1.770978
G01 X117.836799 Y15.843450 Z2
G01 X117.592039 Y16.052280 Z2
G02 X117.126326 Y16.262276 Z2 I29.567292 J66.193664
G02 X116.668699 Y16.477090 Z2 I8.917884 J19.592935
G03 X115.278717 Y17.141996 Z2 I-76.088994 J-157.278147
G03 X113.868889 Y17.779940 Z2 I-19.639102 J-41.524775
G02 X113.544813 Y17.933544 Z2 I2.055091 J4.754534
G03 X113.273189 Y18.043610 Z2 I-0.730719 J-1.413094
G01 X113.035639 Y18.020610 Z2
G01 X112.885979 Y17.928810 Z2
G00 Z0.000000

(End cutting path id: path5)


(Start cutting path id: path5)
(Change tool to Default tool)

G00 Z0.000000
G00 X114.375239 Y18.911720

G01 Z2 F100.0(Penetrate)
G01 X114.405039 Y18.881920 Z2 F100
G00 Z0.000000

(End cutting path id: path5)


(Start cutting path id: path5)
(Change tool to Default tool)

G00 Z0.000000
G00 X96.742436 Y13.699300

G01 Z2 F100.0(Penetrate)
G03 X96.632740 Y13.772964 Z2 I-2.585675 J-3.731913 F100
G02 X96.355229 Y13.997180 Z2 I0.948357 J1.457623
G02 X96.252313 Y14.099897 Z2 I29.156813 J29.316203
G02 X96.151791 Y14.205650 Z2 I2.102021 J2.098699
G02 X96.024150 Y14.348374 Z2 I12.230015 J11.065953
G03 X95.878645 Y14.503500 Z2 I-2.697165 J-2.384090
G03 X95.759435 Y14.622473 Z2 I-17.771349 J-17.687522
G02 X95.645443 Y14.741780 Z2 I2.141213 J2.159936
G02 X95.540935 Y14.860382 Z2 I4.355683 J3.943421
G03 X95.431453 Y14.980060 Z2 I-1.919622 J-1.646164
G03 X95.277042 Y15.134588 Z2 I-6.499696 J-6.340363
G02 X95.139096 Y15.277920 Z2 I2.257350 J2.310573
G02 X95.022908 Y15.408793 Z2 I6.750278 J6.109830
G03 X94.895640 Y15.545980 Z2 I-2.240894 J-1.951253
G03 X94.757026 Y15.684158 Z2 I-9.189282 J-9.079702
G02 X94.632770 Y15.814050 Z2 I2.010326 J2.047467
G02 X94.557282 Y15.902088 Z2 I1.879420 J1.687888
G02 X94.490992 Y15.992760 Z2 I0.797059 J0.652294
G01 X94.422832 Y16.201140 Z2
G01 X94.657481 Y16.431720 Z2
G02 X95.157884 Y16.693281 Z2 I21.397498 J-40.327045
G02 X95.670176 Y16.953240 Z2 I22.387876 J-43.484163
G01 X97.516856 Y17.906360 Z2
G03 X97.904851 Y18.118534 Z2 I-2.691064 J5.381885
G02 X98.261484 Y18.266380 Z2 I0.687468 J-1.154252
G02 X98.464164 Y18.310811 Z2 I0.778621 J-3.067290
G03 X98.648691 Y18.345780 Z2 I-4.005941 J21.643490
G00 Z0.000000

(End cutting path id: path5)


(Start cutting path id: path5)
(Change tool to Default tool)

G00 Z0.000000
G00 X87.002695 Y15.545970

G01 Z2 F100.0(Penetrate)
G01 X87.002695 Y14.056710 Z2 F100
G01 X87.002695 Y13.729080 Z2
G01 X87.002695 Y12.537670 Z2
G01 X87.028485 Y12.210030 Z2
G01 X87.032485 Y11.822830 Z2
G01 X87.032485 Y10.154860 Z2
G00 Z0.000000

(End cutting path id: path5)


(Start cutting path id: path5)
(Change tool to Default tool)

G00 Z0.000000
G00 X90.130141 Y15.367260

G01 Z2 F100.0(Penetrate)
G01 X90.159491 Y15.009840 Z2 F100
G01 X90.164991 Y14.563060 Z2
G01 X90.189721 Y14.205640 Z2
G01 X90.198221 Y13.788650 Z2
G01 X90.219501 Y13.341870 Z2
G01 X90.224601 Y13.044020 Z2
G01 X90.249311 Y12.746170 Z2
G01 X90.180301 Y12.478930 Z2
G01 X89.713207 Y12.423630 Z2
G01 X89.177074 Y12.386130 Z2
G01 X88.343089 Y12.307930 Z2
G01 X88.164378 Y12.296830 Z2
G01 X87.985668 Y12.274730 Z2
G01 X87.479320 Y12.237230 Z2
G01 X87.300609 Y12.215130 Z2
G01 X87.062328 Y12.210130 Z2
G00 Z0.000000

(End cutting path id: path5)


(Start cutting path id: path5)
(Change tool to Default tool)

G00 Z0.000000
G00 X84.173168 Y10.452810

G01 Z2 F100.0(Penetrate)
G02 X83.823507 Y10.201430 Z2 I-1.251922 J1.372511 F100
G02 X83.428539 Y10.018700 Z2 I-1.432833 J2.578814
G02 X83.238128 Y9.965602 Z2 I-0.398106 J1.059662
G02 X83.041332 Y9.933900 Z2 I-0.737233 J3.949834
G02 X82.630757 Y9.914203 Z2 I-0.317449 J2.328066
G02 X82.237132 Y9.989400 Z2 I0.053455 J1.347642
G02 X81.862928 Y10.173854 Z2 I0.576607 J1.641572
G02 X81.552097 Y10.423510 Z2 I1.107373 J1.697049
G02 X81.272302 Y10.748233 Z2 I1.779873 J1.816513
G02 X81.059539 Y11.137920 Z2 I1.418535 J1.027426
G02 X80.938392 Y11.537504 Z2 I2.485744 J0.971793
G02 X80.896824 Y11.912330 Z2 I1.746950 J0.383453
G02 X80.896686 Y12.019028 Z2 I15.136200 J0.072885
G03 X80.896800 Y12.120830 Z2 I-45.570395 J0.101802
G03 X80.896668 Y12.236267 Z2 I-50.614205 J0.000001
G02 X80.896824 Y12.359110 Z2 I17.313165 J0.039486
G02 X80.936651 Y12.732463 Z2 I1.857078 J-0.009301
G02 X81.035937 Y13.103740 Z2 I3.498894 J-0.736752
G02 X81.308252 Y13.709621 Z2 I2.948085 J-0.960889
G02 X81.696380 Y14.234400 Z2 I2.634774 J-1.542765
G02 X82.168735 Y14.655117 Z2 I2.348405 J-2.161118
G02 X82.743480 Y14.937780 Z2 I1.104299 J-1.519746
G02 X83.063501 Y15.012921 Z2 I0.838889 J-2.853723
G02 X83.368968 Y15.039770 Z2 I0.305467 J-1.724276
G01 X83.637035 Y15.030770 Z2
G02 X84.086057 Y14.905201 Z2 I-0.257771 J-1.787371
G02 X84.411449 Y14.741860 Z2 I-1.130052 J-2.656964
G00 Z0.000000

(End cutting path id: path5)


(Start cutting path id: path5)
(Change tool to Default tool)

G00 Z0.000000
G00 X63.055492 Y14.414230

G01 Z2 F100.0(Penetrate)
G01 X63.323558 Y14.419230 Z2 F100
G01 X63.532054 Y14.442830 Z2
G01 X63.740550 Y14.448830 Z2
G01 X63.919261 Y14.470930 Z2
G01 X64.127757 Y14.475930 Z2
G01 X64.336253 Y14.500430 Z2
G01 X64.544750 Y14.505430 Z2
G01 X64.753246 Y14.529930 Z2
G01 X64.961742 Y14.534930 Z2
G01 X65.170238 Y14.559430 Z2
G01 X65.408519 Y14.564430 Z2
G01 X65.617015 Y14.588930 Z2
G01 X65.795726 Y14.593930 Z2
G01 X66.034007 Y14.619930 Z2
G01 X66.242503 Y14.623930 Z2
G01 X66.451000 Y14.648430 Z2
G01 X66.629711 Y14.652430 Z2
G01 X66.867992 Y14.678330 Z2
G01 X67.076488 Y14.683330 Z2
G01 X67.284984 Y14.707830 Z2
G01 X67.493480 Y14.712830 Z2
G01 X67.701976 Y14.737330 Z2
G01 X67.940257 Y14.745330 Z2
G01 X68.148753 Y14.768930 Z2
G01 X68.357250 Y14.774930 Z2
G01 X68.565746 Y14.798530 Z2
G01 X68.774242 Y14.804530 Z2
G01 X68.982738 Y14.828130 Z2
G01 X69.161449 Y14.832130 Z2
G01 X69.399730 Y14.858030 Z2
G01 X70.203929 Y14.916130 Z2
G01 X70.442211 Y14.921130 Z2
G01 X70.650707 Y14.945630 Z2
G01 X70.859203 Y14.950630 Z2
G01 X71.067699 Y14.975530 Z2
G01 X71.305980 Y15.007530 Z2
G00 Z0.000000

(End cutting path id: path5)


(Start cutting path id: path5)
(Change tool to Default tool)

G00 Z0.000000
G00 X79.079906 Y13.994830

G01 Z2 F100.0(Penetrate)
G02 X79.312533 Y13.069867 Z2 I-6.654478 J-2.165328 F100
G02 X79.376585 Y12.118370 Z2 I-4.237393 J-0.763153
G02 X79.362242 Y11.963501 Z2 I-1.598409 J0.069940
G03 X79.347235 Y11.820520 Z2 I1.955403 J-0.277508
G02 X79.216984 Y11.035390 Z2 I-4.132909 J0.282268
G02 X78.923256 Y10.271690 Z2 I-3.716605 J0.991115
G02 X78.739326 Y9.957193 Z2 I-2.923669 J1.498844
G02 X78.511322 Y9.678680 Z2 I-1.483507 J0.981884
G02 X78.279528 Y9.495941 Z2 I-0.901083 J0.904594
G02 X78.007639 Y9.358830 Z2 I-0.943519 J1.532853
G01 X77.680002 Y9.305830 Z2
G01 X77.173655 Y9.438280 Z2
G02 X77.033933 Y9.526690 Z2 I1.151243 J1.974019
G02 X76.905703 Y9.625420 Z2 I0.819652 J1.197200
G02 X76.434588 Y10.230402 Z2 I1.278382 J1.481435
G02 X76.152318 Y10.956790 Z2 I3.719833 J1.863542
G02 X76.045179 Y11.378062 Z2 I7.519005 J2.136512
G02 X75.984915 Y11.790770 Z2 I2.671333 J0.600825
G02 X75.981537 Y11.907155 Z2 I1.447075 J0.100244
G03 X75.982215 Y12.029050 Z2 I-10.954113 J0.121895
G01 X75.982215 Y12.297120 Z2
G01 X75.982215 Y12.535400 Z2
G03 X75.981411 Y12.680546 Z2 I-13.107701 J0.000000
G02 X75.983415 Y12.803470 Z2 I2.245855 J0.024871
G02 X76.047944 Y13.237757 Z2 I2.121957 J-0.093358
G03 X76.131168 Y13.607670 Z2 I-6.173381 J1.583215
G00 Z0.000000

(End cutting path id: path5)


(Start cutting path id: path5)
(Change tool to Default tool)

G00 Z0.000000
G00 X66.331852 Y13.756590

G01 Z2 F100.0(Penetrate)
G01 X66.366692 Y13.428960 Z2 F100
G01 X66.391402 Y13.131100 Z2
G01 X66.394102 Y12.892820 Z2
G01 X66.420782 Y12.624760 Z2
G01 X66.423882 Y12.356690 Z2
G01 X66.449832 Y12.118410 Z2
G01 X66.456032 Y11.820560 Z2
G01 X66.480642 Y11.552490 Z2
G01 X66.485842 Y11.284420 Z2
G01 X66.510452 Y11.016360 Z2
G01 X66.513252 Y10.748290 Z2
G01 X66.539932 Y10.480230 Z2
G01 X66.543032 Y10.241940 Z2
G01 X66.569712 Y9.973880 Z2
G01 X66.572812 Y9.705810 Z2
G01 X66.599812 Y9.407960 Z2
G01 X66.605012 Y9.139890 Z2
G01 X66.629622 Y8.871830 Z2
G01 X66.659522 Y8.514400 Z2
G00 Z0.000000

(End cutting path id: path5)


(Start cutting path id: path5)
(Change tool to Default tool)

G00 Z0.000000
G00 X96.772315 Y13.428960

G01 Z2 F100.0(Penetrate)
G01 X96.624654 Y13.220420 Z2 F100
G01 X96.462559 Y12.833250 Z2
G01 X96.057471 Y11.880130 Z2
G00 Z0.000000

(End cutting path id: path5)


(Start cutting path id: path5)
(Change tool to Default tool)

G00 Z0.000000
G00 X115.149752 Y13.220460

G01 Z2 F100.0(Penetrate)
G01 X114.881692 Y12.883150 Z2 F100
G03 X114.789938 Y12.813498 Z2 I0.887680 J-1.264614
G03 X114.702982 Y12.738820 Z2 I1.581079 J-1.929003
G03 X114.598410 Y12.639470 Z2 I1.764322 J-1.961764
G02 X114.494482 Y12.540460 Z2 I-1.958015 J1.951226
G02 X114.364203 Y12.424630 Z2 I-7.001382 J7.743578
G03 X114.226412 Y12.297120 Z2 I2.186584 J-2.501091
G00 Z0.000000

(End cutting path id: path5)


(Start cutting path id: path5)
(Change tool to Default tool)

G00 Z0.000000
G00 X115.149752 Y13.041750

G01 Z2 F100.0(Penetrate)
G02 X115.198888 Y12.980970 Z2 I-0.842096 J-0.731011 F100
G02 X115.307412 Y12.803470 Z2 I-0.867056 J-0.652050
G01 X115.572932 Y12.237550 Z2
G01 X115.507732 Y11.939700 Z2
G02 X115.217819 Y11.348942 Z2 I-42.465908 J20.473554
G02 X114.898812 Y10.748290 Z2 I-12.160903 J6.073622
G03 X114.705104 Y10.381986 Z2 I6.731159 J-3.793936
G02 X114.516892 Y10.003660 Z2 I-94.007400 J46.531268
G01 X112.446642 Y5.982670 Z2
G01 X111.687302 Y4.493410 Z2
G01 X111.304322 Y3.873140 Z2
G01 X110.622392 Y3.795740 Z2
G02 X110.438613 Y3.781096 Z2 I-0.234699 J1.784931
G02 X110.264972 Y3.778640 Z2 I-0.173641 J6.136627
G01 X108.894852 Y3.778640 Z2
G02 X108.399620 Y3.788991 Z2 I-0.000000 J11.852463
G03 X107.882162 Y3.766040 Z2 I-0.125809 J-3.008375
G02 X107.698384 Y3.751396 Z2 I-0.234697 J1.784913
G02 X107.524732 Y3.748940 Z2 I-0.173652 J6.137096
G01 X105.916342 Y3.748940 Z2
G02 X105.637106 Y3.750684 Z2 I0.000000 J22.358882
G03 X105.320632 Y3.748500 Z2 I-0.101931 J-8.161145
G03 X105.052576 Y3.731555 Z2 I0.075205 J-3.318351
G02 X104.814282 Y3.719200 Z2 I-0.238294 J2.291858
G01 X103.563312 Y3.719200 Z2
G02 X103.051907 Y3.724170 Z2 I0.000000 J26.314291
G03 X102.550612 Y3.718200 Z2 I-0.155447 J-7.996994
G03 X102.313182 Y3.700540 Z2 I0.173810 J-3.941618
G02 X102.103842 Y3.689600 Z2 I-0.209340 J1.997472
G01 X101.686842 Y3.689600 Z2
G03 X101.502282 Y3.689170 Z2 I0.000000 J-39.607855
G02 X101.329422 Y3.689720 Z2 I-0.051361 J11.022268
G01 X101.097832 Y3.741520 Z2
G01 X100.981102 Y3.927930 Z2
G03 X100.875260 Y4.122218 Z2 I-1.029677 J-0.434960
G03 X100.742062 Y4.315120 Z2 I-15.197703 J-10.351544
G03 X100.155966 Y5.147941 Z2 I-165.568570 J-115.895904
G02 X99.571365 Y5.983090 Z2 I82.671259 J58.491731
G03 X98.494344 Y7.514527 Z2 I-106.462888 J-73.728268
G02 X97.417409 Y9.050960 Z2 I86.770811 J61.966046
G02 X96.601605 Y10.241845 Z2 I306.104081 J210.568469
G03 X95.759599 Y11.403980 Z2 I-20.926211 J-14.275645
G00 Z0.000000

(End cutting path id: path5)


(Start cutting path id: path5)
(Change tool to Default tool)

G00 Z0.000000
G00 X71.186845 Y12.937510

G01 Z2 F100.0(Penetrate)
G02 X71.374945 Y12.933482 Z2 I0.069096 J-1.167184 F100
G03 X71.544267 Y12.922610 Z2 I0.228255 J2.230995
G02 X71.983146 Y12.844495 Z2 I-0.036891 J-1.479207
G02 X72.408037 Y12.670190 Z2 I-1.192711 J-3.512413
G02 X72.550833 Y12.589462 Z2 I-0.568118 J-1.171578
G03 X72.676103 Y12.509920 Z2 I3.421661 J5.250312
G02 X72.793993 Y12.432394 Z2 I-1.330324 J-2.151360
G02 X72.884599 Y12.364020 Z2 I-0.881853 J-1.262809
G02 X73.030582 Y12.230851 Z2 I-1.097624 J-1.349848
G02 X73.184726 Y12.059280 Z2 I-1.939682 J-1.897683
G02 X73.474320 Y11.621777 Z2 I-1.936356 J-1.596319
G02 X73.666574 Y11.135940 Z2 I-2.249878 J-1.171272
G02 X73.731249 Y10.822765 Z2 I-2.201120 J-0.617824
G02 X73.745264 Y10.510450 Z2 I-1.746741 J-0.234859
G02 X73.731729 Y10.359050 Z2 I-1.670044 J0.072993
G03 X73.713614 Y10.212600 Z2 I6.318944 J-0.855971
G02 X73.568339 Y9.683814 Z2 I-1.746701 J0.195527
G02 X73.288831 Y9.199900 Z2 I-2.575114 J1.164704
G02 X73.181662 Y9.061641 Z2 I-1.944291 J1.396414
G02 X73.062869 Y8.933010 Z2 I-1.351860 J1.129301
G02 X72.961372 Y8.840374 Z2 I-1.357955 J1.385930
G02 X72.854809 Y8.753580 Z2 I-2.133849 J2.511056
G02 X72.123391 Y8.367383 Z2 I-1.446558 J1.853920
G02 X71.365551 Y8.234690 Z2 I-0.864912 J2.709266
G01 X71.157055 Y8.248290 Z2
G02 X70.814380 Y8.291498 Z2 I1.009441 J9.386197
G02 X70.471997 Y8.383920 Z2 I0.212269 J1.466760
G02 X69.570981 Y8.940675 Z2 I1.171937 J2.904040
G02 X68.973776 Y9.825390 Z2 I1.408052 J1.594392
G02 X68.866321 Y10.240339 Z2 I2.331794 J0.825230
G02 X68.833813 Y10.629590 Z2 I2.314219 J0.389251
G02 X68.857853 Y10.970600 Z2 I2.430625 J-0.000000
G02 X68.940153 Y11.344430 Z2 I2.497947 J-0.353956
G02 X69.174749 Y11.849261 Z2 I1.877734 J-0.565662
G02 X69.518986 Y12.266600 Z2 I2.022780 J-1.317827
G02 X69.929713 Y12.590292 Z2 I1.796167 J-1.856696
G02 X70.412426 Y12.812230 Z2 I1.057739 J-1.664657
G02 X70.665350 Y12.885259 Z2 I2.577481 J-8.452198
G02 X70.918774 Y12.922610 Z2 I0.281770 J-1.033380
G03 X71.049685 Y12.928954 Z2 I-0.123954 J3.911994
G02 X71.186840 Y12.937510 Z2 I1.565173 J-23.985293
G00 Z0.000000

(End cutting path id: path5)


(Start cutting path id: path5)
(Change tool to Default tool)

G00 Z0.000000
G00 X90.249340 Y12.416680

G01 Z2 F100.0(Penetrate)
G02 X90.274511 Y12.175088 Z2 I-1.498947 J-0.278277 F100
G02 X90.279130 Y11.791190 Z2 I-15.949650 J-0.383898
G02 X90.278778 Y11.650386 Z2 I-28.184167 J-0.000000
G03 X90.287630 Y11.493340 Z2 I1.283777 J-0.006414
G02 X90.302546 Y11.345242 Z2 I-4.334947 J-0.511416
G02 X90.308910 Y11.195490 Z2 I-1.828214 J-0.152700
G02 X90.306799 Y10.971504 Z2 I-10.152743 J-0.016334
G03 X90.314010 Y10.778500 Z2 I1.671436 J-0.034193
G02 X90.331070 Y10.593162 Z2 I-30.025232 J-2.857296
G02 X90.338740 Y10.421070 Z2 I-1.942991 J-0.172809
G02 X90.336928 Y10.210487 Z2 I-11.713332 J-0.004521
G03 X90.341440 Y10.033870 Z2 I2.048337 J-0.036040
G01 X90.368120 Y9.765800 Z2
G02 X90.369672 Y9.490118 Z2 I-7.379610 J-0.179390
G03 X90.368556 Y9.319020 Z2 I13.115277 J-0.171098
G00 Z0.000000

(End cutting path id: path5)


(Start cutting path id: path5)
(Change tool to Default tool)

G00 Z0.000000
G00 X64.336329 Y5.268240

G01 Z2 F100.0(Penetrate)
G03 X64.619304 Y5.290004 Z2 I-0.058178 J2.606964 F100
G02 X64.961818 Y5.325140 Z2 I0.777300 J-5.890240
G01 X65.140529 Y5.336240 Z2
