%
(Header)
(Generated by gcodetools from Inkscape.)
(Using default header. To add your own header create file “header” in the output dir.)
M3
(Header end.)
G21 (All units in mm)
(Start cutting path id: path47)
(Change tool to Cone cutter)
G00 Z0.000000
G00 X34.527344 Y66.726563
G01 Z3 F600(Penetrate)
G01 X34.527344 Y66.726563 Z3 F75
G01 X40.468750 Y69.187500 Z3
G00 Z0.000000
(End cutting path id: path47)
(Start cutting path id: path46)
(Change tool to Cone cutter)
G00 Z0.000000
G00 X40.447266 Y56.968750
G01 Z3 F600(Penetrate)
G01 X40.447266 Y56.968750 Z3 F75
G01 X44.076172 Y59.533203 Z3
G00 Z0.000000
(End cutting path id: path46)
(Start cutting path id: path45)
(Change tool to Cone cutter)
G00 Z0.000000
G00 X36.949219 Y59.535156
G01 Z3 F600(Penetrate)
G01 X36.818359 Y59.349609 Z3 F75
G01 X40.447266 Y56.968750 Z3
G00 Z0.000000
(End cutting path id: path45)
(Start cutting path id: path44)
(Change tool to Cone cutter)
G00 Z0.000000
G00 X46.562500 Y66.658203
G01 Z3 F600(Penetrate)
G01 X46.347656 Y66.585933 Z3 F75
G02 X46.387225 Y62.681836 Z3 I-5.836281 J-2.011401
G02 X44.076172 Y59.535151 Z3 I-5.874014 J1.892105
G00 Z0.000000
(End cutting path id: path44)
(Start cutting path id: path43)
(Change tool to Cone cutter)
G00 Z0.000000
G00 X36.904297 Y66.769531
G01 Z3 F600(Penetrate)
G01 X36.904297 Y66.542969 Z3 F75
G01 X44.121094 Y66.542969 Z3
G00 Z0.000000
(End cutting path id: path43)
(Start cutting path id: path42)
(Change tool to Cone cutter)
G00 Z0.000000
G00 X34.462891 Y66.658203
G01 Z3 F600(Penetrate)
G03 X34.422294 Y62.611338 Z3 I6.047823 J-2.084306 F75
G03 X36.818359 Y59.349609 Z3 I6.090716 J1.963299
G00 Z0.000000
(End cutting path id: path42)
(Start cutting path id: path41)
(Change tool to Cone cutter)
G00 Z0.000000
G00 X37.244141 Y61.464844
G01 Z3 F600(Penetrate)
G01 X37.244141 Y61.464844 Z3 F75
G01 X40.431641 Y64.654297 Z3
G00 Z0.000000
(End cutting path id: path41)
(Start cutting path id: path40)
(Change tool to Cone cutter)
G00 Z0.000000
G00 X40.554687 Y69.187500
G01 Z3 F600(Penetrate)
G01 X40.468747 Y68.978516 Z3 F75
G01 X46.412106 Y66.517578 Z3
G00 Z0.000000
(End cutting path id: path40)
(Start cutting path id: path39)
(Change tool to Cone cutter)
G00 Z0.000000
G00 X36.806641 Y66.599609
G01 Z3 F600(Penetrate)
G01 X36.806641 Y66.599609 Z3 F75
G01 X40.414062 Y60.351563 Z3
G00 Z0.000000
(End cutting path id: path39)
(Start cutting path id: path38)
(Change tool to Cone cutter)
G00 Z0.000000
G00 X40.414062 Y60.464844
G01 Z3 F600(Penetrate)
G01 X40.414062 Y60.464844 Z3 F75
G01 X44.021484 Y66.712891 Z3
G00 Z0.000000
(End cutting path id: path38)
(Start cutting path id: path37)
(Change tool to Cone cutter)
G00 Z0.000000
G00 X40.591797 Y64.654297
G01 Z3 F600(Penetrate)
G01 X40.431641 Y64.494141 Z3 F75
G01 X43.621094 Y61.304688 Z3
G00 Z0.000000
(End cutting path id: path37)
(Start cutting path id: path36)
(Change tool to Cone cutter)
G00 Z0.000000
G00 X40.468750 Y60.169922
G01 Z3 F600(Penetrate)
G01 X40.468750 Y60.169922 Z3 F75
G01 X43.658203 Y61.490234 Z3
G00 Z0.000000
(End cutting path id: path36)
(Start cutting path id: path35)
(Change tool to Cone cutter)
G00 Z0.000000
G00 X37.367188 Y61.490234
G01 Z3 F600(Penetrate)
G01 X37.279298 Y61.281250 Z3 F75
G01 X40.468751 Y59.960938 Z3
G00 Z0.000000
(End cutting path id: path35)
(Start cutting path id: path34)
(Change tool to Cone cutter)
G00 Z0.000000
G00 X40.511719 Y75.572266
G01 Z3 F600(Penetrate)
G03 X32.734121 Y72.351153 Z3 I-0.000000 J-11.000328 F75
G03 X29.511719 Y64.574219 Z3 I7.776808 J-7.778424
G03 X32.734121 Y56.797285 Z3 I10.999211 J0.001491
G03 X40.511719 Y53.576172 Z3 I7.777598 J7.779215
G03 X48.289316 Y56.797285 Z3 I-0.000000 J11.000327
G03 X51.511719 Y64.574219 Z3 I-7.776808 J7.778425
G03 X48.289317 Y72.351153 Z3 I-10.999210 J-0.001491
G03 X40.511719 Y75.572266 Z3 I-7.777598 J-7.779214
G01 X40.511719 Y75.572266 Z3
G00 Z0.000000
(End cutting path id: path34)
(Footer)
M5
G00 X0.0000 Y90.0000
M2
(Using default footer. To add your own footer create file “footer” in the output dir.)
(end)
%