%
(Header)
(Generated by gcodetools from Inkscape.)
(Using default header. To add your own header create file "header" in the output dir.)
M3
(Header end.)
G21 (All units in mm)

(Start cutting path id: path5)
(Change tool to Default tool)

G00 Z0.000000
G00 X12.188092 Y3.582230

G01 Z2 F100.0(Penetrate)
G03 X10.575294 Y3.438314 Z2 I0.000000 J-9.108866 F100
G02 X8.852047 Y3.686130 Z2 I-0.488749 J2.716775
G02 X7.663444 Y4.648110 Z2 I1.589759 J3.179573
G03 X6.628018 Y5.806260 Z2 I-10.868192 J-8.674612
G03 X5.026283 Y7.220215 Z2 I-12.154805 J-12.154813
G02 X3.699150 Y8.839020 Z2 I2.904674 J3.734728
G02 X3.391022 Y10.566294 Z2 I2.770834 J1.385409
G02 X3.608744 Y12.377250 Z2 I99.926826 J-11.095132
G02 X4.546565 Y14.308945 Z2 I3.352015 J-0.433874
G03 X5.978874 Y16.016580 Z2 I-10.308999 J10.101362
G03 X8.124633 Y19.048219 Z2 I-320.336836 J229.005962
G02 X10.267339 Y22.082110 Z2 I411.646926 J-288.454750
G03 X11.390855 Y23.695714 Z2 I-77.152464 J54.917459
G02 X12.491369 Y25.215970 Z2 I26.986656 J-18.377193
G02 X13.765107 Y23.778181 Z2 I-3.130027 J-4.055991
G03 X14.850969 Y22.082110 Z2 I26.171454 J15.559902
G03 X17.051474 Y18.938853 Z2 I192.155403 J132.180643
G03 X19.278826 Y15.814390 Z2 I4959.635495 J3533.245132
G03 X20.617240 Y14.192279 Z2 I12.198365 J8.701726
G02 X21.561593 Y12.377250 Z2 I-2.679724 J-2.547436
G02 X21.810468 Y10.622956 Z2 I-14.856181 J-3.002391
G02 X21.485773 Y8.940120 Z2 I-3.167009 J-0.261683
G02 X20.113013 Y7.267546 Z2 I-4.363667 J2.181834
G03 X18.455814 Y5.806260 Z2 I10.801505 J-13.919990
G03 X17.395645 Y4.584808 Z2 I8.110319 J-8.110230
G02 X16.130692 Y3.643220 Z2 I-2.229651 J1.674891
G02 X14.775405 Y3.484309 Z2 I-1.007312 J2.732163
G03 X13.401201 Y3.583720 Z2 I-1.731187 J-14.383213
G02 X12.982775 Y3.612972 Z2 I0.124500 J4.788159
G02 X12.592462 Y3.696820 Z2 I0.231218 J2.026695
G02 X11.881225 Y4.071298 Z2 I0.702533 J2.196959
G03 X11.076078 Y4.659770 Z2 I-10.682163 J-13.770303
G02 X8.399558 Y6.550733 Z2 I74.160636 J107.808661
G03 X5.718188 Y8.434670 Z2 I-63.604770 J-87.677254
G00 Z0.000000

(End cutting path id: path5)


(Start cutting path id: path5)
(Change tool to Default tool)

G00 Z0.000000
G00 X12.592462 Y25.013800

G01 Z2 F100.0(Penetrate)
G01 X12.592462 Y20.869020 Z2 F100
G01 X12.592462 Y11.871800 Z2
G02 X12.507106 Y9.867467 Z2 I-23.575626 J-0.000000
G03 X12.693555 Y8.030300 Z2 I4.967766 J-0.423880
G03 X13.857608 Y10.168068 Z2 I-8.170634 J5.834866
G02 X15.282484 Y12.345130 Z2 I6.016296 J-2.382816
G02 X16.494177 Y12.585979 Z2 I0.784685 J-0.779300
G03 X17.720399 Y12.683350 Z2 I0.518594 J1.238953
G03 X18.480199 Y13.830067 Z2 I-0.867984 J1.400191
G02 X18.961276 Y15.207850 Z2 I3.995244 J-0.622129
G00 Z0.000000

(End cutting path id: path5)


(Start cutting path id: path5)
(Change tool to Default tool)

G00 Z0.000000
G00 X9.256417 Y19.251540

G01 Z2 F100.0(Penetrate)
G01 X12.592462 Y17.977590 Z2 F100
G01 X15.928507 Y19.251540 Z2
G00 Z0.000000

(End cutting path id: path5)


(Start cutting path id: path5)
(Change tool to Default tool)

G00 Z0.000000
G00 X6.223649 Y15.308940

G01 Z2 F100.0(Penetrate)
G02 X6.548780 Y13.782246 Z2 I-32.483507 J-7.715774 F100
G03 X7.458363 Y12.640450 Z2 I1.534905 J0.289547
G03 X8.729803 Y12.611265 Z2 I0.671328 J1.536633
G02 X9.931302 Y12.261200 Z2 I0.370266 J-0.966102
G02 X10.849153 Y10.780573 Z2 I-8.455669 J-6.266536
G03 X11.682632 Y9.243400 Z2 I31.435754 J16.050391
G03 X12.156396 Y8.498432 Z2 I8.543628 J4.910216
G02 X12.535833 Y7.727020 Z2 I-2.293013 J-1.606893
G02 X12.686563 Y6.130400 Z2 I-3.690847 J-1.153863
G03 X12.592463 Y4.492070 Z2 I14.214953 J-1.638330
G01 X12.592463 Y3.683330 Z2
G01 X12.592463 Y2.874590 Z2
G01 X12.592463 Y-0.057090 Z2
G00 Z0.000000

(End cutting path id: path5)


(Start cutting path id: path5)
(Change tool to Default tool)

G00 Z0.000000
G00 X12.693556 Y3.683330

G01 Z2 F100.0(Penetrate)
G02 X13.504862 Y4.276852 Z2 I12.246639 J-15.889113 F100
G03 X14.715401 Y5.128030 Z2 I-67.048026 J96.641537
G03 X17.114765 Y6.872940 Z2 I-89.146241 J125.103929
G02 X19.567830 Y8.535760 Z2 I20.675264 J-27.860216
G00 Z0.000000

(End cutting path id: path5)


(Footer)
M5
;G00 X0.0000 Y0.0000
M2
(Using default footer. To add your own footer create file "footer" in the output dir.)
(end)
%