%
(Header)
(Generated by gcodetools from Inkscape.)
(Using default header. To add your own header create file "header" in the output dir.)
M3
(Header end.)
G21 (All units in mm)

(Start cutting path id: path5)
(Change tool to Default tool)

G00 Z0.000000
G00 X3.747642 Y21.503330

G01 Z2 F100.0(Penetrate)
G01 X4.228603 Y21.022370 Z2 F100
G01 X5.156169 Y20.094800 Z2
G01 X7.767098 Y17.483870 Z2
G02 X8.313317 Y16.859813 Z2 I-4.417818 J-4.417866
G03 X8.935144 Y16.342920 Z2 I1.441543 J1.101712
G01 X9.622231 Y16.542680 Z2
G03 X10.503757 Y16.917379 Z2 I-11.793068 J28.968992
G02 X11.408655 Y17.238200 Z2 I2.544704 J-5.740935
G02 X11.922212 Y17.343149 Z2 I1.092600 J-4.037516
G02 X12.404930 Y17.405360 Z2 I3.144711 J-22.497225
G02 X12.538058 Y17.414225 Z2 I0.154308 J-1.313244
G02 X12.679765 Y17.415360 Z2 I0.141707 J-8.845692
G02 X12.821446 Y17.414436 Z2 I0.000000 J-10.860752
G02 X12.954600 Y17.405360 Z2 I-0.015833 J-1.213599
G02 X13.072091 Y17.391456 Z2 I-17.327766 J-146.929267
G03 X13.195080 Y17.379960 Z2 I0.291499 J2.454862
G02 X13.861480 Y17.266363 Z2 I-0.230050 J-3.361014
G02 X14.500544 Y17.057040 Z2 I-1.896671 J-6.870745
G02 X15.172876 Y16.785195 Z2 I-6.289160 J-16.521792
G03 X15.840362 Y16.502180 Z2 I38.338828 J89.492868
G01 X16.355677 Y16.323140 Z2
G01 X16.767929 Y16.659370 Z2
G01 X17.661141 Y17.552580 Z2
G01 X20.478195 Y20.369640 Z2
G03 X21.048186 Y21.002125 Z2 I-5.798946 J5.799053
G02 X21.646242 Y21.468980 Z2 I1.312196 J-1.064471
G01 X21.680592 Y20.747530 Z2
G01 X21.680592 Y19.167240 Z2
G01 X21.680592 Y14.701170 Z2
G03 X21.681313 Y13.771704 Z2 I599.201709 J0.000008
G02 X21.680565 Y12.846040 Z2 I-196.189066 J-0.304324
G02 X21.678545 Y12.591769 Z2 I-26.880005 J0.086426
G02 X21.660715 Y12.330730 Z2 I-2.357262 J0.029880
G03 X21.648496 Y12.162155 Z2 I1.638881 J-0.203522
G03 X21.646215 Y11.987180 Z2 I10.764047 J-0.227831
G02 X21.528656 Y10.960141 Z2 I-4.749420 J0.023390
G02 X21.273169 Y9.960280 Z2 I-18.531375 J4.202611
G02 X20.630800 Y8.396696 Z2 I-7.242222 J2.061584
G02 X19.691996 Y6.971450 Z2 I-9.338786 J5.129609
G02 X17.789066 Y5.183005 Z2 I-6.721323 J5.244987
G02 X15.462465 Y4.028430 Z2 I-5.260036 J7.678101
G02 X14.386665 Y3.731104 Z2 I-3.449931 J10.387784
G02 X13.298143 Y3.604860 Z2 I-1.153869 J5.193148
G02 X13.174627 Y3.604204 Z2 I-0.121134 J11.173397
G03 X13.057663 Y3.598860 Z2 I-0.000272 J-1.276785
G02 X12.855821 Y3.580104 Z2 I-4.839101 J50.979006
G02 X12.611056 Y3.570460 Z2 I-0.216287 J2.378596
G02 X12.467799 Y3.579429 Z2 I0.012467 J1.347753
G02 X12.336222 Y3.594860 Z2 I8.061101 J69.302374
G03 X12.174500 Y3.603178 Z2 I-0.143831 J-1.220156
G02 X11.992679 Y3.606060 Z2 I-0.043541 J2.989661
G02 X10.481958 Y3.842556 Z2 I0.300764 J6.864721
G02 X9.038207 Y4.355760 Z2 I2.704429 J9.895505
G02 X5.718095 Y6.895430 Z2 I3.604082 J8.151648
G02 X3.926650 Y10.647340 Z2 I6.917570 J5.606609
G02 X3.805349 Y11.298039 Z2 I12.682111 J2.700813
G02 X3.747748 Y11.952810 Z2 I4.572610 J0.732177
G03 X3.738931 Y12.112493 Z2 I-2.080489 J-0.034792
G03 X3.723096 Y12.262000 Z2 I-6.278089 J-0.589346
G02 X3.710787 Y12.511351 Z2 I1.821140 J0.214883
G03 X3.713286 Y12.777310 Z2 I-14.147327 J0.265959
G01 X3.713286 Y14.701150 Z2
G01 X3.713286 Y19.716890 Z2
G03 X3.671145 Y20.767745 Z2 I-13.123317 J0.000000
G02 X3.747640 Y21.503310 Z2 I2.016827 J0.162019
G00 Z0.000000

(End cutting path id: path5)


(Start cutting path id: path5)
(Change tool to Default tool)

G00 Z0.000000
G00 X8.454182 Y14.941630

G01 Z2 F100.0(Penetrate)
G01 X8.907680 Y14.254550 Z2 F100
G02 X9.367116 Y13.466692 Z2 I-42.559101 J-25.346014
G02 X9.818706 Y12.674250 Z2 I-523.523861 J-298.866059
G03 X10.047567 Y12.276342 Z2 I42.025549 J23.906705
G03 X10.240606 Y11.952810 Z2 I14.464339 J8.410957
G02 X9.856239 Y11.755388 Z2 I-1.049416 J1.570263
G02 X9.381748 Y11.697460 Z2 I-0.356449 J0.947432
G02 X8.810129 Y11.936500 Z2 I0.131022 J1.116294
G03 X8.282410 Y12.296350 Z2 I-2.600480 J-3.246721
G01 X7.890888 Y12.549850 Z2
G01 X7.879967 Y13.189560 Z2
G02 X7.965575 Y13.678349 Z2 I4.669987 J-0.566024
G02 X8.099214 Y14.151490 Z2 I4.878341 J-1.122450
G02 X8.273091 Y14.592001 Z2 I4.356932 J-1.465185
G02 X8.454182 Y14.941630 Z2 I3.554414 J-1.619302
G00 Z0.000000

(End cutting path id: path5)


(Start cutting path id: path5)
(Change tool to Default tool)

G00 Z0.000000
G00 X16.870990 Y14.941630

G01 Z2 F100.0(Penetrate)
G01 X17.337264 Y13.979710 Z2 F100
G03 X17.528453 Y13.335024 Z2 I35.180513 J10.082459
G02 X17.547023 Y12.674780 Z2 I-1.186479 J-0.363755
G01 X17.214533 Y12.374710 Z2
G03 X16.606872 Y11.946128 Z2 I1.925802 J-3.375559
G02 X15.943423 Y11.695630 Z2 I-0.675843 J0.786154
G01 X15.187416 Y11.960630 Z2
G01 X15.570668 Y12.708600 Z2
G03 X16.003917 Y13.464924 Z2 I-428.491052 J245.956989
G02 X16.438963 Y14.220190 Z2 I115.545213 J-66.053065
G03 X16.659413 Y14.607547 Z2 I-22.791239 J13.227198
G02 X16.870990 Y14.941630 Z2 I3.106555 J-1.733366
G00 Z0.000000

(End cutting path id: path5)


(Start cutting path id: path5)
(Change tool to Default tool)

G00 Z0.000000
G00 X12.027031 Y10.132030

G01 Z2 F100.0(Penetrate)
G01 X12.679763 Y9.793950 Z2 F100
G01 X13.332495 Y10.132030 Z2
G00 Z0.000000

(End cutting path id: path5)


(Start cutting path id: path5)
(Change tool to Default tool)

G00 Z0.000000
G00 X12.164448 Y10.132030

G01 Z2 F100.0(Penetrate)
G01 X13.195078 Y10.132030 Z2 F100
G00 Z0.000000

(End cutting path id: path5)


(Start cutting path id: path5)
(Change tool to Default tool)

G00 Z0.000000
G00 X12.679763 Y9.754130

G01 Z2 F100.0(Penetrate)
G01 X12.679763 Y7.314980 Z2 F100
G01 X12.679763 Y7.040140 Z2
G01 X12.679763 Y6.490470 Z2
G01 X12.679763 Y5.631610 Z2
G01 X12.715073 Y5.298990 Z2
G01 X13.538623 Y5.282690 Z2
G03 X14.113539 Y5.373874 Z2 I-0.902616 J7.549052
G03 X14.672315 Y5.508620 Z2 I-1.361197 J6.870666
G01 X15.036694 Y5.649190 Z2
G01 X15.290693 Y6.249940 Z2
G02 X14.585903 Y6.481629 Z2 I0.428857 J2.492387
G03 X13.779103 Y6.847590 Z2 I-5.095977 J-10.162302
G03 X13.379577 Y7.009094 Z2 I-29.997247 J-73.631888
G02 X12.988954 Y7.172740 Z2 I5.159617 J12.864018
G03 X12.829227 Y7.238106 Z2 I-1.470136 J-3.364591
G03 X12.679765 Y7.294090 Z2 I-4.356035 J-11.401794
G02 X12.452475 Y7.388952 Z2 I0.979582 J2.666820
G03 X12.164450 Y7.514190 Z2 I-2.334169 J-4.974336
G02 X11.271566 Y7.883628 Z2 I16.738607 J41.718801
G03 X10.378026 Y8.256120 Z2 I-23.462921 J-55.025232
G02 X9.624098 Y8.581706 Z2 I7.450225 J18.287467
G03 X9.003853 Y8.792160 Z2 I-1.344941 J-2.944566
G00 Z0.000000

(End cutting path id: path5)


(Start cutting path id: path5)
(Change tool to Default tool)

G00 Z0.000000
G00 X12.748474 Y7.280570

G01 Z2 F100.0(Penetrate)
G02 X13.060441 Y7.460857 Z2 I0.830189 J-1.076498 F100
G03 X13.538623 Y7.658100 Z2 I-787.714121 J1910.353193
G02 X14.518517 Y8.061864 Z2 I417.214182 J-1011.145777
G03 X15.496819 Y8.468390 Z2 I-58.125690 J141.259413
G03 X15.964886 Y8.667364 Z2 I-21.170225 J50.450757
G02 X16.321323 Y8.792160 Z2 I1.070444 J-2.485950
G01 X16.094468 Y8.105080 Z2
G03 X15.721799 Y7.100497 Z2 I15.683493 J-6.389514
G02 X15.290693 Y6.249940 Z2 I-3.117356 J1.045502
G00 Z0.000000

(End cutting path id: path5)


(Start cutting path id: path5)
(Change tool to Default tool)

G00 Z0.000000
G00 X9.038208 Y8.757810

G01 Z2 F100.0(Penetrate)
G03 X9.150329 Y8.396092 Z2 I1.498696 J0.266313 F100
G02 X9.367172 Y7.898950 Z2 I-17.654345 J-7.996308
G02 X9.709613 Y7.072861 Z2 I-95.128275 J-39.917848
G03 X10.052190 Y6.249940 Z2 I70.672454 J28.937779
G01 X10.303061 Y5.675490 Z2
G01 X10.755923 Y5.489320 Z2
G03 X11.315039 Y5.362336 Z2 I1.505868 J5.336000
G03 X11.889616 Y5.273470 Z2 I2.734941 J15.781253
G01 X12.679765 Y5.288070 Z2
G00 Z0.000000

(End cutting path id: path5)


(Start cutting path id: path5)
(Change tool to Default tool)

G00 Z0.000000
G00 X12.611055 Y7.314980

G01 Z2 F100.0(Penetrate)
G02 X12.398741 Y7.192545 Z2 I-0.747012 J1.050084 F100
G02 X12.095741 Y7.059920 Z2 I-4.493908 J9.854534
G02 X11.410208 Y6.772469 Z2 I-523.658940 J1247.897366
G02 X10.721568 Y6.490470 Z2 I-17.759209 J42.386047
G03 X10.380068 Y6.351270 Z2 I10.389716 J-25.977659
G03 X10.103190 Y6.215640 Z2 I0.956498 J-2.303041
G00 Z0.000000

(End cutting path id: path5)


(Footer)
M5
G00 X0.0000 Y0.0000
M2
(Using default footer. To add your own footer create file "footer" in the output dir.)
(end)
%