%
(Header)
(Generated by gcodetools from Inkscape.)
(Using default header. To add your own header create file "header" in the output dir.)
M3
(Header end.)
G21 (All units in mm)

(Start cutting path id: path5)
(Change tool to Default tool)

G00 Z0.000000
G00 X10.264965 Y16.801570

G01 Z2 F100.0(Penetrate)
G01 X10.264965 Y14.315670 Z2 F150
G01 X10.286095 Y13.337240 Z2
G01 X10.580083 Y13.147320 Z2
G02 X11.441700 Y12.896810 Z2 I-4.628362 J-17.526015
G03 X12.295703 Y12.705090 Z2 I1.527804 J4.807591
G01 X11.910564 Y13.048190 Z2
G01 X11.000235 Y13.573380 Z2
G01 X10.683149 Y13.797940 Z2
G01 X10.909083 Y14.350690 Z2
G03 X11.348185 Y15.126623 Z2 I-19.192133 J11.373091
G02 X11.805526 Y15.891240 Z2 I8.900753 J-4.804725
G00 Z0.000000

(End cutting path id: path5)


(Start cutting path id: path5)
(Change tool to Default tool)

G00 Z0.000000
G00 X15.166742 Y16.801570

G01 Z2 F100.0(Penetrate)
G01 X15.166742 Y14.210640 Z2 F150
G01 X15.110602 Y13.275910 Z2
G01 X14.536514 Y13.065380 Z2
G03 X13.840950 Y12.859797 Z2 I9.140582 J-32.205540
G02 X13.136007 Y12.705090 Z2 I-1.291652 J4.202135
G01 X14.396463 Y13.552420 Z2
G01 X14.766852 Y13.829170 Z2
G01 X14.511335 Y14.385700 Z2
G03 X14.033531 Y15.202899 Z2 I-34.667592 J-19.721351
G02 X13.626184 Y15.926260 Z2 I12.672514 J7.612655
G00 Z0.000000

(End cutting path id: path5)


(Start cutting path id: path5)
(Change tool to Default tool)

G00 Z0.000000
G00 X13.030969 Y12.284940

G01 Z2 F100.0(Penetrate)
G01 X14.081349 Y11.234560 Z2 F150
G01 X14.458032 Y10.779400 Z2
G01 X14.056170 Y10.009120 Z2
G02 X13.621607 Y9.255993 Z2 I-61.560401 J35.019122
G03 X13.185770 Y8.503570 Z2 I84.043891 J-49.184420
G03 X12.950249 Y8.089165 Z2 I55.162317 J-31.624825
G02 X12.715855 Y7.733290 Z2 I-2.678387 J1.508968
G02 X12.499388 Y8.074597 Z2 I2.594126 J1.884569
G03 X12.274577 Y8.468560 Z2 I-12.115607 J-6.652529
G02 X11.829028 Y9.238412 Z2 I37.115974 J21.994571
G03 X11.384996 Y10.009120 Z2 I-46.364358 J-26.198896
G01 X10.990995 Y10.814410 Z2
G01 X11.350361 Y11.234560 Z2
G02 X11.827293 Y11.708775 Z2 I83.254680 J-83.254680
G03 X12.295190 Y12.179900 Z2 I-25.511184 J25.804317
G01 X12.609520 Y12.600050 Z2
G01 X12.533610 Y12.915170 Z2
G03 X12.191500 Y13.505428 Z2 I-246.531001 J-142.493699
G02 X11.845811 Y14.105600 Z2 I76.664242 J44.556936
G01 X11.565196 Y14.629280 Z2
G01 X12.085631 Y15.045670 Z2
G01 X12.680847 Y15.366970 Z2
G01 X13.065986 Y15.205740 Z2
G03 X13.505482 Y14.956403 Z2 I28.127207 J49.066741
G02 X13.941302 Y14.700810 Z2 I-6.568443 J-11.699408
G03 X13.406086 Y13.808552 Z2 I49.768968 J-30.460315
G03 X12.906348 Y12.915170 Z2 I20.644288 J-12.134408
G01 X12.846348 Y12.600050 Z2
G01 X13.030975 Y12.389980 Z2
G00 Z0.000000

(End cutting path id: path5)


(Start cutting path id: path5)
(Change tool to Default tool)

G00 Z0.000000
G00 X12.330722 Y12.775120

G01 Z2 F100.0(Penetrate)
G01 X12.155659 Y12.565200 Z2 F150
G02 X11.352963 Y12.561273 Z2 I-0.539441 J28.226042
G03 X10.545076 Y12.565040 Z2 I-0.807887 J-86.633292
G01 X9.893100 Y12.529040 Z2
G01 X9.494318 Y11.899780 Z2
G02 X8.983665 Y11.052725 Z2 I-37.165685 J21.828157
G03 X8.514342 Y10.184160 Z2 I7.168670 J-4.434619
G00 Z0.000000

(End cutting path id: path5)


(Start cutting path id: path5)
(Change tool to Default tool)

G00 Z0.000000
G00 X16.952393 Y10.184160

G01 Z2 F100.0(Penetrate)
G02 X16.449588 Y10.994108 Z2 I6.010825 J4.292479 F150
G03 X15.986789 Y11.829760 Z2 I-28.487822 J-15.231097
G01 X15.568366 Y12.508880 Z2
G01 X14.991684 Y12.564980 Z2
G01 X13.451127 Y12.564980 Z2
G01 X13.172107 Y12.569980 Z2
G01 X13.100997 Y12.774870 Z2
G00 Z0.000000

(End cutting path id: path5)


(Start cutting path id: path5)
(Change tool to Default tool)

G00 Z0.000000
G00 X12.330719 Y12.669830

G01 Z2 F100.0(Penetrate)
G01 X12.400739 Y12.669830 Z2 F150
G00 Z0.000000

(End cutting path id: path5)


(Start cutting path id: path5)
(Change tool to Default tool)

G00 Z0.000000
G00 X13.030967 Y12.669830

G01 Z2 F100.0(Penetrate)
G01 X13.100987 Y12.669830 Z2 F150
G00 Z0.000000

(End cutting path id: path5)


(Start cutting path id: path5)
(Change tool to Default tool)

G00 Z0.000000
G00 X12.435747 Y12.634830

G01 Z2 F100.0(Penetrate)
G01 X12.610810 Y12.634830 Z2 F150
G00 Z0.000000

(End cutting path id: path5)


(Start cutting path id: path5)
(Change tool to Default tool)

G00 Z0.000000
G00 X12.855899 Y12.634830

G01 Z2 F100.0(Penetrate)
G01 X12.995949 Y12.634830 Z2 F150
G00 Z0.000000

(End cutting path id: path5)


(Start cutting path id: path5)
(Change tool to Default tool)

G00 Z0.000000
G00 X12.645823 Y12.599830

G01 Z2 F100.0(Penetrate)
G01 X12.820886 Y12.599830 Z2 F150
G00 Z0.000000

(End cutting path id: path5)


(Start cutting path id: path5)
(Change tool to Default tool)

G00 Z0.000000
G00 X12.400734 Y12.319730

G01 Z2 F100.0(Penetrate)
G01 X12.470764 Y12.389730 Z2 F150
G00 Z0.000000

(End cutting path id: path5)


(Start cutting path id: path5)
(Change tool to Default tool)

G00 Z0.000000
G00 X10.264966 Y8.398280

G01 Z2 F100.0(Penetrate)
G01 X10.264966 Y10.288970 Z2 F150
G01 X10.286096 Y11.092850 Z2
G01 X10.825172 Y11.489230 Z2
G03 X11.579713 Y11.955918 Z2 I-6.097429 J10.701637
G02 X12.365730 Y12.354720 Z2 I2.040974 J-3.048651
G00 Z0.000000

(End cutting path id: path5)


(Start cutting path id: path5)
(Change tool to Default tool)

G00 Z0.000000
G00 X13.065983 Y12.354720

G01 Z2 F100.0(Penetrate)
G01 X14.571527 Y11.509170 Z2 F150
G01 X15.130757 Y11.151020 Z2
G01 X15.166747 Y10.358990 Z2
G01 X15.166747 Y8.363270 Z2
G00 Z0.000000

(End cutting path id: path5)


(Footer)
M5
G00 X0.0000 Y0.0000
M2
(Using default footer. To add your own footer create file "footer" in the output dir.)
(end)
%