%
(Header)
(Generated by gcodetools from Inkscape.)
(Using default header. To add your own header create file "header" in the output dir.)
M3
(Header end.)
G21 (All units in mm)

(Start cutting path id: path5)
(Change tool to Default tool)

G00 Z0.000000
G00 X12.275215 Y25.133020

G01 Z2 F100.0(Penetrate)
G02 X12.858155 Y25.139883 Z2 I0.320238 J-2.440068 F75
G03 X13.380339 Y25.108720 Z2 I0.589975 J5.495316
G02 X14.721756 Y24.981533 Z2 I-0.100109 J-8.193228
G02 X16.058141 Y24.671150 Z2 I-2.350734 J-13.153507
G02 X19.791202 Y22.905539 Z2 I-3.528272 J-12.289130
G02 X22.778816 Y20.007980 Z2 I-7.147757 J-10.358918
G02 X23.809085 Y18.330944 Z2 I-9.480190 J-6.979035
G02 X24.559065 Y16.522590 Z2 I-11.811310 J-5.958213
G02 X24.922607 Y15.217893 Z2 I-13.590680 J-4.489921
G02 X25.110151 Y13.887290 Z2 I-7.770835 J-1.773790
G03 X25.117576 Y13.759390 Z2 I30.048193 J1.680114
G03 X25.129701 Y13.632260 Z2 I1.822597 J0.109694
G02 X25.147614 Y13.448982 Z2 I-2.745354 J-0.360836
G02 X25.154171 Y13.249720 Z2 I-3.181459 J-0.204430
G02 X25.052695 Y11.131313 Z2 I-21.439245 J-0.034648
G02 X24.615647 Y9.041740 Z2 I-9.780143 J0.955089
G02 X23.158867 Y5.965255 Z2 I-12.754326 J4.156289
G02 X20.946198 Y3.353320 Z2 I-10.840290 J6.940035
G02 X19.619005 Y2.320503 Z2 I-7.696683 J8.521263
G02 X18.183386 Y1.487370 Z2 I-7.408603 J11.112725
G02 X16.205409 Y0.710134 Z2 I-5.332517 J10.665162
G02 X14.102927 Y0.292810 Z2 I-3.383434 J11.540954
G02 X13.677176 Y0.261690 Z2 I-0.673054 J6.280050
G03 X13.295336 Y0.236110 Z2 I0.270258 J-6.897011
G03 X13.110068 Y0.215086 Z2 I0.500387 J-5.236343
G02 X12.912793 Y0.201010 Z2 I-0.216806 J1.649098
G02 X12.483750 Y0.204036 Z2 I-0.136875 J11.011793
G02 X12.105202 Y0.231210 Z2 I0.111593 J4.204768
G03 X11.951741 Y0.241436 Z2 I-0.176582 J-1.493358
G03 X11.807669 Y0.243510 Z2 I-1.128661 J-73.396871
G02 X11.560057 Y0.260559 Z2 I0.032131 J2.273266
G03 X11.297611 Y0.289010 Z2 I-1.056451 J-8.520591
G02 X9.383570 Y0.645869 Z2 I0.986354 J10.601874
G02 X7.557190 Y1.319060 Z2 I3.434904 J12.133050
G02 X4.032179 Y3.696966 Z2 I5.463862 J11.901334
G02 X1.535117 Y7.129080 Z2 I7.907054 J8.377274
G02 X1.111203 Y8.109854 Z2 I13.507276 J6.420160
G02 X0.757470 Y9.126800 Z2 I13.377839 J5.223332
G02 X0.440508 Y10.370754 Z2 I12.854639 J3.937745
G02 X0.289327 Y11.634590 Z2 I7.550100 J1.544110
G03 X0.280157 Y11.786141 Z2 I-3.155085 J-0.114843
G03 X0.264401 Y11.932120 Z2 I-3.175021 J-0.268859
G02 X0.250738 Y12.080326 Z2 I1.911252 J0.250935
G02 X0.246396 Y12.229650 Z2 I3.076393 J0.164182
G02 X0.245826 Y12.652081 Z2 I60.790426 J0.293201
G03 X0.246363 Y13.079750 Z2 I-245.714294 J0.522339
G02 X0.249529 Y13.279023 Z2 I6.428661 J-0.002481
G02 X0.264401 Y13.462290 Z2 I1.853986 J-0.058213
G03 X0.280157 Y13.608267 Z2 I-3.160534 J0.414966
G03 X0.289327 Y13.759830 Z2 I-3.145099 J0.266347
G02 X0.751372 Y16.330915 Z2 I9.259759 J-0.336995
G02 X1.789654 Y18.732890 Z2 I14.013957 J-4.632307
G02 X4.566825 Y22.134355 Z2 I10.331757 J-5.601040
G02 X8.322273 Y24.351560 Z2 I8.541972 J-10.179135
G02 X9.726659 Y24.782950 Z2 I3.758407 J-9.733786
G02 X11.170093 Y25.048020 Z2 I3.603982 J-15.562782
G02 X11.760083 Y25.094100 Z2 I0.694302 J-5.089542
G03 X12.275217 Y25.133020 Z2 I-0.095243 J4.689143
G00 Z0.000000

(End cutting path id: path5)


(Footer)
M5
G00 X0.0000 Y0.0000
M2
(Using default footer. To add your own footer create file "footer" in the output dir.)
(end)
%