%
(Header)
(Generated by gcodetools from Inkscape.)
(Using default header. To add your own header create file "header" in the output dir.)
M3
(Header end.)
G21 (All units in mm)

(Start cutting path id: path5)
(Change tool to Default tool)

G00 Z0.000000
G00 X12.811642 Y21.449530

G01 Z2 F100.0(Penetrate)
G01 X11.087773 Y21.695790 Z2 F100
G03 X11.854206 Y23.486272 Z2 I-23.421396 J11.085033
G02 X12.442242 Y24.774130 Z2 I10.758054 J-4.133950
G01 X12.688509 Y24.774130 Z2
G02 X13.290873 Y23.486492 Z2 I-7.746809 J-4.408711
G03 X14.042977 Y21.695790 Z2 I22.805015 J8.524931
G01 X12.811642 Y21.449530 Z2
G01 X14.412377 Y20.218190 Z2
G03 X14.325451 Y20.912280 Z2 I-1.449906 J0.170905
G03 X14.042977 Y21.572660 Z2 I-8.899523 J-3.416115
G00 Z0.000000

(End cutting path id: path5)


(Start cutting path id: path5)
(Change tool to Default tool)

G00 Z0.000000
G00 X12.565375 Y24.651000

G01 Z2 F100.0(Penetrate)
G01 X12.565375 Y21.326390 Z2 F100
G01 X12.565375 Y11.598850 Z2
G01 X12.639675 Y7.563090 Z2
G01 X14.904913 Y6.402640 Z2
G01 X21.554121 Y3.718310 Z2
G00 Z0.000000

(End cutting path id: path5)


(Start cutting path id: path5)
(Change tool to Default tool)

G00 Z0.000000
G00 X0.005760 Y12.583920

G01 Z2 F100.0(Penetrate)
G02 X1.983856 Y12.206899 Z2 I-0.443477 J-7.704454 F100
G03 X3.625467 Y12.883580 Z2 I0.427302 J1.292971
G03 X3.775129 Y13.824436 Z2 I-1.384227 J0.702521
G02 X3.699765 Y14.800320 Z2 I6.280639 J0.975884
G01 X3.699765 Y19.233130 Z2
G03 X3.583680 Y20.341684 Z2 I-5.351106 J-0.000000
G02 X3.826319 Y21.375230 Z2 I1.221117 J0.258580
G01 X5.669900 Y21.572660 Z2
G02 X8.494105 Y21.533843 Z2 I0.000000 J-102.760314
G03 X11.087773 Y21.572660 Z2 I0.839922 J30.549516
G00 Z0.000000

(End cutting path id: path5)


(Start cutting path id: path5)
(Change tool to Default tool)

G00 Z0.000000
G00 X14.289244 Y21.572660

G01 Z2 F100.0(Penetrate)
G01 X19.460850 Y21.572660 Z2 F100
G03 X20.442122 Y21.661031 Z2 I0.000000 J5.492184
G02 X21.356688 Y21.375230 Z2 I0.184474 J-1.015889
G02 X21.642489 Y20.460661 Z2 I-0.730103 J-0.730096
G03 X21.554119 Y19.479390 Z2 I5.403923 J-0.981271
G01 X21.554119 Y14.554050 Z2
G01 X21.356688 Y12.781350 Z2
G02 X19.677909 Y12.406998 Z2 I-1.133998 J1.133995
G03 X17.860115 Y12.460780 Z2 I-0.990860 J-2.743417
G03 X18.803969 Y10.064355 Z2 I230.610396 J89.443901
G03 X19.953384 Y7.412310 Z2 I46.987664 J18.789687
G01 X23.277988 Y10.613780 Z2
G01 X25.001857 Y12.460780 Z2
G03 X23.447159 Y12.637713 Z2 I-1.280384 J-4.331673
G02 X21.677253 Y12.583920 Z2 I-1.769906 J29.090033
G00 Z0.000000

(End cutting path id: path5)


(Start cutting path id: path5)
(Change tool to Default tool)

G00 Z0.000000
G00 X10.964640 Y21.449530

G01 Z2 F100.0(Penetrate)
G02 X10.792519 Y20.849249 Z2 I-22.585594 J6.151240 F100
G03 X10.718373 Y20.218190 Z2 I1.741051 J-0.524450
G03 X11.587725 Y20.819856 Z2 I-36.952220 J54.321446
G03 X12.442242 Y21.449530 Z2 I-14.140603 J20.084572
G00 Z0.000000

(End cutting path id: path5)


(Start cutting path id: path5)
(Change tool to Default tool)

G00 Z0.000000
G00 X12.195975 Y14.982270

G01 Z2 F100.0(Penetrate)
G02 X14.985650 Y13.232090 Z2 I0.478149 J-2.336232 F100
G02 X13.181043 Y10.292840 Z2 I-2.332684 J-0.591417
G02 X10.320668 Y12.141750 Z2 I-0.523448 J2.327236
G02 X12.195975 Y14.982270 Z2 I2.357896 J0.482618
G00 Z0.000000

(End cutting path id: path5)


(Start cutting path id: path5)
(Change tool to Default tool)

G00 Z0.000000
G00 X3.822898 Y12.583920

G01 Z2 F100.0(Penetrate)
G03 X5.622085 Y12.643685 Z2 I-0.000000 J27.111728 F100
G02 X7.270636 Y12.460780 Z2 I0.312730 J-4.702100
G02 X6.355428 Y10.058970 Z2 I-33.831937 J11.516352
G02 X5.177366 Y7.412310 Z2 I-71.153002 J30.085584
G01 X0.128894 Y12.337650 Z2
G00 Z0.000000

(End cutting path id: path5)


(Start cutting path id: path5)
(Change tool to Default tool)

G00 Z0.000000
G00 X25.124990 Y12.583920

G01 Z2 F100.0(Penetrate)
G01 X25.001857 Y12.460780 Z2 F100
G00 Z0.000000

(End cutting path id: path5)


(Start cutting path id: path5)
(Change tool to Default tool)

G00 Z0.000000
G00 X3.576631 Y3.718310

G01 Z2 F100.0(Penetrate)
G03 X6.705529 Y4.735028 Z2 I-1.165175 J8.908637 F100
G02 X9.733305 Y6.199410 Z2 I16.811023 J-30.896370
G02 X11.151240 Y6.799076 Z2 I118.242854 J-277.614068
G02 X12.442242 Y7.289180 Z2 I7.699092 J-18.335070
G00 Z0.000000

(End cutting path id: path5)


(Start cutting path id: path5)
(Change tool to Default tool)

G00 Z0.000000
G00 X4.315432 Y3.718310

G01 Z2 F100.0(Penetrate)
G01 X20.938452 Y3.718310 Z2 F100
G00 Z0.000000

(End cutting path id: path5)


(Footer)
M5
G00 X0.0000 Y0.0000
M2
(Using default footer. To add your own footer create file "footer" in the output dir.)
(end)
%