%
(Header)
(Generated by gcodetools from Inkscape.)
(Using default header. To add your own header create file "header" in the output dir.)
M3
(Header end.)
G21 (All units in mm)

(Start cutting path id: path5)
(Change tool to Default tool)

G00 Z0.000000
G00 X11.172592 Y21.684170

G01 Z2 F100.0(Penetrate)
G01 X11.833483 Y21.718470 Z2 F100
G01 X13.537890 Y21.718470 Z2
G01 X14.245791 Y21.664870 Z2
G01 X14.574263 Y20.916380 Z2
G02 X14.790281 Y20.251042 Z2 I-4.178495 J-1.724385
G03 X15.125276 Y19.668120 Z2 I1.161917 J0.280014
G01 X15.843853 Y19.347610 Z2
G01 X16.378569 Y19.498570 Z2
G02 X16.929335 Y19.728228 Z2 I51.599075 J-122.969996
G02 X17.481420 Y19.953910 Z2 I23.957573 J-57.819050
G01 X18.049556 Y20.096570 Z2
G02 X18.331511 Y19.855871 Z2 I-0.570223 J-0.953450
G03 X18.584272 Y19.579590 Z2 I3.233410 J2.704386
G01 X19.653704 Y18.510160 Z2
G01 X20.133391 Y17.942020 Z2
G01 X19.981197 Y17.507570 Z2
G02 X19.596337 Y16.736769 Z2 I-5.076157 J2.053035
G03 X19.362622 Y15.936840 Z2 I1.401428 J-0.843562
G01 X19.628536 Y15.203050 Z2
G01 X20.088161 Y14.900830 Z2
G02 X20.537311 Y14.714649 Z2 I-7.296586 J-18.237376
G03 X20.990494 Y14.526530 Z2 I8.145735 J18.983382
G01 X21.648266 Y14.238520 Z2
G01 X21.725726 Y13.530620 Z2
G01 X21.725726 Y11.893050 Z2
G01 X21.705566 Y11.194840 Z2
G01 X20.823398 Y10.750070 Z2
G02 X20.207856 Y10.556752 Z2 I-1.513013 J3.740947
G03 X19.677173 Y10.241500 Z2 I0.223782 J-0.980997
G01 X19.401976 Y9.620510 Z2
G01 X19.544062 Y8.918690 Z2
G03 X19.891048 Y8.213757 Z2 I7.027427 J3.021216
G02 X20.128855 Y7.481640 Z2 I-1.737208 J-0.968962
G01 X19.653707 Y6.880090 Z2
G01 X18.550855 Y5.777240 Z2
G03 X18.298802 Y5.501387 Z2 I2.934761 J-2.934634
G02 X18.016139 Y5.264130 Z2 I-0.803781 J0.670600
G01 X17.448004 Y5.404610 Z2
G03 X16.897438 Y5.634469 Z2 I-16.318375 J-38.311947
G02 X16.345152 Y5.863310 Z2 I25.250256 J61.720083
G01 X15.843856 Y5.996840 Z2
G01 X15.122598 Y5.686930 Z2
G03 X14.789453 Y5.118821 Z2 I0.697492 J-0.790750
G02 X14.583291 Y4.473860 Z2 I-3.429854 J0.740926
G01 X14.168407 Y3.648990 Z2
G01 X13.437634 Y3.638390 Z2
G01 X11.866906 Y3.638390 Z2
G01 X11.125586 Y3.715890 Z2
G02 X10.755362 Y4.428205 Z2 I1.330779 J1.144039
G03 X10.491694 Y5.209160 Z2 I-5.189743 J-1.317185
G01 X10.095530 Y5.762980 Z2
G01 X9.393844 Y6.007310 Z2
G03 X8.697071 Y5.772892 Z2 I0.328086 J-2.127923
G02 X8.023635 Y5.448100 Z2 I-3.810050 J7.039352
G01 X7.455499 Y5.237450 Z2
G01 X6.887363 Y5.710460 Z2
G01 X5.784512 Y6.813310 Z2
G01 X5.273442 Y7.348020 Z2
G01 X5.417255 Y7.916160 Z2
G03 X5.637334 Y8.452416 Z2 I-141.472920 J58.373496
G02 X5.860737 Y8.985590 Z2 I28.964234 J-11.822824
G01 X6.016129 Y9.520310 Z2
G01 X5.695985 Y10.241560 Z2
G03 X5.082981 Y10.596893 Z2 I-0.882258 J-0.815602
G02 X4.380882 Y10.817000 Z2 I1.061109 J4.614565
G01 X3.699233 Y11.137610 Z2
G01 X3.645648 Y11.893110 Z2
G01 X3.645648 Y13.363580 Z2
G03 X3.638906 Y13.722995 Z2 I-9.584322 J0.000000
G02 X3.647608 Y14.065240 Z2 I2.720095 J0.102076
G01 X4.213784 Y14.459720 Z2
G01 X5.760840 Y15.235210 Z2
G01 X6.021544 Y15.936900 Z2
G03 X5.843779 Y16.552924 Z2 I-1.270310 J-0.032912
G02 X5.550213 Y17.140010 Z2 I3.906613 J2.320401
G01 X5.254231 Y18.008920 Z2
G01 X5.717672 Y18.510220 Z2
G01 X6.853944 Y19.646490 Z2
G01 X7.422079 Y20.129140 Z2
G01 X7.889956 Y19.953970 Z2
G02 X8.628431 Y19.603355 Z2 I-2.601322 J-6.431992
G03 X9.393845 Y19.344730 Z2 I1.108275 J2.018039
G01 X10.095634 Y19.587800 Z2
G01 X10.888347 Y21.116960 Z2
G01 X11.172595 Y21.684170 Z2
G00 Z0.000000

(End cutting path id: path5)


(Start cutting path id: path5)
(Change tool to Default tool)

G00 Z0.000000
G00 X12.501881 Y17.560280

G01 Z2 F100.0(Penetrate)
G02 X12.786400 Y17.562829 Z2 I0.152699 J-1.164130 F100
G03 X13.036597 Y17.542280 Z2 I0.461161 J4.081538
G02 X13.497268 Y17.493534 Z2 I-0.198663 J-4.078628
G02 X13.972350 Y17.387950 Z2 I-0.695581 J-4.251420
G02 X15.840264 Y16.421005 Z2 I-1.418763 J-5.028383
G02 X17.127963 Y14.733740 Z2 I-2.825176 J-3.491149
G02 X17.384431 Y11.420915 Z2 I-4.613642 J-2.023513
G02 X15.442819 Y8.642030 Z2 I-4.764811 J1.261435
G02 X14.300821 Y8.067403 Z2 I-2.556634 J3.658887
G02 X13.070017 Y7.791970 Z2 I-1.956499 J5.855124
G02 X12.629646 Y7.773132 Z2 I-0.345402 J2.917673
G02 X12.201103 Y7.806370 Z2 I0.154165 J4.766863
G02 X11.050055 Y8.067651 Z2 I0.713679 J5.810089
G02 X9.995400 Y8.591040 Z2 I1.378580 J4.102197
G02 X8.456588 Y10.189289 Z2 I3.031543 J4.458720
G02 X7.823219 Y12.327560 Z2 I3.527598 J2.207835
G03 X7.808425 Y12.516764 Z2 I-1.547672 J-0.025836
G02 X7.798361 Y12.695170 Z2 I1.066888 J0.149669
G02 X7.810933 Y12.842618 Z2 I1.268089 J-0.033854
G03 X7.822987 Y12.995950 Z2 I-1.172626 J0.169332
G02 X7.930365 Y13.815201 Z2 I3.544337 J-0.047886
G02 X8.191120 Y14.600100 Z2 I5.452642 J-1.375688
G02 X9.166408 Y16.071309 Z2 I4.290993 J-1.785696
G02 X10.596955 Y17.097940 Z2 I3.672439 J-3.607313
G02 X11.031838 Y17.279662 Z2 I1.874338 J-3.874305
G02 X11.465869 Y17.410860 Z2 I1.597566 J-4.501542
G02 X12.016172 Y17.505424 Z2 I0.897467 J-3.574192
G03 X12.501881 Y17.560270 Z2 I-1.272390 J13.446320
G00 Z0.000000

(End cutting path id: path5)


(Footer)
M5
G00 X0.0000 Y0.0000
M2
(Using default footer. To add your own footer create file "footer" in the output dir.)
(end)
%