%
(Header)
(Generated by gcodetools from Inkscape.)
(Using default header. To add your own header create file "header" in the output dir.)
M3
(Header end.)
G21 (All units in mm)

(Start cutting path id: path5)
(Change tool to Default tool)

G00 Z0.000000
G00 X12.188164 Y21.641830

G01 Z2 F100.0(Penetrate)
G01 X12.375813 Y21.650830 Z2 F100
G02 X12.531126 Y21.649250 Z2 I0.003314 J-7.309550
G03 X12.667712 Y21.647830 Z2 I0.136588 J6.567047
G01 X12.938761 Y21.650830 Z2
G01 X13.126410 Y21.644830 Z2
G01 X13.293210 Y21.630030 Z2
G02 X14.281009 Y21.523195 Z2 I-0.091413 J-5.465217
G02 X15.253102 Y21.274980 Z2 I-1.933378 J-9.599392
G02 X15.430304 Y21.217868 Z2 I-2.640081 J-8.494945
G02 X15.607551 Y21.157590 Z2 I-5.328742 J-15.959719
G02 X17.175573 Y20.444048 Z2 I-3.002345 J-8.677354
G02 X18.589090 Y19.434750 Z2 I-4.369863 J-7.614437
G02 X19.882355 Y18.052516 Z2 I-6.277560 J-7.169626
G02 X20.840881 Y16.417480 Z2 I-6.164602 J-4.712429
G02 X21.379948 Y14.944984 Z2 I-12.660926 J-5.469964
G02 X21.632888 Y13.394250 Z2 I-5.696731 J-1.725190
G01 X21.641988 Y13.248300 Z2
G01 X21.653908 Y13.102350 Z2
G02 X21.654536 Y12.905472 Z2 I-11.328326 J-0.134573
G03 X21.653988 Y12.706200 Z2 I36.233580 J-0.199272
G02 X21.599090 Y11.692122 Z2 I-9.393539 J-0.000000
G02 X21.433487 Y10.683760 Z2 I-9.305799 J1.010511
G02 X21.245070 Y9.988575 Z2 I-7.439291 J1.643158
G02 X20.999308 Y9.307660 Z2 I-10.011246 J3.228538
G02 X20.162452 Y7.727878 Z2 I-7.817549 J3.129637
G02 X19.026077 Y6.326200 Z2 I-8.534680 J5.757792
G02 X16.654712 Y4.607535 Z2 I-6.055926 J5.860490
G02 X13.856118 Y3.767450 Z2 I-3.987661 J8.202633
G02 X13.435180 Y3.719191 Z2 I-1.655142 J12.577116
G02 X13.022121 Y3.699050 Z2 I-0.413059 J4.225414
G02 X12.934641 Y3.699283 Z2 I-0.000000 J16.427005
G03 X12.855321 Y3.698760 Z2 I-0.017722 J-3.327822
G03 X12.698508 Y3.696107 Z2 I0.438471 J-30.552625
G02 X12.521723 Y3.697760 Z2 I-0.059735 J3.065622
G03 X12.408896 Y3.699240 Z2 I-0.091055 J-2.639695
G02 X12.292373 Y3.698760 Z2 I-0.116523 J14.135374
G02 X12.030219 Y3.708756 Z2 I0.000000 J3.442568
G02 X11.771125 Y3.734560 Z2 I0.430311 J5.634377
G02 X10.747901 Y3.906109 Z2 I1.443895 J11.749651
G02 X9.748683 Y4.178340 Z2 I1.926584 J9.041390
G02 X8.271352 Y4.838237 Z2 I2.619153 J7.847198
G02 X6.933984 Y5.764730 Z2 I4.592699 J8.057914
G02 X6.610977 Y6.051940 Z2 I4.169077 J5.013935
G02 X6.308486 Y6.346830 Z2 I11.435985 J12.033335
G02 X5.456058 Y7.326765 Z2 I6.615138 J6.615115
G02 X4.760203 Y8.431830 Z2 I6.176705 J4.661069
G03 X4.691649 Y8.556948 Z2 I-2.657033 J-1.374478
G02 X4.625048 Y8.682020 Z2 I1.713917 J0.992931
G02 X4.001220 Y10.272639 Z2 I9.638588 J4.697819
G02 X3.723386 Y11.976310 Z2 I6.259995 J1.895369
G03 X3.719145 Y12.062644 Z2 I-2.186267 J-0.064103
G03 X3.711095 Y12.143110 Z2 I-1.306234 J-0.090057
G01 X3.702245 Y12.309910 Z2
G02 X3.702131 Y12.590846 Z2 I116.530875 J0.187388
G03 X3.702245 Y12.872860 Z2 I-351.384566 J0.282215
G02 X3.829119 Y14.246259 Z2 I7.496853 J-0.000000
G02 X4.174843 Y15.583350 Z2 I9.876848 J-1.840555
G02 X5.910993 Y18.599049 Z2 I8.285371 J-2.762319
G02 X8.664526 Y20.717450 Z2 I6.822173 J-6.018829
G02 X9.631612 Y21.126809 Z2 I3.716639 J-7.433305
G02 X10.645269 Y21.423740 Z2 I3.346144 J-9.544345
G02 X11.436571 Y21.555674 Z2 I1.371440 J-5.786549
G03 X12.188163 Y21.641830 Z2 I-2.246753 J22.921086
G00 Z0.000000

(End cutting path id: path5)


(Start cutting path id: path5)
(Change tool to Default tool)

G00 Z0.000000
G00 X12.667711 Y21.629830

G01 Z2 F100.0(Penetrate)
G01 X12.667711 Y12.872870 Z2 F100
G01 X12.667711 Y12.643520 Z2
G01 X12.667711 Y12.414170 Z2
G01 X12.667711 Y3.719750 Z2
G00 Z0.000000

(End cutting path id: path5)


(Start cutting path id: path5)
(Change tool to Default tool)

G00 Z0.000000
G00 X6.329335 Y6.346840

G01 Z2 F100.0(Penetrate)
G01 X6.788033 Y6.805540 Z2 F100
G01 X7.726279 Y7.743790 Z2
G01 X11.124816 Y11.142320 Z2
G01 X12.271562 Y12.289070 Z2
G03 X12.396966 Y12.415666 Z2 I-13.307719 J13.307719
G02 X12.521762 Y12.538870 Z2 I3.939399 J-3.865497
G01 X12.667711 Y12.630270 Z2
G01 X12.813660 Y12.538870 Z2
G02 X12.938458 Y12.415645 Z2 I-3.870422 J-4.044616
G03 X13.063859 Y12.289070 Z2 I13.617280 J13.365641
G01 X14.210604 Y11.142320 Z2
G01 X17.629991 Y7.722940 Z2
G01 X18.568238 Y6.784690 Z2
G01 X19.026936 Y6.325990 Z2
G00 Z0.000000

(End cutting path id: path5)


(Footer)
M5
;G00 X0.0000 Y0.0000
M2
(Using default footer. To add your own footer create file "footer" in the output dir.)
(end)
%