%
(Header)
(Generated by gcodetools from Inkscape.)
(Using default header. To add your own header create file "header" in the output dir.)
M3
(Header end.)
G21 (All units in mm)

(Start cutting path id: path12)
(Change tool to Default tool)

G00 Z0.000000
G00 X99.375000 Y137.116700

G01 Z2 F100.0(Penetrate)
G03 X98.779111 Y137.401886 Z2 I-1.597029 J-2.571816 F75
G02 X98.000000 Y137.805455 Z2 I1.033191 J2.948468
G02 X96.197115 Y139.428531 Z2 I6.177470 J8.674676
G03 X94.375000 Y141.366700 Z2 I-32.310344 J-28.550060
G02 X93.043508 Y142.917391 Z2 I9.529037 J9.529037
G03 X91.375000 Y143.861588 Z2 I-1.885059 J-1.384799
G03 X90.529946 Y143.593084 Z2 I-0.105308 J-1.132623
G03 X89.875000 Y142.991217 Z2 I8.222498 J-9.604939
G03 X88.248733 Y141.308575 Z2 I34.145162 J-34.628377
G02 X86.625000 Y139.616700 Z2 I-41.973861 J38.658218
G03 X85.809542 Y138.774213 Z2 I25.429149 J-25.429200
G02 X85.000000 Y138.072816 Z2 I-3.762846 J3.525144
G02 X84.503569 Y137.783096 Z2 I-2.019188 J2.889683
G02 X83.875000 Y137.624127 Z2 I-0.708523 J1.479343
G02 X83.203713 Y137.730400 Z2 I-0.081079 J1.661121
G03 X82.500000 Y137.866120 Z2 I-0.741876 J-1.954407
G03 X81.645603 Y137.870397 Z2 I-0.588442 J-32.207181
G02 X80.750000 Y137.866700 Z2 I-0.895603 J108.472203
G03 X78.720489 Y137.863321 Z2 I-0.000001 J-609.456004
G02 X76.750000 Y137.866795 Z2 I-0.644183 J193.445041
G01 X75.586613 Y138.374030 Z2
G02 X75.545032 Y138.921145 Z2 I1.088156 J0.357838
G03 X75.625003 Y139.866700 Z2 I-5.739313 J0.961567
G03 X76.317571 Y140.031401 Z2 I-0.600647 J4.064203
G03 X77.000003 Y140.401421 Z2 I-0.695378 J2.096812
G03 X77.761585 Y141.110165 Z2 I-4.272107 J5.354148
G02 X78.500003 Y141.861781 Z2 I12.396022 J-11.439826
G02 X79.888517 Y143.127700 Z2 I27.315337 J-28.566178
G03 X81.221936 Y144.491700 Z2 I-7.707513 J8.868471
G03 X81.639908 Y145.267512 Z2 I-1.718163 J1.426165
G02 X82.052376 Y145.886281 Z2 I1.233938 J-0.375677
G02 X82.665007 Y146.226723 Z2 I1.224975 J-1.482922
G03 X83.375003 Y146.633385 Z2 I-0.668248 J1.989828
G03 X84.064041 Y147.297122 Z2 I-6.236816 J7.164079
G02 X84.750003 Y147.980511 Z2 I10.520475 J-9.874116
G02 X85.887856 Y149.006004 Z2 I31.731575 J-34.064313
G03 X86.971935 Y150.116700 Z2 I-6.344265 J7.276624
G03 X87.443811 Y151.062674 Z2 I-1.783287 J1.480227
G02 X87.837773 Y151.804297 Z2 I1.615458 J-0.382706
G02 X88.551450 Y152.177407 Z2 I0.875830 J-0.806161
G03 X89.375003 Y152.295132 Z2 I-10.610084 J77.162908
G02 X91.496109 Y152.554606 Z2 I6.126467 J-41.282259
G02 X93.124425 Y152.401231 Z2 I0.415485 J-4.309220
G02 X93.420156 Y152.278854 Z2 I-0.414416 J-1.419975
G02 X93.772765 Y151.973664 Z2 I-0.530316 J-0.969006
G02 X94.012442 Y151.523008 Z2 I-1.313916 J-0.987857
G03 X94.170335 Y151.116700 Z2 I5.460238 J1.888038
G03 X94.859254 Y150.117342 Z2 I2.872013 J1.242720
G02 X96.000000 Y148.991700 Z2 I-83.882866 J-86.149253
G02 X97.160181 Y147.822469 Z2 I-149.880601 J-149.880601
G03 X98.339314 Y146.700322 Z2 I17.831853 J17.556843
G03 X98.911182 Y146.280824 Z2 I2.482109 J2.784123
G02 X99.472029 Y145.891295 Z2 I-2.522524 J-4.230467
G02 X99.879647 Y145.411895 Z2 I-1.044431 J-1.301038
G03 X100.266590 Y144.866700 Z2 I2.848857 J1.612017
G03 X102.022521 Y143.016592 Z2 I24.130721 J21.144053
G03 X103.875000 Y141.252889 Z2 I81.873325 J84.139712
G02 X104.878795 Y140.296281 Z2 I-41.558249 J-44.613161
G03 X105.750000 Y139.553525 Z2 I5.993140 J6.147257
G01 X106.816750 Y138.491217 Z2
G01 X105.375000 Y137.491795 Z2
G02 X102.987227 Y137.488879 Z2 I-1.449502 J209.313105
G03 X100.625000 Y137.491700 Z2 I-1.610054 J-359.181747
G01 X99.627989 Y136.491700 Z2
G03 X100.774472 Y134.805155 Z2 I3.724859 J1.299140
G02 X102.750000 Y133.081014 Z2 I-163.876646 J-189.764418
G02 X104.458177 Y131.443176 Z2 I-18.822663 J-21.340711
G03 X106.125000 Y129.741700 Z2 I83.519040 J80.150888
G03 X106.858895 Y129.016512 Z2 I61.088051 J61.087570
G02 X107.493060 Y128.366895 Z2 I-13.228300 J-13.547994
G02 X107.989362 Y127.718122 Z2 I-3.108133 J-2.891895
G02 X108.125000 Y127.491700 Z2 I-6.610239 J-4.113702
G00 Z0.000000

(End cutting path id: path12)


(Start cutting path id: path12)
(Change tool to Default tool)

G00 Z0.000000
G00 X93.750000 Y152.241700

G01 Z2 F100.0(Penetrate)
G02 X94.111409 Y152.337845 Z2 I0.466254 J-1.025313 F75
G02 X95.000000 Y152.368533 Z2 I0.705408 J-7.545272
G02 X95.609324 Y152.338759 Z2 I-0.296934 J-12.326703
G02 X96.250000 Y152.277383 Z2 I-1.077971 J-14.626889
G03 X98.577364 Y152.103993 Z2 I3.174647 J26.905873
G02 X100.500000 Y151.616697 Z2 I-0.144087 J-4.605048
G03 X100.351177 Y151.257406 Z2 I1.761721 J-0.940198
G03 X100.250580 Y150.616697 Z2 I2.232323 J-0.678745
G03 X100.247212 Y149.928456 Z2 I29.249589 J-0.487278
G02 X100.250000 Y149.116697 Z2 I-118.162839 J-0.811759
G02 X100.135090 Y147.148604 Z2 I-16.911506 J0.000000
G02 X99.625000 Y145.991697 Z2 I-2.134160 J0.250064
G00 Z0.000000

(End cutting path id: path12)


(Start cutting path id: path12)
(Change tool to Default tool)

G00 Z0.000000
G00 X81.750000 Y146.116700

G01 Z2 F100.0(Penetrate)
G02 X81.606451 Y147.525631 Z2 I5.226176 J1.244247 F75
G03 X81.624517 Y149.616700 Z2 I-47.464450 J1.455684
G03 X81.535593 Y150.298078 Z2 I-2.959337 J-0.039720
G03 X81.375000 Y150.741700 Z2 I-2.264522 J-0.568887
G02 X82.724384 Y151.306564 Z2 I2.122136 J-3.175314
G02 X84.750000 Y151.716719 Z2 I52.815169 J-255.629396
G02 X85.663740 Y151.831369 Z2 I1.262839 J-6.366083
G03 X86.500000 Y151.902386 Z2 I-0.730518 J13.561472
G02 X87.305222 Y151.888590 Z2 I0.350954 J-3.021866
G02 X87.750000 Y151.741700 Z2 I-0.207810 J-1.376074
G00 Z0.000000

(End cutting path id: path12)


(Start cutting path id: path12)
(Change tool to Default tool)

G00 Z0.000000
G00 X100.500000 Y151.616700

G01 Z2 F100.0(Penetrate)
G02 X102.974416 Y151.261582 Z2 I-1.542614 J-19.546997 F75
G02 X106.375000 Y150.265717 Z2 I-4.625289 J-22.097920
G02 X107.077434 Y149.951983 Z2 I-2.416515 J-6.353665
G03 X107.750000 Y149.631745 Z2 I5.293105 J10.250245
G03 X109.054310 Y149.304376 Z2 I1.628095 J3.724671
G02 X109.375000 Y149.241700 Z2 I-0.115135 J-1.440869
G00 Z0.000000

(End cutting path id: path12)


(Start cutting path id: path12)
(Change tool to Default tool)

G00 Z0.000000
G00 X73.625000 Y148.116700

G01 Z2 F100.0(Penetrate)
G02 X73.868588 Y148.110684 Z2 I0.030888 J-3.683748 F75
G03 X74.750000 Y148.280860 Z2 I0.105370 J1.821930
G03 X75.348621 Y148.634146 Z2 I-1.575638 J3.353633
G02 X76.125000 Y149.081109 Z2 I2.514288 J-3.469566
G02 X79.096163 Y150.185825 Z2 I10.432375 J-23.510278
G02 X81.375000 Y150.741700 Z2 I6.182519 J-20.396507
G00 Z0.000000

(End cutting path id: path12)


(Start cutting path id: path12)
(Change tool to Default tool)

G00 Z0.000000
G00 X107.500000 Y149.616700

G01 Z2 F100.0(Penetrate)
G03 X107.365291 Y149.300805 Z2 I1.740950 J-0.929073 F75
G03 X107.250580 Y148.616700 Z2 I2.208528 J-0.721997
G03 X107.246049 Y147.686021 Z2 I37.954304 J-0.650145
G02 X107.250000 Y146.616700 Z2 I-144.689020 J-1.069321
G01 X107.250000 Y142.116700 Z2
G03 X107.254510 Y141.068436 Z2 I121.819519 J-0.000000
G02 X107.249420 Y140.116700 Z2 I-34.104108 J-0.293479
G02 X107.021092 Y139.260933 Z2 I-1.847361 J0.034553
G02 X106.750000 Y138.866700 Z2 I-2.107858 J1.159129
G00 Z0.000000

(End cutting path id: path12)


(Start cutting path id: path12)
(Change tool to Default tool)

G00 Z0.000000
G00 X75.000000 Y148.241700

G01 Z2 F100.0(Penetrate)
G02 X75.119656 Y147.969019 Z2 I-1.714193 J-0.914803 F75
G02 X75.249421 Y147.241700 Z2 I-2.184977 J-0.765070
G02 X75.259306 Y145.057129 Z2 I-92.712073 J-1.511840
G03 X75.250000 Y142.491700 Z2 I353.591319 J-2.565430
G02 X75.241994 Y141.698620 Z2 I-39.284707 J-0.000000
G03 X75.261290 Y140.991700 Z2 I7.448654 J-0.150404
G03 X75.431507 Y140.263455 Z2 I2.417430 J0.181024
G03 X75.625005 Y139.866700 Z2 I2.955695 J1.195935
G00 Z0.000000

(End cutting path id: path12)


(Start cutting path id: path12)
(Change tool to Default tool)

G00 Z0.000000
G00 X73.500000 Y148.116700

G01 Z2 F100.0(Penetrate)
G01 X73.625000 Y148.116700 Z2 F75
G00 Z0.000000

(End cutting path id: path12)


(Start cutting path id: path12)
(Change tool to Default tool)

G00 Z0.000000
G00 X73.625000 Y137.741700

G01 Z2 F100.0(Penetrate)
G03 X74.219484 Y137.796003 Z2 I-0.030101 J3.610774 F75
G03 X75.375000 Y138.116700 Z2 I-1.072259 J6.105580
G00 Z0.000000

(End cutting path id: path12)


(Start cutting path id: path12)
(Change tool to Default tool)

G00 Z0.000000
G00 X106.875000 Y137.991700

G01 Z2 F100.0(Penetrate)
G03 X108.403071 Y137.470204 Z2 I1.430151 J1.691080 F75
G02 X109.375000 Y137.491700 Z2 I0.971929 J-21.961457
G00 Z0.000000

(End cutting path id: path12)


(Start cutting path id: path12)
(Change tool to Default tool)

G00 Z0.000000
G00 X73.500000 Y137.741700

G01 Z2 F100.0(Penetrate)
G01 X73.625000 Y137.741700 Z2 F75
G00 Z0.000000

(End cutting path id: path12)


(Start cutting path id: path12)
(Change tool to Default tool)

G00 Z0.000000
G00 X83.625000 Y137.491700

G01 Z2 F100.0(Penetrate)
G02 X83.512009 Y137.030723 Z2 I-17.877950 J4.137765 F75
G02 X83.239294 Y136.366700 Z2 I-2.555495 J0.661530
G02 X82.314516 Y135.236678 Z2 I-3.968989 J2.304692
G03 X81.125000 Y134.116700 Z2 I18.004148 J-20.313672
G02 X78.333592 Y131.344457 Z2 I-403.794800 J403.794800
G03 X75.626929 Y128.616700 Z2 I125.269636 J-127.007668
G02 X74.812910 Y127.893906 Z2 I-5.285598 J5.132929
G02 X73.625000 Y127.491700 Z2 I-1.189422 J1.557598
G00 Z0.000000

(End cutting path id: path12)


(Start cutting path id: path12)
(Change tool to Default tool)

G00 Z0.000000
G00 X82.875000 Y127.491700

G01 Z2 F100.0(Penetrate)
G01 X84.304591 Y128.776421 Z2 F75
G03 X84.616423 Y129.193858 Z2 I-0.626448 J0.793157
G02 X85.376929 Y130.366700 Z2 I3.358896 J-1.345020
G02 X87.490036 Y132.497728 Z2 I93.575470 J-90.675350
G03 X89.625000 Y134.616700 Z2 I-298.706521 J303.095933
G03 X90.349809 Y135.365727 Z2 I-22.118770 J22.128817
G02 X91.250000 Y135.763306 Z2 I0.916904 J-0.858150
G01 X92.375000 Y135.114384 Z2
G02 X93.502479 Y133.999192 Z2 I-38.365026 J-39.915286
G03 X94.625000 Y132.866700 Z2 I128.617119 J126.362106
G03 X95.893503 Y131.618955 Z2 I76.257388 J76.257388
G02 X97.118153 Y130.366700 Z2 I-22.031726 J-22.771000
G02 X97.535423 Y129.748711 Z2 I-1.798929 J-1.664514
G03 X97.938658 Y129.180840 Z2 I1.795546 J0.847885
G03 X98.353754 Y128.928939 Z2 I0.741584 J0.754063
G02 X98.749905 Y128.749993 Z2 I-0.608717 J-1.875555
G02 X99.605253 Y127.821644 Z2 I-1.118885 J-1.889118
G02 X99.750000 Y127.491700 Z2 I-4.102499 J-1.996501
G00 Z0.000000

(End cutting path id: path12)


(Start cutting path id: path12)
(Change tool to Default tool)

G00 Z0.000000
G00 X97.875000 Y129.116700

G01 Z2 F100.0(Penetrate)
G01 X96.467592 Y127.567124 Z2 F75
G01 X95.500000 Y127.491700 Z2
G00 Z0.000000

(End cutting path id: path12)


(Start cutting path id: path12)
(Change tool to Default tool)

G00 Z0.000000
G00 X84.500000 Y128.741700

G01 Z2 F100.0(Penetrate)
G02 X85.084908 Y127.941343 Z2 I-2.860015 J-2.704032 F75
G02 X85.250000 Y127.491700 Z2 I-1.375797 J-0.760270
G00 Z0.000000

(End cutting path id: path12)


(Start cutting path id: path12)
(Change tool to Default tool)

G00 Z0.000000
G00 X73.500000 Y127.491700

G01 Z2 F100.0(Penetrate)
G01 X73.625000 Y127.491700 Z2 F75
G00 Z0.000000

(End cutting path id: path12)


(Footer)
M5
;G00 X0.0000 Y0.0000
M2
(Using default footer. To add your own footer create file "footer" in the output dir.)
(end)
%