%
(Header)
(Generated by gcodetools from Inkscape.)
(Using default header. To add your own header create file "header" in the output dir.)
M3
(Header end.)
G21 (All units in mm)

(Start cutting path id: path23)
(Change tool to Default tool)

G00 Z0.000000
G00 X125.625000 Y64.500000

G01 Z2 F100.0(Penetrate)
G03 X125.374244 Y64.665021 Z2 I-2.111216 J-2.935054 F75.000000
G03 X124.625000 Y64.861400 Z2 I-0.710789 J-1.184384
G01 X122.128470 Y64.950400 Z2
G01 X122.000000 Y65.999980 Z2
G02 X121.999741 Y68.307958 Z2 I3433.856129 J1.543851
G03 X122.000000 Y70.624980 Z2 I-10355.442042 J2.279014
G03 X121.940957 Y71.583259 Z2 I-7.806019 J-0.000000
G02 X122.075400 Y72.471430 Z2 I1.651450 J0.204280
G01 X122.999980 Y72.868130 Z2
G02 X123.645370 Y72.812734 Z2 I-0.057262 J-4.454402
G03 X124.374980 Y72.750460 Z2 I0.789153 J4.940550
G03 X127.006699 Y72.747166 Z2 I1.470423 J123.498714
G02 X129.499980 Y72.749880 Z2 I1.409827 J-149.932852
G01 X130.652850 Y72.242650 Z2
G02 X130.610130 Y71.496899 Z2 I-1.089496 J-0.311687
G02 X130.155070 Y70.499980 Z2 I-14.410101 J5.975400
G02 X128.720844 Y67.995229 Z2 I-22.784794 J11.383628
G02 X127.088140 Y65.625080 Z2 I-45.542619 J29.625122
G02 X126.430297 Y64.965387 Z2 I-2.449757 J1.785043
G03 X125.820490 Y64.473840 Z2 I5.043553 J-6.880996
G01 X125.362440 Y63.499980 Z2
G02 X124.699720 Y62.534300 Z2 I-3.876420 J1.950039
G02 X123.863790 Y61.624980 Z2 I-69.831176 J63.356285
G02 X121.115425 Y58.844429 Z2 I-48.246434 J44.939406
G02 X118.124980 Y56.333600 Z2 I-21.354346 J22.397182
G02 X117.301212 Y55.906604 Z2 I-1.759796 J2.386914
G03 X116.657390 Y55.554670 Z2 I0.649932 J-1.953843
G03 X116.221529 Y55.104110 Z2 I1.610596 J-1.994151
G02 X115.747660 Y54.626810 Z2 I-1.986609 J1.498449
G02 X113.929747 Y53.422518 Z2 I-9.704255 J12.674604
G03 X111.999980 Y52.322320 Z2 I383.575054 J-675.040240
G02 X111.160873 Y51.862323 Z2 I-13.102718 J22.906116
G02 X110.500170 Y51.532770 Z2 I-8.310483 J15.834135
G02 X109.845257 Y51.297425 Z2 I-1.536027 J3.245519
G02 X109.624980 Y51.249980 Z2 I-0.772970 J3.053638
G00 Z0.000000

(End cutting path id: path23)


(Start cutting path id: path23)
(Change tool to Default tool)

G00 Z0.000000
G00 X109.500000 Y51.249990

G01 Z2 F100.0(Penetrate)
G01 X109.625000 Y51.249990 Z2 F75.000000
G00 Z0.000000

(End cutting path id: path23)


(Start cutting path id: path23)
(Change tool to Default tool)

G00 Z0.000000
G00 X109.500000 Y58.000000

G01 Z2 F100.0(Penetrate)
G01 X110.250580 Y58.000000 Z2 F75.000000
G01 X111.250000 Y58.000000 Z2
G01 X114.375000 Y58.000000 Z2
G01 X115.374420 Y57.988800 Z2
G01 X116.125000 Y57.874990 Z2
G00 Z0.000000

(End cutting path id: path23)


(Start cutting path id: path23)
(Change tool to Default tool)

G00 Z0.000000
G00 X116.624980 Y55.624980

G01 Z2 F100.0(Penetrate)
G02 X116.450072 Y55.904561 Z2 I2.075862 J1.493179 F75.000000
G02 X116.252390 Y56.624980 Z2 I1.462765 J0.788711
G02 X116.233552 Y57.284372 Z2 I26.079805 J1.075013
G02 X116.232590 Y57.999980 Z2 I24.540818 J0.390812
G03 X116.246014 Y59.430555 Z2 I-184.442595 J2.446085
G03 X116.249990 Y60.874980 Z2 I-262.363573 J1.444425
G03 X116.236685 Y62.135884 Z2 I-59.754253 J0.000000
G02 X116.254990 Y63.374980 Z2 I17.271452 J0.364535
G01 X116.482220 Y64.195780 Z2
G01 X117.749970 Y64.521200 Z2
G02 X120.040172 Y64.675615 Z2 I3.787254 J-39.109733
G03 X121.874970 Y64.749980 Z2 I-14.583339 J382.486641
G00 Z0.000000

(End cutting path id: path23)


(Start cutting path id: path23)
(Change tool to Default tool)

G00 Z0.000000
G00 X111.874980 Y72.749980

G01 Z2 F100.0(Penetrate)
G02 X110.241371 Y71.197967 Z2 I-31.112995 J31.112995 F75.000000
G02 X109.624980 Y70.749980 Z2 I-2.419436 J2.680887
G00 Z0.000000

(End cutting path id: path23)


(Start cutting path id: path23)
(Change tool to Default tool)

G00 Z0.000000
G00 X109.499980 Y70.749980

G01 Z2 F100.0(Penetrate)
G01 X109.624980 Y70.749980 Z2 F75.000000
G00 Z0.000000

(End cutting path id: path23)


(Start cutting path id: path23)
(Change tool to Default tool)

G00 Z0.000000
G00 X145.375000 Y38.749990

G01 Z2 F100.0(Penetrate)
G02 X145.060306 Y37.994945 Z2 I-1.713705 J0.271150 F75.000000
G03 X144.750000 Y37.499990 Z2 I3.234713 J-2.372710
G00 Z0.000000

(End cutting path id: path23)


(Footer)
M5
M2
(Using default footer. To add your own footer create file "footer" in the output dir.)
(end)
%