%
(Header)
(Generated by gcodetools from Inkscape.)
(Using default header. To add your own header create file "header" in the output dir.)
M3
(Header end.)
G21 (All units in mm)

(Start cutting path id: path13)
(Change tool to Default tool)

G00 Z0.000000
G00 X144.125000 Y162.991700

G01 Z2 F100.0(Penetrate)
G02 X145.075106 Y162.741043 Z2 I-0.645429 J-4.372474 F75
G02 X145.375000 Y162.616700 Z2 I-2.471029 J-6.383521
G00 Z0.000000

(End cutting path id: path13)


(Start cutting path id: path13)
(Change tool to Default tool)

G00 Z0.000000
G00 X109.500000 Y148.991700

G01 Z2 F100.0(Penetrate)
G02 X109.738050 Y148.928403 Z2 I-1.066967 J-4.491964 F75
G02 X110.500000 Y148.645442 Z2 I-1.665766 J-5.652896
G02 X112.128826 Y147.878045 Z2 I-23.637279 J-52.283267
G02 X114.250000 Y146.740254 Z2 I-14.579244 J-29.726086
G03 X114.914269 Y146.355617 Z2 I50.459449 J86.377696
G02 X115.486500 Y145.944440 Z2 I-1.721650 J-2.999776
G02 X115.768795 Y145.612510 Z2 I-1.028741 J-1.160915
G03 X116.099920 Y145.233888 Z2 I1.379220 J0.872098
G03 X116.699681 Y144.948828 Z2 I0.849382 J1.013611
G02 X117.500000 Y144.646214 Z2 I-0.472893 J-2.460258
G02 X119.721746 Y143.064858 Z2 I-8.116529 J-13.754837
G02 X121.750000 Y141.236781 Z2 I-29.982051 J-35.304332
G02 X124.890335 Y137.957006 Z2 I-35.594040 J-37.224056
G02 X127.732350 Y134.366700 Z2 I-34.452298 J-30.191748
G02 X128.290508 Y133.557965 Z2 I-25.829734 J-18.423661
G02 X128.691550 Y132.741700 Z2 I-2.875037 J-1.919197
G02 X128.820542 Y132.299854 Z2 I-5.361297 J-1.804923
G03 X129.070020 Y131.815966 Z2 I1.145740 J0.284454
G03 X129.478699 Y131.402526 Z2 I3.115539 J2.670954
G02 X129.834490 Y130.989770 Z2 I-1.296374 J-1.477183
G02 X130.532007 Y129.756087 Z2 I-10.319033 J-6.648347
G03 X131.094040 Y128.616700 Z2 I399.274903 J196.244683
G02 X131.446365 Y127.718529 Z2 I-5.041673 J-2.495883
G02 X131.500000 Y127.491700 Z2 I-2.004410 J-0.593710
G00 Z0.000000

(End cutting path id: path13)


(Start cutting path id: path13)
(Change tool to Default tool)

G00 Z0.000000
G00 X116.000000 Y145.116700

G01 Z2 F100.0(Penetrate)
G03 X115.892022 Y144.898273 Z2 I3.464162 J-1.848393 F75
G03 X115.756750 Y144.366120 Z2 I1.401613 J-0.639555
G03 X115.741695 Y143.744351 Z2 I6.803896 J-0.475805
G02 X115.749750 Y142.991700 Z2 I-35.161540 J-0.752651
G03 X115.749857 Y141.937416 Z2 I5214.431445 J-0.428648
G02 X115.749750 Y140.741700 Z2 I-2052.231363 J-0.356389
G02 X115.746292 Y140.235618 Z2 I-39.182104 J0.014696
G02 X115.714050 Y139.741700 Z2 I-4.770816 J0.063416
G03 X115.649656 Y139.045670 Z2 I13.769242 J-1.624875
G03 X115.624350 Y138.366700 Z2 I11.380043 J-0.764101
G02 X115.615043 Y137.962029 Z2 I-12.579807 J0.086894
G03 X115.605850 Y137.491700 Z2 I12.027424 J-0.470329
G03 X115.615181 Y136.974386 Z2 I14.344894 J0.000000
G02 X115.624650 Y136.491700 Z2 I-14.660431 J-0.529038
G02 X115.625479 Y135.744094 Z2 I-122.716847 J-0.509855
G03 X115.624750 Y134.991700 Z2 I388.354924 J-0.752384
G01 X115.624750 Y133.991700 Z2
G02 X115.623431 Y133.138717 Z2 I-275.705138 J-0.000000
G03 X115.624850 Y132.366700 Z2 I78.258066 J-0.242118
G01 X115.825170 Y131.420907 Z2
G01 X116.874750 Y131.117665 Z2
G03 X118.173955 Y131.175547 Z2 I0.029125 J13.955979
G02 X119.624750 Y131.241700 Z2 I1.450795 J-15.875597
G03 X120.312522 Y131.242266 Z2 I-0.000009 J418.156398
G02 X121.124750 Y131.241605 Z2 I0.271741 J-165.213964
G02 X121.659186 Y131.227889 Z2 I-0.037409 J-11.876215
G03 X122.249750 Y131.245605 Z2 I0.182178 J3.779140
G02 X125.780052 Y131.310001 Z2 I2.122680 J-19.568256
G03 X128.246660 Y131.526567 Z2 I0.558675 J7.792056
G03 X128.638804 Y131.702084 Z2 I-0.302784 J1.202313
G03 X128.874750 Y131.866748 Z2 I-5.628076 J8.315809
G00 Z0.000000

(End cutting path id: path13)


(Start cutting path id: path13)
(Change tool to Default tool)

G00 Z0.000000
G00 X109.500000 Y137.491700

G01 Z2 F100.0(Penetrate)
G01 X110.128090 Y137.491700 Z2 F75
G01 X114.000000 Y137.491700 Z2
G01 X115.500000 Y137.491700 Z2
G00 Z0.000000

(End cutting path id: path13)


(Start cutting path id: path13)
(Change tool to Default tool)

G00 Z0.000000
G00 X122.125000 Y131.116700

G01 Z2 F100.0(Penetrate)
G01 X122.125000 Y129.366700 Z2 F75
G01 X122.125000 Y127.491700 Z2
G00 Z0.000000

(End cutting path id: path13)


(Footer)
M5
G00 X0.0000 Y0.0000
M2
(Using default footer. To add your own footer create file "footer" in the output dir.)
(end)
%