%
(Header)
(Generated by gcodetools from Inkscape.)
(Using default header. To add your own header create file "header" in the output dir.)
M3
(Header end.)
G21 (All units in mm)

(Start cutting path id: path10)
(Change tool to Default tool)

G00 Z0.000000
G00 X34.625000 Y159.491700

G01 Z2 F100.0(Penetrate)
G02 X34.459727 Y159.765233 Z2 I1.622141 J1.166821 F75
G02 X34.250580 Y160.616700 Z2 I1.776302 J0.887735
G03 X34.192389 Y161.724004 Z2 I-16.192199 J-0.295744
G02 X34.378471 Y162.609372 Z2 I1.555645 J0.135282
G01 X35.375000 Y163.114289 Z2
G03 X36.280764 Y163.213767 Z2 I-0.298300 J6.889388
G02 X37.174576 Y162.988229 Z2 I0.196192 J-1.106356
G01 X37.335262 Y161.508290 Z2
G01 X36.376831 Y160.603295 Z2
G02 X35.477407 Y159.953142 Z2 I-3.289121 J3.602969
G03 X34.715954 Y159.386279 Z2 I1.820976 J-3.240926
G03 X34.409123 Y158.834517 Z2 I0.753461 J-0.780189
G02 X34.183350 Y158.241700 Z2 I-2.051879 J0.442052
G02 X33.513150 Y157.283509 Z2 I-5.375454 J3.046344
G02 X32.713831 Y156.368628 Z2 I-35.676200 J30.363199
G02 X32.077075 Y155.864830 Z2 I-1.782353 J1.598435
G03 X31.498457 Y155.389945 Z2 I0.956752 J-1.755692
G03 X31.251702 Y154.863935 Z2 I0.878919 J-0.733189
G02 X31.030865 Y154.241700 Z2 I-2.050243 J0.377345
G02 X29.639734 Y152.115542 Z2 I-14.070701 J7.688181
G03 X28.131172 Y149.991795 Z2 I25.082134 J-19.414268
G02 X27.354374 Y149.200297 Z2 I-2.345954 J1.525450
G03 X26.695505 Y148.590079 Z2 I1.665213 J-2.458783
G03 X26.473535 Y148.129415 Z2 I0.905169 J-0.719965
G02 X26.343267 Y147.616700 Z2 I-11.360514 J2.613506
G02 X26.123679 Y147.101806 Z2 I-2.054492 J0.571914
G03 X25.860435 Y146.616700 Z2 I6.324369 J-3.745906
G03 X25.684790 Y146.109278 Z2 I1.908870 J-0.944868
G02 X25.506077 Y145.491700 Z2 I-4.208174 J0.883106
G02 X24.012741 Y142.377222 Z2 I-17.890485 J6.662911
G03 X22.410109 Y139.241700 Z2 I23.217726 J-13.844404
G03 X21.887733 Y137.919787 Z2 I21.057518 J-9.085404
G03 X21.428047 Y136.616700 Z2 I104.824099 J-37.711074
G03 X21.163326 Y135.627370 Z2 I6.775609 J-2.343075
G02 X20.828318 Y134.616700 Z2 I-4.029546 J0.774819
G02 X20.419547 Y133.778039 Z2 I-125.728161 J60.762034
G03 X19.999905 Y132.866700 Z2 I17.768866 J-8.734279
G02 X19.467753 Y131.894604 Z2 I-5.384477 J2.315903
G03 X19.045042 Y130.991700 Z2 I2.627909 J-1.780706
G03 X18.967289 Y130.339902 Z2 I1.962156 J-0.564603
G02 X18.946852 Y129.866700 Z2 I-2.758441 J-0.117909
G02 X18.850889 Y129.129139 Z2 I-1053.626768 J136.710548
G02 X18.733696 Y128.491700 Z2 I-6.171908 J0.805213
G03 X18.555534 Y127.742183 Z2 I701.064430 J-167.041051
G03 X18.499996 Y127.491700 Z2 I8.523215 J-2.021181
G00 Z0.000000

(End cutting path id: path10)


(Start cutting path id: path10)
(Change tool to Default tool)

G00 Z0.000000
G00 X26.374996 Y162.616700

G01 Z2 F100.0(Penetrate)
G01 X26.374996 Y157.241700 Z2 F75
G01 X26.575420 Y155.947043 Z2
G01 X27.999996 Y155.752889 Z2
G03 X28.566541 Y155.767316 Z2 I0.197825 J3.362659
G03 X29.124996 Y155.831019 Z2 I-7.894062 J71.683598
G02 X30.767517 Y155.758907 Z2 I0.599700 J-5.082598
G02 X31.374996 Y155.491705 Z2 I-0.325588 J-1.564365
G00 Z0.000000

(End cutting path id: path10)


(Start cutting path id: path10)
(Change tool to Default tool)

G00 Z0.000000
G00 X3.624996 Y150.116705

G01 Z2 F100.0(Penetrate)
G03 X6.656619 Y152.832433 Z2 I-15.548987 J20.407650 F75
G02 X9.749996 Y155.845486 Z2 I41.543267 J-39.556305
G02 X10.183210 Y156.220832 Z2 I9.306151 J-10.303216
G02 X10.624996 Y156.584105 Z2 I35.651255 J-42.906219
G02 X11.192722 Y157.032735 Z2 I15.968668 J-19.624268
G03 X11.749996 Y157.502989 Z2 I-4.778502 J6.228085
G03 X12.754815 Y158.483232 Z2 I-18.603512 J20.075062
G02 X13.749996 Y159.491705 Z2 I76.513370 J-74.509600
G03 X14.873182 Y160.645129 Z2 I-42.858892 J42.858892
G02 X15.999996 Y161.725020 Z2 I11.845263 J-11.232126
G02 X16.570967 Y162.135678 Z2 I2.491798 J-2.862285
G02 X17.242666 Y162.286268 Z2 I0.570768 J-0.972544
G01 X17.749418 Y161.366705 Z2
G02 X17.754970 Y160.298345 Z2 I-39.225423 J-0.738052
G03 X17.749996 Y159.116705 Z2 I140.344639 J-1.181640
G01 X17.749996 Y151.366705 Z2
G01 X17.749996 Y147.116705 Z2
G01 X19.124996 Y147.116705 Z2
G01 X22.624996 Y147.116705 Z2
G03 X23.696968 Y147.126485 Z2 I-0.000000 J58.751982
G02 X24.624996 Y147.111705 Z2 I0.247835 J-13.580911
G02 X25.450986 Y146.903693 Z2 I-0.109294 J-2.177952
G02 X25.749996 Y146.741721 Z2 I-1.372018 J-2.889810
G00 Z0.000000

(End cutting path id: path10)


(Start cutting path id: path10)
(Change tool to Default tool)

G00 Z0.000000
G00 X26.374996 Y155.741721

G01 Z2 F100.0(Penetrate)
G03 X26.217697 Y153.740900 Z2 I2473.631051 J-195.476537 F75
G03 X26.124996 Y151.366721 Z2 I30.356355 J-2.374179
G02 X26.112045 Y150.471154 Z2 I-30.971714 J-0.000000
G03 X26.132296 Y149.741721 Z2 I6.438499 J-0.186251
G03 X26.409037 Y149.013264 Z2 I1.411921 J0.119593
G03 X26.624966 Y148.741721 Z2 I4.604588 J3.439913
G00 Z0.000000

(End cutting path id: path10)


(Start cutting path id: path10)
(Change tool to Default tool)

G00 Z0.000000
G00 X11.874966 Y147.866721

G01 Z2 F100.0(Penetrate)
G01 X11.749966 Y147.741721 Z2 F75
G00 Z0.000000

(End cutting path id: path10)


(Start cutting path id: path10)
(Change tool to Default tool)

G00 Z0.000000
G00 X17.749966 Y147.116721

G01 Z2 F100.0(Penetrate)
G01 X14.124966 Y143.491721 Z2 F75
G02 X9.145687 Y138.699164 Z2 I-127.895567 J127.895567
G03 X4.124966 Y133.866721 Z2 I123.940603 J-133.793872
G00 Z0.000000

(End cutting path id: path10)


(Start cutting path id: path10)
(Change tool to Default tool)

G00 Z0.000000
G00 X5.374966 Y141.866721

G01 Z2 F100.0(Penetrate)
G01 X5.250000 Y141.741700 Z2 F75
G00 Z0.000000

(End cutting path id: path10)


(Start cutting path id: path10)
(Change tool to Default tool)

G00 Z0.000000
G00 X15.000000 Y127.491700

G01 Z2 F100.0(Penetrate)
G02 X15.085175 Y127.707753 Z2 I2.299342 J-0.781663 F75
G02 X15.513599 Y128.366895 Z2 I2.351470 J-1.059585
G02 X16.454935 Y129.385424 Z2 I31.014488 J-27.719670
G02 X17.500000 Y130.314328 Z2 I6.210545 J-5.934858
G02 X18.284538 Y130.710440 Z2 I1.495781 J-1.987557
G02 X18.875000 Y130.866700 Z2 I2.793670 J-9.362739
G00 Z0.000000

(End cutting path id: path10)


(Footer)
M5
;G00 X0.0000 Y0.0000
M2
(Using default footer. To add your own footer create file "footer" in the output dir.)
(end)
%