%
(Header)
(Generated by gcodetools from Inkscape.)
(Using default header. To add your own header create file "header" in the output dir.)
M3
(Header end.)
G21 (All units in mm)

(Start cutting path id: path15)
(Change tool to Default tool)

G00 Z0.000000
G00 X13.875000 Y126.741700

G01 Z2 F100.0(Penetrate)
G01 X11.875000 Y124.628369 Z2 F75
G01 X10.875000 Y123.847314 Z2
G01 X9.625000 Y122.743436 Z2
G01 X4.125000 Y117.491700 Z2
G00 Z0.000000

(End cutting path id: path15)


(Start cutting path id: path15)
(Change tool to Default tool)

G00 Z0.000000
G00 X18.250000 Y126.616700

G01 Z2 F100.0(Penetrate)
G02 X17.944818 Y125.219068 Z2 I-60.683507 J12.518518 F75
G03 X17.600019 Y123.616700 Z2 I54.782968 J-12.626517
G03 X16.725995 Y118.466957 Z2 I87.565829 J-17.510870
G03 X16.375000 Y113.491700 Z2 I36.116590 J-5.047970
G02 X16.325171 Y112.316885 Z2 I-14.560127 J0.029090
G02 X15.960745 Y111.572816 Z2 I-1.133902 J0.094079
G02 X15.314840 Y111.191586 Z2 I-1.219443 J1.328280
G03 X14.500000 Y110.725015 Z2 I0.765540 J-2.281794
G03 X13.013288 Y109.245345 Z2 I10.336158 J-11.872074
G02 X11.500579 Y107.616700 Z2 I-30.454706 J26.769946
G03 X11.011049 Y107.041216 Z2 I3.797866 J-3.726567
G03 X10.723573 Y106.366700 Z2 I1.290674 J-0.948600
G03 X11.672147 Y104.273955 Z2 I2.011911 J-0.349417
G02 X13.625000 Y102.741605 Z2 I-5.507274 J-9.029110
G02 X14.240163 Y102.112898 Z2 I-23.263530 J-23.377668
G03 X14.875000 Y101.579470 Z2 I2.714499 J2.586073
G03 X15.645364 Y101.217789 Z2 I1.589432 J2.384155
G03 X16.500000 Y100.991700 Z2 I4.041028 J13.547105
G03 X16.585831 Y101.548226 Z2 I-9.062210 J1.682519
G03 X16.589220 Y102.241700 Z2 I-2.933568 J0.361081
G02 X16.512346 Y103.318138 Z2 I12.951482 J1.465896
G03 X16.428052 Y104.366700 Z2 I-10.449514 J-0.312368
G02 X16.382188 Y104.951919 Z2 I5.561314 J0.730250
G02 X16.375000 Y105.491700 Z2 I21.511119 J0.556392
G03 X16.322330 Y106.378251 Z2 I-7.586284 J-0.005859
G02 X16.251833 Y107.366700 Z2 I10.538397 J1.248348
G02 X16.303537 Y109.889293 Z2 I28.043545 J0.687032
G03 X16.125000 Y111.491700 Z2 I-4.582949 J0.300526
G00 Z0.000000

(End cutting path id: path15)


(Start cutting path id: path15)
(Change tool to Default tool)

G00 Z0.000000
G00 X14.125000 Y116.116700

G01 Z2 F100.0(Penetrate)
G01 X14.250000 Y115.991700 Z2 F75
G00 Z0.000000

(End cutting path id: path15)


(Start cutting path id: path15)
(Change tool to Default tool)

G00 Z0.000000
G00 X6.125000 Y106.866700

G01 Z2 F100.0(Penetrate)
G01 X6.125000 Y106.741700 Z2 F75
G00 Z0.000000

(End cutting path id: path15)


(Start cutting path id: path15)
(Change tool to Default tool)

G00 Z0.000000
G00 X16.625000 Y100.866700

G01 Z2 F100.0(Penetrate)
G02 X16.781870 Y99.963562 Z2 I-22.988917 J-4.458236 F75
G02 X16.928433 Y98.991700 Z2 I-178.166454 J-27.365639
G03 X17.316150 Y96.608716 Z2 I83.300056 J12.330090
G03 X17.793692 Y94.241700 Z2 I50.696804 J8.996319
G03 X17.994443 Y93.356830 Z2 I773.637044 J175.050403
G02 X18.149403 Y92.616700 Z2 I-21.337415 J-4.853669
G02 X18.246124 Y91.719638 Z2 I-5.429395 J-1.039140
G02 X18.250000 Y91.491700 Z2 I-13.096343 J-0.336710
G00 Z0.000000

(End cutting path id: path15)


(Start cutting path id: path15)
(Change tool to Default tool)

G00 Z0.000000
G00 X11.750000 Y99.616700

G01 Z2 F100.0(Penetrate)
G01 X11.750000 Y99.491700 Z2 F75
G00 Z0.000000

(End cutting path id: path15)


(Start cutting path id: path15)
(Change tool to Default tool)

G00 Z0.000000
G00 X3.875000 Y96.616700

G01 Z2 F100.0(Penetrate)
G02 X5.233425 Y95.238242 Z2 I-93.484359 J-93.484291 F75
G03 X6.750000 Y93.752890 Z2 I30.411807 J29.534190
G03 X7.589724 Y93.008780 Z2 I15.381266 J16.511805
G02 X8.215181 Y92.366890 Z2 I-2.947595 J-3.497803
G02 X8.563975 Y91.706701 Z2 I-1.558166 J-1.245449
G02 X8.625000 Y91.491700 Z2 I-5.034778 J-1.545210
G00 Z0.000000

(End cutting path id: path15)


(Footer)
M5
G00 X0.0000 Y0.0000
M2
(Using default footer. To add your own footer create file "footer" in the output dir.)
(end)
%