%
(Header)
(Generated by gcodetools from Inkscape.)
(Using default header. To add your own header create file "header" in the output dir.)
M3
(Header end.)
G21 (All units in mm)

(Start cutting path id: path27)
(Change tool to Default tool)

G00 Z0.000000
G00 X73.500000 Y18.250000

G01 Z2 F100.0(Penetrate)
G02 X73.735604 Y18.223141 Z2 I-0.302879 J-3.703550 F75.000000
G02 X74.500000 Y18.081310 Z2 I-1.481375 J-10.114638
G03 X75.390518 Y17.882700 Z2 I46.083513 J204.531799
G03 X76.500000 Y17.649980 Z2 I11.634858 J52.707487
G03 X79.064500 Y17.181600 Z2 I16.283941 J81.903917
G03 X81.625000 Y16.783860 Z2 I19.467994 J116.886934
G02 X82.569220 Y16.639528 Z2 I-7.997413 J-55.479725
G02 X83.249904 Y16.488330 Z2 I-0.953297 J-5.899491
G02 X83.545422 Y16.393076 Z2 I-1.212640 J-4.268151
G02 X83.936246 Y16.153930 Z2 I-0.387525 J-1.072238
G02 X84.193292 Y15.766625 Z2 I-0.685892 J-0.734162
G03 X84.247685 Y15.622680 Z2 I8.201218 J3.016790
G02 X84.372463 Y15.269881 Z2 I-5.778827 J-2.242320
G03 X84.784722 Y14.500000 Z2 I2.299298 J0.735919
G03 X86.984331 Y12.154359 Z2 I15.769481 J12.583571
G02 X89.375000 Y9.875000 Z2 I-46.618776 J-51.288735
G02 X90.192303 Y9.010844 Z2 I-15.095002 J-15.095151
G03 X91.250000 Y8.509740 Z2 I1.123657 J1.004930
G03 X92.239643 Y8.881736 Z2 I0.058963 J1.345539
G03 X93.000000 Y9.625000 Z2 I-32.984850 J34.503955
G03 X94.747489 Y11.377283 Z2 I-547.865933 J548.114432
G02 X96.500000 Y13.124520 Z2 I196.158122 J-194.997738
G02 X97.345879 Y13.876324 Z2 I7.531571 J-7.622250
G03 X98.037230 Y14.625480 Z2 I-2.103713 J2.634971
G03 X98.330868 Y15.283566 Z2 I-1.726813 J1.165057
G02 X98.688753 Y15.971550 Z2 I1.623170 J-0.407286
G02 X99.465655 Y16.410080 Z2 I1.001621 J-0.867032
G02 X100.500000 Y16.571950 Z2 I5.835190 J-33.900988
G03 X103.374846 Y16.981223 Z2 I-145.949591 J1035.491642
G03 X106.250000 Y17.475020 Z2 I-7.608954 J52.920707
G03 X107.469164 Y17.721527 Z2 I-57.287323 J286.466848
G02 X108.375000 Y17.899500 Z2 I12.114215 J-59.264107
G02 X109.127168 Y17.990665 Z2 I1.068280 J-5.665493
G02 X109.375000 Y18.000000 Z2 I0.395167 J-7.196315
G00 Z0.000000

(End cutting path id: path27)


(Start cutting path id: path27)
(Change tool to Default tool)

G00 Z0.000000
G00 X102.875000 Y14.375000

G01 Z2 F100.0(Penetrate)
G01 X103.000000 Y14.375000 Z2 F75.000000
G00 Z0.000000

(End cutting path id: path27)


(Start cutting path id: path27)
(Change tool to Default tool)

G00 Z0.000000
G00 X98.125000 Y8.125000

G01 Z2 F100.0(Penetrate)
G01 X98.125000 Y8.000000 Z2 F75.000000
G00 Z0.000000

(End cutting path id: path27)


(Start cutting path id: path27)
(Change tool to Default tool)

G00 Z0.000000
G00 X95.625000 Y6.000000

G01 Z2 F100.0(Penetrate)
G01 X95.750000 Y6.000000 Z2 F75.000000
G00 Z0.000000

(End cutting path id: path27)


(Start cutting path id: path27)
(Change tool to Default tool)

G00 Z0.000000
G00 X92.125000 Y4.250000

G01 Z2 F100.0(Penetrate)
G01 X92.500000 Y4.375000 Z2 F75.000000
G00 Z0.000000

(End cutting path id: path27)


(Start cutting path id: path27)
(Change tool to Default tool)

G00 Z0.000000
G00 X89.250000 Y5.750000

G01 Z2 F100.0(Penetrate)
G01 X89.375000 Y5.750000 Z2 F75.000000
G00 Z0.000000

(End cutting path id: path27)


(Start cutting path id: path27)
(Change tool to Default tool)

G00 Z0.000000
G00 X86.875000 Y7.625000

G01 Z2 F100.0(Penetrate)
G01 X87.000000 Y7.625000 Z2 F75.000000
G00 Z0.000000

(End cutting path id: path27)


(Start cutting path id: path27)
(Change tool to Default tool)

G00 Z0.000000
G00 X83.750000 Y10.375000

G01 Z2 F100.0(Penetrate)
G01 X83.875000 Y10.250000 Z2 F75.000000
G00 Z0.000000

(End cutting path id: path27)


(Start cutting path id: path27)
(Change tool to Default tool)

G00 Z0.000000
G00 X80.375000 Y13.625000

G01 Z2 F100.0(Penetrate)
G01 X80.500000 Y13.625000 Z2 F75.000000
G00 Z0.000000

(End cutting path id: path27)


(Start cutting path id: path27)
(Change tool to Default tool)

G00 Z0.000000
G00 X84.250000 Y16.375000

G01 Z2 F100.0(Penetrate)
G02 X84.849691 Y16.329252 Z2 I-0.116898 J-5.485764 F75.000000
G03 X86.000000 Y16.250100 Z2 I1.209880 J9.184851
G02 X86.496133 Y16.239484 Z2 I-0.089420 J-15.777730
G02 X87.000000 Y16.196900 Z2 I-0.198894 J-5.355607
G03 X87.573318 Y16.142029 Z2 I1.065932 J8.114801
G03 X88.125000 Y16.125000 Z2 I0.565695 J9.381674
G03 X88.558092 Y16.124824 Z2 I0.289712 J179.777827
G02 X89.000000 Y16.125000 Z2 I0.441799 J-554.048252
G01 X92.750000 Y16.125000 Z2
G01 X94.750000 Y16.125000 Z2
G02 X95.240058 Y16.124312 Z2 I-0.000000 J-174.653287
G03 X95.750000 Y16.125100 Z2 I0.164456 J58.610773
G03 X97.575845 Y16.212344 Z2 I-0.099073 J21.222651
G02 X98.625000 Y16.000000 Z2 I0.169466 J-1.860716
G00 Z0.000000

(End cutting path id: path27)


(Start cutting path id: path27)
(Change tool to Default tool)

G00 Z0.000000
G00 X102.250000 Y3.375000

G01 Z2 F100.0(Penetrate)
G02 X104.502651 Y5.484199 Z2 I12.065596 J-10.628679 F75.000000
G03 X106.875000 Y7.412520 Z2 I-35.743294 J46.397254
G03 X107.636869 Y8.137620 Z2 I-6.577395 J7.673733
G02 X108.375000 Y8.868150 Z2 I11.601174 J-10.983704
G02 X109.133487 Y9.392685 Z2 I2.204786 J-2.377497
G02 X109.375000 Y9.500000 Z2 I1.333740 J-2.676180
G00 Z0.000000

(End cutting path id: path27)


(Start cutting path id: path27)
(Change tool to Default tool)

G00 Z0.000000
G00 X73.500000 Y9.500000

G01 Z2 F100.0(Penetrate)
G02 X73.728335 Y9.409283 Z2 I-0.784934 J-2.308405 F75.000000
G02 X74.375193 Y8.986400 Z2 I-1.071563 J-2.345274
G02 X75.076209 Y8.286004 Z2 I-5.946100 J-6.652375
G03 X75.896219 Y7.375000 Z2 I175.642402 J157.274209
G03 X77.798478 Y5.477152 Z2 I19.512855 J17.655941
G02 X79.750000 Y3.625000 Z2 I-34.470818 J-38.274406
G00 Z0.000000

(End cutting path id: path27)


(Footer)
M5
M2
(Using default footer. To add your own footer create file "footer" in the output dir.)
(end)
%