%
(Header)
(Generated by gcodetools from Inkscape.)
(Using default header. To add your own header create file "header" in the output dir.)
M3
(Header end.)
G21 (All units in mm)

(Start cutting path id: path27)
(Change tool to Default tool)

G00 Z0.000000
G00 X73.500000 Y36.241700

G01 Z2 F100.0(Penetrate)
G02 X73.735604 Y36.214841 Z2 I-0.302879 J-3.703550 F75
G02 X74.500000 Y36.073010 Z2 I-1.481375 J-10.114638
G03 X75.390518 Y35.874400 Z2 I46.083513 J204.531799
G03 X76.500000 Y35.641680 Z2 I11.634858 J52.707487
G03 X79.064500 Y35.173300 Z2 I16.283941 J81.903917
G03 X81.625000 Y34.775560 Z2 I19.467994 J116.886934
G02 X82.569220 Y34.631228 Z2 I-7.997413 J-55.479725
G02 X83.249904 Y34.480030 Z2 I-0.953297 J-5.899491
G02 X83.545422 Y34.384776 Z2 I-1.212640 J-4.268151
G02 X83.936246 Y34.145630 Z2 I-0.387525 J-1.072238
G02 X84.193292 Y33.758325 Z2 I-0.685892 J-0.734162
G03 X84.247685 Y33.614380 Z2 I8.201218 J3.016790
G02 X84.372463 Y33.261581 Z2 I-5.778827 J-2.242320
G03 X84.784722 Y32.491700 Z2 I2.299298 J0.735919
G03 X86.984331 Y30.146059 Z2 I15.769481 J12.583571
G02 X89.375000 Y27.866700 Z2 I-46.618776 J-51.288735
G02 X90.192303 Y27.002544 Z2 I-15.095002 J-15.095151
G03 X91.250000 Y26.501440 Z2 I1.123657 J1.004930
G03 X92.239643 Y26.873436 Z2 I0.058963 J1.345539
G03 X93.000000 Y27.616700 Z2 I-32.984850 J34.503955
G03 X94.747489 Y29.368983 Z2 I-547.865933 J548.114432
G02 X96.500000 Y31.116220 Z2 I196.158122 J-194.997738
G02 X97.345879 Y31.868024 Z2 I7.531571 J-7.622250
G03 X98.037230 Y32.617180 Z2 I-2.103713 J2.634971
G03 X98.330868 Y33.275266 Z2 I-1.726813 J1.165057
G02 X98.688753 Y33.963250 Z2 I1.623170 J-0.407286
G02 X99.465655 Y34.401780 Z2 I1.001621 J-0.867032
G02 X100.500000 Y34.563650 Z2 I5.835190 J-33.900988
G03 X103.374846 Y34.972923 Z2 I-145.949591 J1035.491642
G03 X106.250000 Y35.466720 Z2 I-7.608954 J52.920707
G03 X107.469164 Y35.713227 Z2 I-57.287323 J286.466848
G02 X108.375000 Y35.891200 Z2 I12.114215 J-59.264107
G02 X109.127168 Y35.982365 Z2 I1.068280 J-5.665493
G02 X109.375000 Y35.991700 Z2 I0.395167 J-7.196315
G00 Z0.000000

(End cutting path id: path27)


(Start cutting path id: path27)
(Change tool to Default tool)

G00 Z0.000000
G00 X84.250000 Y34.366700

G01 Z2 F100.0(Penetrate)
G02 X84.849691 Y34.320952 Z2 I-0.116898 J-5.485764 F75
G03 X86.000000 Y34.241800 Z2 I1.209880 J9.184851
G02 X86.496133 Y34.231184 Z2 I-0.089420 J-15.777730
G02 X87.000000 Y34.188600 Z2 I-0.198894 J-5.355607
G03 X87.573318 Y34.133729 Z2 I1.065932 J8.114801
G03 X88.125000 Y34.116700 Z2 I0.565695 J9.381674
G03 X88.558092 Y34.116524 Z2 I0.289712 J179.777827
G02 X89.000000 Y34.116700 Z2 I0.441799 J-554.048252
G01 X92.750000 Y34.116700 Z2
G01 X94.750000 Y34.116700 Z2
G02 X95.240058 Y34.116012 Z2 I-0.000000 J-174.653287
G03 X95.750000 Y34.116800 Z2 I0.164456 J58.610773
G03 X97.575845 Y34.204044 Z2 I-0.099073 J21.222651
G02 X98.625000 Y33.991700 Z2 I0.169466 J-1.860716
G00 Z0.000000

(End cutting path id: path27)


(Start cutting path id: path27)
(Change tool to Default tool)

G00 Z0.000000
G00 X102.875000 Y32.366700

G01 Z2 F100.0(Penetrate)
G01 X103.000000 Y32.366700 Z2 F75
G00 Z0.000000

(End cutting path id: path27)


(Start cutting path id: path27)
(Change tool to Default tool)

G00 Z0.000000
G00 X80.375000 Y31.616700

G01 Z2 F100.0(Penetrate)
G01 X80.500000 Y31.616700 Z2 F75
G00 Z0.000000

(End cutting path id: path27)


(Start cutting path id: path27)
(Change tool to Default tool)

G00 Z0.000000
G00 X83.750000 Y28.366700

G01 Z2 F100.0(Penetrate)
G01 X83.875000 Y28.241700 Z2 F75
G00 Z0.000000

(End cutting path id: path27)


(Start cutting path id: path27)
(Change tool to Default tool)

G00 Z0.000000
G00 X73.500000 Y27.491700

G01 Z2 F100.0(Penetrate)
G02 X73.728335 Y27.400983 Z2 I-0.784934 J-2.308405 F75
G02 X74.375193 Y26.978100 Z2 I-1.071563 J-2.345274
G02 X75.076209 Y26.277704 Z2 I-5.946100 J-6.652375
G03 X75.896219 Y25.366700 Z2 I175.642402 J157.274209
G03 X77.798478 Y23.468852 Z2 I19.512855 J17.655941
G02 X79.750000 Y21.616700 Z2 I-34.470818 J-38.274406
G00 Z0.000000

(End cutting path id: path27)


(Start cutting path id: path27)
(Change tool to Default tool)

G00 Z0.000000
G00 X102.250000 Y21.366700

G01 Z2 F100.0(Penetrate)
G02 X104.502651 Y23.475899 Z2 I12.065596 J-10.628679 F75
G03 X106.875000 Y25.404220 Z2 I-35.743294 J46.397254
G03 X107.636869 Y26.129320 Z2 I-6.577395 J7.673733
G02 X108.375000 Y26.859850 Z2 I11.601174 J-10.983704
G02 X109.133487 Y27.384385 Z2 I2.204786 J-2.377497
G02 X109.375000 Y27.491700 Z2 I1.333740 J-2.676180
G00 Z0.000000

(End cutting path id: path27)


(Start cutting path id: path27)
(Change tool to Default tool)

G00 Z0.000000
G00 X98.125000 Y26.116700

G01 Z2 F100.0(Penetrate)
G01 X98.125000 Y25.991700 Z2 F75
G00 Z0.000000

(End cutting path id: path27)


(Start cutting path id: path27)
(Change tool to Default tool)

G00 Z0.000000
G00 X86.875000 Y25.616700

G01 Z2 F100.0(Penetrate)
G01 X87.000000 Y25.616700 Z2 F75
G00 Z0.000000

(End cutting path id: path27)


(Start cutting path id: path27)
(Change tool to Default tool)

G00 Z0.000000
G00 X95.625000 Y23.991700

G01 Z2 F100.0(Penetrate)
G01 X95.750000 Y23.991700 Z2 F75
G00 Z0.000000

(End cutting path id: path27)


(Start cutting path id: path27)
(Change tool to Default tool)

G00 Z0.000000
G00 X89.250000 Y23.741700

G01 Z2 F100.0(Penetrate)
G01 X89.375000 Y23.741700 Z2 F75
G00 Z0.000000

(End cutting path id: path27)


(Start cutting path id: path27)
(Change tool to Default tool)

G00 Z0.000000
G00 X92.125000 Y22.241700

G01 Z2 F100.0(Penetrate)
G01 X92.500000 Y22.366700 Z2 F75
G00 Z0.000000

(End cutting path id: path27)


(Footer)
M5
;G00 X0.0000 Y0.0000
M2
(Using default footer. To add your own footer create file "footer" in the output dir.)
(end)
%