%
(Header)
(Generated by gcodetools from Inkscape.)
(Using default header. To add your own header create file "header" in the output dir.)
M3
(Header end.)
G21 (All units in mm)

(Start cutting path id: path15)
(Change tool to Default tool)

G00 Z0.000000
G00 X13.875000 Y108.750000

G01 Z2 F100.0(Penetrate)
G01 X11.875000 Y106.636669 Z2 F75.000000
G01 X10.875000 Y105.855614 Z2
G01 X9.625000 Y104.751736 Z2
G01 X4.125000 Y99.500000 Z2
G00 Z0.000000

(End cutting path id: path15)


(Start cutting path id: path15)
(Change tool to Default tool)

G00 Z0.000000
G00 X18.250000 Y108.625000

G01 Z2 F100.0(Penetrate)
G02 X17.944818 Y107.227368 Z2 I-60.683507 J12.518518 F75.000000
G03 X17.600019 Y105.625000 Z2 I54.782968 J-12.626517
G03 X16.725995 Y100.475257 Z2 I87.565829 J-17.510870
G03 X16.375000 Y95.500000 Z2 I36.116590 J-5.047970
G02 X16.325171 Y94.325185 Z2 I-14.560127 J0.029090
G02 X15.960745 Y93.581116 Z2 I-1.133902 J0.094079
G02 X15.314840 Y93.199886 Z2 I-1.219443 J1.328280
G03 X14.500000 Y92.733315 Z2 I0.765540 J-2.281794
G03 X13.013288 Y91.253645 Z2 I10.336158 J-11.872074
G02 X11.500579 Y89.625000 Z2 I-30.454706 J26.769946
G03 X11.011049 Y89.049516 Z2 I3.797866 J-3.726567
G03 X10.723573 Y88.375000 Z2 I1.290674 J-0.948600
G03 X11.672147 Y86.282255 Z2 I2.011911 J-0.349417
G02 X13.625000 Y84.749905 Z2 I-5.507274 J-9.029110
G02 X14.240163 Y84.121198 Z2 I-23.263530 J-23.377668
G03 X14.875000 Y83.587770 Z2 I2.714499 J2.586073
G03 X15.645364 Y83.226089 Z2 I1.589432 J2.384155
G03 X16.500000 Y83.000000 Z2 I4.041028 J13.547105
G03 X16.585831 Y83.556526 Z2 I-9.062210 J1.682519
G03 X16.589220 Y84.250000 Z2 I-2.933568 J0.361081
G02 X16.512346 Y85.326438 Z2 I12.951482 J1.465896
G03 X16.428052 Y86.375000 Z2 I-10.449514 J-0.312368
G02 X16.382188 Y86.960219 Z2 I5.561314 J0.730250
G02 X16.375000 Y87.500000 Z2 I21.511119 J0.556392
G03 X16.322330 Y88.386551 Z2 I-7.586284 J-0.005859
G02 X16.251833 Y89.375000 Z2 I10.538397 J1.248348
G02 X16.303537 Y91.897593 Z2 I28.043545 J0.687032
G03 X16.125000 Y93.500000 Z2 I-4.582949 J0.300526
G00 Z0.000000

(End cutting path id: path15)


(Start cutting path id: path15)
(Change tool to Default tool)

G00 Z0.000000
G00 X14.125000 Y98.125000

G01 Z2 F100.0(Penetrate)
G01 X14.250000 Y98.000000 Z2 F75.000000
G00 Z0.000000

(End cutting path id: path15)


(Start cutting path id: path15)
(Change tool to Default tool)

G00 Z0.000000
G00 X6.125000 Y88.875000

G01 Z2 F100.0(Penetrate)
G01 X6.125000 Y88.750000 Z2 F75.000000
G00 Z0.000000

(End cutting path id: path15)


(Start cutting path id: path15)
(Change tool to Default tool)

G00 Z0.000000
G00 X16.625000 Y82.875000

G01 Z2 F100.0(Penetrate)
G02 X16.781870 Y81.971862 Z2 I-22.988917 J-4.458236 F75.000000
G02 X16.928433 Y81.000000 Z2 I-178.166454 J-27.365639
G03 X17.316150 Y78.617016 Z2 I83.300056 J12.330090
G03 X17.793692 Y76.250000 Z2 I50.696804 J8.996319
G03 X17.994443 Y75.365130 Z2 I773.637044 J175.050403
G02 X18.149403 Y74.625000 Z2 I-21.337415 J-4.853669
G02 X18.246124 Y73.727938 Z2 I-5.429395 J-1.039140
G02 X18.250000 Y73.500000 Z2 I-13.096343 J-0.336710
G00 Z0.000000

(End cutting path id: path15)


(Start cutting path id: path15)
(Change tool to Default tool)

G00 Z0.000000
G00 X11.750000 Y81.625000

G01 Z2 F100.0(Penetrate)
G01 X11.750000 Y81.500000 Z2 F75.000000
G00 Z0.000000

(End cutting path id: path15)


(Start cutting path id: path15)
(Change tool to Default tool)

G00 Z0.000000
G00 X3.875000 Y78.625000

G01 Z2 F100.0(Penetrate)
G02 X5.233425 Y77.246542 Z2 I-93.484359 J-93.484291 F75.000000
G03 X6.750000 Y75.761190 Z2 I30.411807 J29.534190
G03 X7.589724 Y75.017080 Z2 I15.381266 J16.511805
G02 X8.215181 Y74.375190 Z2 I-2.947595 J-3.497803
G02 X8.563975 Y73.715001 Z2 I-1.558166 J-1.245449
G02 X8.625000 Y73.500000 Z2 I-5.034778 J-1.545210
G00 Z0.000000

(End cutting path id: path15)


(Footer)
M5
M2
(Using default footer. To add your own footer create file "footer" in the output dir.)
(end)
%