%
(Header)
(Generated by gcodetools from Inkscape.)
(Using default header. To add your own header create file "header" in the output dir.)
M3
(Header end.)
G21 (All units in mm)

(Start cutting path id: path20)
(Change tool to Default tool)

G00 Z0.000000
G00 X9.875000 Y72.750000

G01 Z2 F100.0(Penetrate)
G02 X10.545435 Y72.071555 Z2 I-56.742363 J-56.742880 F75.000000
G03 X11.248167 Y71.421870 Z2 I6.704597 J6.547137
G02 X11.921188 Y70.819102 Z2 I-8.200937 J-9.833870
G02 X12.625483 Y70.125000 Z2 I-27.557079 J-28.666147
G03 X15.326358 Y67.432708 Z2 I201.102020 J199.042188
G02 X17.998167 Y64.750000 Z2 I-128.063052 J-130.214638
G02 X18.680359 Y63.998422 Z2 I-10.106839 J-9.859173
G03 X19.375483 Y63.252320 Z2 I7.962335 J6.721431
G03 X20.630016 Y62.509091 Z2 I2.165958 J2.225619
G02 X21.618248 Y61.965280 Z2 I-0.812305 J-2.645978
G02 X22.581459 Y60.844385 Z2 I-3.161369 J-3.690941
G02 X23.262056 Y59.625000 Z2 I-12.310084 J-7.670472
G03 X24.284317 Y57.570220 Z2 I1407.594464 J699.002248
G03 X25.406925 Y55.375000 Z2 I106.741119 J53.201401
G03 X25.973587 Y54.355170 Z2 I21.425384 J11.237538
G02 X26.431616 Y53.375000 Z2 I-4.961698 J-2.915680
G02 X26.603500 Y52.611515 Z2 I-3.038768 J-1.085210
G03 X26.948593 Y51.801790 Z2 I1.467572 J0.147059
G03 X27.581567 Y51.251320 Z2 I2.148552 J1.831418
G02 X28.244984 Y50.624900 Z2 I-1.296496 J-2.037578
G02 X29.268022 Y49.136127 Z2 I-33.360909 J-24.020446
G03 X30.302662 Y47.625000 Z2 I37.766319 J24.748129
G03 X32.083398 Y45.299594 Z2 I36.251333 J25.915808
G02 X33.887634 Y43.000000 Z2 I-53.540482 J-43.864867
G02 X34.337916 Y42.290860 Z2 I-4.287064 J-3.219678
G02 X34.582081 Y41.750000 Z2 I-4.146683 J-2.197518
G02 X34.685023 Y41.467543 Z2 I-12.445992 J-4.695951
G03 X34.938751 Y41.028070 Z2 I1.298426 J0.456660
G03 X35.388408 Y40.693699 Z2 I0.964135 J0.827024
G02 X35.749905 Y40.531830 Z2 I-20.059851 J-45.283543
G02 X36.960327 Y39.823664 Z2 I-2.776200 J-6.133710
G03 X37.375000 Y39.625000 Z2 I0.732558 J0.996965
G00 Z0.000000

(End cutting path id: path20)


(Start cutting path id: path20)
(Change tool to Default tool)

G00 Z0.000000
G00 X18.625000 Y72.500000

G01 Z2 F100.0(Penetrate)
G01 X20.541666 Y66.375000 Z2 F75.000000
G01 X21.390818 Y63.750000 Z2
G01 X21.625000 Y62.250000 Z2
G00 Z0.000000

(End cutting path id: path20)


(Start cutting path id: path20)
(Change tool to Default tool)

G00 Z0.000000
G00 X4.000000 Y61.500000

G01 Z2 F100.0(Penetrate)
G03 X6.533690 Y59.001267 Z2 I181.122630 J181.122586 F75.000000
G03 X9.250482 Y56.370080 Z2 I623.980800 J641.563679
G03 X10.073681 Y55.621929 Z2 I13.044399 J13.525925
G03 X10.875000 Y55.001830 Z2 I6.661409 J7.780371
G03 X11.526896 Y54.573405 Z2 I8.061252 J11.555894
G02 X12.125000 Y54.118150 Z2 I-2.043336 J-3.305009
G02 X13.237751 Y53.030047 Z2 I-19.796502 J-21.357962
G03 X14.375000 Y51.875000 Z2 I74.971958 J72.679356
G03 X15.965326 Y50.360290 Z2 I31.895864 J31.895930
G02 X17.497685 Y48.875000 Z2 I-21.663270 J-23.882885
G02 X17.966699 Y48.283906 Z2 I-2.797983 J-2.701730
G03 X18.516108 Y47.825420 Z2 I1.011155 J0.653254
G03 X19.033532 Y47.735442 Z2 I0.458530 J1.104083
G02 X19.625000 Y47.750020 Z2 I0.591468 J-11.991810
G03 X21.833475 Y47.811332 Z2 I0.002303 J39.718672
G02 X24.125000 Y47.875020 Z2 I2.291631 J-41.193541
G02 X24.717926 Y47.874734 Z2 I0.000244 J-613.696326
G03 X25.250000 Y47.875020 Z2 I0.170822 J176.829480
G01 X26.174576 Y48.003490 Z2
G03 X26.532028 Y49.041025 Z2 I-0.632140 J0.798127
G02 X26.377411 Y50.625020 Z2 I5.540336 J1.340348
G02 X26.665624 Y51.477749 Z2 I1.609299 J-0.068855
G02 X26.875000 Y51.750020 Z2 I3.034087 J-2.116567
G00 Z0.000000

(End cutting path id: path20)


(Start cutting path id: path20)
(Change tool to Default tool)

G00 Z0.000000
G00 X26.375000 Y47.750020

G01 Z2 F100.0(Penetrate)
G02 X26.374658 Y44.903254 Z2 I-11833.621681 J0.201780 F75.000000
G03 X26.375000 Y41.625020 Z2 I4750.820489 J-1.171127
G01 X26.575424 Y40.450440 Z2
G01 X27.875000 Y40.250020 Z2
G03 X30.314258 Y40.312527 Z2 I0.003090 J47.509350
G02 X32.750000 Y40.375020 Z2 I2.435641 J-47.436581
G03 X34.151427 Y40.584373 Z2 I0.000000 J4.795322
G03 X34.875000 Y41.000020 Z2 I-0.546929 J1.789745
G00 Z0.000000

(End cutting path id: path20)


(Start cutting path id: path20)
(Change tool to Default tool)

G00 Z0.000000
G00 X18.125000 Y47.625020

G01 Z2 F100.0(Penetrate)
G01 X18.125000 Y40.875020 Z2 F75.000000
G01 X18.125000 Y38.250600 Z2
G01 X18.125000 Y37.500020 Z2
G00 Z0.000000

(End cutting path id: path20)


(Start cutting path id: path20)
(Change tool to Default tool)

G00 Z0.000000
G00 X4.125000 Y46.375020

G01 Z2 F100.0(Penetrate)
G03 X6.775152 Y43.727380 Z2 I2791.835708 J2791.834591 F75.000000
G02 X9.339313 Y41.000020 Z2 I-41.612962 J-41.691985
G03 X10.314683 Y39.914663 Z2 I58.867628 J51.921220
G02 X11.114969 Y39.000020 Z2 I-19.869319 J-18.192495
G02 X12.028683 Y37.838223 Z2 I-19.018512 J-15.897629
G02 X12.250000 Y37.500020 Z2 I-2.844441 J-2.102886
G00 Z0.000000

(End cutting path id: path20)


(Start cutting path id: path20)
(Change tool to Default tool)

G00 Z0.000000
G00 X34.375000 Y40.250020

G01 Z2 F100.0(Penetrate)
G01 X34.250095 Y39.250020 Z2 F75.000000
G01 X34.250000 Y38.250600 Z2
G01 X34.250000 Y37.500000 Z2
G00 Z0.000000

(End cutting path id: path20)


(Start cutting path id: path20)
(Change tool to Default tool)

G00 Z0.000000
G00 X26.375000 Y40.125000

G01 Z2 F100.0(Penetrate)
G01 X26.251833 Y39.249810 Z2 F75.000000
G01 X26.250033 Y38.250580 Z2
G01 X26.250033 Y37.500000 Z2
G00 Z0.000000

(End cutting path id: path20)


(Start cutting path id: path20)
(Change tool to Default tool)

G00 Z0.000000
G00 X4.750033 Y38.750000

G01 Z2 F100.0(Penetrate)
G01 X4.750033 Y38.625000 Z2 F75.000000
G00 Z0.000000

(End cutting path id: path20)


(Footer)
M5
M2
(Using default footer. To add your own footer create file "footer" in the output dir.)
(end)
%