%
(Header)
(Generated by gcodetools from Inkscape.)
(Using default header. To add your own header create file "header" in the output dir.)
M3
(Header end.)
G21 (All units in mm)

(Start cutting path id: path21)
(Change tool to Default tool)

G00 Z0.000000
G00 X60.375000 Y83.241700

G01 Z2 F100.0(Penetrate)
G02 X59.454618 Y83.012207 Z2 I-0.917486 J1.719232 F75
G03 X58.250000 Y82.989290 Z2 I-0.043659 J-29.377137
G03 X57.699058 Y82.870845 Z2 I0.065012 J-1.642963
G02 X57.000000 Y82.836130 Z2 I-0.399493 J0.988765
G02 X56.249770 Y83.348284 Z2 I0.412694 J1.410102
G02 X55.549961 Y84.366700 Z2 I8.820136 J6.810439
G03 X54.209121 Y86.499716 Z2 I-73.652451 J-44.810891
G02 X53.057966 Y88.741700 Z2 I10.435925 J6.774888
G02 X52.809141 Y89.491339 Z2 I7.020095 J2.746276
G02 X52.794657 Y90.109370 Z2 I1.230606 J0.338025
G01 X53.377411 Y90.598180 Z2
G02 X53.616308 Y90.617193 Z2 I0.235534 J-1.449093
G03 X54.125000 Y90.616680 Z2 I0.454389 J198.351142
G03 X54.868732 Y90.627819 Z2 I-0.011570 J25.606235
G03 X55.625000 Y90.688680 Z2 I-0.220363 J7.467474
G02 X57.244641 Y90.768200 Z2 I1.296630 J-9.875457
G03 X58.875000 Y90.741680 Z2 I1.635091 J50.392384
G01 X60.174576 Y90.541260 Z2
G01 X60.375000 Y89.116680 Z2
G01 X60.375000 Y84.991680 Z2
G02 X60.372973 Y84.467162 Z2 I-67.866395 J-0.000000
G03 X60.375578 Y83.991680 Z2 I18.001039 J-0.139129
G01 X60.503473 Y83.281420 Z2
G01 X62.000000 Y82.991700 Z2
G02 X63.348413 Y82.931649 Z2 I-0.000000 J-15.168942
G03 X64.625000 Y82.867180 Z2 I1.474000 J16.516094
G03 X65.638655 Y82.893792 Z2 I0.151553 J13.546019
G02 X66.596451 Y82.615540 Z2 I0.093473 J-1.465833
G01 X67.000095 Y80.866700 Z2
G03 X67.064173 Y79.004263 Z2 I31.495630 J0.151293
G02 X67.125000 Y77.116700 Z2 I-29.670495 J-1.900905
G01 X67.253473 Y76.052660 Z2
G01 X68.500000 Y75.866700 Z2
G02 X70.645940 Y75.867158 Z2 I1.398549 J-1515.100090
G03 X72.499809 Y75.866700 Z2 I1.840287 J3748.520978
G01 X73.375000 Y75.866700 Z2
G00 Z0.000000

(End cutting path id: path21)


(Start cutting path id: path21)
(Change tool to Default tool)

G00 Z0.000000
G00 X70.500000 Y90.741700

G01 Z2 F100.0(Penetrate)
G02 X71.701406 Y89.506113 Z2 I-43.439778 J-43.439944 F75
G03 X72.624420 Y88.651420 Z2 I6.881667 J6.506018
G03 X73.162110 Y88.328571 Z2 I1.416179 J1.749409
G03 X73.375000 Y88.241700 Z2 I3.316653 J7.823619
G00 Z0.000000

(End cutting path id: path21)


(Start cutting path id: path21)
(Change tool to Default tool)

G00 Z0.000000
G00 X57.250000 Y82.491700

G01 Z2 F100.0(Penetrate)
G03 X57.827280 Y81.399892 Z2 I7.346995 J3.186114 F75
G03 X59.271122 Y79.491700 Z2 I12.028325 J7.600944
G03 X62.147540 Y76.442016 Z2 I64.346649 J57.809489
G03 X65.375000 Y73.801590 Z2 I14.176476 J14.035552
G03 X65.962226 Y73.488086 Z2 I2.019132 J3.075328
G03 X66.499422 Y73.353970 Z2 I0.697412 J1.650535
G01 X67.174576 Y73.749510 Z2
G03 X67.306686 Y74.803765 Z2 I-1.884840 J0.771596
G02 X67.250000 Y75.616700 Z2 I5.800822 J0.812935
G00 Z0.000000

(End cutting path id: path21)


(Start cutting path id: path21)
(Change tool to Default tool)

G00 Z0.000000
G00 X67.000000 Y73.116700

G01 Z2 F100.0(Penetrate)
G03 X68.308617 Y71.660993 Z2 I2.889949 J1.281891 F75
G03 X70.625000 Y70.349340 Z2 I77.608156 J134.355002
G02 X71.490306 Y69.863792 Z2 I-51.304162 J-92.444183
G03 X72.250000 Y69.469710 Z2 I5.629900 J9.923773
G03 X73.143070 Y69.176268 Z2 I1.628064 J3.449174
G02 X73.375000 Y69.116700 Z2 I-0.401592 J-2.044922
G00 Z0.000000

(End cutting path id: path21)


(Start cutting path id: path21)
(Change tool to Default tool)

G00 Z0.000000
G00 X37.500000 Y56.616700

G01 Z2 F100.0(Penetrate)
G01 X38.198110 Y56.189810 Z2 F75
G01 X38.625000 Y55.491700 Z2
G00 Z0.000000

(End cutting path id: path21)


(Footer)
M5
;G00 X0.0000 Y0.0000
M2
(Using default footer. To add your own footer create file "footer" in the output dir.)
(end)
%