%
(Header)
(Generated by gcodetools from Inkscape.)
(Using default header. To add your own header create file "header" in the output dir.)
M3
(Header end.)
G21 (All units in mm)

(Start cutting path id: path26)
(Change tool to Default tool)

G00 Z0.000000
G00 X39.875000 Y36.625000

G01 Z2 F100.0(Penetrate)
G02 X41.316917 Y35.508406 Z2 I-11.611193 J-16.483467 F75.000000
G02 X42.808449 Y33.988810 Z2 I-7.621830 J-8.972857
G02 X43.237241 Y33.204761 Z2 I-1.879604 J-1.537221
G03 X43.766686 Y32.511090 Z2 I1.256099 J0.409834
G03 X44.289041 Y32.288382 Z2 I0.875529 J1.329591
G02 X44.625000 Y32.201770 Z2 I-1.345631 J-5.914428
G02 X45.162921 Y31.993565 Z2 I-0.905537 J-3.138550
G02 X45.875000 Y31.571860 Z2 I-2.377780 J-4.827099
G02 X48.419483 Y29.771272 Z2 I-214.277332 J-305.501913
G03 X51.000000 Y28.000390 Z2 I48.950194 J68.564313
G03 X52.751162 Y26.923693 Z2 I17.903995 J27.157007
G02 X54.499517 Y25.891880 Z2 I-37.357614 J-65.297759
G02 X55.182521 Y25.226460 Z2 I-1.107404 J-1.819905
G03 X55.776621 Y24.592300 Z2 I2.038839 J1.314678
G03 X56.925417 Y24.159541 Z2 I1.333553 J1.798861
G02 X58.375000 Y23.802570 Z2 I-0.389343 J-4.702751
G02 X60.145889 Y22.987808 Z2 I-12.296005 J-29.057314
G02 X61.500000 Y22.193000 Z2 I-5.101049 J-10.241540
G02 X62.096392 Y21.766292 Z2 I-9.581615 J-14.021960
G03 X63.000000 Y21.301220 Z2 I1.828683 J2.442660
G03 X63.752916 Y21.177776 Z2 I0.797581 J2.506818
G02 X64.375000 Y21.113040 Z2 I-0.061310 J-3.610497
G02 X65.171956 Y20.885281 Z2 I-0.890981 J-4.625856
G03 X66.125000 Y20.541570 Z2 I8.930339 J23.268927
G03 X68.243679 Y19.826552 Z2 I1144.542143 J3387.913001
G03 X70.375000 Y19.161360 Z2 I15.751039 J46.720340
G02 X71.491396 Y18.839907 Z2 I-335.000460 J-1165.544133
G03 X72.375000 Y18.610920 Z2 I4.640625 J16.087743
G03 X73.129097 Y18.440885 Z2 I19.006027 J82.533566
G02 X73.375000 Y18.375000 Z2 I-0.615630 J-2.789558
G00 Z0.000000

(End cutting path id: path26)


(Start cutting path id: path26)
(Change tool to Default tool)

G00 Z0.000000
G00 X63.125000 Y21.000000

G01 Z2 F100.0(Penetrate)
G02 X63.264543 Y20.596017 Z2 I-2.310488 J-1.024178 F75.000000
G03 X63.730419 Y19.500000 Z2 I3.763391 J0.952655
G03 X64.893012 Y18.174738 Z2 I4.580660 J2.845831
G02 X66.250000 Y16.988810 Z2 I-18.001787 J-21.967718
G02 X68.506324 Y14.777865 Z2 I-42.591781 J-45.722757
G03 X70.750000 Y12.500000 Z2 I151.753405 J147.231764
G02 X71.670508 Y11.550019 Z2 I-29.671758 J-29.672157
G03 X72.499809 Y10.784820 Z2 I5.741745 J5.390755
G03 X73.162236 Y10.435347 Z2 I1.249327 J1.565547
G03 X73.375000 Y10.375000 Z2 I1.542261 J5.032311
G00 Z0.000000

(End cutting path id: path26)


(Start cutting path id: path26)
(Change tool to Default tool)

G00 Z0.000000
G00 X55.625000 Y24.625000

G01 Z2 F100.0(Penetrate)
G02 X55.280447 Y24.333522 Z2 I-3.473958 J3.757138 F75.000000
G02 X54.375000 Y24.002410 Z2 I-0.974130 J1.260265
G02 X52.830386 Y23.995563 Z2 I-0.860696 J19.937340
G03 X51.250000 Y23.997410 Z2 I-0.818069 J-23.856236
G03 X50.832360 Y23.955961 Z2 I0.099170 J-3.124013
G02 X50.375000 Y23.912610 Z2 I-0.530853 J3.166324
G02 X49.766752 Y23.950406 Z2 I-0.083775 J3.564986
G03 X49.125000 Y23.999510 Z2 I-0.664908 J-4.471645
G03 X47.268684 Y24.001982 Z2 I-1.250297 J-241.911418
G02 X45.375000 Y23.999610 Z2 I-1.893686 J755.930785
G03 X44.529057 Y23.993173 Z2 I-0.000000 J-55.593218
G02 X43.750193 Y24.001610 Z2 I-0.227530 J14.950960
G02 X43.209763 Y24.103059 Z2 I0.069098 J1.858289
G02 X42.875000 Y24.249390 Z2 I0.767056 J2.210882
G00 Z0.000000

(End cutting path id: path26)


(Start cutting path id: path26)
(Change tool to Default tool)

G00 Z0.000000
G00 X37.500000 Y24.000000

G01 Z2 F100.0(Penetrate)
G01 X37.625000 Y24.000000 Z2 F75.000000
G00 Z0.000000

(End cutting path id: path26)


(Start cutting path id: path26)
(Change tool to Default tool)

G00 Z0.000000
G00 X37.500000 Y31.875000

G01 Z2 F100.0(Penetrate)
G01 X38.250579 Y31.875000 Z2 F75.000000
G01 X41.625000 Y31.875000 Z2
G01 X43.000000 Y31.875000 Z2
G00 Z0.000000

(End cutting path id: path26)


(Start cutting path id: path26)
(Change tool to Default tool)

G00 Z0.000000
G00 X43.375000 Y32.375000

G01 Z2 F100.0(Penetrate)
G01 X43.000000 Y30.875000 Z2 F75.000000
G01 X42.995100 Y29.375000 Z2
G01 X42.875019 Y25.375000 Z2
G01 X42.746547 Y24.414740 Z2
G01 X41.625000 Y24.125000 Z2
G01 X38.253086 Y24.053050 Z2
G01 X37.625000 Y24.000000 Z2
G00 Z0.000000

(End cutting path id: path26)


(Start cutting path id: path26)
(Change tool to Default tool)

G00 Z0.000000
G00 X37.500000 Y15.625000

G01 Z2 F100.0(Penetrate)
G02 X37.693268 Y15.622748 Z2 I-0.101921 J-17.039291 F75.000000
G02 X38.375193 Y15.571900 Z2 I-0.103784 J-5.989966
G03 X39.868342 Y15.485804 Z2 I1.329147 J10.060433
G02 X41.625000 Y15.500000 Z2 I1.756658 J-108.681478
G02 X46.291004 Y15.316952 Z2 I0.000000 J-59.561088
G03 X50.250000 Y15.625000 Z2 I1.000654 J12.733995
G00 Z0.000000

(End cutting path id: path26)


(Start cutting path id: path26)
(Change tool to Default tool)

G00 Z0.000000
G00 X50.375000 Y23.750000

G01 Z2 F100.0(Penetrate)
G01 X50.375000 Y22.750000 Z2 F75.000000
G01 X50.375000 Y21.000000 Z2
G01 X50.375000 Y17.000000 Z2
G01 X50.503472 Y15.840860 Z2
G01 X51.375000 Y15.321280 Z2
G01 X53.375000 Y13.376830 Z2
G01 X57.624905 Y9.376830 Z2
G01 X58.771219 Y8.245080 Z2
G01 X62.625000 Y4.250000 Z2
G00 Z0.000000

(End cutting path id: path26)


(Start cutting path id: path26)
(Change tool to Default tool)

G00 Z0.000000
G00 X38.625000 Y4.000000

G01 Z2 F100.0(Penetrate)
G01 X38.500000 Y3.875000 Z2 F75.000000
G00 Z0.000000

(End cutting path id: path26)


(Start cutting path id: path26)
(Change tool to Default tool)

G00 Z0.000000
G00 X37.500000 Y12.125000

G01 Z2 F100.0(Penetrate)
G02 X37.723169 Y11.997742 Z2 I-1.490400 J-2.872984 F75.000000
G02 X38.375193 Y11.494500 Z2 I-2.197679 J-3.521435
G02 X39.457131 Y10.375895 Z2 I-11.777295 J-12.473784
G03 X40.625482 Y9.125000 Z2 I22.973520 J20.286469
G02 X41.304268 Y8.418199 Z2 I-24.839270 J-24.534070
G02 X41.910686 Y7.750000 Z2 I-23.254411 J-21.713609
G03 X42.384945 Y7.242582 Z2 I9.031126 J7.965610
G03 X42.875000 Y6.750000 Z2 I104.977654 J103.949090
G02 X44.183667 Y5.378860 Z2 I-29.042745 J-29.029567
G03 X45.500000 Y4.000000 Z2 I30.377065 J27.681804
G00 Z0.000000

(End cutting path id: path26)


(Footer)
M5
M2
(Using default footer. To add your own footer create file "footer" in the output dir.)
(end)
%