%
(Header)
(Generated by gcodetools from Inkscape.)
(Using default header. To add your own header create file "header" in the output dir.)
M3
(Header end.)
G21 (All units in mm)

(Start cutting path id: path25)
(Change tool to Default tool)

G00 Z0.000000
G00 X13.250000 Y54.741700

G01 Z2 F100.0(Penetrate)
G02 X14.803035 Y53.151515 Z2 I-66.474964 J-66.475425 F75
G03 X16.375000 Y51.630200 Z2 I19.785786 J18.871722
G03 X17.066290 Y51.129030 Z2 I2.800855 J3.136016
G03 X17.742670 Y51.006840 Z2 I0.507207 J0.874497
G01 X18.249905 Y52.116700 Z2
G03 X18.252088 Y53.328420 Z2 I-120.151875 J0.822294
G02 X18.250000 Y54.616700 Z2 I397.487310 J1.288278
G00 Z0.000000

(End cutting path id: path25)


(Start cutting path id: path25)
(Change tool to Default tool)

G00 Z0.000000
G00 X26.250000 Y54.616700

G01 Z2 F100.0(Penetrate)
G01 X26.250000 Y45.241700 Z2 F75
G02 X26.248644 Y44.172953 Z2 I-421.108585 J0.000004
G03 X26.250095 Y43.116700 Z2 I135.006449 J-0.342639
G01 X26.554205 Y41.959480 Z2
G03 X27.671637 Y41.641041 Z2 I0.908406 J1.067875
G02 X29.000000 Y41.741700 Z2 I1.342885 J-8.906328
G03 X31.276511 Y41.804240 Z2 I-0.080632 J44.399575
G02 X33.625000 Y41.866700 Z2 I2.351347 J-44.228011
G03 X34.914430 Y41.928102 Z2 I-0.000910 J13.588663
G02 X36.250000 Y41.991700 Z2 I1.336480 J-14.010970
G01 X37.375000 Y41.991700 Z2
G00 Z0.000000

(End cutting path id: path25)


(Start cutting path id: path25)
(Change tool to Default tool)

G00 Z0.000000
G00 X34.250000 Y54.616700

G01 Z2 F100.0(Penetrate)
G01 X34.250000 Y51.491700 Z2 F75
G01 X34.378471 Y50.145250 Z2
G01 X35.375000 Y49.743630 Z2
G01 X36.624420 Y49.741630 Z2
G01 X37.375000 Y49.741630 Z2
G00 Z0.000000

(End cutting path id: path25)


(Start cutting path id: path25)
(Change tool to Default tool)

G00 Z0.000000
G00 X18.000000 Y50.741700

G01 Z2 F100.0(Penetrate)
G02 X18.167117 Y49.952432 Z2 I-24.476528 J-5.594919 F75
G02 X18.249905 Y49.116700 Z2 I-4.397971 J-0.857629
G02 X18.250273 Y47.565402 Z2 I-166.954781 J-0.815241
G03 X18.339315 Y45.991700 Z2 I12.942615 J-0.057060
G02 X18.380900 Y45.185212 Z2 I-6.087419 J-0.718201
G03 X18.375005 Y44.366700 Z2 I56.822609 J-0.818512
G01 X18.375005 Y37.616700 Z2
G03 X18.375469 Y36.610253 Z2 I1091.350467 J-0.000094
G02 X18.375005 Y35.616700 Z2 I-357.575728 J-0.329748
G02 X18.297048 Y34.819762 Z2 I-4.191804 J0.007763
G03 X18.318295 Y34.123550 Z2 I1.540870 J-0.301406
G01 X19.037817 Y33.314910 Z2
G02 X19.641287 Y32.414371 Z2 I-3.744320 J-3.161617
G03 X20.500008 Y31.241700 Z2 I4.244285 J2.207249
G03 X22.753340 Y28.987429 Z2 I1800.876563 J1797.871134
G02 X25.000008 Y26.741700 Z2 I-5371.623416 J-5376.097449
G02 X25.619473 Y26.117706 Z2 I-85.358680 J-85.358680
G03 X26.250008 Y25.496620 Z2 I21.250071 J20.942741
G03 X26.815992 Y24.988574 Z2 I8.342828 J8.724957
G02 X27.375008 Y24.486780 Z2 I-7.680637 J-9.118782
G02 X28.662051 Y23.235353 Z2 I-74.267159 J-77.668341
G03 X30.000008 Y21.991700 Z2 I20.827942 J21.065765
G00 Z0.000000

(End cutting path id: path25)


(Start cutting path id: path25)
(Change tool to Default tool)

G00 Z0.000000
G00 X11.750008 Y49.491700

G01 Z2 F100.0(Penetrate)
G01 X11.875008 Y49.366700 Z2 F75
G00 Z0.000000

(End cutting path id: path25)


(Start cutting path id: path25)
(Change tool to Default tool)

G00 Z0.000000
G00 X4.250000 Y47.741700

G01 Z2 F100.0(Penetrate)
G02 X4.967864 Y47.091815 Z2 I-2.378807 J-3.349052 F75
G03 X5.629919 Y46.366700 Z2 I16.057941 J13.996666
G03 X6.260022 Y45.732452 Z2 I16.915647 J16.174981
G02 X6.863812 Y45.116700 Z2 I-11.707424 J-12.083893
G02 X7.362896 Y44.555929 Z2 I-12.104612 J-11.275548
G03 X7.876833 Y43.991700 Z2 I8.498964 J7.225222
G02 X11.097924 Y40.687199 Z2 I-4335.927107 J-4229.705116
G03 X14.375000 Y37.366700 Z2 I253.928191 J247.330166
G03 X16.432669 Y35.395777 Z2 I46.791847 J46.791720
G03 X18.000000 Y34.366700 Z2 I3.944872 J4.300122
G00 Z0.000000

(End cutting path id: path25)


(Start cutting path id: path25)
(Change tool to Default tool)

G00 Z0.000000
G00 X9.875000 Y35.491700

G01 Z2 F100.0(Penetrate)
G03 X9.077965 Y34.013956 Z2 I5.461010 J-3.899263 F75
G03 X8.750000 Y32.366700 Z2 I4.558364 J-1.763836
G02 X8.702176 Y31.727743 Z2 I-6.300760 J0.150324
G02 X8.625000 Y31.116700 Z2 I-4055.298478 J511.882568
G02 X10.249707 Y30.538073 Z2 I-0.261077 J-3.303360
G02 X11.530382 Y28.866700 Z2 I-1.954410 J-2.823890
G01 X12.062403 Y27.807090 Z2
G03 X12.754464 Y27.681479 Z2 I0.535610 J0.981694
G02 X13.500000 Y27.743490 Z2 I0.912570 J-6.458851
G03 X15.041823 Y27.874929 Z2 I-0.335803 J13.047878
G03 X16.500000 Y28.366660 Z2 I-0.615243 J4.232338
G00 Z0.000000

(End cutting path id: path25)


(Start cutting path id: path25)
(Change tool to Default tool)

G00 Z0.000000
G00 X19.125000 Y33.491660

G01 Z2 F100.0(Penetrate)
G02 X20.155820 Y33.705943 Z2 I0.880761 J-1.650399 F75
G03 X22.250000 Y33.616760 Z2 I2.228056 J27.686620
G03 X26.835070 Y33.611209 Z2 I3.060936 J634.710125
G02 X31.375000 Y33.616660 Z2 I4.539939 J-1890.626447
G03 X32.781832 Y33.636053 Z2 I0.000000 J51.038309
G02 X34.125000 Y33.605360 Z2 I0.367439 J-13.325216
G02 X34.776571 Y33.512590 Z2 I-0.353554 J-4.817706
G02 X35.361496 Y33.295560 Z2 I-0.447096 J-2.101731
G02 X35.839547 Y32.752870 Z2 I-0.509801 J-0.930979
G03 X36.069637 Y32.241640 Z2 I5.392026 J2.119409
G03 X36.897107 Y31.294279 Z2 I2.295282 J1.169753
G03 X37.375000 Y30.991640 Z2 I3.866539 J5.576946
G00 Z0.000000

(End cutting path id: path25)


(Start cutting path id: path25)
(Change tool to Default tool)

G00 Z0.000000
G00 X35.750000 Y33.241640

G01 Z2 F100.0(Penetrate)
G01 X37.375000 Y33.491640 Z2 F75
G00 Z0.000000

(End cutting path id: path25)


(Start cutting path id: path25)
(Change tool to Default tool)

G00 Z0.000000
G00 X8.500000 Y30.991700

G01 Z2 F100.0(Penetrate)
G03 X8.258754 Y29.774360 Z2 I13.129064 J-3.234423 F75
G03 X8.120178 Y28.366700 Z2 I13.557271 J-2.045289
G01 X8.205344 Y27.317120 Z2
G01 X9.500000 Y27.121620 Z2
G03 X11.128922 Y27.381940 Z2 I-0.314833 J7.196588
G03 X11.875000 Y27.741700 Z2 I-0.637931 J2.276451
G00 Z0.000000

(End cutting path id: path25)


(Start cutting path id: path25)
(Change tool to Default tool)

G00 Z0.000000
G00 X33.000000 Y27.866700

G01 Z2 F100.0(Penetrate)
G01 X32.875000 Y27.741700 Z2 F75
G00 Z0.000000

(End cutting path id: path25)


(Start cutting path id: path25)
(Change tool to Default tool)

G00 Z0.000000
G00 X35.625000 Y25.241700

G01 Z2 F100.0(Penetrate)
G01 X36.000000 Y24.741700 Z2 F75
G00 Z0.000000

(End cutting path id: path25)


(Footer)
M5
G00 X0.0000 Y0.0000
M2
(Using default footer. To add your own footer create file "footer" in the output dir.)
(end)
%