%
(Header)
(Generated by gcodetools from Inkscape.)
(Using default header. To add your own header create file "header" in the output dir.)
M3
(Header end.)
G21 (All units in mm)

(Start cutting path id: path17)
(Change tool to Default tool)

G00 Z0.000000
G00 X108.750000 Y126.866700

G01 Z2 F100.0(Penetrate)
G01 X109.375000 Y126.616700 Z2 F75
G00 Z0.000000

(End cutting path id: path17)


(Start cutting path id: path17)
(Change tool to Default tool)

G00 Z0.000000
G00 X81.625000 Y126.741700

G01 Z2 F100.0(Penetrate)
G01 X80.322724 Y125.055356 Z2 F75
G01 X78.875000 Y123.991120 Z2
G01 X75.750000 Y120.868533 Z2
G01 X74.375579 Y119.628369 Z2
G01 X73.625000 Y119.116700 Z2
G00 Z0.000000

(End cutting path id: path17)


(Start cutting path id: path17)
(Change tool to Default tool)

G00 Z0.000000
G00 X86.375000 Y126.741700

G01 Z2 F100.0(Penetrate)
G01 X89.750000 Y123.367278 Z2 F75
G01 X91.125000 Y122.538960 Z2
G01 X92.488811 Y123.367278 Z2
G01 X95.625000 Y126.741700 Z2
G00 Z0.000000

(End cutting path id: path17)


(Start cutting path id: path17)
(Change tool to Default tool)

G00 Z0.000000
G00 X100.875000 Y126.741700

G01 Z2 F100.0(Penetrate)
G02 X101.436308 Y125.983254 Z2 I-2.549358 J-2.473648 F75
G03 X101.938660 Y125.276421 Z2 I3.338865 J1.841030
G03 X102.662503 Y124.719723 Z2 I1.863003 J1.673424
G02 X103.500000 Y124.116120 Z2 I-1.548270 J-3.031032
G03 X105.895421 Y121.778071 Z2 I338.959847 J344.881295
G02 X108.250000 Y119.493628 Z2 I-2463.034613 J-2541.009252
G02 X108.978553 Y118.684010 Z2 I-5.641089 J-5.808870
G02 X109.367670 Y117.369016 Z2 I-1.462463 J-1.147823
G02 X109.014263 Y116.690434 Z2 I-1.001878 J0.090463
G03 X108.375000 Y116.150073 Z2 I223.012544 J-264.478400
G03 X106.089205 Y114.022530 Z2 I21.669970 J-25.573514
G02 X103.750000 Y111.748547 Z2 I-46.837793 J45.841054
G02 X102.956808 Y111.264886 Z2 I-1.596989 J1.726783
G03 X102.337770 Y110.886281 Z2 I0.623688 J-1.715144
G03 X101.941718 Y110.316627 Z2 I1.111109 J-1.195002
G02 X101.493150 Y109.616700 Z2 I-2.184902 J0.906555
G02 X100.082089 Y108.367267 Z2 I-6.963238 J6.442495
G03 X99.419947 Y106.741700 Z2 I0.968896 J-1.342298
G03 X100.326619 Y105.318378 Z2 I2.159199 J0.374993
G02 X101.572630 Y104.116700 Z2 I-3.126003 J-4.488158
G02 X101.849736 Y103.565528 Z2 I-1.386926 J-1.042532
G03 X102.116800 Y103.079470 Z2 I1.244847 J0.367582
G03 X102.703341 Y102.682273 Z2 I1.046432 J0.913596
G02 X103.485530 Y102.183154 Z2 I-0.672174 J-1.915849
G03 X105.235871 Y100.395240 Z2 I360.905350 J351.570202
G03 X107.000000 Y98.616700 Z2 I219.491256 J215.948587
G03 X107.843641 Y97.779662 Z2 I106.670339 J106.668046
G02 X108.589120 Y96.991890 Z2 I-10.735603 J-10.905867
G03 X109.113525 Y96.399924 Z2 I114.913061 J101.269723
G03 X109.375000 Y96.116700 Z2 I8.016135 J7.138269
G01 X108.624420 Y95.366120 Z2
G02 X107.008733 Y93.826680 Z2 I-32.659026 J32.659026
G03 X105.552470 Y92.242280 Z2 I8.007457 J-8.821305
G03 X105.246087 Y91.740677 Z2 I2.237613 J-1.711123
G02 X105.125000 Y91.491700 Z2 I-14.125735 J6.715955
G00 Z0.000000

(End cutting path id: path17)


(Start cutting path id: path17)
(Change tool to Default tool)

G00 Z0.000000
G00 X101.875000 Y125.116700

G01 Z2 F100.0(Penetrate)
G02 X100.962795 Y124.114949 Z2 I-24.769677 J21.639326 F75
G02 X99.625000 Y122.741700 Z2 I-53.172392 J50.461347
G02 X97.785506 Y120.948009 Z2 I-72.058181 J72.058181
G03 X96.013599 Y119.116700 Z2 I21.060896 J-22.150608
G03 X95.593333 Y118.414607 Z2 I1.636767 J-1.456584
G02 X95.196278 Y117.805453 Z2 I-1.522593 J0.558466
G02 X94.595850 Y117.420840 Z2 I-1.262056 J1.309250
G03 X93.875000 Y116.978196 Z2 I0.867588 J-2.221150
G03 X92.912595 Y116.012511 Z2 I7.821272 J-8.757116
G02 X91.964314 Y115.050246 Z2 I-9.634872 J8.546472
G01 X91.000000 Y114.563170 Z2
G02 X89.657115 Y115.311525 Z2 I0.045961 J1.661521
G03 X88.500000 Y116.581979 Z2 I-4.588323 J-3.016822
G03 X88.032004 Y116.862849 Z2 I-1.272584 J-1.590093
G02 X87.563658 Y117.180358 Z2 I0.592936 J1.378794
G02 X87.133451 Y117.783206 Z2 I1.588566 J1.588566
G03 X86.675734 Y118.491700 Z2 I-3.182549 J-1.553962
G03 X84.825501 Y120.467675 Z2 I-17.484216 J-14.517371
G02 X82.875000 Y122.366700 Z2 I70.032683 J73.882209
G02 X81.452833 Y123.845815 Z2 I36.967854 J36.967815
G03 X80.375000 Y124.991700 Z2 I-66.713852 J-61.671960
G00 Z0.000000

(End cutting path id: path17)


(Start cutting path id: path17)
(Change tool to Default tool)

G00 Z0.000000
G00 X95.250000 Y117.741700

G01 Z2 F100.0(Penetrate)
G03 X97.122424 Y115.886279 Z2 I204.324186 J204.324186 F75
G03 X99.375000 Y113.762919 Z2 I53.168566 J54.147585
G02 X100.394531 Y112.819992 Z2 I-42.721107 J-47.214448
G02 X101.374810 Y111.866893 Z2 I-33.419878 J-35.353590
G01 X102.250000 Y110.991700 Z2
G00 Z0.000000

(End cutting path id: path17)


(Start cutting path id: path17)
(Change tool to Default tool)

G00 Z0.000000
G00 X87.500000 Y117.116700

G01 Z2 F100.0(Penetrate)
G01 X82.375000 Y111.991700 Z2 F75
G02 X81.438690 Y111.158517 Z2 I-7.616363 J7.616378
G03 X80.848476 Y110.241700 Z2 I1.043885 J-1.320404
G03 X80.938901 Y109.522476 Z2 I0.980127 J-0.242069
G03 X81.391686 Y108.866700 Z2 I3.141181 J1.684645
G03 X82.735829 Y107.494817 Z2 I12.309630 J10.716299
G02 X82.856867 Y105.616700 Z2 I-0.908492 J-1.001508
G02 X81.998924 Y104.747587 Z2 I-6.323829 J5.384541
G03 X81.177276 Y103.866700 Z2 I3.896594 J-4.458189
G03 X80.894313 Y103.385665 Z2 I1.904999 J-1.444336
G02 X80.572724 Y102.930455 Z2 I-1.281793 J0.564339
G02 X80.006536 Y102.578895 Z2 I-1.151267 J1.222415
G03 X79.375000 Y102.213631 Z2 I0.757993 J-2.039147
G03 X77.978044 Y100.950508 Z2 I14.225927 J-17.137259
G03 X76.625000 Y99.616220 Z2 I668.244048 J-678.991012
G03 X74.672534 Y97.623495 Z2 I60.568004 J-61.297221
G02 X73.625000 Y96.991700 Z2 I-1.669306 J1.583439
G00 Z0.000000

(End cutting path id: path17)


(Start cutting path id: path17)
(Change tool to Default tool)

G00 Z0.000000
G00 X73.500000 Y116.741700

G01 Z2 F100.0(Penetrate)
G02 X73.761723 Y116.583344 Z2 I-3.579220 J-6.211035 F75
G02 X74.375193 Y116.109755 Z2 I-2.260955 J-3.562883
G02 X75.464765 Y115.058018 Z2 I-28.114255 J-30.215877
G02 X76.613812 Y113.866700 Z2 I-33.695285 J-33.649496
G02 X78.078014 Y112.223442 Z2 I-36.408291 J-33.915049
G03 X79.625000 Y110.805453 Z2 I6.501241 J5.539817
G03 X80.179164 Y110.525864 Z2 I1.192742 J1.675102
G03 X80.750000 Y110.366700 Z2 I2.099533 J6.426682
G00 Z0.000000

(End cutting path id: path17)


(Start cutting path id: path17)
(Change tool to Default tool)

G00 Z0.000000
G00 X109.375000 Y110.241700

G01 Z2 F100.0(Penetrate)
G03 X109.129977 Y110.096951 Z2 I6.574654 J-11.408916 F75
G03 X108.624420 Y109.724917 Z2 I1.808382 J-2.986933
G03 X107.909957 Y109.052181 Z2 I10.518879 J-11.887078
G03 X107.131850 Y108.241700 Z2 I20.358108 J-20.323675
G01 X106.607830 Y107.241700 Z2
G03 X107.394598 Y105.627576 Z2 I2.107295 J0.028344
G02 X108.521030 Y104.633385 Z2 I-10.247249 J-12.745507
G03 X109.122051 Y104.223847 Z2 I1.486740 J1.536091
G03 X109.375000 Y104.116700 Z2 I2.145893 J4.713812
G00 Z0.000000

(End cutting path id: path17)


(Start cutting path id: path17)
(Change tool to Default tool)

G00 Z0.000000
G00 X73.500000 Y109.366700

G01 Z2 F100.0(Penetrate)
G01 X74.197531 Y108.839886 Z2 F75
G01 X75.553434 Y106.991700 Z2
G01 X74.251254 Y105.152194 Z2
G01 X73.625000 Y104.741700 Z2
G00 Z0.000000

(End cutting path id: path17)


(Start cutting path id: path17)
(Change tool to Default tool)

G00 Z0.000000
G00 X73.500000 Y104.741700

G01 Z2 F100.0(Penetrate)
G01 X73.625000 Y104.741700 Z2 F75
G00 Z0.000000

(End cutting path id: path17)


(Start cutting path id: path17)
(Change tool to Default tool)

G00 Z0.000000
G00 X102.000000 Y102.991700

G01 Z2 F100.0(Penetrate)
G01 X96.750000 Y97.866700 Z2 F75
G02 X95.601375 Y96.846525 Z2 I-9.186003 J9.185900
G03 X95.205730 Y95.866700 Z2 I0.657932 J-0.835459
G03 X96.465990 Y93.868366 Z2 I2.829164 J0.387666
G02 X98.243055 Y92.366890 Z2 I-5.344086 J-8.127323
G02 X98.716643 Y91.753426 Z2 I-3.089121 J-2.874307
G02 X98.875000 Y91.491700 Z2 I-6.052209 J-3.840643
G00 Z0.000000

(End cutting path id: path17)


(Start cutting path id: path17)
(Change tool to Default tool)

G00 Z0.000000
G00 X80.625000 Y102.866700

G01 Z2 F100.0(Penetrate)
G03 X82.814783 Y100.536536 Z2 I33.175621 J28.982942 F75
G02 X85.750000 Y97.616700 Z2 I-554.430561 J-560.286395
G03 X86.708091 Y96.763213 Z2 I7.869554 J7.869554
G02 X87.204475 Y95.866700 Z2 I-0.826725 J-1.043420
G02 X86.932012 Y95.053228 Z2 I-1.014329 J-0.112627
G02 X86.249517 Y94.361780 Z2 I-16.118330 J15.227076
G03 X84.325406 Y92.434417 Z2 I58.391142 J-60.216741
G03 X83.750000 Y91.491700 Z2 I1.817099 J-1.756066
G00 Z0.000000

(End cutting path id: path17)


(Start cutting path id: path17)
(Change tool to Default tool)

G00 Z0.000000
G00 X87.500000 Y95.991700

G01 Z2 F100.0(Penetrate)
G03 X88.568296 Y96.664996 Z2 I-1.928752 J4.244446 F75
G03 X89.750000 Y97.741220 Z2 I-12.687543 J15.117917
G03 X90.429406 Y98.412756 Z2 I-947.796609 J959.583580
G02 X91.250000 Y98.771310 Z2 I0.875293 J-0.884924
G02 X92.014522 Y98.474491 Z2 I0.044748 J-1.017748
G03 X92.625000 Y97.866600 Z2 I230.383346 J230.753106
G03 X93.884618 Y96.753522 Z2 I10.176697 J10.247224
G03 X94.875000 Y96.116700 Z2 I3.871000 J4.931630
G00 Z0.000000

(End cutting path id: path17)


(Start cutting path id: path17)
(Change tool to Default tool)

G00 Z0.000000
G00 X73.500000 Y95.366700

G01 Z2 F100.0(Penetrate)
G03 X73.755166 Y95.197080 Z2 I5.454847 J7.929191 F75
G02 X74.250579 Y94.833710 Z2 I-2.674951 J-4.166394
G02 X75.610909 Y93.599136 Z2 I-13.986585 J-16.778024
G02 X76.840278 Y92.242280 Z2 I-11.570912 J-11.719092
G02 X77.147863 Y91.737437 Z2 I-1.728522 J-1.399256
G02 X77.250000 Y91.491700 Z2 I-6.095376 J-2.677554
G00 Z0.000000

(End cutting path id: path17)


(Start cutting path id: path17)
(Change tool to Default tool)

G00 Z0.000000
G00 X91.000000 Y91.491700

G01 Z2 F100.0(Penetrate)
G01 X91.250000 Y91.491700 Z2 F75
G00 Z0.000000

(End cutting path id: path17)


(Footer)
M5
G00 X0.0000 Y0.0000
M2
(Using default footer. To add your own footer create file "footer" in the output dir.)
(end)
%