%
(Header)
(Generated by gcodetools from Inkscape.)
(Using default header. To add your own header create file "header" in the output dir.)
M3
(Header end.)
G21 (All units in mm)

(Start cutting path id: path8)
(Change tool to Default tool)

G00 Z0.000000
G00 X114.375000 Y197.491700

G01 Z2 F100.0(Penetrate)
G03 X119.028425 Y192.866035 Z2 I775.905481 J775.908406 F75
G02 X123.623170 Y188.241700 Z2 I-249.262529 J-252.262402
G02 X124.083293 Y187.741384 Z2 I-8.270076 J-8.067438
G03 X124.519390 Y187.241700 Z2 I73.728105 J63.905711
G02 X125.006138 Y186.659586 Z2 I-11.626540 J-10.216350
G03 X125.439240 Y186.116700 Z2 I182.538067 J145.180623
G03 X126.061788 Y185.420642 Z2 I6.651990 J5.323046
G03 X126.749520 Y184.752889 Z2 I21.748947 J21.711657
G02 X128.457706 Y183.127280 Z2 I-145.277724 J-154.367841
G02 X130.125000 Y181.491700 Z2 I-84.337868 J-87.640742
G03 X131.159545 Y180.598056 Z2 I6.632113 J6.632150
G03 X132.250000 Y180.240447 Z2 I1.080094 J1.452161
G03 X133.618468 Y180.300048 Z2 I-0.104874 J18.148060
G02 X135.250000 Y180.366700 Z2 I1.639336 J-20.126392
G01 X141.750000 Y180.366700 Z2
G02 X143.142517 Y180.365378 Z2 I-0.000007 J-733.414243
G03 X144.375000 Y180.366795 Z2 I0.383828 J202.154625
G03 X145.134477 Y180.435074 Z2 I-0.019146 J4.471009
G03 X145.375000 Y180.491700 Z2 I-0.383190 J2.166753
G00 Z0.000000

(End cutting path id: path8)


(Start cutting path id: path8)
(Change tool to Default tool)

G00 Z0.000000
G00 X131.625000 Y196.741700

G01 Z2 F100.0(Penetrate)
G02 X132.934538 Y195.364584 Z2 I-27.084035 J-27.066160 F75
G02 X134.160690 Y193.991700 Z2 I-106.129886 J-96.020858
G03 X136.363807 Y191.541669 Z2 I125.893819 J110.990679
G03 X138.620560 Y189.116700 Z2 I167.602995 J153.714081
G02 X139.264066 Y188.402002 Z2 I-14.723175 J-13.903643
G03 X139.875480 Y187.742183 Z2 I8.970506 J7.699223
G03 X140.337783 Y187.301727 Z2 I9.333083 J9.333166
G03 X140.875000 Y186.836415 Z2 I10.288767 J11.335928
G03 X141.479046 Y186.373853 Z2 I6.538093 J7.912217
G02 X141.999900 Y185.965562 Z2 I-3.955058 J-5.581812
G02 X143.897342 Y183.985340 Z2 I-9.608056 J-11.105577
G03 X144.979940 Y183.031052 Z2 I3.197010 J2.535644
G03 X145.219319 Y182.922084 Z2 I0.581134 J0.959204
G02 X145.375000 Y182.866700 Z2 I-0.783593 J-2.449154
G00 Z0.000000

(End cutting path id: path8)


(Start cutting path id: path8)
(Change tool to Default tool)

G00 Z0.000000
G00 X127.000000 Y192.241700

G01 Z2 F100.0(Penetrate)
G01 X127.125000 Y191.991700 Z2 F75
G00 Z0.000000

(End cutting path id: path8)


(Start cutting path id: path8)
(Change tool to Default tool)

G00 Z0.000000
G00 X109.500000 Y185.366700

G01 Z2 F100.0(Penetrate)
G02 X109.722985 Y185.235943 Z2 I-8.533552 J-14.808165 F75
G02 X110.250580 Y184.849917 Z2 I-1.788926 J-2.998537
G02 X110.854993 Y184.251107 Z2 I-5.103836 J-5.756033
G02 X111.274980 Y183.616700 Z2 I-1.889484 J-1.707089
G02 X111.399931 Y183.268831 Z2 I-1.865108 J-0.866303
G03 X111.802370 Y182.534139 Z2 I1.662531 J0.433110
G03 X112.550913 Y181.997246 Z2 I1.690564 J1.566748
G03 X113.375000 Y181.636279 Z2 I22.477641 J50.195148
G03 X114.356113 Y181.225798 Z2 I24.884127 J58.099205
G03 X115.375000 Y180.818570 Z2 I27.269270 J66.749590
G03 X116.560381 Y180.452790 Z2 I3.082797 J7.886786
G02 X117.750000 Y180.116217 Z2 I-2.786526 J-12.119632
G02 X123.739320 Y177.585557 Z2 I-13.997644 J-41.481064
G03 X129.500000 Y174.719228 Z2 I118.420904 J230.777517
G03 X130.235312 Y174.479009 Z2 I1.261737 J2.616682
G02 X130.861980 Y174.243243 Z2 I-0.343350 J-1.863353
G02 X131.476191 Y173.728148 Z2 I-1.284891 J-2.155881
G03 X132.250100 Y173.063748 Z2 I2.602460 J2.248473
G02 X133.253097 Y172.405219 Z2 I-15.641648 J-24.916692
G03 X134.250000 Y171.897370 Z2 I2.437585 J3.552574
G03 X134.865489 Y171.729444 Z2 I1.431184 J4.033699
G02 X135.486500 Y171.480609 Z2 I-0.338696 J-1.744614
G02 X136.043898 Y170.850950 Z2 I-0.834017 J-1.299847
G03 X136.630500 Y170.102715 Z2 I1.998068 J0.962388
G03 X137.424815 Y169.467889 Z2 I20.711071 J25.099998
G03 X138.250000 Y168.961800 Z2 I2.735800 J3.534980
G03 X138.657104 Y168.791828 Z2 I2.044120 J4.323415
G03 X139.122590 Y168.720771 Z2 I0.409931 J1.125205
G01 X139.749900 Y169.866700 Z2
G01 X139.549580 Y171.738229 Z2
G03 X138.442910 Y172.069440 Z2 I-0.967228 J-1.217327
G02 X137.000000 Y171.991120 Z2 I-1.821633 J20.229613
G03 X136.050088 Y171.710157 Z2 I0.034756 J-1.863777
G03 X135.750000 Y171.491700 Z2 I1.348813 J-2.168163
G00 Z0.000000

(End cutting path id: path8)


(Start cutting path id: path8)
(Change tool to Default tool)

G00 Z0.000000
G00 X135.375000 Y183.116700

G01 Z2 F100.0(Penetrate)
G01 X135.500000 Y183.116700 Z2 F75
G00 Z0.000000

(End cutting path id: path8)


(Start cutting path id: path8)
(Change tool to Default tool)

G00 Z0.000000
G00 X111.625000 Y182.616700

G01 Z2 F100.0(Penetrate)
G02 X110.234745 Y182.447537 Z2 I-1.005952 J2.469916 F75
G03 X109.625000 Y182.491700 Z2 I-0.609745 J-4.187230
G00 Z0.000000

(End cutting path id: path8)


(Start cutting path id: path8)
(Change tool to Default tool)

G00 Z0.000000
G00 X109.500000 Y182.491700

G01 Z2 F100.0(Penetrate)
G01 X109.625000 Y182.491700 Z2 F75
G00 Z0.000000

(End cutting path id: path8)


(Start cutting path id: path8)
(Change tool to Default tool)

G00 Z0.000000
G00 X131.375000 Y179.991700

G01 Z2 F100.0(Penetrate)
G01 X131.375000 Y179.363614 Z2 F75
G03 X131.394652 Y177.286153 Z2 I109.817952 J-0.000000
G02 X131.373000 Y175.241700 Z2 I-34.642510 J-0.655461
G02 X131.177768 Y174.526039 Z2 I-1.657343 J0.067663
G02 X131.000410 Y174.241700 Z2 I-2.243988 J1.202214
G00 Z0.000000

(End cutting path id: path8)


(Start cutting path id: path8)
(Change tool to Default tool)

G00 Z0.000000
G00 X139.875410 Y171.866700

G01 Z2 F100.0(Penetrate)
G03 X140.721623 Y171.921228 Z2 I-0.062798 J7.567984 F75
G02 X141.875410 Y171.991700 Z2 I1.169437 J-9.666012
G02 X142.422517 Y171.991926 Z2 I0.368030 J-229.246713
G03 X143.000410 Y171.991700 Z2 I0.578540 J740.067107
G02 X143.806224 Y171.987925 Z2 I-0.000000 J-86.003654
G03 X144.500220 Y171.993500 Z2 I0.186836 J19.939906
G03 X145.150465 Y172.067108 Z2 I-0.095694 J3.754245
G03 X145.375410 Y172.116667 Z2 I-1.354173 J6.681806
G00 Z0.000000

(End cutting path id: path8)


(Start cutting path id: path8)
(Change tool to Default tool)

G00 Z0.000000
G00 X139.500000 Y168.491700

G01 Z2 F100.0(Penetrate)
G03 X139.877588 Y167.742461 Z2 I3.040288 J1.062424 F75
G03 X140.500480 Y167.046582 Z2 I2.918639 J1.985800
G03 X141.980045 Y165.796193 Z2 I98.859990 J115.478848
G02 X143.247680 Y164.616700 Z2 I-10.252370 J-12.289444
G01 X144.266110 Y163.569440 Z2
G01 X145.375000 Y163.741700 Z2
G00 Z0.000000

(End cutting path id: path8)


(Footer)
M5
G00 X0.0000 Y0.0000
M2
(Using default footer. To add your own footer create file "footer" in the output dir.)
(end)
%