%
(Header)
(Generated by gcodetools from Inkscape.)
(Using default header. To add your own header create file "header" in the output dir.)
M3
(Header end.)
G21 (All units in mm)

(Start cutting path id: path18)
(Change tool to Default tool)

G00 Z0.000000
G00 X122.125000 Y126.741700

G01 Z2 F100.0(Penetrate)
G03 X122.010361 Y125.251452 Z2 I15.157671 J-1.915551 F75
G03 X122.000480 Y123.866700 Z2 I33.430173 J-0.930963
G03 X122.092957 Y123.227088 Z2 I2.502294 J0.035297
G02 X122.188080 Y122.616700 Z2 I-2.516432 J-0.704768
G02 X122.109541 Y121.987711 Z2 I-1.983521 J-0.071725
G03 X122.000100 Y121.241700 Z2 I2.612896 J-0.764350
G03 X122.012067 Y119.152632 Z2 I82.421873 J-0.572410
G02 X121.998100 Y116.991700 Z2 I-43.450924 J-0.799663
G02 X121.906065 Y116.426035 Z2 I-2.211575 J0.069510
G02 X121.696890 Y115.991700 Z2 I-1.470616 J0.440709
G01 X121.287070 Y114.866700 Z2
G03 X121.809896 Y114.145798 Z2 I2.020290 J0.915154
G02 X122.500030 Y113.493533 Z2 I-20.039657 J-21.894355
G03 X124.619784 Y111.447845 Z2 I184.667227 J189.232208
G02 X126.750030 Y109.366700 Z2 I-87.932886 J-92.138320
G02 X127.717103 Y108.343275 Z2 I-17.613455 J-17.612234
G02 X127.965210 Y107.116700 Z2 I-0.924480 J-0.825381
G02 X126.530851 Y105.134992 Z2 I-3.956303 J1.353622
G03 X124.500030 Y103.366700 Z2 I11.779379 J-15.578506
G02 X123.294205 Y102.187319 Z2 I-53.801250 J53.801462
G03 X122.138530 Y100.991700 Z2 I14.681308 J-15.347165
G03 X121.744717 Y100.396022 Z2 I1.841361 J-1.645372
G02 X121.322750 Y99.846540 Z2 I-1.464120 J0.687588
G02 X120.740502 Y99.444712 Z2 I-2.377184 J2.821787
G03 X120.125030 Y98.989380 Z2 I1.448797 J-2.601967
G03 X118.435162 Y97.317177 Z2 I57.541191 J-59.839024
G02 X116.750030 Y95.616700 Z2 I-188.428874 J185.043265
G02 X114.970812 Y93.875316 Z2 I-81.958400 J81.959455
G03 X113.513630 Y92.366890 Z2 I18.718298 J-19.540449
G03 X113.085458 Y91.708314 Z2 I1.922998 J-1.718710
G03 X113.000030 Y91.491700 Z2 I2.214405 J-0.998466
G00 Z0.000000

(End cutting path id: path18)


(Start cutting path id: path18)
(Change tool to Default tool)

G00 Z0.000000
G00 X132.000030 Y126.616700

G01 Z2 F100.0(Penetrate)
G02 X132.496809 Y125.531580 Z2 I-42.386530 J-20.061256 F75
G02 X132.863070 Y124.366700 Z2 I-4.996768 J-2.211101
G02 X132.963380 Y123.842197 Z2 I-71.573533 J-13.960161
G03 X133.116730 Y123.366700 Z2 I1.943576 J0.364334
G03 X133.424929 Y122.763935 Z2 I9.005942 J4.224644
G02 X133.706920 Y122.116700 Z2 I-3.226654 J-1.790853
G02 X134.275493 Y120.082800 Z2 I-23.635388 J-7.703646
G02 X134.644420 Y117.991700 Z2 I-18.645294 J-4.367635
G02 X134.737915 Y117.177364 Z2 I-84.174758 J-10.076797
G03 X134.879950 Y116.491700 Z2 I3.677197 J0.404184
G02 X135.082131 Y115.830161 Z2 I-131.046192 J-40.412264
G02 X135.212510 Y115.241700 Z2 I-3.796399 J-1.149802
G02 X135.302194 Y114.345203 Z2 I-10.562934 J-1.509427
G03 X135.363840 Y113.366700 Z2 I89.916454 J5.173609
G02 X135.347898 Y112.181506 Z2 I-7.229454 J-0.495462
G03 X135.364420 Y111.241700 Z2 I4.152496 J-0.397048
G02 X135.455198 Y110.509596 Z2 I-51.357298 J-6.739803
G02 X135.500030 Y109.741700 Z2 I-6.598041 J-0.770467
G02 X135.438317 Y107.092137 Z2 I-55.976430 J-0.021701
G02 X135.177600 Y104.366700 Z2 I-28.259561 J1.328134
G02 X134.918588 Y103.269411 Z2 I-6.348635 J0.919365
G03 X134.659460 Y102.366700 Z2 I11.076322 J-3.668061
G03 X134.586027 Y101.608233 Z2 I2.601636 J-0.634673
G02 X134.552980 Y100.866700 Z2 I-4.089538 J-0.189251
G02 X134.217009 Y98.964675 Z2 I-24.169525 J3.288584
G02 X133.625030 Y97.616700 Z2 I-3.631714 J0.790936
G03 X133.240214 Y97.809985 Z2 I-0.798631 J-1.110303
G03 X132.250030 Y98.012920 Z2 I-1.455733 J-4.585805
G02 X130.876286 Y98.310038 Z2 I0.587129 J6.038993
G03 X129.750030 Y98.265620 Z2 I-0.505613 J-1.480548
G03 X128.757441 Y97.552968 Z2 I1.137229 J-2.631515
G02 X127.750030 Y96.491700 Z2 I-20.885520 J18.816841
G03 X125.768429 Y94.465734 Z2 I90.545305 J-90.544593
G02 X123.750030 Y92.544750 Z2 I-21.491443 J20.560431
G01 X122.627440 Y91.820600 Z2
G01 X122.039770 Y92.491800 Z2
G02 X121.990257 Y92.959989 Z2 I1.609531 J0.406929
G03 X122.000070 Y93.491700 Z2 I-14.399680 J0.531711
G02 X122.180873 Y97.471910 Z2 I43.838678 J0.002817
G03 X121.500070 Y99.741700 Z2 I-3.163309 J0.288189
G00 Z0.000000

(End cutting path id: path18)


(Start cutting path id: path18)
(Change tool to Default tool)

G00 Z0.000000
G00 X109.500070 Y126.116700

G01 Z2 F100.0(Penetrate)
G02 X109.725311 Y125.981813 Z2 I-3.903347 J-6.773510 F75
G02 X110.375260 Y125.484757 Z2 I-2.242131 J-3.605266
G02 X111.303248 Y124.570208 Z2 I-15.453323 J-16.608492
G03 X112.373240 Y123.502889 Z2 I24.063873 J23.054142
G02 X115.249422 Y120.718246 Z2 I-178.173288 J-186.908020
G02 X118.125070 Y117.866700 Z2 I-337.293202 J-343.019857
G02 X119.501306 Y116.464845 Z2 I-75.308076 J-75.308247
G03 X120.875070 Y115.241700 Z2 I8.678333 J8.363957
G00 Z0.000000

(End cutting path id: path18)


(Start cutting path id: path18)
(Change tool to Default tool)

G00 Z0.000000
G00 X133.000000 Y123.366700

G01 Z2 F100.0(Penetrate)
G02 X132.670069 Y123.167108 Z2 I-1.417383 J1.970489 F75
G02 X132.000000 Y122.994111 Z2 I-0.737160 J1.471052
G02 X131.131140 Y122.983490 Z2 I-0.620289 J15.198483
G03 X130.125000 Y122.991711 Z2 I-1.006140 J-61.561929
G03 X127.538341 Y122.932984 Z2 I0.000000 J-56.994208
G02 X125.000000 Y122.866616 Z2 I-2.991882 J65.854919
G01 X123.919560 Y122.473193 Z2
G01 X124.312400 Y121.241711 Z2
G03 X125.512295 Y119.909180 Z2 I6.908612 J5.014454
G02 X126.875000 Y118.616711 Z2 I-23.747478 J-26.402587
G02 X127.982524 Y117.491287 Z2 I-69.636047 J-69.636143
G03 X129.125000 Y116.498944 Z2 I6.310133 J6.110969
G03 X129.809090 Y116.167466 Z2 I1.264729 J1.738453
G02 X130.436250 Y115.802571 Z2 I-0.390760 J-1.393027
G02 X130.738218 Y115.290417 Z2 I-0.820862 J-0.829081
G03 X130.980420 Y114.741711 Z2 I2.059756 J0.581381
G03 X132.053132 Y113.443774 Z2 I5.335548 J3.317442
G03 X133.375000 Y112.258396 Z2 I40.986347 J44.375980
G03 X134.325345 Y111.713690 Z2 I1.847899 J2.122635
G03 X135.250000 Y111.491711 Z2 I1.706289 J5.070732
G00 Z0.000000

(End cutting path id: path18)


(Start cutting path id: path18)
(Change tool to Default tool)

G00 Z0.000000
G00 X122.375000 Y122.491711

G01 Z2 F100.0(Penetrate)
G01 X123.750000 Y122.491711 Z2 F75
G00 Z0.000000

(End cutting path id: path18)


(Start cutting path id: path18)
(Change tool to Default tool)

G00 Z0.000000
G00 X109.625000 Y117.616711

G01 Z2 F100.0(Penetrate)
G03 X109.829214 Y117.523479 Z2 I1.108831 J2.158505 F75
G02 X110.375580 Y117.251162 Z2 I-1.417270 J-3.527813
G02 X111.203226 Y116.583050 Z2 I-2.020190 J-3.349267
G03 X112.122690 Y115.616711 Z2 I91.857653 J86.481318
G02 X112.602407 Y114.941406 Z2 I-2.022174 J-1.944536
G03 X113.063660 Y114.305369 Z2 I2.227134 J1.129844
G03 X113.631327 Y113.904263 Z2 I1.450327 J1.450331
G02 X114.250000 Y113.484864 Z2 I-1.070038 J-2.244474
G02 X115.689478 Y112.076628 Z2 I-24.583748 J-26.568979
G03 X117.125000 Y110.616711 Z2 I87.370986 J84.475266
G03 X118.997585 Y109.076100 Z2 I8.856359 J8.856391
G02 X120.115450 Y107.241711 Z2 I-1.430390 J-2.129475
G02 X119.942242 Y106.546211 Z2 I-1.012036 J-0.117280
G02 X119.494600 Y105.991711 Z2 I-3.881812 J2.675810
G02 X118.508296 Y104.987449 Z2 I-23.789226 J22.377376
G03 X117.500000 Y103.991711 Z2 I78.978488 J-80.982888
G03 X116.073322 Y102.539162 Z2 I80.134554 J-80.134211
G02 X114.625000 Y101.137930 Z2 I-21.028562 J20.286135
G02 X113.725488 Y100.504686 Z2 I-3.053974 J3.382627
G03 X112.927280 Y99.928051 Z2 I1.752615 J-3.266836
G03 X112.562873 Y99.413744 Z2 I1.115842 J-1.176871
G02 X112.221930 Y98.866711 Z2 I-2.161992 J0.967715
G02 X110.944355 Y97.498252 Z2 I-12.578016 J10.462075
G02 X110.020060 Y96.725311 Z2 I-6.306732 J6.602575
G02 X109.763005 Y96.566854 Z2 I-1.142270 J1.565305
G03 X109.625000 Y96.491711 Z2 I1.483909 J-2.889588
G00 Z0.000000

(End cutting path id: path18)


(Start cutting path id: path18)
(Change tool to Default tool)

G00 Z0.000000
G00 X134.750000 Y116.616700

G01 Z2 F100.0(Penetrate)
G02 X134.360951 Y116.390523 Z2 I-1.357142 J1.886734 F75
G02 X133.750000 Y116.244111 Z2 I-0.677243 J1.478116
G02 X132.598352 Y116.251447 Z2 I-0.498079 J12.208503
G03 X131.375190 Y116.234611 Z2 I-0.486648 J-9.084984
G03 X130.794728 Y116.055682 Z2 I0.114094 J-1.401130
G03 X130.500000 Y115.866700 Z2 I1.620512 J-2.851594
G00 Z0.000000

(End cutting path id: path18)


(Start cutting path id: path18)
(Change tool to Default tool)

G00 Z0.000000
G00 X113.000000 Y114.241700

G01 Z2 F100.0(Penetrate)
G02 X112.598258 Y113.842012 Z2 I-78.016109 J78.015297 F75
G03 X112.001830 Y113.241700 Z2 I35.533331 J-35.899869
G03 X110.943902 Y112.086552 Z2 I17.360363 J-16.961293
G02 X110.019580 Y111.209195 Z2 I-4.737966 J4.066011
G02 X109.746806 Y111.049230 Z2 I-0.764212 J0.990593
G03 X109.625000 Y110.991700 Z2 I0.704210 J-1.648702
G00 Z0.000000

(End cutting path id: path18)


(Start cutting path id: path18)
(Change tool to Default tool)

G00 Z0.000000
G00 X109.500000 Y110.991700

G01 Z2 F100.0(Penetrate)
G01 X109.625000 Y110.991700 Z2 F75
G00 Z0.000000

(End cutting path id: path18)


(Start cutting path id: path18)
(Change tool to Default tool)

G00 Z0.000000
G00 X109.500000 Y103.366700

G01 Z2 F100.0(Penetrate)
G01 X110.197530 Y102.956979 Z2 F75
G01 X112.067030 Y100.991700 Z2
G01 X112.875000 Y99.991700 Z2
G00 Z0.000000

(End cutting path id: path18)


(Start cutting path id: path18)
(Change tool to Default tool)

G00 Z0.000000
G00 X130.500000 Y98.491700

G01 Z2 F100.0(Penetrate)
G02 X131.258954 Y100.113898 Z2 I3.115719 J-0.469065 F75
G02 X133.000000 Y101.677945 Z2 I7.754137 J-6.880594
G02 X133.855385 Y102.080872 Z2 I1.543934 J-2.168237
G02 X134.500000 Y102.241700 Z2 I5.009522 J-18.706433
G00 Z0.000000

(End cutting path id: path18)


(Start cutting path id: path18)
(Change tool to Default tool)

G00 Z0.000000
G00 X133.625000 Y97.616700

G01 Z2 F100.0(Penetrate)
G02 X133.377503 Y96.201706 Z2 I-7.593135 J0.598977 F75
G02 X132.648630 Y93.991700 Z2 I-22.022722 J6.038024
G02 X132.311378 Y93.155057 Z2 I-30.868259 J11.956764
G03 X132.071180 Y92.491700 Z2 I6.589240 J-2.761089
G01 X131.483310 Y91.531440 Z2
G02 X129.334905 Y91.339568 Z2 I-1.568230 J5.435737
G03 X126.375000 Y91.491740 Z2 I-2.959905 J-28.710606
G00 Z0.000000

(End cutting path id: path18)


(Start cutting path id: path18)
(Change tool to Default tool)

G00 Z0.000000
G00 X109.500000 Y96.491740

G01 Z2 F100.0(Penetrate)
G01 X109.625000 Y96.491740 Z2 F75
G00 Z0.000000

(End cutting path id: path18)


(Footer)
M5
G00 X0.0000 Y0.0000
M2
(Using default footer. To add your own footer create file "footer" in the output dir.)
(end)
%