%
(Header)
(Generated by gcodetools from Inkscape.)
(Using default header. To add your own header create file "header" in the output dir.)
M3
(Header end.)
G21 (All units in mm)

(Start cutting path id: path14)
(Change tool to Default tool)

G00 Z0.000000
G00 X180.500000 Y163.116700

G01 Z2 F100.0(Penetrate)
G01 X181.375000 Y163.116700 Z2 F75
G00 Z0.000000

(End cutting path id: path14)


(Start cutting path id: path14)
(Change tool to Default tool)

G00 Z0.000000
G00 X147.375000 Y161.366700

G01 Z2 F100.0(Penetrate)
G02 X146.186446 Y161.891051 Z2 I0.788257 J3.395982 F75
G02 X145.750000 Y162.241700 Z2 I2.149010 J3.121778
G01 X146.145060 Y162.618241 Z2
G01 X147.122590 Y162.949551 Z2
G01 X147.555170 Y160.991700 Z2
G03 X147.770350 Y160.322625 Z2 I2.119744 J0.312588
G03 X148.146800 Y159.741700 Z2 I3.110563 J1.603266
G03 X149.149689 Y158.561505 Z2 I19.966628 J15.950755
G02 X150.173610 Y157.366700 Z2 I-22.342154 J-20.182852
G02 X150.677598 Y156.722575 Z2 I-17.199167 J-13.976520
G03 X151.179880 Y156.165503 Z2 I3.399649 J2.560305
G03 X151.539410 Y155.907915 Z2 I1.187269 J1.277438
G02 X151.971640 Y155.621041 Z2 I-1.348661 J-2.501066
G02 X152.333162 Y155.073689 Z2 I-0.674400 J-0.838503
G03 X152.595490 Y154.366700 Z2 I4.468722 J1.255956
G03 X153.483985 Y152.906098 Z2 I7.063181 J3.296045
G03 X154.501830 Y151.630204 Z2 I38.094120 J29.345667
G01 X155.622590 Y151.018321 Z2
G01 X156.250000 Y152.366700 Z2
G02 X156.269404 Y153.762234 Z2 I55.999923 J-0.080758
G03 X156.244000 Y155.116507 Z2 I-15.009314 J0.395819
G01 X155.845950 Y155.897370 Z2
G03 X155.320410 Y156.001121 Z2 I-0.485100 J-1.074310
G02 X154.750000 Y155.991700 Z2 I-0.549821 J16.016601
G03 X152.830498 Y155.851979 Z2 I-0.016362 J-13.030265
G03 X152.250000 Y155.616700 Z2 I0.193627 J-1.311495
G00 Z0.000000

(End cutting path id: path14)


(Start cutting path id: path14)
(Change tool to Default tool)

G00 Z0.000000
G00 X156.125000 Y162.741700

G01 Z2 F100.0(Penetrate)
G03 X156.271909 Y158.815713 Z2 I52.532205 J0.000000 F75
G02 X156.125000 Y156.116700 Z2 I-10.461849 J-0.784058
G00 Z0.000000

(End cutting path id: path14)


(Start cutting path id: path14)
(Change tool to Default tool)

G00 Z0.000000
G00 X179.000000 Y132.116700

G01 Z2 F100.0(Penetrate)
G02 X175.268521 Y135.989736 Z2 I102.171338 J102.171095 F75
G02 X171.678050 Y139.991700 Z2 I116.452180 J108.089884
G03 X170.967476 Y140.761057 Z2 I-12.617315 J-10.940462
G02 X170.251830 Y141.491700 Z2 I179.548597 J176.579079
G02 X169.726888 Y142.068160 Z2 I8.129547 J7.930247
G03 X169.238810 Y142.616700 Z2 I-12.263849 J-10.420689
G03 X168.749186 Y143.119706 Z2 I-11.695310 J-10.894371
G02 X168.261190 Y143.614867 Z2 I15.455810 J15.720205
G03 X167.746681 Y144.137749 Z2 I-17.703658 J-16.905594
G02 X167.253090 Y144.627889 Z2 I71.718735 J72.717285
G02 X166.157487 Y145.773994 Z2 I24.767504 J24.772873
G03 X165.035690 Y146.980511 Z2 I-69.219754 J-63.234440
G03 X164.544821 Y147.451110 Z2 I-5.077970 J-4.805388
G02 X164.164060 Y147.993533 Z2 I0.903250 J1.038899
G02 X164.097013 Y148.487590 Z2 I1.002502 J0.387625
G03 X164.124560 Y148.991700 Z2 I-5.634779 J0.560722
G02 X164.158623 Y150.654081 Z2 I79.797554 J-0.803547
G03 X164.103860 Y152.366700 Z2 I-13.629554 J0.421364
G02 X163.958546 Y156.298490 Z2 I33.803559 J3.217918
G03 X164.000000 Y160.241700 Z2 I-187.523050 J3.943210
G01 X164.393520 Y162.701962 Z2
G02 X165.133641 Y162.691408 Z2 I0.353039 J-1.198961
G02 X165.750000 Y162.348183 Z2 I-0.568931 J-1.746716
G02 X166.600187 Y161.489270 Z2 I-4.376284 J-5.182057
G03 X167.386190 Y160.637921 Z2 I8.206772 J6.788340
G03 X167.991155 Y160.081605 Z2 I10.475974 J10.784977
G02 X168.625000 Y159.491603 Z2 I-8.514021 J-9.782182
G02 X170.314229 Y157.799852 Z2 I-266.402185 J-267.694142
G03 X172.000000 Y156.116217 Z2 I186.040124 J184.590463
G02 X175.753010 Y152.373160 Z2 I-484.023999 J-489.064107
G03 X179.500000 Y148.616700 Z2 I1490.494434 J1482.989785
G00 Z0.000000

(End cutting path id: path14)


(Start cutting path id: path14)
(Change tool to Default tool)

G00 Z0.000000
G00 X145.500000 Y162.241700

G01 Z2 F100.0(Penetrate)
G01 X145.750000 Y162.241700 Z2 F75
G00 Z0.000000

(End cutting path id: path14)


(Start cutting path id: path14)
(Change tool to Default tool)

G00 Z0.000000
G00 X155.875000 Y150.741700

G01 Z2 F100.0(Penetrate)
G03 X156.062727 Y149.612786 Z2 I18.341582 J2.469949 F75
G03 X156.638500 Y148.246619 Z2 I3.603855 J0.714437
G03 X157.035185 Y147.800166 Z2 I1.983217 J1.362681
G02 X157.461230 Y147.355511 Z2 I-2.340980 J-2.669437
G02 X157.821116 Y146.602352 Z2 I-1.418078 J-1.140171
G03 X158.157700 Y145.616700 Z2 I4.444611 J0.967466
G02 X161.167095 Y139.274505 Z2 I-4162.577808 J-1979.043523
G02 X163.791670 Y132.741700 Z2 I-52.822788 J-25.015341
G03 X164.238614 Y131.433389 Z2 I88.065447 J29.354354
G03 X164.636000 Y130.491700 Z2 I7.700182 J2.694729
G03 X164.842294 Y130.109244 Z2 I5.953145 J2.964228
G02 X165.092500 Y129.491700 Z2 I-2.028677 J-1.181402
G02 X165.257431 Y127.823833 Z2 I-5.669272 J-1.402709
G03 X165.250000 Y127.491700 Z2 I7.200666 J-0.327262
G00 Z0.000000

(End cutting path id: path14)


(Start cutting path id: path14)
(Change tool to Default tool)

G00 Z0.000000
G00 X157.625000 Y147.366700

G01 Z2 F100.0(Penetrate)
G02 X157.869898 Y147.525357 Z2 I1.735162 J-2.410009 F75
G02 X158.500190 Y147.755782 Z2 I0.965932 J-1.664911
G02 X160.635513 Y147.907857 Z2 I1.794972 J-10.136338
G03 X163.124420 Y147.866700 Z2 I2.488907 J75.236757
G01 X163.875000 Y147.866700 Z2
G00 Z0.000000

(End cutting path id: path14)


(Start cutting path id: path14)
(Change tool to Default tool)

G00 Z0.000000
G00 X177.125000 Y140.116700

G01 Z2 F100.0(Penetrate)
G01 X177.125000 Y139.991700 Z2 F75
G00 Z0.000000

(End cutting path id: path14)


(Start cutting path id: path14)
(Change tool to Default tool)

G00 Z0.000000
G00 X165.375000 Y129.491700

G01 Z2 F100.0(Penetrate)
G01 X166.375000 Y129.081979 Z2 F75
G01 X167.358220 Y128.242181 Z2
G01 X167.875000 Y127.491700 Z2
G00 Z0.000000

(End cutting path id: path14)


(Footer)
M5
G00 X0.0000 Y0.0000
M2
(Using default footer. To add your own footer create file "footer" in the output dir.)
(end)
%