%
(Header)
(Generated by gcodetools from Inkscape.)
(Using default header. To add your own header create file "header" in the output dir.)
M3
(Header end.)
G21 (All units in mm)

(Start cutting path id: path29)
(Change tool to Default tool)

G00 Z0.000000
G00 X171.125000 Y37.375000

G01 Z2 F100.0(Penetrate)
G02 X170.281147 Y37.113048 Z2 I-2.444168 J6.383469 F75.000000
G03 X169.250000 Y36.662230 Z2 I0.753057 J-3.127122
G03 X167.662442 Y35.250823 Z2 I4.260499 J-6.390782
G02 X166.000000 Y33.505500 Z2 I-16.470424 J14.023874
G02 X165.218188 Y32.998243 Z2 I-1.797247 J1.913898
G03 X164.528550 Y32.614290 Z2 I1.379341 J-3.288834
G01 X164.125000 Y30.875000 Z2
G01 X164.125000 Y27.750000 Z2
G03 X164.189094 Y25.499346 Z2 I39.547827 J0.000003
G02 X164.250000 Y23.375000 Z2 I-37.521601 J-2.138811
G02 X164.250190 Y20.960296 Z2 I-3941.959293 J-1.584444
G03 X164.250000 Y18.625000 Z2 I7987.255162 J-1.534000
G01 X164.757330 Y17.170430 Z2
G03 X165.402629 Y17.279337 Z2 I0.142367 J1.122664
G03 X166.000000 Y17.659720 Z2 I-1.480660 J2.984559
G03 X167.264873 Y18.838054 Z2 I-7.054984 J8.841159
G02 X168.500000 Y20.125000 Z2 I31.936483 J-29.414410
G03 X172.439202 Y24.189257 Z2 I-128.086608 J128.086608
G02 X176.375000 Y28.250000 Z2 I131.911689 J-123.915148
G01 X179.625000 Y31.500000 Z2
G00 Z0.000000

(End cutting path id: path29)


(Start cutting path id: path29)
(Change tool to Default tool)

G00 Z0.000000
G00 X173.000000 Y18.500000

G01 Z2 F100.0(Penetrate)
G02 X173.539274 Y16.177047 Z2 I-14.559284 J-4.604013 F75.000000
G02 X173.854260 Y13.750000 Z2 I-57.942537 J-8.753840
G01 X173.794660 Y12.429200 Z2
G01 X172.875000 Y12.121530 Z2
G03 X171.731602 Y11.712821 Z2 I0.214127 J-2.402766
G03 X170.784820 Y10.863810 Z2 I2.692467 J-3.954941
G03 X170.346554 Y10.015911 Z2 I1.596042 J-1.362185
G03 X170.140720 Y9.125190 Z2 I21.600877 J-5.460834
G01 X169.617670 Y8.402290 Z2
G02 X169.086182 Y8.403812 Z2 I-0.262202 J1.237557
G02 X168.500000 Y8.543880 Z2 I3.201018 J14.692817
G02 X167.156359 Y9.075418 Z2 I1.494653 J5.742258
G03 X165.750000 Y9.500000 Z2 I-1.721303 J-3.160078
G00 Z0.000000

(End cutting path id: path29)


(Start cutting path id: path29)
(Change tool to Default tool)

G00 Z0.000000
G00 X163.125000 Y15.375000

G01 Z2 F100.0(Penetrate)
G02 X162.205225 Y13.949348 Z2 I-5.072497 J2.263048 F75.000000
G02 X160.250000 Y11.875000 Z2 I-36.062265 J32.032692
G01 X152.000000 Y3.625000 Z2
G00 Z0.000000

(End cutting path id: path29)


(Start cutting path id: path29)
(Change tool to Default tool)

G00 Z0.000000
G00 X145.500000 Y13.250000

G01 Z2 F100.0(Penetrate)
G01 X145.625000 Y13.250000 Z2 F75.000000
G00 Z0.000000

(End cutting path id: path29)


(Start cutting path id: path29)
(Change tool to Default tool)

G00 Z0.000000
G00 X145.500000 Y15.875000

G01 Z2 F100.0(Penetrate)
G02 X146.215598 Y15.874523 Z2 I-0.000000 J-537.091206 F75.000000
G02 X147.375000 Y15.500000 Z2 I-0.002651 J-1.990035
G00 Z0.000000

(End cutting path id: path29)


(Start cutting path id: path29)
(Change tool to Default tool)

G00 Z0.000000
G00 X145.500000 Y24.500000

G01 Z2 F100.0(Penetrate)
G01 X145.625000 Y24.500000 Z2 F75.000000
G00 Z0.000000

(End cutting path id: path29)


(Start cutting path id: path29)
(Change tool to Default tool)

G00 Z0.000000
G00 X145.499990 Y32.375000

G01 Z2 F100.0(Penetrate)
G01 X145.624990 Y32.375000 Z2 F75.000000
G00 Z0.000000

(End cutting path id: path29)


(Start cutting path id: path29)
(Change tool to Default tool)

G00 Z0.000000
G00 X148.375000 Y36.625000

G01 Z2 F100.0(Penetrate)
G01 X148.499520 Y34.000000 Z2 F75.000000
G01 X148.335260 Y33.013600 Z2
G01 X147.375000 Y32.505500 Z2
G01 X146.375580 Y32.464300 Z2
G01 X145.625000 Y32.375000 Z2
G00 Z0.000000

(End cutting path id: path29)


(Start cutting path id: path29)
(Change tool to Default tool)

G00 Z0.000000
G00 X156.125000 Y36.625000

G01 Z2 F100.0(Penetrate)
G03 X156.186198 Y35.061705 Z2 I21.441548 J0.056517 F75.000000
G02 X156.250000 Y33.375000 Z2 I-22.263295 J-1.686705
G02 X156.241460 Y32.552476 Z2 I-39.615141 J-0.000000
G03 X156.271200 Y31.750000 Z2 I6.948056 J-0.144293
G02 X156.345111 Y30.854637 Z2 I-35.802818 J-3.406193
G02 X156.374980 Y30.000000 Z2 I-12.211733 J-0.854637
G02 X156.364769 Y29.030698 Z2 I-46.013171 J0.000000
G03 X156.386180 Y28.125000 Z2 I10.134150 J-0.213531
G03 X156.461398 Y27.215629 Z2 I32.060745 J2.194079
G02 X156.499890 Y26.375000 Z2 I-8.220557 J-0.797613
G02 X156.472566 Y25.775786 Z2 I-7.320584 J0.033581
G02 X156.282200 Y25.268520 Z2 I-1.002907 J0.087017
G02 X155.022995 Y24.692872 Z2 I-1.143598 J0.836517
G03 X153.624990 Y24.750000 Z2 I-1.398005 J-17.076973
G02 X152.760212 Y24.752361 Z2 I0.000000 J158.400491
G03 X151.874990 Y24.696900 Z2 I-0.035617 J-6.523865
G02 X150.904539 Y24.629340 Z2 I-1.037634 J7.901159
G02 X149.874990 Y24.625000 Z2 I-1.029549 J122.117183
G03 X147.052308 Y24.541980 Z2 I0.000000 J-48.027098
G02 X145.624990 Y24.500000 Z2 I-1.427318 J24.243422
G00 Z0.000000

(End cutting path id: path29)


(Start cutting path id: path29)
(Change tool to Default tool)

G00 Z0.000000
G00 X164.500000 Y16.875000

G01 Z2 F100.0(Penetrate)
G02 X163.967023 Y16.029824 Z2 I-2.109746 J0.739791 F75.000000
G02 X163.250000 Y15.704860 Z2 I-0.793766 J0.797893
G02 X162.238232 Y15.757432 Z2 I-0.288148 J4.216669
G03 X160.875000 Y15.875000 Z2 I-1.363232 J-7.844762
G01 X149.625000 Y15.875000 Z2
G02 X148.432980 Y15.875867 Z2 I-0.000000 J819.285735
G03 X147.534720 Y15.543400 Z2 I-0.002000 J-1.374291
G03 X147.167515 Y14.982976 Z2 I0.789618 J-0.917892
G02 X146.965280 Y14.500000 Z2 I-2.586908 J0.799378
G02 X146.147871 Y13.570585 Z2 I-2.411872 J1.297054
G02 X145.625000 Y13.250000 Z2 I-2.500668 J3.491871
G00 Z0.000000

(End cutting path id: path29)


(Start cutting path id: path29)
(Change tool to Default tool)

G00 Z0.000000
G00 X173.875000 Y12.375000

G01 Z2 F100.0(Penetrate)
G02 X174.622188 Y10.168018 Z2 I-4.486690 J-2.748973 F75.000000
G02 X174.884360 Y7.500000 Z2 I-254.619149 J-26.366918
G01 X174.710260 Y6.183350 Z2
G01 X173.500000 Y6.293880 Z2
G02 X171.201330 Y7.169380 Z2 I2.829964 J10.885601
G02 X169.875000 Y8.250000 Z2 I1.869427 J3.648760
G00 Z0.000000

(End cutting path id: path29)


(Start cutting path id: path29)
(Change tool to Default tool)

G00 Z0.000000
G00 X164.124990 Y36.625000

G01 Z2 F100.0(Penetrate)
G02 X164.061951 Y34.018798 Z2 I-53.905454 J-0.000000 F75.000000
G03 X164.374990 Y32.625000 Z2 I2.681527 J-0.129797
G00 Z0.000000

(End cutting path id: path29)


(Footer)
M5
M2
(Using default footer. To add your own footer create file "footer" in the output dir.)
(end)
%