%
(Header)
(Generated by gcodetools from Inkscape.)
(Using default header. To add your own header create file "header" in the output dir.)
M3
(Header end.)
G21 (All units in mm)

(Start cutting path id: path6)
(Change tool to Default tool)

G00 Z0.000000
G00 X51.500000 Y197.366700

G01 Z2 F100.0(Penetrate)
G02 X50.110795 Y195.923465 Z2 I-14.250186 J12.326494 F75
G03 X48.500000 Y194.366700 Z2 I44.828747 J-47.996317
G01 X43.125000 Y188.991700 Z2
G02 X42.139394 Y188.010929 Z2 I-199.874195 J199.873869
G03 X41.251832 Y187.116700 Z2 I51.185761 J-51.691742
G03 X40.837798 Y186.667703 Z2 I7.783299 J-7.592618
G02 X40.464313 Y186.241700 Z2 I-71.589742 J62.387358
G02 X39.052888 Y184.736059 Z2 I-25.523127 J22.511645
G02 X38.020062 Y183.850303 Z2 I-6.148926 J6.124848
G02 X37.762857 Y183.691758 Z2 I-1.142488 J1.565536
G03 X37.625000 Y183.616700 Z2 I1.481083 J-2.884398
G00 Z0.000000

(End cutting path id: path6)


(Start cutting path id: path6)
(Change tool to Default tool)

G00 Z0.000000
G00 X69.000000 Y197.366700

G01 Z2 F100.0(Penetrate)
G03 X66.151942 Y194.666076 Z2 I91.746587 J-99.607345 F75
G02 X63.126833 Y191.752984 Z2 I-216.062309 J221.343288
G03 X61.073672 Y189.772575 Z2 I129.002540 J-135.796081
G02 X59.000000 Y187.847314 Z2 I-37.114430 J37.896042
G02 X58.315762 Y187.267825 Z2 I-15.647799 J17.782603
G02 X57.625000 Y186.709582 Z2 I-68.822311 J84.453273
G02 X56.705627 Y186.025409 Z2 I-9.996057 J12.472631
G03 X55.750000 Y185.239867 Z2 I4.180474 J-6.059667
G03 X54.445213 Y183.949101 Z2 I81.503026 J-83.693230
G02 X53.125000 Y182.706014 Z2 I-19.758412 J19.661693
G03 X52.184441 Y181.804750 Z2 I10.440097 J-11.836696
G02 X51.250000 Y180.871619 Z2 I-23.058291 J22.156227
G02 X50.817084 Y180.489730 Z2 I-4.849447 J5.061100
G03 X50.450424 Y180.095481 Z2 I1.215722 J-1.498271
G03 X50.244228 Y179.423258 Z2 I0.940594 J-0.656251
G02 X50.250000 Y178.616700 Z2 I-59.559812 J-0.829524
G03 X50.305507 Y176.257307 Z2 I51.008592 J0.019672
G02 X50.375579 Y174.116700 Z2 I-76.770632 J-3.584519
G01 X50.664738 Y173.229644 Z2
G01 X52.375000 Y173.642258 Z2
G02 X55.037981 Y175.156852 Z2 I70.833818 J-121.442690
G02 X57.750000 Y176.585835 Z2 I34.903656 J-62.954468
G02 X62.285626 Y178.646285 Z2 I29.920087 J-59.840152
G02 X66.875000 Y180.452252 Z2 I65.569665 J-159.893170
G03 X67.916467 Y180.893648 Z2 I-4.960781 J13.154251
G03 X68.625000 Y181.267163 Z2 I-3.884403 J8.227226
G03 X68.941548 Y181.461980 Z2 I-4.166178 J7.123975
G02 X69.500000 Y181.706784 Z2 I1.032498 J-1.595980
G02 X70.182899 Y181.772327 Z2 I0.549326 J-2.133119
G03 X70.750000 Y181.795234 Z2 I0.170590 J2.807968
G03 X71.515408 Y181.947607 Z2 I-0.998710 J7.015371
G02 X72.250000 Y182.129338 Z2 I10.374377 J-40.359731
G02 X73.143012 Y182.239379 Z2 I0.940889 J-3.957031
G02 X73.375000 Y182.241704 Z2 I0.780576 J-66.308733
G00 Z0.000000

(End cutting path id: path6)


(Start cutting path id: path6)
(Change tool to Default tool)

G00 Z0.000000
G00 X61.750000 Y197.241700

G01 Z2 F100.0(Penetrate)
G01 X61.625000 Y197.116700 Z2 F75
G00 Z0.000000

(End cutting path id: path6)


(Start cutting path id: path6)
(Change tool to Default tool)

G00 Z0.000000
G00 X57.000000 Y192.866700

G01 Z2 F100.0(Penetrate)
G01 X57.125000 Y192.866700 Z2 F75
G00 Z0.000000

(End cutting path id: path6)


(Start cutting path id: path6)
(Change tool to Default tool)

G00 Z0.000000
G00 X52.875000 Y187.991700

G01 Z2 F100.0(Penetrate)
G01 X52.500000 Y187.866700 Z2 F75
G00 Z0.000000

(End cutting path id: path6)


(Start cutting path id: path6)
(Change tool to Default tool)

G00 Z0.000000
G00 X73.375000 Y186.991700

G01 Z2 F100.0(Penetrate)
G02 X73.000829 Y186.172893 Z2 I-1.166813 J0.038303 F75
G02 X72.499905 Y185.723759 Z2 I-14.831502 J16.037823
G03 X71.451838 Y184.775445 Z2 I23.261307 J-26.761467
G03 X70.302372 Y183.491700 Z2 I6.947579 J-7.377356
G03 X69.784894 Y182.439348 Z2 I2.505023 J-1.885213
G02 X69.625000 Y181.991700 Z2 I-3.091637 J0.851912
G00 Z0.000000

(End cutting path id: path6)


(Start cutting path id: path6)
(Change tool to Default tool)

G00 Z0.000000
G00 X37.500000 Y183.616700

G01 Z2 F100.0(Penetrate)
G01 X37.625000 Y183.616700 Z2 F75
G00 Z0.000000

(End cutting path id: path6)


(Start cutting path id: path6)
(Change tool to Default tool)

G00 Z0.000000
G00 X47.500000 Y182.866700

G01 Z2 F100.0(Penetrate)
G01 X48.125000 Y183.241700 Z2 F75
G00 Z0.000000

(End cutting path id: path6)


(Start cutting path id: path6)
(Change tool to Default tool)

G00 Z0.000000
G00 X37.625000 Y179.991700

G01 Z2 F100.0(Penetrate)
G01 X38.253086 Y179.991700 Z2 F75
G01 X41.750000 Y179.991700 Z2
G03 X44.317603 Y180.054324 Z2 I-0.000000 J52.667181
G02 X46.875000 Y180.116700 Z2 I2.557397 J-52.395444
G03 X48.099339 Y180.121238 Z2 I-0.000000 J165.146887
G02 X49.250000 Y180.116122 Z2 I0.359642 J-48.509591
G02 X49.856340 Y180.025984 Z2 I-0.038457 J-2.343136
G02 X50.250000 Y179.866700 Z2 I-0.553532 J-1.934106
G00 Z0.000000

(End cutting path id: path6)


(Start cutting path id: path6)
(Change tool to Default tool)

G00 Z0.000000
G00 X37.500000 Y179.991700

G01 Z2 F100.0(Penetrate)
G01 X37.625000 Y179.991700 Z2 F75
G00 Z0.000000

(End cutting path id: path6)


(Start cutting path id: path6)
(Change tool to Default tool)

G00 Z0.000000
G00 X50.750000 Y172.991700

G01 Z2 F100.0(Penetrate)
G02 X49.999346 Y172.214826 Z2 I-4.947505 J4.029425 F75
G02 X48.875000 Y171.631265 Z2 I-1.759369 J2.014857
G02 X48.446097 Y171.540794 Z2 I-1.636862 J6.698064
G03 X47.937403 Y171.328795 Z2 I0.222434 J-1.250042
G03 X47.464287 Y170.758033 Z2 I0.814818 J-1.156887
G02 X46.749421 Y169.854066 Z2 I-2.188263 J0.995855
G03 X45.253413 Y168.656469 Z2 I38.106150 J-49.134443
G02 X43.750000 Y167.574551 Z2 I-8.851679 J10.714607
G02 X43.196838 Y167.319749 Z2 I-1.286850 J2.065837
G03 X42.674190 Y167.028931 Z2 I0.450320 J-1.424353
G03 X42.329020 Y166.572989 Z2 I0.879032 J-1.024094
G02 X42.064525 Y166.116700 Z2 I-2.637445 J1.224037
G02 X41.375405 Y165.322191 Z2 I-4.371546 J3.095565
G02 X40.626832 Y164.658559 Z2 I-10.530136 J11.123919
G01 X39.483410 Y163.531438 Z2
G02 X38.715440 Y163.452030 Z2 I-0.607551 J2.122442
G03 X37.625000 Y163.491700 Z2 I-1.090440 J-14.966974
G00 Z0.000000

(End cutting path id: path6)


(Start cutting path id: path6)
(Change tool to Default tool)

G00 Z0.000000
G00 X37.500000 Y171.866700

G01 Z2 F100.0(Penetrate)
G01 X37.769869 Y171.866700 Z2 F75
G03 X38.817964 Y171.868934 Z2 I-0.000000 J245.813209
G02 X41.000000 Y171.866605 Z2 I0.872554 J-204.641161
G02 X41.623017 Y171.808766 Z2 I-0.023143 J-3.633660
G03 X42.250000 Y171.726655 Z2 I1.158427 J6.410680
G03 X42.731416 Y171.723108 Z2 I0.264531 J3.231374
G02 X43.250000 Y171.741605 Z2 I0.554764 J-8.274513
G03 X45.251267 Y171.788761 Z2 I-0.225971 J52.080167
G02 X46.750000 Y171.807385 Z2 I1.056077 J-24.672210
G02 X47.441964 Y171.588151 Z2 I-0.022835 J-1.273706
G02 X47.750000 Y171.366702 Z2 I-3.859651 J-5.693757
G00 Z0.000000

(End cutting path id: path6)


(Start cutting path id: path6)
(Change tool to Default tool)

G00 Z0.000000
G00 X42.125000 Y171.616702

G01 Z2 F100.0(Penetrate)
G03 X42.141377 Y170.131385 Z2 I67.362950 J-0.000000 F75
G03 X42.257041 Y167.991895 Z2 I33.520369 J0.739286
G03 X42.439637 Y167.405473 Z2 I1.428278 J0.123089
G03 X42.625000 Y167.116702 Z2 I2.818907 J1.605584
G00 Z0.000000

(End cutting path id: path6)


(Start cutting path id: path6)
(Change tool to Default tool)

G00 Z0.000000
G00 X37.500000 Y163.491700

G01 Z2 F100.0(Penetrate)
G01 X37.625000 Y163.491700 Z2 F75
G00 Z0.000000

(End cutting path id: path6)


(Footer)
M5
;G00 X0.0000 Y0.0000
M2
(Using default footer. To add your own footer create file "footer" in the output dir.)
(end)
%