%
(Header)
(Generated by gcodetools from Inkscape.)
(Using default header. To add your own header create file "header" in the output dir.)
M3
(Header end.)
G21 (All units in mm)

(Start cutting path id: path28)
(Change tool to Default tool)

G00 Z0.000000
G00 X145.375000 Y50.491700

G01 Z2 F100.0(Penetrate)
G02 X145.226214 Y50.481015 Z2 I-0.555286 J6.691197 F75
G03 X144.979940 Y50.455900 Z2 I0.182606 J-3.010590
G02 X143.585340 Y50.362239 Z2 I-1.313749 J9.132032
G03 X141.500000 Y50.365400 Z2 I-1.260717 J-143.856312
G01 X140.425830 Y50.753900 Z2
G01 X141.013500 Y52.114820 Z2
G02 X142.258821 Y53.306588 Z2 I9.660438 J-8.848014
G03 X143.500000 Y54.351800 Z2 I-225.938521 J269.559318
G02 X144.771613 Y54.998806 Z2 I2.007978 J-2.373336
G02 X145.375000 Y55.116650 Z2 I1.574505 J-6.458135
G00 Z0.000000

(End cutting path id: path28)


(Start cutting path id: path28)
(Change tool to Default tool)

G00 Z0.000000
G00 X145.375000 Y42.491650

G01 Z2 F100.0(Penetrate)
G02 X145.181274 Y42.491772 Z2 I0.000071 J154.061156 F75
G03 X144.499810 Y42.491650 Z2 I-0.298376 J-237.246127
G03 X143.059673 Y42.431487 Z2 I0.025281 J-17.871705
G02 X141.375000 Y42.366750 Z2 I-1.582894 J19.239412
G01 X140.325420 Y42.584430 Z2
G01 X140.125000 Y43.866650 Z2
G01 X140.125000 Y48.866650 Z2
G03 X140.074310 Y50.172394 Z2 I-16.842818 J0.000000
G02 X140.125000 Y50.616650 Z2 I1.172826 J0.091198
G00 Z0.000000

(End cutting path id: path28)


(Start cutting path id: path28)
(Change tool to Default tool)

G00 Z0.000000
G00 X109.625000 Y28.366650

G01 Z2 F100.0(Penetrate)
G03 X109.830375 Y28.486547 Z2 I-10.499021 J18.219876 F75
G03 X110.375580 Y28.883430 Z2 I-1.806331 J3.054310
G03 X111.378318 Y29.846539 Z2 I-11.286948 J12.754930
G02 X112.500000 Y30.991650 Z2 I55.955407 J-53.688613
G02 X115.209788 Y33.661985 Z2 I183.431300 J-183.431300
G03 X117.869500 Y36.366650 Z2 I-57.341051 J59.048108
G03 X118.527185 Y37.398823 Z2 I-2.403826 J2.257303
G03 X118.713830 Y37.866550 Z2 I-240.802631 J96.362402
G02 X118.813816 Y38.090820 Z2 I2.794581 J-1.111481
G02 X119.263500 Y38.676930 Z2 I1.714650 J-0.849978
G02 X120.242319 Y39.384049 Z2 I4.141305 J-4.701519
G02 X121.375000 Y40.006120 Z2 I12.138746 J-20.760277
G03 X122.322676 Y40.525204 Z2 I-9.600549 J18.652033
G02 X123.250000 Y41.022130 Z2 I7.572659 J-13.017795
G02 X124.759657 Y41.726721 Z2 I18.092842 J-36.796168
G02 X126.250000 Y42.205960 Z2 I3.013734 J-6.815176
G02 X127.301684 Y42.373840 Z2 I2.287872 J-10.954280
G03 X128.223380 Y42.723810 Z2 I-0.218228 J1.963429
G03 X128.784543 Y43.337759 Z2 I-1.123722 J1.590539
G02 X129.376930 Y43.978630 Z2 I1.723735 J-0.999108
G02 X130.476113 Y44.653765 Z2 I6.902697 J-10.005886
G03 X131.625000 Y45.326820 Z2 I-9.868215 J18.161862
G03 X133.961813 Y46.836630 Z2 I-64.607078 J102.559112
G03 X136.250000 Y48.419700 Z2 I-38.175821 J57.624975
G03 X137.503775 Y49.402104 Z2 I-11.870922 J16.441296
G02 X138.750000 Y50.165460 Z2 I3.076543 J-3.623699
G02 X139.565999 Y50.422484 Z2 I1.830589 J-4.387918
G03 X139.875000 Y50.491650 Z2 I-6.552699 J29.999227
G00 Z0.000000

(End cutting path id: path28)


(Start cutting path id: path28)
(Change tool to Default tool)

G00 Z0.000000
G00 X128.375000 Y42.741650

G01 Z2 F100.0(Penetrate)
G03 X128.719727 Y42.450057 Z2 I3.472511 J3.755699 F75
G03 X129.625000 Y42.119060 Z2 I0.973938 J1.260257
G03 X130.731784 Y42.100749 Z2 I0.897955 J20.817214
G02 X131.625000 Y42.099260 Z2 I0.382930 J-38.206276
G03 X132.305073 Y42.099118 Z2 I0.345218 J24.851737
G03 X133.000000 Y42.127760 Z2 I-0.169050 J12.546328
G02 X135.404509 Y42.222878 Z2 I2.833205 J-41.181647
G02 X137.875000 Y42.241670 Z2 I4.616320 J-444.480620
G03 X138.754627 Y42.297749 Z2 I-0.043140 J7.603360
G02 X139.371910 Y42.372940 Z2 I84.043952 J-687.392921
G03 X139.823333 Y42.450679 Z2 I-0.555152 J4.573270
G03 X140.000000 Y42.491570 Z2 I-2.759034 J12.322306
G00 Z0.000000

(End cutting path id: path28)


(Start cutting path id: path28)
(Change tool to Default tool)

G00 Z0.000000
G00 X131.625000 Y41.866570

G01 Z2 F100.0(Penetrate)
G01 X131.625000 Y40.866570 Z2 F75
G01 X131.625000 Y39.116570 Z2
G02 X131.561996 Y37.169278 Z2 I-30.124404 J0.000000
G03 X131.500000 Y35.241570 Z2 I29.581500 J-1.916206
G01 X131.789740 Y33.980570 Z2
G01 X132.875000 Y33.866180 Z2
G02 X133.704856 Y33.867779 Z2 I0.590453 J-91.073445
G03 X134.625000 Y33.866570 Z2 I0.920141 J350.046091
G01 X141.750000 Y33.866570 Z2
G01 X144.499810 Y33.866570 Z2
G01 X145.375000 Y33.866570 Z2
G00 Z0.000000

(End cutting path id: path28)


(Start cutting path id: path28)
(Change tool to Default tool)

G00 Z0.000000
G00 X109.625000 Y36.241570

G01 Z2 F100.0(Penetrate)
G03 X109.845317 Y36.264102 Z2 I-0.436847 J5.359780 F75
G03 X110.500190 Y36.382870 Z2 I-0.715118 J5.807926
G03 X111.837419 Y36.732119 Z2 I-8.418419 J34.967668
G03 X113.625000 Y37.241570 Z2 I-85.387538 J303.002072
G03 X115.708621 Y37.941274 Z2 I-7.017305 J24.348787
G02 X117.500000 Y38.452700 Z2 I3.752648 J-9.751391
G02 X118.404523 Y38.546065 Z2 I0.993968 J-5.201396
G02 X118.875000 Y38.491600 Z2 I0.030358 J-1.797033
G00 Z0.000000

(End cutting path id: path28)


(Start cutting path id: path28)
(Change tool to Default tool)

G00 Z0.000000
G00 X109.500000 Y36.241600

G01 Z2 F100.0(Penetrate)
G01 X109.625000 Y36.241600 Z2 F75
G00 Z0.000000

(End cutting path id: path28)


(Start cutting path id: path28)
(Change tool to Default tool)

G00 Z0.000000
G00 X131.500000 Y33.741600

G01 Z2 F100.0(Penetrate)
G02 X130.528819 Y32.459341 Z2 I-3.466347 J1.616490 F75
G03 X129.125000 Y31.220380 Z2 I49.323227 J-57.301055
G03 X127.947247 Y30.090245 Z2 I18.700959 J-20.667669
G02 X126.750000 Y28.955910 Z2 I-16.509348 J16.225998
G03 X126.059872 Y28.286633 Z2 I6.728664 J-7.628745
G02 X125.375000 Y27.650940 Z2 I-4.931014 J4.625717
G02 X124.709156 Y27.212203 Z2 I-2.601279 J3.223178
G03 X124.000000 Y26.733880 Z2 I1.868000 J-3.534327
G02 X123.283678 Y26.203980 Z2 I-4.513480 J5.352236
G03 X122.625000 Y25.714980 Z2 I3.404842 J-5.274403
G03 X120.044767 Y23.305553 Z2 I24.225703 J-28.529371
G02 X117.875000 Y21.116600 Z2 I-128.958487 J125.658305
G00 Z0.000000

(End cutting path id: path28)


(Start cutting path id: path28)
(Change tool to Default tool)

G00 Z0.000000
G00 X136.000000 Y31.241700

G01 Z2 F100.0(Penetrate)
G01 X135.375000 Y30.741700 Z2 F75
G00 Z0.000000

(End cutting path id: path28)


(Start cutting path id: path28)
(Change tool to Default tool)

G00 Z0.000000
G00 X145.375000 Y30.491700

G01 Z2 F100.0(Penetrate)
G02 X145.218239 Y30.405843 Z2 I-2.074316 J3.601323 F75
G03 X144.979940 Y30.258100 Z2 I0.858437 J-1.650651
G03 X143.975358 Y29.390931 Z2 I4.793805 J-6.568912
G03 X142.254920 Y27.616700 Z2 I126.083238 J-123.981738
G03 X141.752476 Y27.056901 Z2 I8.615735 J-8.238367
G02 X141.245080 Y26.491700 Z2 I-9.177520 J7.728542
G02 X140.758688 Y25.999880 Z2 I-15.027063 J14.374803
G02 X140.250000 Y25.527390 Z2 I-9.412031 J9.623016
G03 X137.974271 Y23.477256 Z2 I96.054304 J-108.912187
G02 X135.750000 Y21.616700 Z2 I-20.786092 J22.589685
G00 Z0.000000

(End cutting path id: path28)


(Start cutting path id: path28)
(Change tool to Default tool)

G00 Z0.000000
G00 X132.000000 Y27.241700

G01 Z2 F100.0(Penetrate)
G01 X132.125000 Y27.241700 Z2 F75
G00 Z0.000000

(End cutting path id: path28)


(Start cutting path id: path28)
(Change tool to Default tool)

G00 Z0.000000
G00 X129.125000 Y24.741700

G01 Z2 F100.0(Penetrate)
G01 X129.250000 Y24.741700 Z2 F75
G00 Z0.000000

(End cutting path id: path28)


(Start cutting path id: path28)
(Change tool to Default tool)

G00 Z0.000000
G00 X126.000000 Y22.241700

G01 Z2 F100.0(Penetrate)
G01 X126.375000 Y22.241700 Z2 F75
G00 Z0.000000

(End cutting path id: path28)


(Footer)
M5
G00 X0.0000 Y0.0000
M2
(Using default footer. To add your own footer create file "footer" in the output dir.)
(end)
%