%
(Header)
(Generated by gcodetools from Inkscape.)
(Using default header. To add your own header create file "header" in the output dir.)
M3
(Header end.)
G21 (All units in mm)

(Start cutting path id: path5)
(Change tool to Default tool)

G00 Z0.000000
G00 X36.125000 Y197.366700

G01 Z2 F100.0(Penetrate)
G01 X31.250000 Y192.845481 Z2 F75
G03 X28.678493 Y190.494760 Z2 I220.266588 J-243.536489
G03 X26.125000 Y188.127889 Z2 I734.054774 J-794.494156
G02 X25.572067 Y187.640449 Z2 I-9.447868 J10.159944
G03 X25.021702 Y187.114867 Z2 I3.676400 J-4.400711
G03 X24.428448 Y186.421902 Z2 I9.891706 J-9.068818
G02 X23.837481 Y185.783559 Z2 I-4.669419 J3.730140
G03 X21.689581 Y183.746603 Z2 I129.213275 J-138.401886
G03 X19.638504 Y181.616700 Z2 I27.330380 J-28.371437
G03 X19.104694 Y180.701742 Z2 I1.979914 J-1.768331
G02 X18.596933 Y179.966622 Z2 I-1.545756 J0.524762
G03 X17.884330 Y179.289797 Z2 I4.434557 J-5.382526
G02 X17.233892 Y178.707557 Z2 I-3.225437 J2.948799
G02 X16.368791 Y178.190356 Z2 I-3.258601 J4.468421
G03 X15.375000 Y177.491217 Z2 I1.596108 J-3.324668
G03 X13.492632 Y175.617711 Z2 I208.602016 J-211.471156
G03 X11.625096 Y173.741700 Z2 I6125.530197 J-6099.724645
G03 X11.055695 Y173.136557 Z2 I10.516517 J-10.465824
G02 X10.489969 Y172.529219 Z2 I-13.501371 J12.009174
G02 X7.259028 Y169.316815 Z2 I-106.145471 J103.526969
G03 X4.000000 Y166.116700 Z2 I173.793286 J-180.252354
G00 Z0.000000

(End cutting path id: path5)


(Start cutting path id: path5)
(Change tool to Default tool)

G00 Z0.000000
G00 X10.750000 Y179.866700

G01 Z2 F100.0(Penetrate)
G03 X10.014398 Y181.921503 Z2 I-13.630834 J-3.720652 F75
G02 X9.312886 Y183.991700 Z2 I10.585519 J4.740992
G02 X9.163889 Y184.724302 Z2 I11.474118 J2.715060
G03 X8.939911 Y185.366700 Z2 I-2.022736 J-0.345001
G03 X8.683609 Y185.804631 Z2 I-8.092861 J-4.442429
G02 X8.463831 Y186.241700 Z2 I2.283068 J1.421822
G02 X8.074889 Y187.281782 Z2 I30.396492 J11.959610
G03 X7.677951 Y188.366700 Z2 I-55.057141 J-19.528650
G02 X7.371059 Y189.270965 Z2 I13.360823 J5.038650
G02 X7.178048 Y190.116700 Z2 I5.989733 J1.811851
G01 X7.149692 Y191.164443 Z2
G01 X8.250000 Y191.235333 Z2
G02 X9.359244 Y191.007126 Z2 I-0.757934 J-6.494024
G02 X10.500000 Y190.659331 Z2 I-26.975157 J-90.522373
G03 X11.606560 Y190.350364 Z2 I5.707894 J18.306656
G02 X12.623167 Y190.037995 Z2 I-2.288276 J-9.257680
G02 X13.081912 Y189.795737 Z2 I-0.683188 J-1.849169
G03 X13.636189 Y189.525941 Z2 I1.088083 J1.531133
G03 X14.238259 Y189.414076 Z2 I0.834563 J2.815583
G02 X14.875000 Y189.346831 Z2 I-0.976183 J-12.291655
G02 X17.021717 Y188.872721 Z2 I-1.670538 J-12.661103
G02 X18.750000 Y187.866700 Z2 I-1.347798 J-4.302989
G00 Z0.000000

(End cutting path id: path5)


(Start cutting path id: path5)
(Change tool to Default tool)

G00 Z0.000000
G00 X13.500000 Y189.491700

G01 Z2 F100.0(Penetrate)
G02 X12.779009 Y188.353253 Z2 I-68.298438 J42.456614 F75
G02 X11.498167 Y186.847314 Z2 I-6.317292 J4.075365
G02 X9.990035 Y185.817688 Z2 I-4.541567 J5.032883
G03 X9.125000 Y185.366700 Z2 I13.111154 J-26.203455
G00 Z0.000000

(End cutting path id: path5)


(Start cutting path id: path5)
(Change tool to Default tool)

G00 Z0.000000
G00 X18.875000 Y179.991700

G01 Z2 F100.0(Penetrate)
G03 X19.234947 Y179.799986 Z2 I0.890130 J1.237477 F75
G03 X20.250000 Y179.616700 Z2 I1.021089 J2.752509
G03 X21.828246 Y179.675902 Z2 I0.041565 J19.958564
G02 X23.500000 Y179.741700 Z2 I1.707396 J-22.110051
G02 X24.507789 Y179.742089 Z2 I0.670174 J-430.093077
G03 X25.500000 Y179.741700 Z2 I0.991736 J1263.789089
G02 X28.316193 Y179.679116 Z2 I0.000000 J-63.394058
G03 X31.000000 Y179.794750 Z2 I0.682806 J15.355176
G02 X32.648423 Y179.848389 Z2 I1.096928 J-8.354246
G03 X34.000000 Y179.882910 Z2 I0.486709 J7.420184
G03 X34.530426 Y179.996211 Z2 I-0.336852 J2.875264
G03 X35.061249 Y180.274693 Z2 I-0.504612 J1.607005
G01 X35.635708 Y181.366707 Z2
G02 X36.046066 Y181.913686 Z2 I2.526995 J-1.468395
G02 X36.499905 Y182.350022 Z2 I5.163826 J-4.916783
G02 X37.123808 Y182.758700 Z2 I1.744644 J-1.982866
G02 X37.375000 Y182.866707 Z2 I1.804527 J-3.850672
G00 Z0.000000

(End cutting path id: path5)


(Start cutting path id: path5)
(Change tool to Default tool)

G00 Z0.000000
G00 X35.250000 Y180.241700

G01 Z2 F100.0(Penetrate)
G03 X36.406151 Y179.867724 Z2 I1.160353 J1.613131 F75
G03 X37.375000 Y179.866700 Z2 I0.968849 J458.158374
G00 Z0.000000

(End cutting path id: path5)


(Start cutting path id: path5)
(Change tool to Default tool)

G00 Z0.000000
G00 X17.375000 Y178.741700

G01 Z2 F100.0(Penetrate)
G02 X17.596435 Y178.291200 Z2 I-1.227819 J-0.883185 F75
G02 X17.750000 Y177.241700 Z2 I-3.520771 J-1.051150
G02 X17.750175 Y175.700657 Z2 I-2296.885092 J-1.043959
G03 X17.750000 Y174.116700 Z2 I7148.287509 J-1.472085
G01 X17.750000 Y167.741700 Z2
G01 X17.750000 Y164.242280 Z2
G01 X17.750000 Y163.491700 Z2
G00 Z0.000000

(End cutting path id: path5)


(Start cutting path id: path5)
(Change tool to Default tool)

G00 Z0.000000
G00 X26.375000 Y163.491700

G01 Z2 F100.0(Penetrate)
G01 X26.375000 Y164.119786 Z2 F75
G03 X26.318872 Y166.305886 Z2 I-42.707806 J-0.002588
G02 X26.250000 Y168.991700 Z2 I52.335361 J2.685610
G03 X26.161941 Y170.395680 Z2 I-11.236301 J0.000000
G02 X26.653549 Y171.499417 Z2 I1.157542 J0.145778
G02 X27.503540 Y171.753362 Z2 I0.811839 J-1.167851
G03 X28.375000 Y171.741700 Z2 I0.869371 J32.398783
G01 X33.625000 Y171.741700 Z2
G03 X34.964399 Y171.802603 Z2 I-0.000935 J14.779045
G02 X36.375000 Y171.866700 Z2 I1.410607 J-15.489798
G01 X37.375000 Y171.866700 Z2
G00 Z0.000000

(End cutting path id: path5)


(Start cutting path id: path5)
(Change tool to Default tool)

G00 Z0.000000
G00 X34.625000 Y163.491700

G01 Z2 F100.0(Penetrate)
G03 X36.415798 Y163.616003 Z2 I0.000000 J12.961862 F75
G03 X37.375000 Y163.866700 Z2 I-0.586503 J4.204421
G00 Z0.000000

(End cutting path id: path5)


(Footer)
M5
;G00 X0.0000 Y0.0000
M2
(Using default footer. To add your own footer create file "footer" in the output dir.)
(end)
%