%
(Header)
(Generated by gcodetools from Inkscape.)
(Using default header. To add your own header create file "header" in the output dir.)
M3
(Header end.)
G21 (All units in mm)

(Start cutting path id: path24)
(Change tool to Default tool)

G00 Z0.000000
G00 X148.375000 Y37.500000

G01 Z2 F100.0(Penetrate)
G01 X148.375000 Y38.128090 Z2 F75.000000
G03 X148.362383 Y38.848152 Z2 I-20.637871 J-0.001472
G03 X148.241710 Y39.500000 Z2 I-2.245170 J-0.078543
G01 X148.221010 Y40.467590 Z2
G02 X148.562834 Y41.038516 Z2 I74.508066 J-44.221557
G03 X148.721300 Y41.377320 Z2 I-1.515592 J0.915337
G02 X148.978122 Y41.923269 Z2 I2.645174 J-0.910947
G02 X149.484220 Y42.625000 Z2 I4.795926 J-2.925518
G03 X151.991030 Y45.792651 Z2 I-47.544327 J40.201290
G02 X154.376870 Y48.999520 Z2 I613.245522 J-453.750205
G02 X155.064420 Y49.643731 Z2 I2.158466 J-1.614669
G03 X155.696320 Y50.173710 Z2 I-1.868743 J2.869822
G03 X156.039122 Y50.853536 Z2 I-0.988156 J0.924618
G02 X156.254570 Y51.750000 Z2 I8.405002 J-1.545864
G02 X156.521514 Y52.467971 Z2 I5.553500 J-1.656200
G02 X156.876870 Y53.125000 Z2 I4.627578 J-2.078226
G02 X157.521041 Y54.098229 Z2 I32.315585 J-20.689595
G03 X158.151080 Y55.125000 Z2 I-10.041681 J6.868376
G03 X159.411636 Y57.540937 Z2 I-59.984543 J32.834792
G03 X160.586460 Y60.000000 Z2 I-79.811742 J39.640426
G03 X161.149521 Y61.278984 Z2 I-40.477121 J18.583111
G02 X161.723030 Y62.500000 Z2 I15.505655 J-6.537783
G02 X162.344355 Y63.662201 Z2 I49.818363 J-25.886224
G02 X163.162650 Y64.715280 Z2 I3.715988 J-2.043042
G02 X164.061897 Y65.200381 Z2 I1.370345 J-1.464223
G03 X165.000040 Y65.659720 Z2 I-0.566792 J2.345290
G03 X165.874416 Y66.468781 Z2 I-5.085553 J6.373123
G02 X166.750040 Y67.375000 Z2 I26.826341 J-25.044497
G02 X168.626060 Y69.248981 Z2 I1724.238673 J-1724.239202
G03 X170.499940 Y71.125000 Z2 I-564.865922 J566.095829
G03 X171.278977 Y71.949387 Z2 I-15.427471 J15.359071
G02 X172.001870 Y72.572430 Z2 I2.774634 J-2.488409
G02 X173.116444 Y73.048141 Z2 I1.867604 J-2.832169
G03 X174.000040 Y73.250000 Z2 I-131.632912 J578.231555
G00 Z0.000000

(End cutting path id: path24)


(Start cutting path id: path24)
(Change tool to Default tool)

G00 Z0.000000
G00 X165.125040 Y72.625000

G01 Z2 F100.0(Penetrate)
G02 X164.216803 Y69.592304 Z2 I-17.752234 J3.664121 F75.000000
G03 X163.391440 Y66.500000 Z2 I12.675448 J-5.039489
G02 X163.234165 Y65.517403 Z2 I-31.839734 J4.592412
G02 X163.125040 Y65.000000 Z2 I-7.732811 J1.360705
G00 Z0.000000

(End cutting path id: path24)


(Start cutting path id: path24)
(Change tool to Default tool)

G00 Z0.000000
G00 X178.750040 Y61.250000

G01 Z2 F100.0(Penetrate)
G02 X176.251098 Y59.242836 Z2 I-577.763178 J716.762693 F75.000000
G02 X173.750040 Y57.250390 Z2 I-441.685364 J551.868359
G02 X173.101845 Y56.749410 Z2 I-20.442226 J25.779425
G03 X172.521260 Y56.238720 Z2 I3.067501 J-4.072701
G03 X171.908020 Y55.577060 Z2 I12.401485 J-12.108964
G02 X171.250040 Y54.875000 Z2 I-11.437843 J10.060333
G02 X169.585497 Y53.248254 Z2 I-67.015933 J66.908038
G02 X167.875040 Y51.636190 Z2 I-139.038615 J145.811456
G03 X166.692802 Y50.510982 Z2 I51.879522 J-55.692689
G02 X165.500040 Y49.396320 Z2 I-28.676650 J29.490400
G02 X164.743017 Y48.887441 Z2 I-2.185426 J2.433579
G03 X164.128510 Y48.337670 Z2 I0.656241 J-1.351832
G01 X164.002450 Y47.749900 Z2
G03 X163.987456 Y46.588871 Z2 I18.916832 J-0.824909
G02 X164.000450 Y45.125000 Z2 I-82.452138 J-1.463871
G01 X164.000450 Y40.125000 Z2
G01 X164.000450 Y38.250580 Z2
G01 X164.000450 Y37.500000 Z2
G00 Z0.000000

(End cutting path id: path24)


(Start cutting path id: path24)
(Change tool to Default tool)

G00 Z0.000000
G00 X167.375460 Y43.374570

G01 Z2 F100.0(Penetrate)
G01 X167.375460 Y43.249570 Z2 F75.000000
G00 Z0.000000

(End cutting path id: path24)


(Start cutting path id: path24)
(Change tool to Default tool)

G00 Z0.000000
G00 X171.250460 Y47.124570

G01 Z2 F100.0(Penetrate)
G01 X171.125460 Y46.874570 Z2 F75.000000
G00 Z0.000000

(End cutting path id: path24)


(Start cutting path id: path24)
(Change tool to Default tool)

G00 Z0.000000
G00 X174.250450 Y50.124570

G01 Z2 F100.0(Penetrate)
G01 X174.375450 Y50.124570 Z2 F75.000000
G00 Z0.000000

(End cutting path id: path24)


(Start cutting path id: path24)
(Change tool to Default tool)

G00 Z0.000000
G00 X179.375460 Y46.249570

G01 Z2 F100.0(Penetrate)
G03 X176.189813 Y43.450882 Z2 I18.440653 J-24.202736 F75.000000
G02 X173.125460 Y40.520790 Z2 I-54.679398 J54.117461
G02 X171.990195 Y39.507164 Z2 I-77.481664 J85.637216
G03 X170.893500 Y38.463880 Z2 I13.107305 J-14.876393
G03 X170.443426 Y37.714257 Z2 I1.365230 J-1.329609
G03 X170.375460 Y37.499570 Z2 I40.497155 J-12.938761
G00 Z0.000000

(End cutting path id: path24)


(Start cutting path id: path24)
(Change tool to Default tool)

G00 Z0.000000
G00 X156.250450 Y48.374570

G01 Z2 F100.0(Penetrate)
G02 X156.232121 Y46.598952 Z2 I-85.109729 J-0.009330 F75.000000
G03 X156.322850 Y44.749570 Z2 I13.276397 J-0.275585
G02 X156.385386 Y43.541902 Z2 I-8.952600 J-1.069039
G03 X156.375450 Y42.249570 Z2 I84.041047 J-1.292332
G02 X156.297735 Y41.212905 Z2 I-6.959232 J0.000462
G02 X156.166060 Y40.374570 Z2 I-67.580787 J10.185232
G03 X156.111403 Y39.832411 Z2 I4.368225 J-0.714207
G02 X156.072360 Y39.374570 Z2 I-4.971874 J0.193403
G03 X155.995333 Y37.955087 Z2 I9.194427 J-1.210758
G02 X156.000460 Y37.499570 Z2 I-20.233788 J-0.455517
G00 Z0.000000

(End cutting path id: path24)


(Start cutting path id: path24)
(Change tool to Default tool)

G00 Z0.000000
G00 X148.625460 Y40.749570

G01 Z2 F100.0(Penetrate)
G03 X148.926890 Y40.570418 Z2 I1.174103 J1.632312 F75.000000
G03 X149.750460 Y40.375150 Z2 I0.856442 J1.777773
G03 X150.400960 Y40.404698 Z2 I0.088924 J5.217529
G02 X151.125460 Y40.478350 Z2 I6.015036 J-55.568396
G02 X153.080375 Y40.521098 Z2 I1.269658 J-13.341314
G03 X154.875460 Y40.504050 Z2 I1.102041 J21.524433
G02 X155.503786 Y40.519918 Z2 I1.510685 J-47.371138
G02 X156.125460 Y40.500050 Z2 I0.114549 J-6.151865
G00 Z0.000000

(End cutting path id: path24)


(Start cutting path id: path24)
(Change tool to Default tool)

G00 Z0.000000
G00 X155.750450 Y50.125000

G01 Z2 F100.0(Penetrate)
G01 X156.213700 Y49.374520 Z2 F75.000000
G01 X156.643970 Y48.628470 Z2
G01 X157.625450 Y48.624470 Z2
G01 X161.250450 Y48.535270 Z2
G01 X162.625450 Y48.499570 Z2
G01 X164.000450 Y48.249570 Z2
G00 Z0.000000

(End cutting path id: path24)


(Start cutting path id: path24)
(Change tool to Default tool)

G00 Z0.000000
G00 X145.625460 Y38.750050

G01 Z2 F100.0(Penetrate)
G01 X146.376040 Y39.253330 Z2 F75.000000
G01 X147.875000 Y40.000000 Z2
G00 Z0.000000

(End cutting path id: path24)


(Footer)
M5
M2
(Using default footer. To add your own footer create file "footer" in the output dir.)
(end)
%