%
(Header)
(Generated by gcodetools from Inkscape.)
(Using default header. To add your own header create file "header" in the output dir.)
M3
(Header end.)
G21 (All units in mm)

(Start cutting path id: path8)
(Change tool to Default tool)

G00 Z0.000000
G00 X114.375000 Y179.500000

G01 Z2 F100.0(Penetrate)
G03 X119.028425 Y174.874335 Z2 I775.905481 J775.908406 F75.000000
G02 X123.623170 Y170.250000 Z2 I-249.262529 J-252.262402
G02 X124.083293 Y169.749684 Z2 I-8.270076 J-8.067438
G03 X124.519390 Y169.250000 Z2 I73.728105 J63.905711
G02 X125.006138 Y168.667886 Z2 I-11.626540 J-10.216350
G03 X125.439240 Y168.125000 Z2 I182.538067 J145.180623
G03 X126.061788 Y167.428942 Z2 I6.651990 J5.323046
G03 X126.749520 Y166.761189 Z2 I21.748947 J21.711657
G02 X128.457706 Y165.135580 Z2 I-145.277724 J-154.367841
G02 X130.125000 Y163.500000 Z2 I-84.337868 J-87.640742
G03 X131.159545 Y162.606356 Z2 I6.632113 J6.632150
G03 X132.250000 Y162.248747 Z2 I1.080094 J1.452161
G03 X133.618468 Y162.308348 Z2 I-0.104874 J18.148060
G02 X135.250000 Y162.375000 Z2 I1.639336 J-20.126392
G01 X141.750000 Y162.375000 Z2
G02 X143.142517 Y162.373678 Z2 I-0.000007 J-733.414243
G03 X144.375000 Y162.375095 Z2 I0.383828 J202.154625
G03 X145.134477 Y162.443374 Z2 I-0.019146 J4.471009
G03 X145.375000 Y162.500000 Z2 I-0.383190 J2.166753
G00 Z0.000000

(End cutting path id: path8)


(Start cutting path id: path8)
(Change tool to Default tool)

G00 Z0.000000
G00 X131.625000 Y178.750000

G01 Z2 F100.0(Penetrate)
G02 X132.934538 Y177.372884 Z2 I-27.084035 J-27.066160 F75.000000
G02 X134.160690 Y176.000000 Z2 I-106.129886 J-96.020858
G03 X136.363807 Y173.549969 Z2 I125.893819 J110.990679
G03 X138.620560 Y171.125000 Z2 I167.602995 J153.714081
G02 X139.264066 Y170.410302 Z2 I-14.723175 J-13.903643
G03 X139.875480 Y169.750483 Z2 I8.970506 J7.699223
G03 X140.337783 Y169.310027 Z2 I9.333083 J9.333166
G03 X140.875000 Y168.844715 Z2 I10.288767 J11.335928
G03 X141.479046 Y168.382153 Z2 I6.538093 J7.912217
G02 X141.999900 Y167.973862 Z2 I-3.955058 J-5.581812
G02 X143.897342 Y165.993640 Z2 I-9.608056 J-11.105577
G03 X144.979940 Y165.039352 Z2 I3.197010 J2.535644
G03 X145.219319 Y164.930384 Z2 I0.581134 J0.959204
G02 X145.375000 Y164.875000 Z2 I-0.783593 J-2.449154
G00 Z0.000000

(End cutting path id: path8)


(Start cutting path id: path8)
(Change tool to Default tool)

G00 Z0.000000
G00 X127.000000 Y174.250000

G01 Z2 F100.0(Penetrate)
G01 X127.125000 Y174.000000 Z2 F75.000000
G00 Z0.000000

(End cutting path id: path8)


(Start cutting path id: path8)
(Change tool to Default tool)

G00 Z0.000000
G00 X109.500000 Y167.375000

G01 Z2 F100.0(Penetrate)
G02 X109.722985 Y167.244243 Z2 I-8.533552 J-14.808165 F75.000000
G02 X110.250580 Y166.858217 Z2 I-1.788926 J-2.998537
G02 X110.854993 Y166.259407 Z2 I-5.103836 J-5.756033
G02 X111.274980 Y165.625000 Z2 I-1.889484 J-1.707089
G02 X111.399931 Y165.277131 Z2 I-1.865108 J-0.866303
G03 X111.802370 Y164.542439 Z2 I1.662531 J0.433110
G03 X112.550913 Y164.005546 Z2 I1.690564 J1.566748
G03 X113.375000 Y163.644579 Z2 I22.477641 J50.195148
G03 X114.356113 Y163.234098 Z2 I24.884127 J58.099205
G03 X115.375000 Y162.826870 Z2 I27.269270 J66.749590
G03 X116.560381 Y162.461090 Z2 I3.082797 J7.886786
G02 X117.750000 Y162.124517 Z2 I-2.786526 J-12.119632
G02 X123.739320 Y159.593857 Z2 I-13.997644 J-41.481064
G03 X129.500000 Y156.727528 Z2 I118.420904 J230.777517
G03 X130.235312 Y156.487309 Z2 I1.261737 J2.616682
G02 X130.861980 Y156.251543 Z2 I-0.343350 J-1.863353
G02 X131.476191 Y155.736448 Z2 I-1.284891 J-2.155881
G03 X132.250100 Y155.072048 Z2 I2.602460 J2.248473
G02 X133.253097 Y154.413519 Z2 I-15.641648 J-24.916692
G03 X134.250000 Y153.905670 Z2 I2.437585 J3.552574
G03 X134.865489 Y153.737744 Z2 I1.431184 J4.033699
G02 X135.486500 Y153.488909 Z2 I-0.338696 J-1.744614
G02 X136.043898 Y152.859250 Z2 I-0.834017 J-1.299847
G03 X136.630500 Y152.111015 Z2 I1.998068 J0.962388
G03 X137.424815 Y151.476189 Z2 I20.711071 J25.099998
G03 X138.250000 Y150.970100 Z2 I2.735800 J3.534980
G03 X138.657104 Y150.800128 Z2 I2.044120 J4.323415
G03 X139.122590 Y150.729071 Z2 I0.409931 J1.125205
G01 X139.749900 Y151.875000 Z2
G01 X139.549580 Y153.746529 Z2
G03 X138.442910 Y154.077740 Z2 I-0.967228 J-1.217327
G02 X137.000000 Y153.999420 Z2 I-1.821633 J20.229613
G03 X136.050088 Y153.718457 Z2 I0.034756 J-1.863777
G03 X135.750000 Y153.500000 Z2 I1.348813 J-2.168163
G00 Z0.000000

(End cutting path id: path8)


(Start cutting path id: path8)
(Change tool to Default tool)

G00 Z0.000000
G00 X135.375000 Y165.125000

G01 Z2 F100.0(Penetrate)
G01 X135.500000 Y165.125000 Z2 F75.000000
G00 Z0.000000

(End cutting path id: path8)


(Start cutting path id: path8)
(Change tool to Default tool)

G00 Z0.000000
G00 X111.625000 Y164.625000

G01 Z2 F100.0(Penetrate)
G02 X110.234745 Y164.455837 Z2 I-1.005952 J2.469916 F75.000000
G03 X109.625000 Y164.500000 Z2 I-0.609745 J-4.187230
G00 Z0.000000

(End cutting path id: path8)


(Start cutting path id: path8)
(Change tool to Default tool)

G00 Z0.000000
G00 X109.500000 Y164.500000

G01 Z2 F100.0(Penetrate)
G01 X109.625000 Y164.500000 Z2 F75.000000
G00 Z0.000000

(End cutting path id: path8)


(Start cutting path id: path8)
(Change tool to Default tool)

G00 Z0.000000
G00 X131.375000 Y162.000000

G01 Z2 F100.0(Penetrate)
G01 X131.375000 Y161.371914 Z2 F75.000000
G03 X131.394652 Y159.294453 Z2 I109.817952 J-0.000000
G02 X131.373000 Y157.250000 Z2 I-34.642510 J-0.655461
G02 X131.177768 Y156.534339 Z2 I-1.657343 J0.067663
G02 X131.000410 Y156.250000 Z2 I-2.243988 J1.202214
G00 Z0.000000

(End cutting path id: path8)


(Start cutting path id: path8)
(Change tool to Default tool)

G00 Z0.000000
G00 X139.875410 Y153.875000

G01 Z2 F100.0(Penetrate)
G03 X140.721623 Y153.929528 Z2 I-0.062798 J7.567984 F75.000000
G02 X141.875410 Y154.000000 Z2 I1.169437 J-9.666012
G02 X142.422517 Y154.000226 Z2 I0.368134 J-229.246713
G03 X143.000410 Y154.000000 Z2 I0.577510 J740.067108
G02 X143.806224 Y153.996225 Z2 I0.000000 J-86.003654
G03 X144.500220 Y154.001800 Z2 I0.186836 J19.939906
G03 X145.150465 Y154.075408 Z2 I-0.095694 J3.754245
G03 X145.375410 Y154.124967 Z2 I-1.354173 J6.681806
G00 Z0.000000

(End cutting path id: path8)


(Start cutting path id: path8)
(Change tool to Default tool)

G00 Z0.000000
G00 X139.500000 Y150.500000

G01 Z2 F100.0(Penetrate)
G03 X139.877588 Y149.750761 Z2 I3.040288 J1.062424 F75.000000
G03 X140.500480 Y149.054882 Z2 I2.918639 J1.985800
G03 X141.980045 Y147.804493 Z2 I98.859990 J115.478848
G02 X143.247680 Y146.625000 Z2 I-10.252370 J-12.289444
G01 X144.266110 Y145.577740 Z2
G01 X145.375000 Y145.750000 Z2
G00 Z0.000000

(End cutting path id: path8)


(Footer)
M5
M2
(Using default footer. To add your own footer create file "footer" in the output dir.)
(end)
%