%
(Header)
(Generated by gcodetools from Inkscape.)
(Using default header. To add your own header create file "header" in the output dir.)
M3
(Header end.)
G21 (All units in mm)

(Start cutting path id: path19)
(Change tool to Default tool)

G00 Z0.000000
G00 X168.875000 Y108.750000

G01 Z2 F100.0(Penetrate)
G01 X171.250000 Y106.500000 Z2 F75.000000
G01 X172.946950 Y104.874517 Z2
G01 X179.125000 Y98.375000 Z2
G00 Z0.000000

(End cutting path id: path19)


(Start cutting path id: path19)
(Change tool to Default tool)

G00 Z0.000000
G00 X165.500000 Y108.500000

G01 Z2 F100.0(Penetrate)
G02 X166.715017 Y103.246154 Z2 I-19.231434 J-7.214925 F75.000000
G03 X167.228880 Y98.000000 Z2 I1299.737312 J124.661558
G02 X167.327631 Y96.340148 Z2 I-20.583987 J-2.057487
G03 X167.446950 Y94.750000 Z2 I14.326095 J0.275426
G01 X167.789740 Y93.313753 Z2
G03 X168.452020 Y92.926600 Z2 I1.154291 J1.214538
G02 X169.250000 Y92.483315 Z2 I-0.645861 J-2.102534
G03 X171.074404 Y91.126717 Z2 I9.736884 J11.189463
G02 X172.042820 Y89.250000 Z2 I-1.110911 J-1.761465
G02 X170.955860 Y87.207813 Z2 I-2.748253 J0.152403
G03 X169.125000 Y85.784721 Z2 I54.799060 J-72.390299
G02 X168.278243 Y85.378669 Z2 I-1.304927 J1.635302
G03 X167.553720 Y85.019579 Z2 I0.373481 J-1.664026
G03 X167.168346 Y84.242246 Z2 I0.699005 J-0.830736
G02 X167.031830 Y83.250000 Z2 I-5.722718 J0.281832
G03 X166.774588 Y81.577031 Z2 I11.521815 J-2.627898
G02 X166.571950 Y79.750000 Z2 I-30.989154 J2.512292
G02 X166.297818 Y77.994200 Z2 I-59.221206 J8.346872
G02 X165.975020 Y76.250000 Z2 I-65.914784 J11.296837
G02 X165.792702 Y75.399166 Z2 I-28.936218 J5.755541
G03 X165.625480 Y74.625000 Z2 I29.458878 J-6.768348
G03 X165.508430 Y73.717384 Z2 I6.289120 J-1.272426
G03 X165.500000 Y73.500000 Z2 I5.992041 J-0.341227
G00 Z0.000000

(End cutting path id: path19)


(Start cutting path id: path19)
(Change tool to Default tool)

G00 Z0.000000
G00 X169.375000 Y97.500000

G01 Z2 F100.0(Penetrate)
G01 X169.500000 Y97.500000 Z2 F75.000000
G00 Z0.000000

(End cutting path id: path19)


(Start cutting path id: path19)
(Change tool to Default tool)

G00 Z0.000000
G00 X172.125000 Y94.875000

G01 Z2 F100.0(Penetrate)
G01 X172.125000 Y94.750000 Z2 F75.000000
G00 Z0.000000

(End cutting path id: path19)


(Start cutting path id: path19)
(Change tool to Default tool)

G00 Z0.000000
G00 X167.500000 Y93.125000

G01 Z2 F100.0(Penetrate)
G01 X167.500000 Y91.875000 Z2 F75.000000
G01 X167.500000 Y89.875000 Z2
G01 X167.500000 Y88.750000 Z2
G01 X167.446900 Y87.625000 Z2
G01 X167.375000 Y86.500000 Z2
G01 X167.375000 Y85.250000 Z2
G00 Z0.000000

(End cutting path id: path19)


(Start cutting path id: path19)
(Change tool to Default tool)

G00 Z0.000000
G00 X174.500000 Y92.750000

G01 Z2 F100.0(Penetrate)
G01 X174.500000 Y92.625000 Z2 F75.000000
G00 Z0.000000

(End cutting path id: path19)


(Start cutting path id: path19)
(Change tool to Default tool)

G00 Z0.000000
G00 X176.250000 Y89.500000

G01 Z2 F100.0(Penetrate)
G01 X176.250000 Y89.375000 Z2 F75.000000
G00 Z0.000000

(End cutting path id: path19)


(Start cutting path id: path19)
(Change tool to Default tool)

G00 Z0.000000
G00 X171.875000 Y83.250000

G01 Z2 F100.0(Penetrate)
G01 X172.000000 Y83.250000 Z2 F75.000000
G00 Z0.000000

(End cutting path id: path19)


(Start cutting path id: path19)
(Change tool to Default tool)

G00 Z0.000000
G00 X169.000000 Y80.750000

G01 Z2 F100.0(Penetrate)
G01 X169.125000 Y80.750000 Z2 F75.000000
G00 Z0.000000

(End cutting path id: path19)


(Start cutting path id: path19)
(Change tool to Default tool)

G00 Z0.000000
G00 X180.250000 Y79.375000

G01 Z2 F100.0(Penetrate)
G01 X176.000000 Y75.885130 Z2 F75.000000
G01 X174.263020 Y74.446470 Z2
G01 X173.361980 Y73.575420 Z2
G01 X171.500000 Y73.500000 Z2
G00 Z0.000000

(End cutting path id: path19)


(Footer)
M5
M2
(Using default footer. To add your own footer create file "footer" in the output dir.)
(end)
%