%
(Header)
(Generated by gcodetools from Inkscape.)
(Using default header. To add your own header create file "header" in the output dir.)
M3
(Header end.)
G21 (All units in mm)

(Start cutting path id: path23)
(Change tool to Default tool)

G00 Z0.000000
G00 X125.625000 Y82.491700

G01 Z2 F100.0(Penetrate)
G03 X125.374244 Y82.656721 Z2 I-2.111216 J-2.935054 F75
G03 X124.625000 Y82.853100 Z2 I-0.710789 J-1.184384
G01 X122.128470 Y82.942100 Z2
G01 X122.000000 Y83.991680 Z2
G02 X121.999741 Y86.299658 Z2 I3433.856129 J1.543851
G03 X122.000000 Y88.616680 Z2 I-10355.442042 J2.279013
G03 X121.940957 Y89.574959 Z2 I-7.806019 J0.000000
G02 X122.075400 Y90.463130 Z2 I1.651450 J0.204280
G01 X122.999980 Y90.859830 Z2
G02 X123.645370 Y90.804434 Z2 I-0.057262 J-4.454402
G03 X124.374980 Y90.742160 Z2 I0.789153 J4.940550
G03 X127.006699 Y90.738866 Z2 I1.470423 J123.498714
G02 X129.499980 Y90.741580 Z2 I1.409827 J-149.932852
G01 X130.652850 Y90.234350 Z2
G02 X130.610130 Y89.488599 Z2 I-1.089496 J-0.311687
G02 X130.155070 Y88.491680 Z2 I-14.410101 J5.975400
G02 X128.720844 Y85.986929 Z2 I-22.784794 J11.383628
G02 X127.088140 Y83.616780 Z2 I-45.542619 J29.625122
G02 X126.430297 Y82.957087 Z2 I-2.449757 J1.785043
G03 X125.820490 Y82.465540 Z2 I5.043553 J-6.880996
G01 X125.362440 Y81.491680 Z2
G02 X124.699720 Y80.526000 Z2 I-3.876420 J1.950039
G02 X123.863790 Y79.616680 Z2 I-69.831176 J63.356285
G02 X121.115425 Y76.836129 Z2 I-48.246434 J44.939406
G02 X118.124980 Y74.325300 Z2 I-21.354346 J22.397182
G02 X117.301212 Y73.898304 Z2 I-1.759796 J2.386914
G03 X116.657390 Y73.546370 Z2 I0.649932 J-1.953843
G03 X116.221529 Y73.095810 Z2 I1.610596 J-1.994151
G02 X115.747660 Y72.618510 Z2 I-1.986609 J1.498449
G02 X113.929747 Y71.414218 Z2 I-9.704255 J12.674604
G03 X111.999980 Y70.314020 Z2 I383.575054 J-675.040240
G02 X111.160873 Y69.854023 Z2 I-13.102718 J22.906116
G02 X110.500170 Y69.524470 Z2 I-8.310483 J15.834135
G02 X109.845257 Y69.289125 Z2 I-1.536027 J3.245519
G02 X109.624980 Y69.241680 Z2 I-0.772970 J3.053638
G00 Z0.000000

(End cutting path id: path23)


(Start cutting path id: path23)
(Change tool to Default tool)

G00 Z0.000000
G00 X111.874980 Y90.741680

G01 Z2 F100.0(Penetrate)
G02 X110.241371 Y89.189667 Z2 I-31.112995 J31.112995 F75
G02 X109.624980 Y88.741680 Z2 I-2.419436 J2.680887
G00 Z0.000000

(End cutting path id: path23)


(Start cutting path id: path23)
(Change tool to Default tool)

G00 Z0.000000
G00 X109.499980 Y88.741680

G01 Z2 F100.0(Penetrate)
G01 X109.624980 Y88.741680 Z2 F75
G00 Z0.000000

(End cutting path id: path23)


(Start cutting path id: path23)
(Change tool to Default tool)

G00 Z0.000000
G00 X116.624980 Y73.616680

G01 Z2 F100.0(Penetrate)
G02 X116.450072 Y73.896261 Z2 I2.075862 J1.493179 F75
G02 X116.252390 Y74.616680 Z2 I1.462765 J0.788711
G02 X116.233552 Y75.276072 Z2 I26.079805 J1.075013
G02 X116.232590 Y75.991680 Z2 I24.540818 J0.390812
G03 X116.246014 Y77.422255 Z2 I-184.442595 J2.446085
G03 X116.249990 Y78.866680 Z2 I-262.363573 J1.444425
G03 X116.236685 Y80.127584 Z2 I-59.754253 J0.000000
G02 X116.254990 Y81.366680 Z2 I17.271452 J0.364535
G01 X116.482220 Y82.187480 Z2
G01 X117.749970 Y82.512900 Z2
G02 X120.040172 Y82.667315 Z2 I3.787254 J-39.109733
G03 X121.874970 Y82.741680 Z2 I-14.583339 J382.486641
G00 Z0.000000

(End cutting path id: path23)


(Start cutting path id: path23)
(Change tool to Default tool)

G00 Z0.000000
G00 X109.500000 Y75.991700

G01 Z2 F100.0(Penetrate)
G01 X110.250580 Y75.991700 Z2 F75
G01 X111.250000 Y75.991700 Z2
G01 X114.375000 Y75.991700 Z2
G01 X115.374420 Y75.980500 Z2
G01 X116.125000 Y75.866690 Z2
G00 Z0.000000

(End cutting path id: path23)


(Start cutting path id: path23)
(Change tool to Default tool)

G00 Z0.000000
G00 X109.500000 Y69.241690

G01 Z2 F100.0(Penetrate)
G01 X109.625000 Y69.241690 Z2 F75
G00 Z0.000000

(End cutting path id: path23)


(Start cutting path id: path23)
(Change tool to Default tool)

G00 Z0.000000
G00 X145.375000 Y56.741690

G01 Z2 F100.0(Penetrate)
G02 X145.060306 Y55.986645 Z2 I-1.713705 J0.271150 F75
G03 X144.750000 Y55.491690 Z2 I3.234713 J-2.372710
G00 Z0.000000

(End cutting path id: path23)


(Footer)
M5
;G00 X0.0000 Y0.0000
M2
(Using default footer. To add your own footer create file "footer" in the output dir.)
(end)
%