%
(Header)
(Generated by gcodetools from Inkscape.)
(Using default header. To add your own header create file "header" in the output dir.)
M3
(Header end.)
G21 (All units in mm)

(Start cutting path id: path13)
(Change tool to Default tool)

G00 Z0.000000
G00 X144.125000 Y145.000000

G01 Z-1.000000 F100.0(Penetrate)
G02 X145.075106 Y144.749343 Z-1.000000 I-0.645429 J-4.372474 F75.000000
G02 X145.375000 Y144.625000 Z-1.000000 I-2.471029 J-6.383521
G00 Z0.000000

(End cutting path id: path13)


(Start cutting path id: path13)
(Change tool to Default tool)

G00 Z0.000000
G00 X109.500000 Y131.000000

G01 Z-1.000000 F100.0(Penetrate)
G02 X109.738050 Y130.936703 Z-1.000000 I-1.066967 J-4.491964 F75.000000
G02 X110.500000 Y130.653742 Z-1.000000 I-1.665766 J-5.652896
G02 X112.128826 Y129.886345 Z-1.000000 I-23.637279 J-52.283267
G02 X114.250000 Y128.748554 Z-1.000000 I-14.579244 J-29.726086
G03 X114.914269 Y128.363917 Z-1.000000 I50.459449 J86.377696
G02 X115.486500 Y127.952740 Z-1.000000 I-1.721650 J-2.999776
G02 X115.768795 Y127.620810 Z-1.000000 I-1.028741 J-1.160915
G03 X116.099920 Y127.242188 Z-1.000000 I1.379220 J0.872098
G03 X116.699681 Y126.957128 Z-1.000000 I0.849382 J1.013611
G02 X117.500000 Y126.654514 Z-1.000000 I-0.472893 J-2.460258
G02 X119.721746 Y125.073158 Z-1.000000 I-8.116529 J-13.754837
G02 X121.750000 Y123.245081 Z-1.000000 I-29.982051 J-35.304332
G02 X124.890335 Y119.965306 Z-1.000000 I-35.594040 J-37.224056
G02 X127.732350 Y116.375000 Z-1.000000 I-34.452298 J-30.191748
G02 X128.290508 Y115.566265 Z-1.000000 I-25.829734 J-18.423661
G02 X128.691550 Y114.750000 Z-1.000000 I-2.875037 J-1.919197
G02 X128.820542 Y114.308154 Z-1.000000 I-5.361297 J-1.804923
G03 X129.070020 Y113.824266 Z-1.000000 I1.145740 J0.284454
G03 X129.478699 Y113.410826 Z-1.000000 I3.115539 J2.670954
G02 X129.834490 Y112.998070 Z-1.000000 I-1.296374 J-1.477183
G02 X130.532007 Y111.764387 Z-1.000000 I-10.319033 J-6.648347
G03 X131.094040 Y110.625000 Z-1.000000 I399.274903 J196.244683
G02 X131.446365 Y109.726829 Z-1.000000 I-5.041673 J-2.495883
G02 X131.500000 Y109.500000 Z-1.000000 I-2.004410 J-0.593710
G00 Z0.000000

(End cutting path id: path13)


(Start cutting path id: path13)
(Change tool to Default tool)

G00 Z0.000000
G00 X116.000000 Y127.125000

G01 Z-1.000000 F100.0(Penetrate)
G03 X115.892022 Y126.906573 Z-1.000000 I3.464162 J-1.848393 F75.000000
G03 X115.756750 Y126.374420 Z-1.000000 I1.401613 J-0.639555
G03 X115.741695 Y125.752651 Z-1.000000 I6.803896 J-0.475805
G02 X115.749750 Y125.000000 Z-1.000000 I-35.161540 J-0.752651
G03 X115.749857 Y123.945716 Z-1.000000 I5214.431292 J0.171764
G02 X115.749750 Y122.750000 Z-1.000000 I-2052.231355 J-0.438390
G02 X115.746292 Y122.243918 Z-1.000000 I-39.182104 J0.014696
G02 X115.714050 Y121.750000 Z-1.000000 I-4.770816 J0.063416
G03 X115.649656 Y121.053970 Z-1.000000 I13.769242 J-1.624875
G03 X115.624350 Y120.375000 Z-1.000000 I11.380043 J-0.764101
G02 X115.615043 Y119.970329 Z-1.000000 I-12.579807 J0.086894
G03 X115.605850 Y119.500000 Z-1.000000 I12.027424 J-0.470329
G03 X115.615181 Y118.982686 Z-1.000000 I14.344894 J-0.000000
G02 X115.624650 Y118.500000 Z-1.000000 I-14.660431 J-0.529037
G02 X115.625479 Y117.752394 Z-1.000000 I-122.716847 J-0.509855
G03 X115.624750 Y117.000000 Z-1.000000 I388.354924 J-0.752384
G01 X115.624750 Y116.000000 Z-1.000000
G02 X115.623431 Y115.147017 Z-1.000000 I-275.705138 J-0.000000
G03 X115.624850 Y114.375000 Z-1.000000 I78.258066 J-0.242118
G01 X115.825170 Y113.429207 Z-1.000000
G01 X116.874750 Y113.125965 Z-1.000000
G03 X118.173955 Y113.183847 Z-1.000000 I0.029125 J13.955979
G02 X119.624750 Y113.250000 Z-1.000000 I1.450795 J-15.875597
G03 X120.312522 Y113.250566 Z-1.000000 I-0.000009 J418.156398
G02 X121.124750 Y113.249905 Z-1.000000 I0.271741 J-165.213964
G02 X121.659186 Y113.236189 Z-1.000000 I-0.037409 J-11.876215
G03 X122.249750 Y113.253905 Z-1.000000 I0.182178 J3.779140
G02 X125.780052 Y113.318301 Z-1.000000 I2.122680 J-19.568256
G03 X128.246660 Y113.534867 Z-1.000000 I0.558675 J7.792056
G03 X128.638804 Y113.710384 Z-1.000000 I-0.302784 J1.202313
G03 X128.874750 Y113.875048 Z-1.000000 I-5.628076 J8.315809
G00 Z0.000000

(End cutting path id: path13)


(Start cutting path id: path13)
(Change tool to Default tool)

G00 Z0.000000
G00 X109.500000 Y119.500000

G01 Z-1.000000 F100.0(Penetrate)
G01 X110.128090 Y119.500000 Z-1.000000 F75.000000
G01 X114.000000 Y119.500000 Z-1.000000
G01 X115.500000 Y119.500000 Z-1.000000
G00 Z0.000000

(End cutting path id: path13)


(Start cutting path id: path13)
(Change tool to Default tool)

G00 Z0.000000
G00 X122.125000 Y113.125000

G01 Z-1.000000 F100.0(Penetrate)
G01 X122.125000 Y111.375000 Z-1.000000 F75.000000
G01 X122.125000 Y109.500000 Z-1.000000
G00 Z0.000000

(End cutting path id: path13)


(Footer)
M5
M2
(Using default footer. To add your own footer create file "footer" in the output dir.)
(end)
%