%
(Header)
(Generated by gcodetools from Inkscape.)
(Using default header. To add your own header create file "header" in the output dir.)
M3
(Header end.)
G21 (All units in mm)

(Start cutting path id: path17)
(Change tool to Default tool)

G00 Z0.000000
G00 X108.750000 Y108.875000

G01 Z2 F100.0(Penetrate)
G01 X109.375000 Y108.625000 Z2 F75.000000
G00 Z0.000000

(End cutting path id: path17)


(Start cutting path id: path17)
(Change tool to Default tool)

G00 Z0.000000
G00 X81.625000 Y108.750000

G01 Z2 F100.0(Penetrate)
G01 X80.322724 Y107.063656 Z2 F75.000000
G01 X78.875000 Y105.999420 Z2
G01 X75.750000 Y102.876833 Z2
G01 X74.375579 Y101.636669 Z2
G01 X73.625000 Y101.125000 Z2
G00 Z0.000000

(End cutting path id: path17)


(Start cutting path id: path17)
(Change tool to Default tool)

G00 Z0.000000
G00 X86.375000 Y108.750000

G01 Z2 F100.0(Penetrate)
G01 X89.750000 Y105.375578 Z2 F75.000000
G01 X91.125000 Y104.547260 Z2
G01 X92.488811 Y105.375578 Z2
G01 X95.625000 Y108.750000 Z2
G00 Z0.000000

(End cutting path id: path17)


(Start cutting path id: path17)
(Change tool to Default tool)

G00 Z0.000000
G00 X100.875000 Y108.750000

G01 Z2 F100.0(Penetrate)
G02 X101.436308 Y107.991554 Z2 I-2.549358 J-2.473648 F75.000000
G03 X101.938660 Y107.284721 Z2 I3.338865 J1.841030
G03 X102.662503 Y106.728023 Z2 I1.863003 J1.673424
G02 X103.500000 Y106.124420 Z2 I-1.548270 J-3.031032
G03 X105.895421 Y103.786371 Z2 I338.959850 J344.881293
G02 X108.250000 Y101.501928 Z2 I-2463.034775 J-2541.009095
G02 X108.978553 Y100.692310 Z2 I-5.641089 J-5.808870
G02 X109.367670 Y99.377316 Z2 I-1.462463 J-1.147823
G02 X109.014263 Y98.698734 Z2 I-1.001878 J0.090463
G03 X108.375000 Y98.158373 Z2 I223.012544 J-264.478400
G03 X106.089205 Y96.030830 Z2 I21.669970 J-25.573514
G02 X103.750000 Y93.756847 Z2 I-46.837793 J45.841054
G02 X102.956808 Y93.273186 Z2 I-1.596989 J1.726783
G03 X102.337770 Y92.894581 Z2 I0.623688 J-1.715144
G03 X101.941718 Y92.324927 Z2 I1.111109 J-1.195002
G02 X101.493150 Y91.625000 Z2 I-2.184902 J0.906555
G02 X100.082089 Y90.375567 Z2 I-6.963238 J6.442495
G03 X99.419947 Y88.750000 Z2 I0.968896 J-1.342298
G03 X100.326619 Y87.326678 Z2 I2.159199 J0.374993
G02 X101.572630 Y86.125000 Z2 I-3.126003 J-4.488158
G02 X101.849736 Y85.573828 Z2 I-1.386926 J-1.042532
G03 X102.116800 Y85.087770 Z2 I1.244847 J0.367582
G03 X102.703341 Y84.690573 Z2 I1.046432 J0.913596
G02 X103.485530 Y84.191454 Z2 I-0.672174 J-1.915849
G03 X105.235871 Y82.403540 Z2 I360.905350 J351.570202
G03 X107.000000 Y80.625000 Z2 I219.491256 J215.948587
G03 X107.843641 Y79.787962 Z2 I106.670339 J106.668046
G02 X108.589120 Y79.000190 Z2 I-10.735603 J-10.905867
G03 X109.113525 Y78.408224 Z2 I114.913061 J101.269723
G03 X109.375000 Y78.125000 Z2 I8.016135 J7.138269
G01 X108.624420 Y77.374420 Z2
G02 X107.008733 Y75.834980 Z2 I-32.659026 J32.659026
G03 X105.552470 Y74.250580 Z2 I8.007457 J-8.821305
G03 X105.246087 Y73.748977 Z2 I2.237613 J-1.711123
G02 X105.125000 Y73.500000 Z2 I-14.125735 J6.715955
G00 Z0.000000

(End cutting path id: path17)


(Start cutting path id: path17)
(Change tool to Default tool)

G00 Z0.000000
G00 X101.875000 Y107.125000

G01 Z2 F100.0(Penetrate)
G02 X100.962795 Y106.123249 Z2 I-24.769677 J21.639326 F75.000000
G02 X99.625000 Y104.750000 Z2 I-53.172392 J50.461347
G02 X97.785506 Y102.956309 Z2 I-72.058181 J72.058181
G03 X96.013599 Y101.125000 Z2 I21.060896 J-22.150608
G03 X95.593333 Y100.422907 Z2 I1.636767 J-1.456584
G02 X95.196278 Y99.813753 Z2 I-1.522593 J0.558466
G02 X94.595850 Y99.429140 Z2 I-1.262056 J1.309250
G03 X93.875000 Y98.986496 Z2 I0.867588 J-2.221150
G03 X92.912595 Y98.020811 Z2 I7.821272 J-8.757116
G02 X91.964314 Y97.058546 Z2 I-9.634872 J8.546472
G01 X91.000000 Y96.571470 Z2
G02 X89.657115 Y97.319825 Z2 I0.045961 J1.661521
G03 X88.500000 Y98.590279 Z2 I-4.588323 J-3.016822
G03 X88.032004 Y98.871149 Z2 I-1.272584 J-1.590093
G02 X87.563658 Y99.188658 Z2 I0.592936 J1.378794
G02 X87.133451 Y99.791506 Z2 I1.588566 J1.588566
G03 X86.675734 Y100.500000 Z2 I-3.182549 J-1.553962
G03 X84.825501 Y102.475975 Z2 I-17.484216 J-14.517371
G02 X82.875000 Y104.375000 Z2 I70.032683 J73.882209
G02 X81.452833 Y105.854115 Z2 I36.967854 J36.967815
G03 X80.375000 Y107.000000 Z2 I-66.713852 J-61.671960
G00 Z0.000000

(End cutting path id: path17)


(Start cutting path id: path17)
(Change tool to Default tool)

G00 Z0.000000
G00 X95.250000 Y99.750000

G01 Z2 F100.0(Penetrate)
G03 X97.122424 Y97.894579 Z2 I204.324186 J204.324186 F75.000000
G03 X99.375000 Y95.771219 Z2 I53.168566 J54.147585
G02 X100.394531 Y94.828292 Z2 I-42.721107 J-47.214448
G02 X101.374810 Y93.875193 Z2 I-33.419878 J-35.353590
G01 X102.250000 Y93.000000 Z2
G00 Z0.000000

(End cutting path id: path17)


(Start cutting path id: path17)
(Change tool to Default tool)

G00 Z0.000000
G00 X87.500000 Y99.125000

G01 Z2 F100.0(Penetrate)
G01 X82.375000 Y94.000000 Z2 F75.000000
G02 X81.438690 Y93.166817 Z2 I-7.616363 J7.616378
G03 X80.848476 Y92.250000 Z2 I1.043885 J-1.320404
G03 X80.938901 Y91.530776 Z2 I0.980127 J-0.242069
G03 X81.391686 Y90.875000 Z2 I3.141181 J1.684645
G03 X82.735829 Y89.503117 Z2 I12.309630 J10.716299
G02 X82.856867 Y87.625000 Z2 I-0.908492 J-1.001508
G02 X81.998924 Y86.755887 Z2 I-6.323829 J5.384541
G03 X81.177276 Y85.875000 Z2 I3.896594 J-4.458189
G03 X80.894313 Y85.393965 Z2 I1.904999 J-1.444336
G02 X80.572724 Y84.938755 Z2 I-1.281793 J0.564339
G02 X80.006536 Y84.587195 Z2 I-1.151267 J1.222415
G03 X79.375000 Y84.221931 Z2 I0.757993 J-2.039147
G03 X77.978044 Y82.958808 Z2 I14.225927 J-17.137259
G03 X76.625000 Y81.624520 Z2 I668.244048 J-678.991012
G03 X74.672534 Y79.631795 Z2 I60.568004 J-61.297221
G02 X73.625000 Y79.000000 Z2 I-1.669306 J1.583439
G00 Z0.000000

(End cutting path id: path17)


(Start cutting path id: path17)
(Change tool to Default tool)

G00 Z0.000000
G00 X73.500000 Y98.750000

G01 Z2 F100.0(Penetrate)
G02 X73.761723 Y98.591644 Z2 I-3.579220 J-6.211035 F75.000000
G02 X74.375193 Y98.118055 Z2 I-2.260955 J-3.562883
G02 X75.464765 Y97.066318 Z2 I-28.114255 J-30.215877
G02 X76.613812 Y95.875000 Z2 I-33.695285 J-33.649496
G02 X78.078014 Y94.231742 Z2 I-36.408291 J-33.915049
G03 X79.625000 Y92.813753 Z2 I6.501241 J5.539817
G03 X80.179164 Y92.534164 Z2 I1.192742 J1.675102
G03 X80.750000 Y92.375000 Z2 I2.099533 J6.426682
G00 Z0.000000

(End cutting path id: path17)


(Start cutting path id: path17)
(Change tool to Default tool)

G00 Z0.000000
G00 X109.375000 Y92.250000

G01 Z2 F100.0(Penetrate)
G03 X109.129977 Y92.105251 Z2 I6.574654 J-11.408916 F75.000000
G03 X108.624420 Y91.733217 Z2 I1.808382 J-2.986933
G03 X107.909957 Y91.060481 Z2 I10.518879 J-11.887078
G03 X107.131850 Y90.250000 Z2 I20.358108 J-20.323675
G01 X106.607830 Y89.250000 Z2
G03 X107.394598 Y87.635876 Z2 I2.107295 J0.028344
G02 X108.521030 Y86.641685 Z2 I-10.247249 J-12.745507
G03 X109.122051 Y86.232147 Z2 I1.486740 J1.536091
G03 X109.375000 Y86.125000 Z2 I2.145893 J4.713812
G00 Z0.000000

(End cutting path id: path17)


(Start cutting path id: path17)
(Change tool to Default tool)

G00 Z0.000000
G00 X73.500000 Y91.375000

G01 Z2 F100.0(Penetrate)
G01 X74.197531 Y90.848186 Z2 F75.000000
G01 X75.553434 Y89.000000 Z2
G01 X74.251254 Y87.160494 Z2
G01 X73.625000 Y86.750000 Z2
G00 Z0.000000

(End cutting path id: path17)


(Start cutting path id: path17)
(Change tool to Default tool)

G00 Z0.000000
G00 X73.500000 Y86.750000

G01 Z2 F100.0(Penetrate)
G01 X73.625000 Y86.750000 Z2 F75.000000
G00 Z0.000000

(End cutting path id: path17)


(Start cutting path id: path17)
(Change tool to Default tool)

G00 Z0.000000
G00 X102.000000 Y85.000000

G01 Z2 F100.0(Penetrate)
G01 X96.750000 Y79.875000 Z2 F75.000000
G02 X95.601375 Y78.854825 Z2 I-9.186003 J9.185900
G03 X95.205730 Y77.875000 Z2 I0.657932 J-0.835459
G03 X96.465990 Y75.876666 Z2 I2.829164 J0.387666
G02 X98.243055 Y74.375190 Z2 I-5.344086 J-8.127323
G02 X98.716643 Y73.761726 Z2 I-3.089121 J-2.874307
G02 X98.875000 Y73.500000 Z2 I-6.052209 J-3.840643
G00 Z0.000000

(End cutting path id: path17)


(Start cutting path id: path17)
(Change tool to Default tool)

G00 Z0.000000
G00 X80.625000 Y84.875000

G01 Z2 F100.0(Penetrate)
G03 X82.814783 Y82.544836 Z2 I33.175621 J28.982942 F75.000000
G02 X85.750000 Y79.625000 Z2 I-554.430561 J-560.286395
G03 X86.708091 Y78.771513 Z2 I7.869554 J7.869554
G02 X87.204475 Y77.875000 Z2 I-0.826725 J-1.043420
G02 X86.932012 Y77.061528 Z2 I-1.014329 J-0.112627
G02 X86.249517 Y76.370080 Z2 I-16.118330 J15.227076
G03 X84.325406 Y74.442717 Z2 I58.391142 J-60.216741
G03 X83.750000 Y73.500000 Z2 I1.817099 J-1.756066
G00 Z0.000000

(End cutting path id: path17)


(Start cutting path id: path17)
(Change tool to Default tool)

G00 Z0.000000
G00 X87.500000 Y78.000000

G01 Z2 F100.0(Penetrate)
G03 X88.568296 Y78.673296 Z2 I-1.928752 J4.244446 F75.000000
G03 X89.750000 Y79.749520 Z2 I-12.687543 J15.117917
G03 X90.429406 Y80.421056 Z2 I-947.796609 J959.583580
G02 X91.250000 Y80.779610 Z2 I0.875293 J-0.884924
G02 X92.014522 Y80.482791 Z2 I0.044748 J-1.017748
G03 X92.625000 Y79.874900 Z2 I230.383346 J230.753106
G03 X93.884618 Y78.761822 Z2 I10.176697 J10.247224
G03 X94.875000 Y78.125000 Z2 I3.871000 J4.931630
G00 Z0.000000

(End cutting path id: path17)


(Start cutting path id: path17)
(Change tool to Default tool)

G00 Z0.000000
G00 X73.500000 Y77.375000

G01 Z2 F100.0(Penetrate)
G03 X73.755166 Y77.205380 Z2 I5.454847 J7.929191 F75.000000
G02 X74.250579 Y76.842010 Z2 I-2.674951 J-4.166394
G02 X75.610909 Y75.607436 Z2 I-13.986585 J-16.778024
G02 X76.840278 Y74.250580 Z2 I-11.570912 J-11.719092
G02 X77.147863 Y73.745737 Z2 I-1.728522 J-1.399256
G02 X77.250000 Y73.500000 Z2 I-6.095376 J-2.677554
G00 Z0.000000

(End cutting path id: path17)


(Start cutting path id: path17)
(Change tool to Default tool)

G00 Z0.000000
G00 X91.000000 Y73.500000

G01 Z2 F100.0(Penetrate)
G01 X91.250000 Y73.500000 Z2 F75.000000
G00 Z0.000000

(End cutting path id: path17)


(Footer)
M5
M2
(Using default footer. To add your own footer create file "footer" in the output dir.)
(end)
%