%
(Header)
(Generated by gcodetools from Inkscape.)
(Using default header. To add your own header create file "header" in the output dir.)
M3
(Header end.)
G21 (All units in mm)

(Start cutting path id: path24)
(Change tool to Default tool)

G00 Z0.000000
G00 X148.375000 Y55.491700

G01 Z2 F100.0(Penetrate)
G01 X148.375000 Y56.119790 Z2 F75
G03 X148.362383 Y56.839852 Z2 I-20.637871 J-0.001472
G03 X148.241710 Y57.491700 Z2 I-2.245170 J-0.078543
G01 X148.221010 Y58.459290 Z2
G02 X148.562834 Y59.030216 Z2 I74.508066 J-44.221557
G03 X148.721300 Y59.369020 Z2 I-1.515592 J0.915337
G02 X148.978122 Y59.914969 Z2 I2.645174 J-0.910947
G02 X149.484220 Y60.616700 Z2 I4.795926 J-2.925518
G03 X151.991030 Y63.784351 Z2 I-47.544327 J40.201290
G02 X154.376870 Y66.991220 Z2 I613.245522 J-453.750205
G02 X155.064420 Y67.635431 Z2 I2.158466 J-1.614669
G03 X155.696320 Y68.165410 Z2 I-1.868743 J2.869822
G03 X156.039122 Y68.845236 Z2 I-0.988156 J0.924618
G02 X156.254570 Y69.741700 Z2 I8.405002 J-1.545864
G02 X156.521514 Y70.459671 Z2 I5.553500 J-1.656200
G02 X156.876870 Y71.116700 Z2 I4.627578 J-2.078226
G02 X157.521041 Y72.089929 Z2 I32.315585 J-20.689595
G03 X158.151080 Y73.116700 Z2 I-10.041681 J6.868376
G03 X159.411636 Y75.532637 Z2 I-59.984543 J32.834792
G03 X160.586460 Y77.991700 Z2 I-79.811742 J39.640426
G03 X161.149521 Y79.270684 Z2 I-40.477121 J18.583111
G02 X161.723030 Y80.491700 Z2 I15.505655 J-6.537783
G02 X162.344355 Y81.653901 Z2 I49.818363 J-25.886224
G02 X163.162650 Y82.706980 Z2 I3.715988 J-2.043042
G02 X164.061897 Y83.192081 Z2 I1.370345 J-1.464223
G03 X165.000040 Y83.651420 Z2 I-0.566792 J2.345290
G03 X165.874416 Y84.460481 Z2 I-5.085553 J6.373123
G02 X166.750040 Y85.366700 Z2 I26.826341 J-25.044497
G02 X168.626060 Y87.240681 Z2 I1724.238815 J-1724.239060
G03 X170.499940 Y89.116700 Z2 I-564.865938 J566.095814
G03 X171.278977 Y89.941087 Z2 I-15.427471 J15.359071
G02 X172.001870 Y90.564130 Z2 I2.774634 J-2.488409
G02 X173.116444 Y91.039841 Z2 I1.867604 J-2.832169
G03 X174.000040 Y91.241700 Z2 I-131.632912 J578.231555
G00 Z0.000000

(End cutting path id: path24)


(Start cutting path id: path24)
(Change tool to Default tool)

G00 Z0.000000
G00 X165.125040 Y90.616700

G01 Z2 F100.0(Penetrate)
G02 X164.216803 Y87.584004 Z2 I-17.752234 J3.664121 F75
G03 X163.391440 Y84.491700 Z2 I12.675448 J-5.039489
G02 X163.234165 Y83.509103 Z2 I-31.839734 J4.592412
G02 X163.125040 Y82.991700 Z2 I-7.732811 J1.360705
G00 Z0.000000

(End cutting path id: path24)


(Start cutting path id: path24)
(Change tool to Default tool)

G00 Z0.000000
G00 X178.750040 Y79.241700

G01 Z2 F100.0(Penetrate)
G02 X176.251098 Y77.234536 Z2 I-577.763175 J716.762695 F75
G02 X173.750040 Y75.242090 Z2 I-441.685365 J551.868358
G02 X173.101845 Y74.741110 Z2 I-20.442226 J25.779425
G03 X172.521260 Y74.230420 Z2 I3.067501 J-4.072701
G03 X171.908020 Y73.568760 Z2 I12.401485 J-12.108964
G02 X171.250040 Y72.866700 Z2 I-11.437843 J10.060333
G02 X169.585497 Y71.239954 Z2 I-67.015933 J66.908038
G02 X167.875040 Y69.627890 Z2 I-139.038615 J145.811456
G03 X166.692802 Y68.502682 Z2 I51.879522 J-55.692689
G02 X165.500040 Y67.388020 Z2 I-28.676650 J29.490400
G02 X164.743017 Y66.879141 Z2 I-2.185426 J2.433579
G03 X164.128510 Y66.329370 Z2 I0.656241 J-1.351832
G01 X164.002450 Y65.741600 Z2
G03 X163.987456 Y64.580571 Z2 I18.916832 J-0.824909
G02 X164.000450 Y63.116700 Z2 I-82.452138 J-1.463871
G01 X164.000450 Y58.116700 Z2
G01 X164.000450 Y56.242280 Z2
G01 X164.000450 Y55.491700 Z2
G00 Z0.000000

(End cutting path id: path24)


(Start cutting path id: path24)
(Change tool to Default tool)

G00 Z0.000000
G00 X155.750450 Y68.116700

G01 Z2 F100.0(Penetrate)
G01 X156.213700 Y67.366220 Z2 F75
G01 X156.643970 Y66.620170 Z2
G01 X157.625450 Y66.616170 Z2
G01 X161.250450 Y66.526970 Z2
G01 X162.625450 Y66.491270 Z2
G01 X164.000450 Y66.241270 Z2
G00 Z0.000000

(End cutting path id: path24)


(Start cutting path id: path24)
(Change tool to Default tool)

G00 Z0.000000
G00 X174.250450 Y68.116270

G01 Z2 F100.0(Penetrate)
G01 X174.375450 Y68.116270 Z2 F75
G00 Z0.000000

(End cutting path id: path24)


(Start cutting path id: path24)
(Change tool to Default tool)

G00 Z0.000000
G00 X156.250450 Y66.366270

G01 Z2 F100.0(Penetrate)
G02 X156.232121 Y64.590652 Z2 I-85.109729 J-0.009330 F75
G03 X156.322850 Y62.741270 Z2 I13.276397 J-0.275585
G02 X156.385386 Y61.533602 Z2 I-8.952600 J-1.069039
G03 X156.375450 Y60.241270 Z2 I84.041047 J-1.292332
G02 X156.297735 Y59.204605 Z2 I-6.959232 J0.000462
G02 X156.166060 Y58.366270 Z2 I-67.580787 J10.185232
G03 X156.111403 Y57.824111 Z2 I4.368225 J-0.714207
G02 X156.072360 Y57.366270 Z2 I-4.971874 J0.193403
G03 X155.995333 Y55.946787 Z2 I9.194427 J-1.210758
G02 X156.000460 Y55.491270 Z2 I-20.233788 J-0.455517
G00 Z0.000000

(End cutting path id: path24)


(Start cutting path id: path24)
(Change tool to Default tool)

G00 Z0.000000
G00 X171.250460 Y65.116270

G01 Z2 F100.0(Penetrate)
G01 X171.125460 Y64.866270 Z2 F75
G00 Z0.000000

(End cutting path id: path24)


(Start cutting path id: path24)
(Change tool to Default tool)

G00 Z0.000000
G00 X179.375460 Y64.241270

G01 Z2 F100.0(Penetrate)
G03 X176.189813 Y61.442582 Z2 I18.440653 J-24.202736 F75
G02 X173.125460 Y58.512490 Z2 I-54.679398 J54.117461
G02 X171.990195 Y57.498864 Z2 I-77.481664 J85.637216
G03 X170.893500 Y56.455580 Z2 I13.107305 J-14.876393
G03 X170.443426 Y55.705957 Z2 I1.365230 J-1.329609
G03 X170.375460 Y55.491270 Z2 I40.497155 J-12.938761
G00 Z0.000000

(End cutting path id: path24)


(Start cutting path id: path24)
(Change tool to Default tool)

G00 Z0.000000
G00 X167.375460 Y61.366270

G01 Z2 F100.0(Penetrate)
G01 X167.375460 Y61.241270 Z2 F75
G00 Z0.000000

(End cutting path id: path24)


(Start cutting path id: path24)
(Change tool to Default tool)

G00 Z0.000000
G00 X148.625460 Y58.741270

G01 Z2 F100.0(Penetrate)
G03 X148.926890 Y58.562118 Z2 I1.174103 J1.632312 F75
G03 X149.750460 Y58.366850 Z2 I0.856442 J1.777773
G03 X150.400960 Y58.396398 Z2 I0.088924 J5.217529
G02 X151.125460 Y58.470050 Z2 I6.015036 J-55.568396
G02 X153.080375 Y58.512798 Z2 I1.269658 J-13.341314
G03 X154.875460 Y58.495750 Z2 I1.102041 J21.524433
G02 X155.503786 Y58.511618 Z2 I1.510685 J-47.371138
G02 X156.125460 Y58.491750 Z2 I0.114549 J-6.151865
G00 Z0.000000

(End cutting path id: path24)


(Start cutting path id: path24)
(Change tool to Default tool)

G00 Z0.000000
G00 X145.625460 Y56.741750

G01 Z2 F100.0(Penetrate)
G01 X146.376040 Y57.245030 Z2 F75
G01 X147.875000 Y57.991700 Z2
G00 Z0.000000

(End cutting path id: path24)


(Footer)
M5
;G00 X0.0000 Y0.0000
M2
(Using default footer. To add your own footer create file "footer" in the output dir.)
(end)
%