%
(Header)
(Generated by gcodetools from Inkscape.)
(Using default header. To add your own header create file "header" in the output dir.)
M3
(Header end.)
G21 (All units in mm)

(Start cutting path id: path9)
(Change tool to Default tool)

G00 Z0.000000
G00 X147.750000 Y180.125000

G01 Z2 F100.0(Penetrate)
G01 X150.123170 Y177.750000 Z2 F75.000000
G01 X151.625100 Y176.125000 Z2
G01 X153.000000 Y174.750000 Z2
G01 X154.504920 Y173.125000 Z2
G01 X156.245080 Y171.375000 Z2
G01 X158.021800 Y169.000000 Z2
G01 X162.296200 Y164.625000 Z2
G01 X163.087770 Y163.296875 Z2
G01 X164.282410 Y161.938753 Z2
G01 X165.250000 Y161.430265 Z2
G01 X166.620080 Y160.250000 Z2
G01 X168.875000 Y157.875000 Z2
G01 X173.125000 Y153.750000 Z2
G01 X174.754920 Y152.000000 Z2
G01 X176.250000 Y150.500000 Z2
G01 X178.875000 Y147.750000 Z2
G01 X180.132520 Y146.375195 Z2
G01 X180.625000 Y145.500000 Z2
G02 X181.005994 Y145.736011 Z2 I1.576488 J-2.119406
G02 X181.375000 Y145.875000 Z2 I0.816925 J-1.609543
G00 Z0.000000

(End cutting path id: path9)


(Start cutting path id: path9)
(Change tool to Default tool)

G00 Z0.000000
G00 X172.875000 Y168.250000

G01 Z2 F100.0(Penetrate)
G02 X171.782541 Y169.480048 Z2 I3.972503 J4.628305 F75.000000
G03 X170.084490 Y171.750000 Z2 I-22.951928 J-15.399235
G01 X169.151620 Y173.493153 Z2
G02 X169.973403 Y174.134085 Z2 I0.964638 J-0.389531
G03 X171.250000 Y174.350019 Z2 I-2.982630 J21.514729
G03 X173.050677 Y174.773700 Z2 I-5.380565 J26.906206
G02 X174.875000 Y175.103588 Z2 I2.827478 J-10.426995
G02 X175.622918 Y174.974599 Z2 I0.135148 J-1.449194
G02 X176.162040 Y174.374422 Z2 I-0.431635 J-0.929954
G02 X175.727507 Y171.617298 Z2 I-2.840882 J-0.965070
G03 X174.140430 Y169.251928 Z2 I23.254117 J-17.317784
G02 X173.557099 Y168.658107 Z2 I-1.533673 J0.923157
G03 X173.001640 Y168.098379 Z2 I0.919853 J-1.468311
G03 X172.688010 Y167.182250 Z2 I1.870997 J-1.152272
G02 X172.413100 Y166.000000 Z2 I-5.007215 J0.541245
G02 X171.631212 Y164.285608 Z2 I-11.270320 J4.104592
G02 X170.625000 Y162.625000 Z2 I-22.201312 J12.317292
G00 Z0.000000

(End cutting path id: path9)


(Start cutting path id: path9)
(Change tool to Default tool)

G00 Z0.000000
G00 X161.125000 Y172.250000

G01 Z2 F100.0(Penetrate)
G01 X165.000000 Y173.043692 Z2 F75.000000
G01 X167.500000 Y173.496914 Z2
G01 X169.000000 Y173.500000 Z2
G00 Z0.000000

(End cutting path id: path9)


(Start cutting path id: path9)
(Change tool to Default tool)

G00 Z0.000000
G00 X163.000000 Y163.250000

G01 Z2 F100.0(Penetrate)
G02 X162.706470 Y162.980712 Z2 I-34.651298 J37.476006 F75.000000
G02 X162.000000 Y162.643518 Z2 I-0.911822 J1.001723
G02 X160.751631 Y162.604799 Z2 I-0.783161 J5.106384
G03 X159.125000 Y162.571958 Z2 I-0.665128 J-7.356184
G02 X158.435250 Y162.513369 Z2 I-0.983931 J7.494133
G02 X157.750000 Y162.500008 Z2 I-0.686321 J17.620384
G01 X151.625000 Y162.500008 Z2
G03 X149.763639 Y162.499827 Z2 I0.193877 J-9580.251144
G02 X147.875000 Y162.500008 Z2 I-0.654661 J3255.890211
G02 X147.223355 Y162.513142 Z2 I0.006316 J16.485504
G02 X146.625000 Y162.612662 Z2 I0.097174 J2.432792
G02 X145.838526 Y162.904626 Z2 I1.823458 J6.117165
G03 X145.625000 Y163.000008 Z2 I-42.702007 J-95.308137
G00 Z0.000000

(End cutting path id: path9)


(Start cutting path id: path9)
(Change tool to Default tool)

G00 Z0.000000
G00 X145.500000 Y163.000008

G01 Z2 F100.0(Penetrate)
G01 X145.625000 Y163.000008 Z2 F75.000000
G00 Z0.000000

(End cutting path id: path9)


(Start cutting path id: path9)
(Change tool to Default tool)

G00 Z0.000000
G00 X164.250000 Y161.750008

G01 Z2 F100.0(Penetrate)
G03 X164.071512 Y161.463431 Z2 I2.060965 J-1.482496 F75.000000
G03 X163.877410 Y160.750008 Z2 I1.462550 J-0.781035
G03 X163.865774 Y159.789683 Z2 I16.740887 J-0.683086
G02 X163.875410 Y158.625008 Z2 I-70.377105 J-1.164675
G01 X163.875410 Y155.375008 Z2
G01 X163.875410 Y154.000008 Z2
G03 X163.937660 Y151.696768 Z2 I42.641071 J0.000000
G02 X164.000410 Y149.375008 Z2 I-42.921179 J-2.321760
G01 X164.000410 Y147.250008 Z2
G02 X163.998493 Y146.798974 Z2 I-53.052999 J0.000000
G03 X164.000990 Y146.375103 Z2 I14.724886 J-0.125189
G01 X164.500410 Y145.500008 Z2
G00 Z0.000000

(End cutting path id: path9)


(Start cutting path id: path9)
(Change tool to Default tool)

G00 Z0.000000
G00 X145.625000 Y154.000000

G01 Z2 F100.0(Penetrate)
G03 X147.225504 Y154.042119 Z2 I0.000000 J30.430627 F75.000000
G02 X150.375000 Y154.125000 Z2 I3.149496 J-59.798991
G01 X153.000000 Y154.125000 Z2
G03 X153.886261 Y154.125444 Z2 I0.000103 J883.925450
G02 X154.750000 Y154.125000 Z2 I0.285421 J-284.679831
G01 X155.804490 Y153.924576 Z2
G01 X156.124520 Y152.625000 Z2
G02 X156.131303 Y150.443215 Z2 I-123.160979 J-1.473815
G03 X156.125000 Y148.250000 Z2 I381.560924 J-2.193215
G01 X156.125000 Y146.375195 Z2
G01 X156.125000 Y145.500000 Z2
G00 Z0.000000

(End cutting path id: path9)


(Start cutting path id: path9)
(Change tool to Default tool)

G00 Z0.000000
G00 X145.500000 Y154.000000

G01 Z2 F100.0(Penetrate)
G01 X145.625000 Y154.000000 Z2 F75.000000
G00 Z0.000000

(End cutting path id: path9)


(Start cutting path id: path9)
(Change tool to Default tool)

G00 Z0.000000
G00 X145.500000 Y145.500000

G01 Z2 F100.0(Penetrate)
G01 X147.750000 Y145.500000 Z2 F75.000000
G00 Z0.000000

(End cutting path id: path9)


(Footer)
M5
M2
(Using default footer. To add your own footer create file "footer" in the output dir.)
(end)
%