%
(Header)
(Generated by gcodetools from Inkscape.)
(Using default header. To add your own header create file "header" in the output dir.)
M3
(Header end.)
G21 (All units in mm)

(Start cutting path id: path6)
(Change tool to Default tool)

G00 Z0.000000
G00 X51.500000 Y179.375000

G01 Z2 F100.0(Penetrate)
G02 X50.110795 Y177.931765 Z2 I-14.250186 J12.326494 F75.000000
G03 X48.500000 Y176.375000 Z2 I44.828747 J-47.996317
G01 X43.125000 Y171.000000 Z2
G02 X42.139394 Y170.019229 Z2 I-199.874195 J199.873869
G03 X41.251832 Y169.125000 Z2 I51.185761 J-51.691742
G03 X40.837798 Y168.676003 Z2 I7.783299 J-7.592618
G02 X40.464313 Y168.250000 Z2 I-71.589742 J62.387358
G02 X39.052888 Y166.744359 Z2 I-25.523127 J22.511645
G02 X38.020062 Y165.858603 Z2 I-6.148926 J6.124848
G02 X37.762857 Y165.700058 Z2 I-1.142488 J1.565536
G03 X37.625000 Y165.625000 Z2 I1.481083 J-2.884398
G00 Z0.000000

(End cutting path id: path6)


(Start cutting path id: path6)
(Change tool to Default tool)

G00 Z0.000000
G00 X69.000000 Y179.375000

G01 Z2 F100.0(Penetrate)
G03 X66.151942 Y176.674376 Z2 I91.746587 J-99.607345 F75.000000
G02 X63.126833 Y173.761284 Z2 I-216.062309 J221.343288
G03 X61.073672 Y171.780875 Z2 I129.002540 J-135.796081
G02 X59.000000 Y169.855614 Z2 I-37.114430 J37.896042
G02 X58.315762 Y169.276125 Z2 I-15.647799 J17.782603
G02 X57.625000 Y168.717882 Z2 I-68.822311 J84.453273
G02 X56.705627 Y168.033709 Z2 I-9.996057 J12.472631
G03 X55.750000 Y167.248167 Z2 I4.180474 J-6.059667
G03 X54.445213 Y165.957401 Z2 I81.503026 J-83.693230
G02 X53.125000 Y164.714314 Z2 I-19.758412 J19.661693
G03 X52.184441 Y163.813050 Z2 I10.440097 J-11.836696
G02 X51.250000 Y162.879919 Z2 I-23.058291 J22.156227
G02 X50.817084 Y162.498030 Z2 I-4.849447 J5.061100
G03 X50.450424 Y162.103781 Z2 I1.215722 J-1.498271
G03 X50.244228 Y161.431558 Z2 I0.940594 J-0.656251
G02 X50.250000 Y160.625000 Z2 I-59.559812 J-0.829524
G03 X50.305507 Y158.265607 Z2 I51.008592 J0.019672
G02 X50.375579 Y156.125000 Z2 I-76.770632 J-3.584519
G01 X50.664738 Y155.237944 Z2
G01 X52.375000 Y155.650558 Z2
G02 X55.037981 Y157.165152 Z2 I70.833818 J-121.442690
G02 X57.750000 Y158.594135 Z2 I34.903656 J-62.954468
G02 X62.285626 Y160.654585 Z2 I29.920087 J-59.840152
G02 X66.875000 Y162.460552 Z2 I65.569665 J-159.893170
G03 X67.916467 Y162.901948 Z2 I-4.960781 J13.154251
G03 X68.625000 Y163.275463 Z2 I-3.884403 J8.227226
G03 X68.941548 Y163.470280 Z2 I-4.166178 J7.123975
G02 X69.500000 Y163.715084 Z2 I1.032498 J-1.595980
G02 X70.182899 Y163.780627 Z2 I0.549326 J-2.133119
G03 X70.750000 Y163.803534 Z2 I0.170590 J2.807968
G03 X71.515408 Y163.955907 Z2 I-0.998710 J7.015371
G02 X72.250000 Y164.137638 Z2 I10.374377 J-40.359731
G02 X73.143012 Y164.247679 Z2 I0.940889 J-3.957031
G02 X73.375000 Y164.250004 Z2 I0.780576 J-66.308733
G00 Z0.000000

(End cutting path id: path6)


(Start cutting path id: path6)
(Change tool to Default tool)

G00 Z0.000000
G00 X61.750000 Y179.250000

G01 Z2 F100.0(Penetrate)
G01 X61.625000 Y179.125000 Z2 F75.000000
G00 Z0.000000

(End cutting path id: path6)


(Start cutting path id: path6)
(Change tool to Default tool)

G00 Z0.000000
G00 X57.000000 Y174.875000

G01 Z2 F100.0(Penetrate)
G01 X57.125000 Y174.875000 Z2 F75.000000
G00 Z0.000000

(End cutting path id: path6)


(Start cutting path id: path6)
(Change tool to Default tool)

G00 Z0.000000
G00 X52.875000 Y170.000000

G01 Z2 F100.0(Penetrate)
G01 X52.500000 Y169.875000 Z2 F75.000000
G00 Z0.000000

(End cutting path id: path6)


(Start cutting path id: path6)
(Change tool to Default tool)

G00 Z0.000000
G00 X73.375000 Y169.000000

G01 Z2 F100.0(Penetrate)
G02 X73.000829 Y168.181193 Z2 I-1.166813 J0.038303 F75.000000
G02 X72.499905 Y167.732059 Z2 I-14.831502 J16.037823
G03 X71.451838 Y166.783745 Z2 I23.261307 J-26.761467
G03 X70.302372 Y165.500000 Z2 I6.947579 J-7.377356
G03 X69.784894 Y164.447648 Z2 I2.505023 J-1.885213
G02 X69.625000 Y164.000000 Z2 I-3.091637 J0.851912
G00 Z0.000000

(End cutting path id: path6)


(Start cutting path id: path6)
(Change tool to Default tool)

G00 Z0.000000
G00 X37.500000 Y165.625000

G01 Z2 F100.0(Penetrate)
G01 X37.625000 Y165.625000 Z2 F75.000000
G00 Z0.000000

(End cutting path id: path6)


(Start cutting path id: path6)
(Change tool to Default tool)

G00 Z0.000000
G00 X47.500000 Y164.875000

G01 Z2 F100.0(Penetrate)
G01 X48.125000 Y165.250000 Z2 F75.000000
G00 Z0.000000

(End cutting path id: path6)


(Start cutting path id: path6)
(Change tool to Default tool)

G00 Z0.000000
G00 X37.625000 Y162.000000

G01 Z2 F100.0(Penetrate)
G01 X38.253086 Y162.000000 Z2 F75.000000
G01 X41.750000 Y162.000000 Z2
G03 X44.317603 Y162.062624 Z2 I-0.000000 J52.667181
G02 X46.875000 Y162.125000 Z2 I2.557397 J-52.395444
G03 X48.099339 Y162.129538 Z2 I-0.000000 J165.146887
G02 X49.250000 Y162.124422 Z2 I0.359642 J-48.509591
G02 X49.856340 Y162.034284 Z2 I-0.038457 J-2.343136
G02 X50.250000 Y161.875000 Z2 I-0.553532 J-1.934106
G00 Z0.000000

(End cutting path id: path6)


(Start cutting path id: path6)
(Change tool to Default tool)

G00 Z0.000000
G00 X37.500000 Y162.000000

G01 Z2 F100.0(Penetrate)
G01 X37.625000 Y162.000000 Z2 F75.000000
G00 Z0.000000

(End cutting path id: path6)


(Start cutting path id: path6)
(Change tool to Default tool)

G00 Z0.000000
G00 X50.750000 Y155.000000

G01 Z2 F100.0(Penetrate)
G02 X49.999346 Y154.223126 Z2 I-4.947505 J4.029425 F75.000000
G02 X48.875000 Y153.639565 Z2 I-1.759369 J2.014857
G02 X48.446097 Y153.549094 Z2 I-1.636862 J6.698064
G03 X47.937403 Y153.337095 Z2 I0.222434 J-1.250042
G03 X47.464287 Y152.766333 Z2 I0.814818 J-1.156887
G02 X46.749421 Y151.862366 Z2 I-2.188263 J0.995855
G03 X45.253413 Y150.664769 Z2 I38.106150 J-49.134443
G02 X43.750000 Y149.582851 Z2 I-8.851679 J10.714607
G02 X43.196838 Y149.328049 Z2 I-1.286850 J2.065837
G03 X42.674190 Y149.037231 Z2 I0.450320 J-1.424353
G03 X42.329020 Y148.581289 Z2 I0.879032 J-1.024094
G02 X42.064525 Y148.125000 Z2 I-2.637445 J1.224037
G02 X41.375405 Y147.330491 Z2 I-4.371546 J3.095565
G02 X40.626832 Y146.666859 Z2 I-10.530136 J11.123919
G01 X39.483410 Y145.539738 Z2
G02 X38.715440 Y145.460330 Z2 I-0.607551 J2.122442
G03 X37.625000 Y145.500000 Z2 I-1.090440 J-14.966974
G00 Z0.000000

(End cutting path id: path6)


(Start cutting path id: path6)
(Change tool to Default tool)

G00 Z0.000000
G00 X37.500000 Y153.875000

G01 Z2 F100.0(Penetrate)
G01 X37.769869 Y153.875000 Z2 F75.000000
G03 X38.817964 Y153.877234 Z2 I-0.000001 J245.813209
G02 X41.000000 Y153.874905 Z2 I0.872554 J-204.641161
G02 X41.623017 Y153.817066 Z2 I-0.023143 J-3.633660
G03 X42.250000 Y153.734955 Z2 I1.158427 J6.410680
G03 X42.731416 Y153.731408 Z2 I0.264531 J3.231374
G02 X43.250000 Y153.749905 Z2 I0.554764 J-8.274513
G03 X45.251267 Y153.797061 Z2 I-0.225971 J52.080167
G02 X46.750000 Y153.815685 Z2 I1.056077 J-24.672210
G02 X47.441964 Y153.596451 Z2 I-0.022835 J-1.273706
G02 X47.750000 Y153.375002 Z2 I-3.859651 J-5.693757
G00 Z0.000000

(End cutting path id: path6)


(Start cutting path id: path6)
(Change tool to Default tool)

G00 Z0.000000
G00 X42.125000 Y153.625002

G01 Z2 F100.0(Penetrate)
G03 X42.141377 Y152.139685 Z2 I67.362950 J0.000000 F75.000000
G03 X42.257041 Y150.000195 Z2 I33.520369 J0.739286
G03 X42.439637 Y149.413773 Z2 I1.428278 J0.123089
G03 X42.625000 Y149.125002 Z2 I2.818907 J1.605584
G00 Z0.000000

(End cutting path id: path6)


(Start cutting path id: path6)
(Change tool to Default tool)

G00 Z0.000000
G00 X37.500000 Y145.500000

G01 Z2 F100.0(Penetrate)
G01 X37.625000 Y145.500000 Z2 F75.000000
G00 Z0.000000

(End cutting path id: path6)


(Footer)
M5
M2
(Using default footer. To add your own footer create file "footer" in the output dir.)
(end)
%