%
(Header)
(Generated by gcodetools from Inkscape.)
(Using default header. To add your own header create file "header" in the output dir.)
M3
(Header end.)
G21 (All units in mm)

(Start cutting path id: path22)
(Change tool to Default tool)

G00 Z0.000000
G00 X105.625000 Y91.366700

G01 Z2 F100.0(Penetrate)
G02 X104.986519 Y91.141910 Z2 I-1.744042 J3.934538 F75
G03 X103.875000 Y90.581980 Z2 I0.778356 J-2.928319
G03 X103.328903 Y90.069958 Z2 I2.932574 J-3.674970
G02 X102.750000 Y89.526420 Z2 I-3.722499 J3.384645
G02 X102.283083 Y89.244861 Z2 I-1.291641 J1.614035
G03 X101.801890 Y88.928040 Z2 I0.671886 J-1.544302
G03 X101.413020 Y88.393315 Z2 I1.211884 J-1.290083
G02 X101.082470 Y87.866700 Z2 I-2.355711 J1.111605
G02 X100.444042 Y87.171420 Z2 I-5.863836 J4.743606
G03 X99.750000 Y86.491700 Z2 I35.089746 J-36.523299
G02 X98.662864 Y85.672410 Z2 I-3.476955 J3.482741
G03 X97.907408 Y85.046680 Z2 I1.296999 J-2.334793
G02 X95.934813 Y82.843774 Z2 I-31.616965 J26.326824
G02 X93.750000 Y80.616700 Z2 I-117.332285 J112.920545
G03 X92.753882 Y79.566350 Z2 I19.317501 J-19.317626
G02 X91.750000 Y78.742860 Z2 I-3.200931 J2.878477
G02 X90.733414 Y78.640732 Z2 I-0.618042 J1.041373
G02 X89.875000 Y79.139850 Z2 I0.859397 J2.465777
G02 X88.868608 Y80.101261 Z2 I10.271135 J11.759128
G03 X87.875000 Y81.116700 Z2 I-47.221047 J-45.211999
G03 X86.415773 Y82.534969 Z2 I-50.554696 J-50.554858
G02 X85.016686 Y83.991700 Z2 I14.261159 J15.097056
G02 X84.585227 Y84.666332 Z2 I2.053431 J1.788551
G03 X84.108314 Y85.264940 Z2 I-1.404267 J-0.629501
G03 X83.600232 Y85.580262 Z2 I-1.975255 J-2.615752
G02 X83.125000 Y85.893420 Z2 I1.076941 J2.151481
G02 X82.368084 Y86.597587 Z2 I6.932836 J8.211067
G02 X81.630402 Y87.366700 Z2 I43.206135 J42.178759
G02 X81.092624 Y88.140088 Z2 I2.322807 J2.188837
G03 X80.590663 Y88.804390 Z2 I-2.000667 J-0.989952
G03 X80.083049 Y89.138545 Z2 I-1.330508 J-1.468539
G02 X79.625000 Y89.415890 Z2 I0.958807 J2.100433
G02 X78.936045 Y90.038848 Z2 I3.830654 J4.928929
G03 X78.250000 Y90.741700 Z2 I-29.381402 J-27.992572
G00 Z0.000000

(End cutting path id: path22)


(Start cutting path id: path22)
(Change tool to Default tool)

G00 Z0.000000
G00 X84.250000 Y85.241700

G01 Z2 F100.0(Penetrate)
G02 X86.676164 Y87.647267 Z2 I283.448861 J-283.449590 F75
G02 X89.589314 Y90.476850 Z2 I236.226204 J-240.288346
G02 X90.374820 Y90.967646 Z2 I1.565060 J-1.630849
G02 X91.125000 Y91.109850 Z2 I0.802677 J-2.184577
G02 X91.878358 Y91.023833 Z2 I0.062879 J-2.791333
G02 X92.375000 Y90.831880 Z2 I-0.554937 J-2.174258
G02 X93.185436 Y90.192824 Z2 I-1.350909 J-2.546605
G03 X94.000000 Y89.294750 Z2 I33.491084 J29.558395
G03 X96.517849 Y86.666659 Z2 I96.903081 J90.318073
G02 X97.875000 Y85.241700 Z2 I-42.016082 J-41.375473
G00 Z0.000000

(End cutting path id: path22)


(Start cutting path id: path22)
(Change tool to Default tool)

G00 Z0.000000
G00 X82.750000 Y90.866700

G01 Z2 F100.0(Penetrate)
G03 X81.490404 Y89.713961 Z2 I24.337144 J-27.857708 F75
G03 X80.625000 Y88.866700 Z2 I39.557394 J-41.270060
G00 Z0.000000

(End cutting path id: path22)


(Start cutting path id: path22)
(Change tool to Default tool)

G00 Z0.000000
G00 X99.875000 Y90.866700

G01 Z2 F100.0(Penetrate)
G01 X101.750000 Y88.991700 Z2 F75
G00 Z0.000000

(End cutting path id: path22)


(Start cutting path id: path22)
(Change tool to Default tool)

G00 Z0.000000
G00 X109.375000 Y87.991700

G01 Z2 F100.0(Penetrate)
G03 X109.147972 Y87.855677 Z2 I3.878135 J-6.730225 F75
G03 X108.499810 Y87.359760 Z2 I2.243516 J-3.603802
G03 X107.275751 Y86.162279 Z2 I23.303152 J-25.044717
G02 X105.875000 Y84.741700 Z2 I-101.767625 J98.946295
G02 X102.546397 Y81.438198 Z2 I-438.093177 J438.093178
G03 X99.251928 Y78.116700 Z2 I140.842639 J-142.991120
G03 X98.649483 Y77.232270 Z2 I2.249127 J-2.179430
G02 X98.186247 Y76.544070 Z2 I-2.283363 J1.036956
G02 X97.666035 Y76.209790 Z2 I-0.940054 J0.891006
G03 X97.250000 Y76.011380 Z2 I0.651645 J-1.901786
G03 X96.704128 Y75.573998 Z2 I1.610742 J-2.569602
G02 X96.125000 Y74.991700 Z2 I-98.687256 J97.570966
G03 X94.430766 Y73.295501 Z2 I1055.687644 J-1056.158921
G02 X92.750000 Y71.616800 Z2 I-421.182085 J420.019341
G02 X92.093732 Y70.964660 Z2 I-594.241153 J597.346032
G02 X91.250000 Y70.636570 Z2 I-0.798443 J0.804379
G02 X90.592621 Y70.868163 Z2 I0.047267 J1.182950
G02 X90.000000 Y71.369020 Z2 I3.601016 J4.861805
G02 X88.243952 Y73.106988 Z2 I59.487991 J61.862991
G03 X86.500000 Y74.866700 Z2 I-187.221602 J-183.800797
G02 X85.928867 Y75.441730 Z2 I78.908940 J78.945358
G03 X85.375000 Y75.886380 Z2 I-2.185321 J-2.154808
G03 X84.960485 Y76.085658 Z2 I-1.090525 J-1.737636
G02 X84.462770 Y76.419070 Z2 I0.392150 J1.123595
G02 X83.953165 Y77.156989 Z2 I2.760882 J2.451584
G03 X83.249904 Y78.116700 Z2 I-3.532106 J-1.850747
G03 X82.127196 Y79.241395 Z2 I-237.825888 J-236.282828
G02 X81.000000 Y80.366700 Z2 I870.784336 J873.375436
G03 X78.945466 Y82.358781 Z2 I-66.380424 J-66.405973
G02 X76.875000 Y84.366700 Z2 I64.420211 J68.498346
G02 X75.550002 Y85.710564 Z2 I94.382067 J94.382214
G03 X74.375579 Y86.859370 Z2 I-23.408560 J-22.755831
G03 X73.829661 Y87.260777 Z2 I-2.007667 J-2.158519
G03 X73.625000 Y87.366700 Z2 I-1.385813 J-2.426942
G00 Z0.000000

(End cutting path id: path22)


(Start cutting path id: path22)
(Change tool to Default tool)

G00 Z0.000000
G00 X73.500000 Y87.491700

G01 Z2 F100.0(Penetrate)
G01 X73.625000 Y87.366700 Z2 F75
G00 Z0.000000

(End cutting path id: path22)


(Start cutting path id: path22)
(Change tool to Default tool)

G00 Z0.000000
G00 X98.250000 Y76.491700

G01 Z2 F100.0(Penetrate)
G03 X98.540303 Y76.304986 Z2 I1.938294 J2.694626 F75
G03 X99.125193 Y76.123840 Z2 I0.699004 J1.222135
G03 X99.808735 Y76.105555 Z2 I0.509690 J6.268237
G02 X100.625000 Y76.116840 Z2 I0.816265 J-29.516297
G03 X103.111707 Y76.163774 Z2 I0.000000 J65.899634
G02 X105.250000 Y76.095540 Z2 I0.580056 J-15.360980
G02 X106.072824 Y75.868695 Z2 I-0.259913 J-2.548488
G02 X106.500000 Y75.616860 Z2 I-1.089811 J-2.336814
G01 X107.625000 Y75.989930 Z2
G01 X108.746910 Y75.991930 Z2
G01 X109.375000 Y75.991930 Z2
G00 Z0.000000

(End cutting path id: path22)


(Start cutting path id: path22)
(Change tool to Default tool)

G00 Z0.000000
G00 X84.375000 Y76.241930

G01 Z2 F100.0(Penetrate)
G01 X83.499807 Y75.874070 Z2 F75
G01 X82.000000 Y75.866700 Z2
G01 X78.375000 Y75.866700 Z2
G01 X76.875000 Y75.859700 Z2
G01 X75.750000 Y75.242030 Z2
G03 X74.432943 Y75.824206 Z2 I-1.566324 J-1.762618
G03 X73.625000 Y75.867030 Z2 I-0.807943 J-7.600127
G00 Z0.000000

(End cutting path id: path22)


(Start cutting path id: path22)
(Change tool to Default tool)

G00 Z0.000000
G00 X73.500000 Y75.867030

G01 Z2 F100.0(Penetrate)
G01 X73.625000 Y75.867030 Z2 F75
G00 Z0.000000

(End cutting path id: path22)


(Start cutting path id: path22)
(Change tool to Default tool)

G00 Z0.000000
G00 X106.500000 Y75.617030

G01 Z2 F100.0(Penetrate)
G02 X106.080801 Y74.608498 Z2 I-1.464312 J0.017259 F75
G02 X105.250000 Y73.860280 Z2 I-6.482668 J6.362815
G03 X103.318293 Y72.215744 Z2 I23.421789 J-29.468514
G02 X101.375000 Y70.492030 Z2 I-65.361086 J71.729966
G03 X100.575588 Y69.792846 Z2 I54.150706 J-62.719776
G03 X100.078320 Y68.992030 Z2 I1.092726 J-1.233328
G03 X100.111422 Y68.220925 Z2 I1.226388 J-0.333617
G02 X100.249520 Y67.492030 Z2 I-2.130991 J-0.781273
G03 X100.371025 Y66.597826 Z2 I4.038094 J0.093343
G03 X100.500000 Y66.242030 Z2 I1.823943 J0.459898
G02 X99.631531 Y65.870903 Z2 I-1.456083 J2.205648
G02 X98.125000 Y65.638830 Z2 I-2.376452 J10.421091
G02 X97.611399 Y65.673809 Z2 I-0.140616 J1.723461
G03 X96.875000 Y65.687930 Z2 I-0.403349 J-1.825939
G03 X95.973215 Y65.439358 Z2 I0.927976 J-5.126637
G02 X95.000000 Y65.189470 Z2 I-1.644163 J4.383271
G02 X93.650354 Y65.104467 Z2 I-1.199050 J8.281000
G03 X92.250000 Y65.117070 Z2 I-1.400354 J-77.793474
G02 X89.592226 Y65.123118 Z2 I-0.000000 J583.952929
G02 X87.000000 Y65.251430 Z2 I0.131567 J28.906956
G02 X85.924203 Y65.525451 Z2 I0.338989 J3.579647
G03 X85.000000 Y65.804180 Z2 I-1.706943 J-3.988244
G03 X84.275308 Y65.795638 Z2 I-0.340528 J-1.855240
G02 X83.750000 Y65.763980 Z2 I-0.371120 J1.783995
G02 X82.469023 Y65.976241 Z2 I0.692616 J8.151305
G02 X81.500000 Y66.367090 Z2 I0.904950 J3.640286
G03 X81.655163 Y66.798788 Z2 I-1.397992 J0.746208
G03 X81.804977 Y67.617090 Z2 I-21.776736 J4.409724
G02 X81.990991 Y68.272467 Z2 I2.949764 J-0.483138
G03 X82.054880 Y68.992090 Z2 I-1.122177 J0.462276
G03 X81.658597 Y69.674792 Z2 I-1.255519 J-0.272416
G03 X81.000000 Y70.261480 Z2 I-60.397786 J-67.137642
G02 X78.901207 Y72.167173 Z2 I65.212566 J73.929029
G03 X76.875000 Y73.855900 Z2 I-15.865171 J-16.975775
G02 X76.189847 Y74.420678 Z2 I5.149406 J6.944922
G02 X75.750000 Y75.242090 Z2 I0.947023 J1.035578
G00 Z0.000000

(End cutting path id: path22)


(Start cutting path id: path22)
(Change tool to Default tool)

G00 Z0.000000
G00 X75.750000 Y74.617090

G01 Z2 F100.0(Penetrate)
G03 X75.313827 Y73.167396 Z2 I1.889047 J-1.358825 F75
G02 X75.375000 Y69.867090 Z2 I-80.348783 J-3.140021
G01 X75.357830 Y68.373940 Z2
G01 X76.624998 Y67.610440 Z2
G03 X79.253594 Y66.726524 Z2 I17.258387 J46.972683
G03 X81.499998 Y66.367090 Z2 I2.417038 J7.906554
G00 Z0.000000

(End cutting path id: path22)


(Start cutting path id: path22)
(Change tool to Default tool)

G00 Z0.000000
G00 X106.499998 Y74.617090

G01 Z2 F100.0(Penetrate)
G02 X106.727438 Y74.311221 Z2 I-4.347678 J-3.470365 F75
G02 X106.986398 Y73.617090 Z2 I-1.240946 J-0.858332
G02 X106.990856 Y71.128624 Z2 I-11.552461 J-1.264931
G03 X107.023598 Y69.242670 Z2 I7.654385 J-0.810372
G01 X108.499778 Y68.652780 Z2
G03 X109.093607 Y68.796082 Z2 I-1.880592 J9.095006
G02 X109.374968 Y68.867090 Z2 I1.720154 J-6.222995
G00 Z0.000000

(End cutting path id: path22)


(Start cutting path id: path22)
(Change tool to Default tool)

G00 Z0.000000
G00 X73.500000 Y68.741700

G01 Z2 F100.0(Penetrate)
G02 X73.874145 Y68.712847 Z2 I-0.071070 J-3.361865 F75
G03 X75.125000 Y68.616700 Z2 I1.481812 J11.093283
G00 Z0.000000

(End cutting path id: path22)


(Start cutting path id: path22)
(Change tool to Default tool)

G00 Z0.000000
G00 X82.375000 Y68.616700

G01 Z2 F100.0(Penetrate)
G02 X84.172614 Y67.334765 Z2 I-0.769907 J-2.980948 F75
G02 X84.750000 Y65.991700 Z2 I-3.431989 J-2.271060
G00 Z0.000000

(End cutting path id: path22)


(Start cutting path id: path22)
(Change tool to Default tool)

G00 Z0.000000
G00 X97.125000 Y65.991700

G01 Z2 F100.0(Penetrate)
G03 X97.292589 Y66.389072 Z2 I-5.083322 J2.377879 F75
G02 X97.566551 Y66.989870 Z2 I4.603494 J-1.736319
G02 X98.759440 Y68.156330 Z2 I2.471221 J-1.334023
G02 X99.875000 Y68.616700 Z2 I3.386172 J-6.623525
G00 Z0.000000

(End cutting path id: path22)


(Start cutting path id: path22)
(Change tool to Default tool)

G00 Z0.000000
G00 X107.375000 Y68.491700

G01 Z2 F100.0(Penetrate)
G02 X105.605214 Y67.450973 Z2 I-3.147766 J3.327715 F75
G02 X103.250000 Y66.741700 Z2 I-28.353042 J89.884219
G02 X102.352561 Y66.506641 Z2 I-5.492106 J19.137773
G02 X101.500000 Y66.335930 Z2 I-2.846828 J12.003290
G02 X100.920322 Y66.263884 Z2 I-1.218468 J7.435698
G02 X100.500000 Y66.241730 Z2 I-0.553831 J6.509206
G00 Z0.000000

(End cutting path id: path22)


(Footer)
M5
;G00 X0.0000 Y0.0000
M2
(Using default footer. To add your own footer create file "footer" in the output dir.)
(end)
%