%
(Header)
(Generated by gcodetools from Inkscape.)
(Using default header. To add your own header create file "header" in the output dir.)
M3
(Header end.)
G21 (All units in mm)

(Start cutting path id: path16)
(Change tool to Default tool)

G00 Z0.000000
G00 X59.750000 Y108.750000

G01 Z2 F100.0(Penetrate)
G03 X59.761149 Y107.084289 Z2 I124.440443 J0.000000 F75.000000
G02 X59.748100 Y105.625000 Z2 I-32.680078 J-0.437482
G02 X59.587480 Y104.862289 Z2 I-2.221578 J0.069575
G02 X59.192640 Y104.000483 Z2 I-9.597707 J3.875884
G02 X58.680953 Y103.315639 Z2 I-2.296408 J1.182203
G03 X57.988839 Y102.623167 Z2 I14.837497 J-15.521935
G02 X57.065562 Y101.695671 Z2 I-22.776769 J21.749870
G03 X56.160714 Y100.750000 Z2 I11.200092 J-11.622335
G02 X55.038986 Y99.538865 Z2 I-25.470896 J22.465571
G02 X53.875028 Y98.376928 Z2 I-39.647934 J38.552959
G02 X53.184247 Y97.863791 Z2 I-2.296371 J2.369825
G03 X52.534750 Y97.412712 Z2 I1.948638 J-3.498931
G03 X52.224878 Y96.986499 Z2 I0.730293 J-0.856700
G02 X52.055872 Y96.624905 Z2 I-4.115570 J1.703288
G02 X51.612960 Y95.997793 Z2 I-2.568054 J1.343781
G02 X51.000000 Y95.380497 Z2 I-9.350091 J8.671440
G02 X50.071001 Y94.819502 Z2 I-1.770600 J1.882385
G03 X49.299286 Y94.447626 Z2 I1.191536 J-3.459334
G01 X48.804977 Y93.375000 Z2
G03 X48.688793 Y92.527567 Z2 I16.833669 J-2.739596
G03 X48.625483 Y91.500000 Z2 I10.310238 J-1.150963
G03 X48.619492 Y89.931271 Z2 I97.062455 J-1.155080
G03 X48.714313 Y88.375000 Z2 I13.782668 J0.058734
G02 X48.748738 Y87.810769 Z2 I-4.970446 J-0.586421
G02 X48.750003 Y87.250000 Z2 I-128.767054 J-0.570922
G03 X48.786272 Y85.917549 Z2 I24.551457 J0.001574
G03 X48.970489 Y84.750000 Z2 I5.788335 J0.314980
G03 X49.124985 Y84.237390 Z2 I7.591552 J2.008431
G03 X49.417538 Y83.688755 Z2 I1.813685 J0.614810
G01 X50.125582 Y83.291183 Z2
G02 X50.554815 Y83.097852 Z2 I-1.082130 J-2.975703
G02 X51.375003 Y82.497680 Z2 I-1.813971 J-3.339465
G03 X52.208488 Y81.712134 Z2 I39.573565 J41.153626
G02 X52.883298 Y80.875000 Z2 I-2.497619 J-2.703868
G02 X53.060787 Y80.480881 Z2 I-1.716407 J-1.009999
G03 X53.314142 Y80.063660 Z2 I1.012352 J0.329209
G03 X53.878041 Y79.663179 Z2 I1.406582 J1.383306
G02 X54.500003 Y79.243150 Z2 I-1.054185 J-2.231493
G02 X55.864323 Y77.848068 Z2 I-13.273513 J-14.345485
G03 X57.250003 Y76.375000 Z2 I24.810547 J21.950421
G02 X57.943617 Y75.669379 Z2 I-40.902617 J-40.900362
G03 X58.625003 Y75.013500 Z2 I9.394698 J9.078165
G03 X59.034683 Y74.709222 Z2 I1.867046 J2.085857
G02 X59.492673 Y74.400080 Z2 I-3.114605 J-5.108069
G02 X59.954793 Y73.716506 Z2 I-0.746422 J-1.002600
G02 X60.000003 Y73.500000 Z2 I-2.048014 J-0.540627
G00 Z0.000000

(End cutting path id: path16)


(Start cutting path id: path16)
(Change tool to Default tool)

G00 Z0.000000
G00 X52.750000 Y108.625000

G01 Z2 F100.0(Penetrate)
G03 X52.221657 Y107.476682 Z2 I50.633942 J-23.992456 F75.000000
G03 X51.826775 Y106.250000 Z2 I5.432896 J-2.425807
G02 X51.708756 Y105.753909 Z2 I-8.158500 J1.678801
G02 X51.502893 Y105.250000 Z2 I-2.129856 J0.576111
G03 X51.231490 Y104.761046 Z2 I50.954061 J-28.602723
G03 X51.001929 Y104.250000 Z2 I3.082399 J-1.691695
G03 X50.578380 Y102.893971 Z2 I16.860605 J-6.010492
G02 X50.196953 Y101.500000 Z2 I-172.810802 J46.536357
G02 X49.873051 Y100.378515 Z2 I-56.018787 J15.571558
G03 X49.646702 Y99.250000 Z2 I5.919854 J-1.774317
G01 X49.700422 Y98.393518 Z2
G01 X50.750000 Y98.000000 Z2
G02 X51.980520 Y97.660456 Z2 I-0.030514 J-2.510076
G02 X52.375000 Y97.375000 Z2 I-1.223989 J-2.106769
G00 Z0.000000

(End cutting path id: path16)


(Start cutting path id: path16)
(Change tool to Default tool)

G00 Z0.000000
G00 X73.375000 Y108.125000

G01 Z2 F100.0(Penetrate)
G03 X73.145378 Y107.984481 Z2 I2.548367 J-4.422148 F75.000000
G03 X72.375000 Y107.372684 Z2 I2.804089 J-4.321855
G03 X71.040193 Y106.051771 Z2 I48.689371 J-50.536378
G02 X69.625000 Y104.625000 Z2 I-175.766390 J172.924874
G03 X66.682753 Y101.621312 Z2 I143.868208 J-143.868187
G02 X63.750000 Y98.625000 Z2 I-152.081529 J145.922088
G03 X62.694294 Y97.540781 Z2 I42.663748 J-42.597861
G02 X61.625000 Y96.516685 Z2 I-11.315296 J10.744396
G02 X61.017920 Y96.150395 Z2 I-1.348769 J1.549192
G03 X60.438658 Y95.787230 Z2 I0.651662 J-1.682980
G03 X59.892374 Y95.045454 Z2 I1.703727 J-1.826760
G02 X59.248167 Y94.125000 Z2 I-3.150034 J1.518986
G02 X57.505196 Y92.370102 Z2 I-88.500396 J86.155883
G03 X55.750000 Y90.625000 Z2 I233.729383 J-236.836589
G02 X55.063459 Y89.950568 Z2 I-34.992863 J34.934514
G03 X54.665318 Y89.125000 Z2 I0.915568 J-0.950332
G03 X54.866739 Y88.368177 Z2 I1.122098 J-0.106579
G03 X55.377316 Y87.750000 Z2 I4.344716 J3.068531
G03 X57.054751 Y86.054876 Z2 I59.877738 J57.575353
G02 X58.750000 Y84.375000 Z2 I-183.552725 J-186.927850
G03 X59.525254 Y83.622855 Z2 I25.248488 J25.248597
G02 X60.215279 Y82.875000 Z2 I-4.953831 J-5.263027
G02 X60.505909 Y82.390782 Z2 I-1.648282 J-1.318636
G03 X60.813658 Y81.909720 Z2 I1.618965 J0.696728
G03 X61.276633 Y81.578941 Z2 I0.976053 J0.876743
G02 X61.625000 Y81.395160 Z2 I-0.921667 J-2.169131
G02 X62.105681 Y81.013033 Z2 I-1.616331 J-2.526589
G02 X62.625000 Y80.500000 Z2 I-50.055760 J-51.188403
G03 X65.013091 Y78.175907 Z2 I93.534485 J93.721142
G02 X67.375000 Y75.875000 Z2 I-86.753927 J-91.416686
G03 X68.311269 Y74.953519 Z2 I58.383978 J58.384538
G02 X68.983217 Y74.250580 Z2 I-8.799975 J-9.084635
G02 X69.369437 Y73.722499 Z2 I-2.639808 J-2.335936
G02 X69.500000 Y73.500000 Z2 I-14.067993 J-8.404713
G00 Z0.000000

(End cutting path id: path16)


(Start cutting path id: path16)
(Change tool to Default tool)

G00 Z0.000000
G00 X51.625000 Y105.375000

G01 Z2 F100.0(Penetrate)
G03 X51.954930 Y105.175408 Z2 I1.417345 J1.970421 F75.000000
G03 X52.625000 Y105.002411 Z2 I0.737162 J1.471058
G03 X53.208600 Y104.999795 Z2 I0.327814 J8.033377
G02 X53.875000 Y104.978781 Z2 I0.167545 J-5.263739
G03 X56.083031 Y104.895368 Z2 I1.833427 J19.266693
G02 X58.000000 Y104.872589 Z2 I0.594008 J-30.683456
G02 X58.751128 Y104.635261 Z2 I-0.065331 J-1.514066
G02 X59.250000 Y104.250000 Z2 I-1.917841 J-2.999025
G00 Z0.000000

(End cutting path id: path16)


(Start cutting path id: path16)
(Change tool to Default tool)

G00 Z0.000000
G00 X59.250000 Y103.750000

G01 Z2 F100.0(Penetrate)
G02 X59.610004 Y103.262227 Z2 I-2.501956 J-2.223322 F75.000000
G02 X59.873072 Y102.375000 Z2 I-1.557253 J-0.944349
G02 X59.890037 Y100.464651 Z2 I-42.465824 J-1.332363
G03 X59.874972 Y98.250000 Z2 I162.780138 J-2.214651
G02 X59.867627 Y97.536424 Z2 I-34.667223 J-0.000000
G03 X59.913072 Y96.875000 Z2 I3.721060 J-0.076609
G03 X60.131287 Y96.250417 Z2 I1.841576 J0.292993
G03 X60.374975 Y95.875000 Z2 I3.180671 J1.797817
G00 Z0.000000

(End cutting path id: path16)


(Start cutting path id: path16)
(Change tool to Default tool)

G00 Z0.000000
G00 X73.374975 Y78.375000

G01 Z2 F100.0(Penetrate)
G03 X73.171038 Y78.419195 Z2 I-1.616267 J-6.965548 F75.000000
G02 X72.499784 Y78.659820 Z2 I0.486097 J2.412619
G02 X71.501090 Y79.431755 Z2 I1.780164 J3.335094
G03 X70.377291 Y80.625000 Z2 I-57.965193 J-53.465843
G02 X69.839681 Y81.397170 Z2 I2.160028 J2.077118
G03 X69.340254 Y82.061340 Z2 I-1.938182 J-0.937570
G03 X68.745105 Y82.459898 Z2 I-1.693843 J-1.885708
G02 X68.124975 Y82.881850 Z2 I1.093971 J2.274446
G02 X66.742739 Y84.234041 Z2 I23.620314 J25.527716
G03 X65.374975 Y85.625000 Z2 I-83.401434 J-80.642711
G03 X64.105970 Y86.859871 Z2 I-45.926040 J-45.926040
G02 X62.891565 Y88.125000 Z2 I12.639198 J13.347865
G02 X62.528900 Y88.631645 Z2 I2.450382 J2.137146
G02 X62.397930 Y89.250000 Z2 I0.878285 J0.509072
G02 X63.333084 Y90.831490 Z2 I2.209445 J-0.239243
G03 X64.874975 Y92.125000 Z2 I-6.612102 J9.447502
G03 X66.375454 Y93.631658 Z2 I-365.876235 J365.876231
G02 X67.874975 Y95.124422 Z2 I117.963211 J-116.997631
G02 X68.491284 Y95.630785 Z2 I3.145548 J-3.200292
G03 X69.098837 Y96.085455 Z2 I-4.898659 J7.179092
G03 X69.664877 Y96.684939 Z2 I-2.046584 J2.499382
G02 X70.250456 Y97.375000 Z2 I4.889050 J-3.555312
G03 X71.324576 Y98.496903 Z2 I-36.966899 J36.467579
G02 X72.374975 Y99.465084 Z2 I6.765524 J-6.286162
G01 X73.374975 Y98.625000 Z2
G00 Z0.000000

(End cutting path id: path16)


(Start cutting path id: path16)
(Change tool to Default tool)

G00 Z0.000000
G00 X49.624975 Y98.250000

G01 Z2 F100.0(Penetrate)
G03 X49.229510 Y97.181093 Z2 I2.074938 J-1.375276 F75.000000
G03 X49.120056 Y95.875000 Z2 I16.353718 J-2.028119
G02 X49.052957 Y95.178020 Z2 I-6.711248 J0.294383
G03 X48.999975 Y94.625000 Z2 I5.225211 J-0.779645
G00 Z0.000000

(End cutting path id: path16)


(Start cutting path id: path16)
(Change tool to Default tool)

G00 Z0.000000
G00 X69.250000 Y96.000000

G01 Z2 F100.0(Penetrate)
G03 X69.464315 Y95.797177 Z2 I18.177343 J18.992581 F75.000000
G03 X69.878086 Y95.424961 Z2 I9.668085 J10.331377
G02 X71.280903 Y94.023978 Z2 I-9.032920 J-10.447561
G03 X72.624420 Y92.632330 Z2 I13.644045 J11.827810
G03 X73.171982 Y92.229970 Z2 I2.004978 J2.154762
G03 X73.375000 Y92.125000 Z2 I1.386090 J2.431977
G00 Z0.000000

(End cutting path id: path16)


(Start cutting path id: path16)
(Change tool to Default tool)

G00 Z0.000000
G00 X73.375000 Y87.000000

G01 Z2 F100.0(Penetrate)
G01 X73.299580 Y86.157215 Z2 F75.000000
G01 X72.552956 Y85.368248 Z2
G01 X70.092400 Y82.753090 Z2
G01 X69.500000 Y82.125000 Z2
G00 Z0.000000

(End cutting path id: path16)


(Start cutting path id: path16)
(Change tool to Default tool)

G00 Z0.000000
G00 X49.250000 Y83.375000

G01 Z2 F100.0(Penetrate)
G02 X49.375885 Y82.375222 Z2 I-8.500425 J-1.578127 F75.000000
G03 X49.519484 Y80.875000 Z2 I26.399863 J1.769973
G03 X49.642027 Y80.215260 Z2 I5.577100 J0.694664
G03 X49.920718 Y79.500000 Z2 I2.914648 J0.723727
G02 X50.200016 Y78.741157 Z2 I-2.422416 J-1.322409
G03 X50.361014 Y78.000000 Z2 I44.971559 J9.380888
G03 X51.278249 Y75.062937 Z2 I18.652528 J4.213364
G02 X51.601949 Y73.895060 Z2 I-4.990265 J-2.011950
G02 X51.620171 Y73.676679 Z2 I-1.458261 J-0.231629
G03 X51.624999 Y73.500000 Z2 I4.816790 J0.043222
G00 Z0.000000

(End cutting path id: path16)


(Start cutting path id: path16)
(Change tool to Default tool)

G00 Z0.000000
G00 X60.749999 Y81.750000

G01 Z2 F100.0(Penetrate)
G03 X60.503079 Y81.268110 Z2 I1.470145 J-1.057508 F75.000000
G03 X60.375094 Y80.500000 Z2 I2.340998 J-0.784782
G03 X60.371301 Y78.308333 Z2 I216.133339 J-1.469908
G02 X60.374999 Y75.750000 Z2 I-675.450554 J-2.255569
G02 X60.263515 Y74.875668 Z2 I-3.496606 J0.001572
G02 X59.874999 Y74.125000 Z2 I-1.838710 J0.475768
G00 Z0.000000

(End cutting path id: path16)


(Start cutting path id: path16)
(Change tool to Default tool)

G00 Z0.000000
G00 X53.250000 Y80.000000

G01 Z2 F100.0(Penetrate)
G02 X52.465974 Y79.639662 Z2 I-1.040039 J1.229812 F75.000000
G02 X51.125193 Y79.494700 Z2 I-2.064889 J12.825474
G03 X50.523726 Y79.367348 Z2 I0.112694 J-2.016244
G03 X50.250000 Y79.250000 Z2 I1.210056 J-3.200491
G00 Z0.000000

(End cutting path id: path16)


(Footer)
M5
M2
(Using default footer. To add your own footer create file "footer" in the output dir.)
(end)
%