%
(Header)
(Generated by gcodetools from Inkscape.)
(Using default header. To add your own header create file "header" in the output dir.)
M3
(Header end.)
G21 (All units in mm)

(Start cutting path id: path16)
(Change tool to Default tool)

G00 Z0.000000
G00 X59.750000 Y126.741700

G01 Z2 F100.0(Penetrate)
G03 X59.761149 Y125.075989 Z2 I124.440443 J0.000000 F75
G02 X59.748100 Y123.616700 Z2 I-32.680078 J-0.437482
G02 X59.587480 Y122.853989 Z2 I-2.221578 J0.069575
G02 X59.192640 Y121.992183 Z2 I-9.597707 J3.875884
G02 X58.680953 Y121.307339 Z2 I-2.296408 J1.182203
G03 X57.988839 Y120.614867 Z2 I14.837497 J-15.521935
G02 X57.065562 Y119.687371 Z2 I-22.776769 J21.749870
G03 X56.160714 Y118.741700 Z2 I11.200092 J-11.622335
G02 X55.038986 Y117.530565 Z2 I-25.470896 J22.465571
G02 X53.875028 Y116.368628 Z2 I-39.647934 J38.552959
G02 X53.184247 Y115.855491 Z2 I-2.296371 J2.369825
G03 X52.534750 Y115.404412 Z2 I1.948638 J-3.498931
G03 X52.224878 Y114.978199 Z2 I0.730293 J-0.856700
G02 X52.055872 Y114.616605 Z2 I-4.115570 J1.703288
G02 X51.612960 Y113.989493 Z2 I-2.568054 J1.343781
G02 X51.000000 Y113.372197 Z2 I-9.350091 J8.671440
G02 X50.071001 Y112.811202 Z2 I-1.770600 J1.882385
G03 X49.299286 Y112.439326 Z2 I1.191536 J-3.459334
G01 X48.804977 Y111.366700 Z2
G03 X48.688793 Y110.519267 Z2 I16.833669 J-2.739596
G03 X48.625483 Y109.491700 Z2 I10.310238 J-1.150963
G03 X48.619492 Y107.922971 Z2 I97.062455 J-1.155080
G03 X48.714313 Y106.366700 Z2 I13.782668 J0.058734
G02 X48.748738 Y105.802469 Z2 I-4.970446 J-0.586421
G02 X48.750003 Y105.241700 Z2 I-128.767054 J-0.570922
G03 X48.786272 Y103.909249 Z2 I24.551457 J0.001574
G03 X48.970489 Y102.741700 Z2 I5.788335 J0.314980
G03 X49.124985 Y102.229090 Z2 I7.591552 J2.008431
G03 X49.417538 Y101.680455 Z2 I1.813685 J0.614810
G01 X50.125582 Y101.282883 Z2
G02 X50.554815 Y101.089552 Z2 I-1.082130 J-2.975703
G02 X51.375003 Y100.489380 Z2 I-1.813971 J-3.339465
G03 X52.208488 Y99.703834 Z2 I39.573565 J41.153626
G02 X52.883298 Y98.866700 Z2 I-2.497619 J-2.703868
G02 X53.060787 Y98.472581 Z2 I-1.716407 J-1.009999
G03 X53.314142 Y98.055360 Z2 I1.012352 J0.329209
G03 X53.878041 Y97.654879 Z2 I1.406582 J1.383306
G02 X54.500003 Y97.234850 Z2 I-1.054185 J-2.231493
G02 X55.864323 Y95.839768 Z2 I-13.273513 J-14.345485
G03 X57.250003 Y94.366700 Z2 I24.810547 J21.950421
G02 X57.943617 Y93.661079 Z2 I-40.902617 J-40.900362
G03 X58.625003 Y93.005200 Z2 I9.394698 J9.078165
G03 X59.034683 Y92.700922 Z2 I1.867046 J2.085857
G02 X59.492673 Y92.391780 Z2 I-3.114605 J-5.108069
G02 X59.954793 Y91.708206 Z2 I-0.746422 J-1.002600
G02 X60.000003 Y91.491700 Z2 I-2.048014 J-0.540627
G00 Z0.000000

(End cutting path id: path16)


(Start cutting path id: path16)
(Change tool to Default tool)

G00 Z0.000000
G00 X52.750000 Y126.616700

G01 Z2 F100.0(Penetrate)
G03 X52.221657 Y125.468382 Z2 I50.633942 J-23.992456 F75
G03 X51.826775 Y124.241700 Z2 I5.432896 J-2.425807
G02 X51.708756 Y123.745609 Z2 I-8.158500 J1.678801
G02 X51.502893 Y123.241700 Z2 I-2.129856 J0.576111
G03 X51.231490 Y122.752746 Z2 I50.954061 J-28.602723
G03 X51.001929 Y122.241700 Z2 I3.082399 J-1.691695
G03 X50.578380 Y120.885671 Z2 I16.860605 J-6.010492
G02 X50.196953 Y119.491700 Z2 I-172.810802 J46.536357
G02 X49.873051 Y118.370215 Z2 I-56.018787 J15.571558
G03 X49.646702 Y117.241700 Z2 I5.919854 J-1.774317
G01 X49.700422 Y116.385218 Z2
G01 X50.750000 Y115.991700 Z2
G02 X51.980520 Y115.652156 Z2 I-0.030514 J-2.510076
G02 X52.375000 Y115.366700 Z2 I-1.223989 J-2.106769
G00 Z0.000000

(End cutting path id: path16)


(Start cutting path id: path16)
(Change tool to Default tool)

G00 Z0.000000
G00 X73.375000 Y126.116700

G01 Z2 F100.0(Penetrate)
G03 X73.145378 Y125.976181 Z2 I2.548367 J-4.422148 F75
G03 X72.375000 Y125.364384 Z2 I2.804089 J-4.321855
G03 X71.040193 Y124.043471 Z2 I48.689371 J-50.536378
G02 X69.625000 Y122.616700 Z2 I-175.766390 J172.924874
G03 X66.682753 Y119.613012 Z2 I143.868198 J-143.868197
G02 X63.750000 Y116.616700 Z2 I-152.081518 J145.922099
G03 X62.694294 Y115.532481 Z2 I42.663748 J-42.597861
G02 X61.625000 Y114.508385 Z2 I-11.315296 J10.744396
G02 X61.017920 Y114.142095 Z2 I-1.348769 J1.549192
G03 X60.438658 Y113.778930 Z2 I0.651662 J-1.682980
G03 X59.892374 Y113.037154 Z2 I1.703727 J-1.826760
G02 X59.248167 Y112.116700 Z2 I-3.150034 J1.518986
G02 X57.505196 Y110.361802 Z2 I-88.500396 J86.155883
G03 X55.750000 Y108.616700 Z2 I233.729383 J-236.836589
G02 X55.063459 Y107.942268 Z2 I-34.992863 J34.934514
G03 X54.665318 Y107.116700 Z2 I0.915568 J-0.950332
G03 X54.866739 Y106.359877 Z2 I1.122098 J-0.106579
G03 X55.377316 Y105.741700 Z2 I4.344716 J3.068531
G03 X57.054751 Y104.046576 Z2 I59.877738 J57.575353
G02 X58.750000 Y102.366700 Z2 I-183.552725 J-186.927850
G03 X59.525254 Y101.614555 Z2 I25.248488 J25.248597
G02 X60.215279 Y100.866700 Z2 I-4.953831 J-5.263027
G02 X60.505909 Y100.382482 Z2 I-1.648282 J-1.318636
G03 X60.813658 Y99.901420 Z2 I1.618965 J0.696728
G03 X61.276633 Y99.570641 Z2 I0.976053 J0.876743
G02 X61.625000 Y99.386860 Z2 I-0.921667 J-2.169131
G02 X62.105681 Y99.004733 Z2 I-1.616331 J-2.526589
G02 X62.625000 Y98.491700 Z2 I-50.055760 J-51.188403
G03 X65.013091 Y96.167607 Z2 I93.534485 J93.721142
G02 X67.375000 Y93.866700 Z2 I-86.753927 J-91.416686
G03 X68.311269 Y92.945219 Z2 I58.383978 J58.384538
G02 X68.983217 Y92.242280 Z2 I-8.799975 J-9.084635
G02 X69.369437 Y91.714199 Z2 I-2.639808 J-2.335936
G02 X69.500000 Y91.491700 Z2 I-14.067993 J-8.404713
G00 Z0.000000

(End cutting path id: path16)


(Start cutting path id: path16)
(Change tool to Default tool)

G00 Z0.000000
G00 X51.625000 Y123.366700

G01 Z2 F100.0(Penetrate)
G03 X51.954930 Y123.167108 Z2 I1.417345 J1.970421 F75
G03 X52.625000 Y122.994111 Z2 I0.737162 J1.471058
G03 X53.208600 Y122.991495 Z2 I0.327814 J8.033377
G02 X53.875000 Y122.970481 Z2 I0.167545 J-5.263739
G03 X56.083031 Y122.887068 Z2 I1.833427 J19.266693
G02 X58.000000 Y122.864289 Z2 I0.594008 J-30.683456
G02 X58.751128 Y122.626961 Z2 I-0.065331 J-1.514066
G02 X59.250000 Y122.241700 Z2 I-1.917841 J-2.999025
G00 Z0.000000

(End cutting path id: path16)


(Start cutting path id: path16)
(Change tool to Default tool)

G00 Z0.000000
G00 X59.250000 Y121.741700

G01 Z2 F100.0(Penetrate)
G02 X59.610004 Y121.253927 Z2 I-2.501956 J-2.223322 F75
G02 X59.873072 Y120.366700 Z2 I-1.557253 J-0.944349
G02 X59.890037 Y118.456351 Z2 I-42.465824 J-1.332363
G03 X59.874972 Y116.241700 Z2 I162.780138 J-2.214651
G02 X59.867627 Y115.528124 Z2 I-34.667223 J-0.000000
G03 X59.913072 Y114.866700 Z2 I3.721060 J-0.076609
G03 X60.131287 Y114.242117 Z2 I1.841576 J0.292993
G03 X60.374975 Y113.866700 Z2 I3.180671 J1.797817
G00 Z0.000000

(End cutting path id: path16)


(Start cutting path id: path16)
(Change tool to Default tool)

G00 Z0.000000
G00 X73.374975 Y96.366700

G01 Z2 F100.0(Penetrate)
G03 X73.171038 Y96.410895 Z2 I-1.616267 J-6.965548 F75
G02 X72.499784 Y96.651520 Z2 I0.486097 J2.412619
G02 X71.501090 Y97.423455 Z2 I1.780164 J3.335094
G03 X70.377291 Y98.616700 Z2 I-57.965193 J-53.465843
G02 X69.839681 Y99.388870 Z2 I2.160028 J2.077118
G03 X69.340254 Y100.053040 Z2 I-1.938182 J-0.937570
G03 X68.745105 Y100.451598 Z2 I-1.693843 J-1.885708
G02 X68.124975 Y100.873550 Z2 I1.093971 J2.274446
G02 X66.742739 Y102.225741 Z2 I23.620314 J25.527716
G03 X65.374975 Y103.616700 Z2 I-83.401434 J-80.642711
G03 X64.105970 Y104.851571 Z2 I-45.926040 J-45.926040
G02 X62.891565 Y106.116700 Z2 I12.639198 J13.347865
G02 X62.528900 Y106.623345 Z2 I2.450382 J2.137146
G02 X62.397930 Y107.241700 Z2 I0.878285 J0.509072
G02 X63.333084 Y108.823190 Z2 I2.209445 J-0.239243
G03 X64.874975 Y110.116700 Z2 I-6.612102 J9.447502
G03 X66.375454 Y111.623358 Z2 I-365.876235 J365.876231
G02 X67.874975 Y113.116122 Z2 I117.963211 J-116.997631
G02 X68.491284 Y113.622485 Z2 I3.145548 J-3.200292
G03 X69.098837 Y114.077155 Z2 I-4.898659 J7.179092
G03 X69.664877 Y114.676639 Z2 I-2.046584 J2.499382
G02 X70.250456 Y115.366700 Z2 I4.889050 J-3.555312
G03 X71.324576 Y116.488603 Z2 I-36.966899 J36.467579
G02 X72.374975 Y117.456784 Z2 I6.765524 J-6.286162
G01 X73.374975 Y116.616700 Z2
G00 Z0.000000

(End cutting path id: path16)


(Start cutting path id: path16)
(Change tool to Default tool)

G00 Z0.000000
G00 X49.624975 Y116.241700

G01 Z2 F100.0(Penetrate)
G03 X49.229510 Y115.172793 Z2 I2.074938 J-1.375276 F75
G03 X49.120056 Y113.866700 Z2 I16.353718 J-2.028119
G02 X49.052957 Y113.169720 Z2 I-6.711248 J0.294383
G03 X48.999975 Y112.616700 Z2 I5.225211 J-0.779645
G00 Z0.000000

(End cutting path id: path16)


(Start cutting path id: path16)
(Change tool to Default tool)

G00 Z0.000000
G00 X69.250000 Y113.991700

G01 Z2 F100.0(Penetrate)
G03 X69.464315 Y113.788877 Z2 I18.177343 J18.992581 F75
G03 X69.878086 Y113.416661 Z2 I9.668085 J10.331377
G02 X71.280903 Y112.015678 Z2 I-9.032920 J-10.447561
G03 X72.624420 Y110.624030 Z2 I13.644045 J11.827810
G03 X73.171982 Y110.221670 Z2 I2.004978 J2.154762
G03 X73.375000 Y110.116700 Z2 I1.386090 J2.431977
G00 Z0.000000

(End cutting path id: path16)


(Start cutting path id: path16)
(Change tool to Default tool)

G00 Z0.000000
G00 X73.375000 Y104.991700

G01 Z2 F100.0(Penetrate)
G01 X73.299580 Y104.148915 Z2 F75
G01 X72.552956 Y103.359948 Z2
G01 X70.092400 Y100.744790 Z2
G01 X69.500000 Y100.116700 Z2
G00 Z0.000000

(End cutting path id: path16)


(Start cutting path id: path16)
(Change tool to Default tool)

G00 Z0.000000
G00 X49.250000 Y101.366700

G01 Z2 F100.0(Penetrate)
G02 X49.375885 Y100.366922 Z2 I-8.500425 J-1.578127 F75
G03 X49.519484 Y98.866700 Z2 I26.399863 J1.769973
G03 X49.642027 Y98.206960 Z2 I5.577100 J0.694664
G03 X49.920718 Y97.491700 Z2 I2.914648 J0.723727
G02 X50.200016 Y96.732857 Z2 I-2.422416 J-1.322409
G03 X50.361014 Y95.991700 Z2 I44.971559 J9.380888
G03 X51.278249 Y93.054637 Z2 I18.652528 J4.213364
G02 X51.601949 Y91.886760 Z2 I-4.990265 J-2.011950
G02 X51.620171 Y91.668379 Z2 I-1.458261 J-0.231629
G03 X51.624999 Y91.491700 Z2 I4.816790 J0.043222
G00 Z0.000000

(End cutting path id: path16)


(Start cutting path id: path16)
(Change tool to Default tool)

G00 Z0.000000
G00 X60.749999 Y99.741700

G01 Z2 F100.0(Penetrate)
G03 X60.503079 Y99.259810 Z2 I1.470145 J-1.057508 F75
G03 X60.375094 Y98.491700 Z2 I2.340998 J-0.784782
G03 X60.371301 Y96.300033 Z2 I216.133339 J-1.469908
G02 X60.374999 Y93.741700 Z2 I-675.450554 J-2.255569
G02 X60.263515 Y92.867368 Z2 I-3.496606 J0.001572
G02 X59.874999 Y92.116700 Z2 I-1.838710 J0.475768
G00 Z0.000000

(End cutting path id: path16)


(Start cutting path id: path16)
(Change tool to Default tool)

G00 Z0.000000
G00 X53.250000 Y97.991700

G01 Z2 F100.0(Penetrate)
G02 X52.465974 Y97.631362 Z2 I-1.040039 J1.229812 F75
G02 X51.125193 Y97.486400 Z2 I-2.064889 J12.825474
G03 X50.523726 Y97.359048 Z2 I0.112694 J-2.016244
G03 X50.250000 Y97.241700 Z2 I1.210056 J-3.200491
G00 Z0.000000

(End cutting path id: path16)


(Footer)
M5
;G00 X0.0000 Y0.0000
M2
(Using default footer. To add your own footer create file "footer" in the output dir.)
(end)
%