%
(Header)
(Generated by gcodetools from Inkscape.)
(Using default header. To add your own header create file "header" in the output dir.)
M3
(Header end.)
G21 (All units in mm)

(Start cutting path id: path7)
(Change tool to Default tool)

G00 Z0.000000
G00 X145.891670 Y131.785419

G01 Z2 F100.0(Penetrate)
G03 X145.917682 Y130.282064 Z2 I43.455782 J0.000000 F75.000000
G03 X145.997280 Y129.116669 Z2 I17.378897 J0.601584
G03 X146.081849 Y128.542614 Z2 I6.465542 J0.659234
G03 X146.418830 Y127.846423 Z2 I1.477684 J0.285601
G03 X146.965698 Y127.335497 Z2 I2.613540 J2.249264
G03 X147.162500 Y127.213950 Z2 I0.776176 J1.036640
G03 X147.765198 Y127.075457 Z2 I0.586841 J1.173165
G02 X149.068750 Y127.083336 Z2 I1.303552 J-107.826720
G00 Z0.000000

(End cutting path id: path7)


(Start cutting path id: path7)
(Change tool to Default tool)

G00 Z0.000000
G00 X147.797920 Y129.116669

G01 Z2 F100.0(Penetrate)
G02 X146.664816 Y127.936011 Z2 I-13.171253 J11.506696 F75.000000
G02 X146.400000 Y127.718752 Z2 I-1.636868 J1.725143
G00 Z0.000000

(End cutting path id: path7)


(Start cutting path id: path7)
(Change tool to Default tool)

G00 Z0.000000
G00 X145.891670 Y127.337502

G01 Z2 F100.0(Penetrate)
G01 X146.272920 Y127.591669 Z2 F75.000000
G00 Z0.000000

(End cutting path id: path7)


(Start cutting path id: path7)
(Change tool to Default tool)

G00 Z0.000000
G00 X145.764580 Y126.575002

G01 Z2 F100.0(Penetrate)
G01 X146.603180 Y125.332605 Z2 F75.000000
G01 X148.052080 Y124.160419 Z2
G00 Z0.000000

(End cutting path id: path7)


(Start cutting path id: path7)
(Change tool to Default tool)

G00 Z0.000000
G00 X146.272920 Y125.177086

G01 Z2 F100.0(Penetrate)
G02 X146.197164 Y123.229672 Z2 I-25.068374 J0.000000 F75.000000
G03 X146.527080 Y120.093753 Z2 I8.657002 J-0.674550
G00 Z0.000000

(End cutting path id: path7)


(Start cutting path id: path7)
(Change tool to Default tool)

G00 Z0.000000
G00 X145.129170 Y127.591669

G01 Z2 F100.0(Penetrate)
G02 X144.616310 Y127.294244 Z2 I-1.090178 J1.288946 F75.000000
G02 X142.714580 Y126.956252 Z2 I-1.917197 J5.268129
G00 Z0.000000

(End cutting path id: path7)


(Start cutting path id: path7)
(Change tool to Default tool)

G00 Z0.000000
G00 X144.112500 Y128.862502

G01 Z2 F100.0(Penetrate)
G03 X144.936544 Y127.952615 Z2 I9.077693 J7.393160 F75.000000
G03 X145.253900 Y127.667173 Z2 I3.015776 J3.033825
G01 X145.753600 Y127.183845 Z2
G01 X145.597000 Y126.447919 Z2
G02 X145.282812 Y126.057556 Z2 I-3.782058 J2.722414
G02 X144.366670 Y125.050002 Z2 I-78.872934 J70.796743
G00 Z0.000000

(End cutting path id: path7)


(Start cutting path id: path7)
(Change tool to Default tool)

G00 Z0.000000
G00 X160.633330 Y126.829169

G01 Z2 F100.0(Penetrate)
G02 X161.510223 Y125.771900 Z2 I-1.976856 J-2.531873 F75.000000
G03 X162.344350 Y124.553044 Z2 I5.338316 J2.758443
G03 X163.003382 Y123.913727 Z2 I4.460664 J3.938887
G02 X163.302080 Y123.652086 Z2 I-4.810295 J-5.792908
G00 Z0.000000

(End cutting path id: path7)


(Start cutting path id: path7)
(Change tool to Default tool)

G00 Z0.000000
G00 X163.810420 Y122.762503

G01 Z2 F100.0(Penetrate)
G03 X164.219276 Y121.818732 Z2 I1.398462 J0.045387 F75.000000
G02 X165.149400 Y120.843014 Z2 I-20.122686 J-20.113586
G02 X165.721562 Y120.146735 Z2 I-6.679332 J-6.071910
G03 X166.352080 Y119.331253 Z2 I20.441281 J15.153399
G00 Z0.000000

(End cutting path id: path7)


(Start cutting path id: path7)
(Change tool to Default tool)

G00 Z0.000000
G00 X163.429170 Y121.491669

G01 Z2 F100.0(Penetrate)
G02 X163.654224 Y121.069948 Z2 I-1.459290 J-1.049670 F75.000000
G02 X163.810320 Y120.220836 Z2 I-2.322479 J-0.865855
G02 X163.811309 Y119.627850 Z2 I-69.063283 J-0.411735
G03 X163.810420 Y118.950003 Z2 I258.286493 J-0.677843
G03 X163.815455 Y117.152765 Z2 I320.765670 J-0.000000
G02 X163.809930 Y115.391669 Z2 I-100.746949 J-0.564490
G02 X163.778794 Y114.887730 Z2 I-4.987714 J0.055240
G02 X163.719630 Y114.375003 Z2 I-100.911203 J11.384359
G03 X163.686319 Y113.858242 Z2 I4.856171 J-0.572485
G03 X163.683330 Y113.358336 Z2 I46.146243 J-0.525913
G03 X163.683246 Y112.477704 Z2 I1564.143258 J-0.605730
G02 X163.683330 Y111.579170 Z2 I-4820.269064 J-0.743410
G00 Z0.000000

(End cutting path id: path7)


(Start cutting path id: path7)
(Change tool to Default tool)

G00 Z0.000000
G00 X163.810420 Y122.000003

G01 Z2 F100.0(Penetrate)
G02 X163.067757 Y121.300545 Z2 I-13.928236 J14.044578 F75.000000
G03 X161.522920 Y119.839586 Z2 I25.455789 J-28.464525
G00 Z0.000000

(End cutting path id: path7)


(Start cutting path id: path7)
(Change tool to Default tool)

G00 Z0.000000
G00 X165.208330 Y123.270836

G01 Z2 F100.0(Penetrate)
G03 X166.293364 Y122.961621 Z2 I0.971549 J1.350865 F75.000000
G03 X168.766670 Y123.143752 Z2 I-16.106279 J235.605281
G00 Z0.000000

(End cutting path id: path7)


(Start cutting path id: path7)
(Change tool to Default tool)

G00 Z0.000000
G00 X167.114580 Y125.812502

G01 Z2 F100.0(Penetrate)
G03 X165.916176 Y124.249487 Z2 I5.515535 J-5.469833 F75.000000
G02 X165.155190 Y123.347517 Z2 I-2.948865 J1.715934
G02 X164.427874 Y123.009726 Z2 I-0.995120 J1.190738
G02 X163.429170 Y123.143752 Z2 I-0.287857 J1.642981
G00 Z0.000000

(End cutting path id: path7)


(Start cutting path id: path7)
(Change tool to Default tool)

G00 Z0.000000
G00 X163.810420 Y130.133336

G01 Z2 F100.0(Penetrate)
G03 X163.814527 Y127.461352 Z2 I869.189194 J-0.000004 F75.000000
G02 X163.810320 Y125.050002 Z2 I-250.203631 J-0.769157
G02 X163.670971 Y124.179045 Z2 I-2.926031 J0.021526
G02 X163.356010 Y123.398509 Z2 I-5.451152 J1.745825
G02 X162.711333 Y122.773213 Z2 I-1.196329 J0.588432
G02 X162.158330 Y122.637382 Z2 I-0.637931 J1.403557
G03 X160.284909 Y122.485456 Z2 I2.007786 J-36.384931
G02 X158.345830 Y122.381253 Z2 I-1.951211 J18.215526
G00 Z0.000000

(End cutting path id: path7)


(Footer)
M5
M2
(Using default footer. To add your own footer create file "footer" in the output dir.)
(end)
%