%
(Header)
(Generated by gcodetools from Inkscape.)
(Using default header. To add your own header create file "header" in the output dir.)
M3
(Header end.)
G21 (All units in mm)

(Start cutting path id: path16)
(Change tool to Default tool)

G00 Z0.000000
G00 X137.250000 Y36.091670

G01 Z2 F100.0(Penetrate)
G02 X137.539233 Y36.060103 Z2 I-0.378733 J-4.810928 F75.000000
G03 X138.139780 Y35.985670 Z2 I2.693637 J19.273220
G01 X139.944050 Y35.069610 Z2
G01 X139.155760 Y34.150320 Z2
G02 X138.411764 Y34.038375 Z2 I-0.787700 J2.706815
G03 X137.778730 Y33.985290 Z2 I0.072300 J-4.663159
G02 X137.490743 Y33.945484 Z2 I-1.535121 J10.044698
G03 X137.377080 Y33.931290 Z2 I5.880149 J-47.547730
G00 Z0.000000

(End cutting path id: path16)


(Start cutting path id: path16)
(Change tool to Default tool)

G00 Z0.000000
G00 X137.250000 Y33.931290

G01 Z2 F100.0(Penetrate)
G01 X137.377080 Y33.931290 Z2 F75.000000
G00 Z0.000000

(End cutting path id: path16)


(Start cutting path id: path16)
(Change tool to Default tool)

G00 Z0.000000
G00 X137.250000 Y21.350010

G01 Z2 F100.0(Penetrate)
G03 X137.440869 Y21.288094 Z2 I2.550524 J7.537319 F75.000000
G03 X137.888550 Y21.171440 Z2 I1.486303 J4.786616
G02 X139.549035 Y20.809750 Z2 I-30.325450 J-143.213844
G03 X141.570830 Y20.481900 Z2 I3.761884 J16.800925
G03 X146.604300 Y20.075504 Z2 I12.339194 J121.454031
G02 X151.610420 Y19.443760 Z2 I-2.301418 J-38.387947
G03 X152.369400 Y19.316915 Z2 I2.848200 J14.708183
G02 X153.007840 Y19.182140 Z2 I-0.668264 J-4.745176
G01 X153.697980 Y18.667430 Z2
G01 X153.006960 Y17.555160 Z2
G01 X152.883210 Y15.447990 Z2
G03 X156.331712 Y15.036884 Z2 I2.779580 J8.646922
G02 X159.870830 Y15.245010 Z2 I8.718049 J-118.053001
G02 X164.207086 Y15.118010 Z2 I1.300247 J-29.696115
G02 X168.512500 Y14.598020 Z2 I-12.389179 J-120.664032
G03 X169.668517 Y14.465608 Z2 I3.328627 J23.948005
G02 X170.672920 Y14.358070 Z2 I-2.720847 J-30.156887
G02 X171.310174 Y14.189561 Z2 I-0.300959 J-2.427354
G03 X172.197920 Y13.979170 Z2 I1.091735 J2.628464
G00 Z0.000000

(End cutting path id: path16)


(Start cutting path id: path16)
(Change tool to Default tool)

G00 Z0.000000
G00 X171.689580 Y13.979170

G01 Z2 F100.0(Penetrate)
G02 X170.748034 Y12.909039 Z2 I-5.767648 J4.125348 F75.000000
G02 X169.020830 Y11.662450 Z2 I-5.889368 J6.340125
G02 X167.637944 Y11.072276 Z2 I-3.680472 J6.708752
G03 X166.929350 Y9.913980 Z2 I0.310286 J-0.985710
G03 X168.182739 Y8.826002 Z2 I1.288319 J0.218226
G02 X169.910420 Y8.676190 Z2 I-0.388087 J-14.512513
G03 X174.994903 Y7.936700 Z2 I204.322720 J1387.003945
G03 X180.077080 Y7.243760 Z2 I51.448207 J358.349445
G00 Z0.000000

(End cutting path id: path16)


(Start cutting path id: path16)
(Change tool to Default tool)

G00 Z0.000000
G00 X144.620830 Y16.266670

G01 Z2 F100.0(Penetrate)
G01 X145.256250 Y16.266670 Z2 F75.000000
G00 Z0.000000

(End cutting path id: path16)


(Start cutting path id: path16)
(Change tool to Default tool)

G00 Z0.000000
G00 X137.250000 Y17.029170

G01 Z2 F100.0(Penetrate)
G01 X137.888550 Y17.029170 Z2 F75.000000
G01 X139.410420 Y17.029170 Z2
G03 X142.127984 Y17.069123 Z2 I-0.000000 J92.443504
G02 X143.981000 Y16.703330 Z2 I0.124817 J-4.244066
G01 X143.602300 Y15.212940 Z2
G01 X142.134770 Y13.393860 Z2
G03 X144.147335 Y12.532995 Z2 I1.967234 J1.816120
G02 X146.400000 Y12.417890 Z2 I0.281087 J-16.599377
G03 X151.221109 Y11.990131 Z2 I9.411834 J78.694801
G02 X156.058330 Y11.680300 Z2 I-23.363621 J-402.679247
G02 X158.195301 Y11.423470 Z2 I-1.515144 J-21.625656
G03 X160.252080 Y11.437510 Z2 I0.988938 J5.786358
G00 Z0.000000

(End cutting path id: path16)


(Start cutting path id: path16)
(Change tool to Default tool)

G00 Z0.000000
G00 X137.250000 Y12.327090

G01 Z2 F100.0(Penetrate)
G03 X137.617940 Y12.227384 Z2 I2.254451 J7.590753 F75.000000
G02 X138.468470 Y11.310030 Z2 I-0.270834 J-1.104069
G02 X137.912946 Y10.176358 Z2 I-1.070681 J-0.178289
G02 X137.377080 Y9.912510 Z2 I-3.832310 J7.107203
G00 Z0.000000

(End cutting path id: path16)


(Start cutting path id: path16)
(Change tool to Default tool)

G00 Z0.000000
G00 X137.250000 Y9.912510

G01 Z2 F100.0(Penetrate)
G01 X137.377080 Y9.912510 Z2 F75.000000
G00 Z0.000000

(End cutting path id: path16)


(Start cutting path id: path16)
(Change tool to Default tool)

G00 Z0.000000
G00 X137.250000 Y7.752090

G01 Z2 F100.0(Penetrate)
G02 X137.438213 Y7.734533 Z2 I-0.529223 J-6.690953 F75.000000
G02 X138.013090 Y7.656290 Z2 I-1.100607 J-10.237541
G03 X139.084266 Y7.495877 Z2 I5.967307 J36.190648
G03 X140.300000 Y7.335050 Z2 I34.676197 J257.451587
G03 X143.090938 Y7.072238 Z2 I5.119315 J39.414106
G03 X145.891670 Y6.989590 Z2 I2.819297 J48.042491
G02 X156.599232 Y6.480447 Z2 I-0.047749 J-113.851870
G02 X167.241670 Y5.443120 Z2 I-197.656373 J-2082.962751
G02 X169.604465 Y5.177120 Z2 I-9.559321 J-95.539628
G02 X171.943750 Y4.863590 Z2 I-16.754306 J-133.889284
G02 X173.046148 Y4.589955 Z2 I-0.794467 J-5.558130
G03 X174.231250 Y4.320840 Z2 I1.696129 J4.725265
G00 Z0.000000

(End cutting path id: path16)


(Footer)
M5
M2
(Using default footer. To add your own footer create file "footer" in the output dir.)
(end)
%