%
(Header)
(Generated by gcodetools from Inkscape.)
(Using default header. To add your own header create file "header" in the output dir.)
M3
(Header end.)
G21 (All units in mm)

(Start cutting path id: path8)
(Change tool to Default tool)

G00 Z0.000000
G00 X34.693750 Y109.037503

G01 Z2 F100.0(Penetrate)
G01 X35.772686 Y108.906891 Z2 F75.000000
G02 X36.731206 Y107.342473 Z2 I-1.327572 J-1.889257
G03 X37.160302 Y105.352282 Z2 I14.165862 J2.012880
G03 X37.361835 Y104.743616 Z2 I8.508688 J2.479576
G03 X37.489583 Y104.462503 Z2 I2.051068 J0.762499
G02 X37.160866 Y104.244964 Z2 I-2.168827 J2.920129
G02 X36.599806 Y103.973585 Z2 I-1.975420 J3.368393
G03 X35.021177 Y103.352899 Z2 I77.086086 J-198.375626
G02 X33.168750 Y102.683337 Z2 I-11.463931 J28.819134
G00 Z0.000000

(End cutting path id: path8)


(Start cutting path id: path8)
(Change tool to Default tool)

G00 Z0.000000
G00 X25.543751 Y99.887499

G01 Z2 F100.0(Penetrate)
G01 X24.272918 Y98.953692 Z2 F75.000000
G03 X22.572125 Y98.166018 Z2 I9.072642 J-21.820243
G03 X20.841668 Y97.218750 Z2 I16.371702 J-31.961855
G00 Z0.000000

(End cutting path id: path8)


(Start cutting path id: path8)
(Change tool to Default tool)

G00 Z0.000000
G00 X25.416668 Y99.379166

G01 Z2 F100.0(Penetrate)
G02 X25.931303 Y97.876880 Z2 I-4.209677 J-2.281394 F75.000000
G02 X26.435198 Y94.804166 Z2 I-1706.582495 J-281.440228
G03 X26.650569 Y93.990519 Z2 I4.283752 J0.698575
G02 X26.629940 Y93.179245 Z2 I-1.022086 J-0.379910
G01 X25.543751 Y92.517058 Z2
G02 X23.318591 Y91.772934 Z2 I-52.757035 J154.060715
G03 X21.095834 Y91.033930 Z2 I66.607626 J-204.053041
G03 X20.163124 Y90.632437 Z2 I2.035914 J-6.013776
G02 X19.316668 Y90.356250 Z2 I-1.222214 J2.310637
G00 Z0.000000

(End cutting path id: path8)


(Start cutting path id: path8)
(Change tool to Default tool)

G00 Z0.000000
G00 X20.079167 Y90.229171

G01 Z2 F100.0(Penetrate)
G03 X20.471970 Y89.159594 Z2 I3.992315 J0.859262 F75.000000
G02 X20.999245 Y87.814587 Z2 I-5.393979 J-2.890426
G02 X21.203964 Y86.378385 Z2 I-6.185535 J-1.614391
G02 X21.222917 Y85.018754 Z2 I-48.759348 J-1.359631
G01 X21.222917 Y83.875004 Z2
G01 X22.493750 Y84.278318 Z2
G01 X24.781250 Y85.551406 Z2
G01 X27.159552 Y86.482760 Z2
G01 X29.610417 Y87.433240 Z2
G01 X31.516667 Y87.687504 Z2
G00 Z0.000000

(End cutting path id: path8)


(Start cutting path id: path8)
(Change tool to Default tool)

G00 Z0.000000
G00 X32.914584 Y88.195833

G01 Z2 F100.0(Penetrate)
G03 X33.250236 Y88.921673 Z2 I-4.384230 J2.467937 F75.000000
G03 X33.429096 Y89.720833 Z2 I-2.888042 J1.065970
G03 X33.441095 Y90.444383 Z2 I-5.138638 J0.447092
G02 X33.422896 Y91.118750 Z2 I12.643589 J0.678640
G02 X33.436501 Y92.099368 Z2 I34.547007 J0.011099
G03 X33.401326 Y93.152083 Z2 I-8.569808 J0.240596
G03 X32.900145 Y95.562278 Z2 I-11.147669 J-1.060863
G02 X32.406234 Y97.091666 Z2 I274.034603 J89.343074
G02 X32.731224 Y97.212138 Z2 I1.518451 J-3.597636
G02 X33.296011 Y97.345538 Z2 I1.128670 J-3.516261
G03 X33.893030 Y97.457315 Z2 I-1.459357 J9.444915
G03 X34.566651 Y97.616081 Z2 I-5.099936 J23.146740
G02 X37.194229 Y98.238120 Z2 I24.163247 J-96.208242
G03 X39.268734 Y98.997916 Z2 I-1.818846 J8.178030
G00 Z0.000000

(End cutting path id: path8)


(Start cutting path id: path8)
(Change tool to Default tool)

G00 Z0.000000
G00 X41.047917 Y105.733337

G01 Z2 F100.0(Penetrate)
G01 X38.379361 Y104.729713 Z2 F75.000000
G01 X37.489583 Y104.335420 Z2
G02 X37.646376 Y104.052647 Z2 I-3.037674 J-1.869202
G02 X37.888778 Y103.445641 Z2 I-3.617497 J-1.796513
G03 X38.308537 Y102.233503 Z2 I17.799973 J5.485319
G02 X38.814251 Y100.904170 Z2 I-154.557292 J-59.558585
G02 X38.998083 Y100.381947 Z2 I-12.485319 J-4.688529
G02 X39.120584 Y99.887699 Z2 I-3.238277 J-1.064922
G01 X39.436233 Y99.182565 Z2
G01 X40.285417 Y99.190065 Z2
G03 X41.892385 Y99.602480 Z2 I-3.827018 J18.248903
G03 X43.462500 Y100.177412 Z2 I-4.409228 J14.472825
G03 X44.201390 Y100.514233 Z2 I-7.494732 J17.420205
G02 X44.859827 Y100.725164 Z2 I1.082547 J-2.246104
G01 X45.622917 Y98.997968 Z2
G00 Z0.000000

(End cutting path id: path8)


(Start cutting path id: path8)
(Change tool to Default tool)

G00 Z0.000000
G00 X45.622901 Y89.339583

G01 Z2 F100.0(Penetrate)
G01 X44.984346 Y89.175042 Z2 F75.000000
G01 X43.589567 Y88.848312 Z2
G01 X42.191651 Y88.704167 Z2
G03 X41.898491 Y89.824616 Z2 I-2.846028 J-0.146073
G02 X41.244607 Y91.372916 Z2 I12.361820 J6.132915
G01 X41.126444 Y92.502937 Z2
G01 X42.445817 Y93.242786 Z2
G02 X43.695860 Y93.488493 Z2 I9.349083 J-44.261132
G02 X44.859811 Y93.676988 Z2 I5.426252 J-29.819008
G03 X45.435581 Y93.761475 Z2 I-8.882352 J62.536696
G02 X45.622901 Y93.787500 Z2 I1.155685 J-7.631018
G00 Z0.000000

(End cutting path id: path8)


(Start cutting path id: path8)
(Change tool to Default tool)

G00 Z0.000000
G00 X42.191667 Y88.704171

G01 Z2 F100.0(Penetrate)
G02 X39.847205 Y87.738717 Z2 I-3.571017 J5.342367 F75.000000
G03 X36.600000 Y86.928142 Z2 I6.078800 J-31.261525
G02 X35.187698 Y86.621414 Z2 I-2.542273 J8.300888
G03 X33.804167 Y86.325182 Z2 I1.146531 J-8.733763
G01 X32.979203 Y85.526498 Z2
G01 X33.325840 Y84.510421 Z2
G01 X33.254940 Y83.240765 Z2
G02 X31.674605 Y82.556757 Z2 I-2.314175 J3.179070
G03 X29.737495 Y82.053480 Z2 I2.812047 J-14.803155
G02 X26.159046 Y80.988408 Z2 I-18.761414 J56.490949
G03 X22.620828 Y80.043290 Z2 I150.486901 J-570.470082
G02 X20.857267 Y79.685671 Z2 I-3.669172 J13.566910
G03 X19.578771 Y79.391690 Z2 I0.989457 J-7.230083
G01 X19.180459 Y79.027010 Z2
G01 X19.308424 Y78.283340 Z2
G03 X19.483366 Y77.759007 Z2 I21.846238 J6.997578
G02 X19.641626 Y77.139590 Z2 I-3.602101 J-1.250257
G02 X19.696237 Y75.140639 Z2 I-7.122146 J-1.194797
G02 X19.518759 Y73.838560 Z2 I-27.341541 J3.063614
G03 X19.461107 Y73.394714 Z2 I7.321537 J-1.176669
G03 X19.443749 Y73.200000 Z2 I9.657560 J-0.959086
G00 Z0.000000

(End cutting path id: path8)


(Start cutting path id: path8)
(Change tool to Default tool)

G00 Z0.000000
G00 X16.775000 Y79.300000

G01 Z2 F100.0(Penetrate)
G01 X19.062500 Y79.172920 Z2 F75.000000
G00 Z0.000000

(End cutting path id: path8)


(Start cutting path id: path8)
(Change tool to Default tool)

G00 Z0.000000
G00 X21.095832 Y83.747921

G01 Z2 F100.0(Penetrate)
G02 X20.747474 Y83.015668 Z2 I-3.403625 J1.170232 F75.000000
G02 X19.952082 Y81.968750 Z2 I-6.023863 J3.751000
G00 Z0.000000

(End cutting path id: path8)


(Start cutting path id: path8)
(Change tool to Default tool)

G00 Z0.000000
G00 X27.322916 Y86.416671

G01 Z2 F100.0(Penetrate)
G02 X27.736556 Y85.541094 Z2 I-4.733897 J-2.771883 F75.000000
G02 X28.212499 Y83.875004 Z2 I-10.891611 J-4.012371
G00 Z0.000000

(End cutting path id: path8)


(Start cutting path id: path8)
(Change tool to Default tool)

G00 Z0.000000
G00 X31.897916 Y85.908337

G01 Z2 F100.0(Penetrate)
G01 X32.660416 Y85.654171 Z2 F75.000000
G00 Z0.000000

(End cutting path id: path8)


(Start cutting path id: path8)
(Change tool to Default tool)

G00 Z0.000000
G00 X33.550000 Y83.239587

G01 Z2 F100.0(Penetrate)
G02 X34.098852 Y81.358909 Z2 I-2.771352 J-1.829211 F75.000000
G02 X33.909679 Y78.537500 Z2 I-27.489942 J0.426130
G02 X33.770131 Y77.684088 Z2 I-9.829989 J1.169259
G02 X33.529112 Y77.012500 Z2 I-2.524405 J0.526915
G02 X33.127646 Y76.454856 Z2 I-2.170454 J1.139243
G02 X32.660320 Y76.014660 Z2 I-4.572316 J4.385956
G02 X31.252177 Y75.390009 Z2 I-1.761121 J2.070568
G03 X30.118750 Y75.055170 Z2 I0.490687 J-3.746711
G02 X29.545477 Y74.873963 Z2 I-0.938367 J1.971231
G03 X28.975000 Y74.737260 Z2 I0.730749 J-4.308191
G03 X27.798920 Y74.279645 Z2 I2.736080 J-8.771877
G03 X26.814583 Y73.783450 Z2 I8.655326 J-18.394603
G03 X26.269228 Y73.452716 Z2 I2.959569 J-5.495099
G02 X25.670833 Y73.218730 Z2 I-0.813850 J1.199176
G02 X24.879136 Y73.180609 Z2 I-0.583792 J3.884110
G03 X24.145833 Y73.200030 Z2 I-0.733303 J-13.834145
G00 Z0.000000

(End cutting path id: path8)


(Start cutting path id: path8)
(Change tool to Default tool)

G00 Z0.000000
G00 X30.372917 Y74.852090

G01 Z2 F100.0(Penetrate)
G03 X30.550942 Y73.782842 Z2 I3.315393 J0.002554 F75.000000
G03 X30.881250 Y73.200000 Z2 I1.710466 J0.584337
G00 Z0.000000

(End cutting path id: path8)


(Start cutting path id: path8)
(Change tool to Default tool)

G00 Z0.000000
G00 X33.550000 Y76.758340

G01 Z2 F100.0(Penetrate)
G03 X34.106013 Y76.626676 Z2 I0.545994 J1.065871 F75.000000
G03 X34.947917 Y76.920330 Z2 I-0.011604 J1.386960
G02 X36.886361 Y78.375828 Z2 I39.688739 J-50.839209
G02 X39.014583 Y79.695380 Z2 I10.441369 J-14.464214
G02 X40.573395 Y80.437865 Z2 I10.001036 J-18.989126
G02 X41.937500 Y80.825000 Z2 I2.188955 J-5.116141
G00 Z0.000000

(End cutting path id: path8)


(Start cutting path id: path8)
(Change tool to Default tool)

G00 Z0.000000
G00 X42.827083 Y77.775000

G01 Z2 F100.0(Penetrate)
G02 X41.513926 Y77.035875 Z2 I-2.464676 J2.842771 F75.000000
G03 X39.522917 Y76.376700 Z2 I37.018941 J-115.150527
G02 X35.795217 Y75.134498 Z2 I-94.138888 J276.285292
G03 X32.152083 Y73.862480 Z2 I28.474388 J-87.405394
G03 X31.336270 Y73.473037 Z2 I1.787079 J-4.792814
G02 X30.754167 Y73.239820 Z2 I-1.048258 J1.773362
G02 X29.725911 Y73.153676 Z2 I-0.809490 J3.482489
G03 X28.212500 Y73.200020 Z2 I-1.513411 J-24.687578
G00 Z0.000000

(End cutting path id: path8)


(Start cutting path id: path8)
(Change tool to Default tool)

G00 Z0.000000
G00 X40.031250 Y73.962500

G01 Z2 F100.0(Penetrate)
G03 X39.305165 Y73.482407 Z2 I11.288850 J-17.862180 F75.000000
G02 X38.760417 Y73.239920 Z2 I-0.916647 J1.326120
G02 X37.829193 Y73.159306 Z2 I-0.739016 J3.117971
G03 X36.472917 Y73.200020 Z2 I-1.356276 J-22.570143
G00 Z0.000000

(End cutting path id: path8)


(Start cutting path id: path8)
(Change tool to Default tool)

G00 Z0.000000
G00 X41.937500 Y74.979170

G01 Z2 F100.0(Penetrate)
G03 X41.803053 Y73.641912 Z2 I4.910426 J-1.169078 F75.000000
G02 X41.810417 Y73.200000 Z2 I-13.255941 J-0.441912
G00 Z0.000000

(End cutting path id: path8)


(Start cutting path id: path8)
(Change tool to Default tool)

G00 Z0.000000
G00 X45.622917 Y73.962530

G01 Z2 F100.0(Penetrate)
G02 X45.671453 Y75.545657 Z2 I25.843335 J0.000000 F75.000000
G03 X45.548687 Y76.504200 Z2 I-2.571314 J0.157812
G03 X45.287240 Y77.179284 Z2 I-6.443281 J-2.107192
G03 X44.715487 Y78.156280 Z2 I-4.852646 J-2.184044
G02 X44.451788 Y78.657133 Z2 I1.509508 J1.114599
G02 X44.352181 Y79.045960 Z2 I2.303232 J0.797200
G03 X44.143272 Y79.826599 Z2 I-4.282311 J-0.727726
G02 X43.862677 Y80.697950 Z2 I9.961216 J3.688600
G01 X44.984363 Y82.079200 Z2
G02 X45.428460 Y82.181995 Z2 I3.467023 J-13.967590
G02 X45.622918 Y82.222950 Z2 I5.154043 J-23.989792
G00 Z0.000000

(End cutting path id: path8)


(Start cutting path id: path8)
(Change tool to Default tool)

G00 Z0.000000
G00 X44.987500 Y78.283340

G01 Z2 F100.0(Penetrate)
G01 X45.622917 Y78.283340 Z2 F75.000000
G00 Z0.000000

(End cutting path id: path8)


(Start cutting path id: path8)
(Change tool to Default tool)

G00 Z0.000000
G00 X44.479168 Y78.156280

G01 Z2 F100.0(Penetrate)
G02 X43.867306 Y77.921348 Z2 I-1.204185 J2.221968 F75.000000
G02 X42.827084 Y77.775030 Z2 I-1.273313 J5.281589
G03 X42.451214 Y79.665664 Z2 I-6.658197 J-0.341011
G03 X41.937501 Y80.825030 Z2 I-7.892049 J-2.803459
G02 X42.779523 Y81.252563 Z2 I1.455108 J-1.822877
G02 X43.589584 Y81.460450 Z2 I7.443083 J-27.320800
G00 Z0.000000

(End cutting path id: path8)


(Start cutting path id: path8)
(Change tool to Default tool)

G00 Z0.000000
G00 X42.700000 Y77.647920

G01 Z2 F100.0(Penetrate)
G03 X42.868653 Y77.486252 Z2 I3.103897 J3.069205 F75.000000
G02 X43.397880 Y76.884830 Z2 I-2.416948 J-2.660376
G02 X43.635078 Y76.418080 Z2 I-1.539957 J-1.076239
G02 X43.763733 Y75.995840 Z2 I-6.029926 J-2.068012
G03 X44.374402 Y73.823942 Z2 I84.090224 J22.471702
G02 X44.479167 Y73.200000 Z2 I-2.519833 J-0.743868
G00 Z0.000000

(End cutting path id: path8)


(Start cutting path id: path8)
(Change tool to Default tool)

G00 Z0.000000
G00 X33.550000 Y89.847921

G01 Z2 F100.0(Penetrate)
G01 X34.693750 Y90.294477 Z2 F75.000000
G01 X36.091667 Y91.087278 Z2
G01 X39.650000 Y92.493333 Z2
G01 X41.047917 Y92.643754 Z2
G00 Z0.000000

(End cutting path id: path8)


(Start cutting path id: path8)
(Change tool to Default tool)

G00 Z0.000000
G00 X26.814567 Y93.152083

G01 Z2 F100.0(Penetrate)
G03 X28.936675 Y93.699070 Z2 I-1.136205 J8.798053 F75.000000
G02 X31.262484 Y94.422916 Z2 I6.019982 J-15.244477
G00 Z0.000000

(End cutting path id: path8)


(Start cutting path id: path8)
(Change tool to Default tool)

G00 Z0.000000
G00 X24.781250 Y101.539587

G01 Z2 F100.0(Penetrate)
G02 X23.935245 Y101.501813 Z2 I-0.499462 J1.693538 F75.000000
G02 X22.919813 Y102.302577 Z2 I0.280108 J1.399405
G01 X22.940403 Y103.861700 Z2
G02 X23.577455 Y104.195590 Z2 I0.934468 J-1.008254
G03 X24.272915 Y104.367778 Z2 I-3.146539 J14.199306
G01 X25.234572 Y104.437298 Z2
G01 X25.615428 Y103.572916 Z2
G02 X25.704976 Y103.043741 Z2 I-51.093866 J-8.918379
G02 X25.706528 Y102.558113 Z2 I-1.510908 J-0.247645
G02 X25.383926 Y101.965339 Z2 I-0.993051 J0.156272
G03 X24.908334 Y101.539583 Z2 I2732.662087 J-3053.006940
G02 X25.014070 Y101.332595 Z2 I-3.003051 J-1.664550
G02 X25.212021 Y100.776691 Z2 I-2.777464 J-1.302220
G01 X25.689563 Y100.048708 Z2
G03 X26.155220 Y100.065894 Z2 I0.196347 J0.997046
G03 X26.560418 Y100.179811 Z2 I-9.548601 J34.741689
G03 X27.846025 Y100.725967 Z2 I-1.587610 J5.523293
G02 X28.720834 Y101.158333 Z2 I3.783437 J-6.553866
G00 Z0.000000

(End cutting path id: path8)


(Footer)
M5
M2
(Using default footer. To add your own footer create file "footer" in the output dir.)
(end)
%