%
(Header)
(Generated by gcodetools from Inkscape.)
(Using default header. To add your own header create file "header" in the output dir.)
M3
(Header end.)
G21 (All units in mm)

(Start cutting path id: path10)
(Change tool to Default tool)

G00 Z0.000000
G00 X26.306250 Y73.072910

G01 Z2 F100.0(Penetrate)
G01 X24.145833 Y72.437500 Z2 F75.000000
G01 X25.416764 Y71.616160 Z2
G03 X26.875225 Y72.042020 Z2 I-1.101098 J6.481335
G02 X28.212500 Y72.510160 Z2 I4.369054 J-10.336429
G02 X28.975217 Y72.695352 Z2 I2.998514 J-10.686200
G02 X29.864583 Y72.783540 Z2 I0.867151 J-4.216454
G02 X30.413552 Y72.691655 Z2 I-0.008962 J-1.739402
G03 X30.881250 Y72.564580 Z2 I1.270254 J3.750938
G01 X31.008333 Y72.691660 Z2
G01 X31.135417 Y72.818750 Z2
G01 X31.262500 Y72.945830 Z2
G00 Z0.000000

(End cutting path id: path10)


(Start cutting path id: path10)
(Change tool to Default tool)

G00 Z0.000000
G00 X31.389583 Y73.072910

G01 Z2 F100.0(Penetrate)
G01 X31.262500 Y72.945830 Z2 F75.000000
G00 Z0.000000

(End cutting path id: path10)


(Start cutting path id: path10)
(Change tool to Default tool)

G00 Z0.000000
G00 X30.754167 Y72.437500

G01 Z2 F100.0(Penetrate)
G01 X32.914583 Y62.397910 Z2 F75.000000
G00 Z0.000000

(End cutting path id: path10)


(Start cutting path id: path10)
(Change tool to Default tool)

G00 Z0.000000
G00 X29.737500 Y69.387500

G01 Z2 F100.0(Penetrate)
G02 X29.076861 Y64.969733 Z2 I-32.279520 J2.568846 F75.000000
G03 X28.212500 Y60.745830 Z2 I134.763966 J-29.777892
G00 Z0.000000

(End cutting path id: path10)


(Start cutting path id: path10)
(Change tool to Default tool)

G00 Z0.000000
G00 X27.577083 Y69.641660

G01 Z2 F100.0(Penetrate)
G03 X26.629059 Y66.359496 Z2 I13.084533 J-5.557346 F75.000000
G02 X26.001290 Y62.906250 Z2 I-90.748780 J14.713638
G02 X25.762610 Y61.789046 Z2 I-48.436470 J9.763900
G03 X25.543750 Y60.745830 Z2 I34.107803 J-7.700157
G00 Z0.000000

(End cutting path id: path10)


(Start cutting path id: path10)
(Change tool to Default tool)

G00 Z0.000000
G00 X18.045828 Y59.729130

G01 Z2 F100.0(Penetrate)
G02 X17.543913 Y59.535216 Z2 I-3.109535 J7.301999 F75.000000
G03 X16.976898 Y59.196780 Z2 I0.537187 J-1.544208
G01 X16.520828 Y57.949970 Z2
G03 X16.214425 Y56.639116 Z2 I13.469702 J-3.839691
G03 X16.686448 Y55.375550 Z2 I1.292242 J-0.237213
G01 X17.537495 Y55.134620 Z2
G03 X18.451344 Y55.115749 Z2 I0.550497 J4.521926
G03 X19.062495 Y55.209320 Z2 I-0.342403 J4.279007
G03 X19.420112 Y55.296429 Z2 I-2.754530 J12.086040
G02 X19.951882 Y55.386220 Z2 I0.783600 J-3.021182
G02 X20.535361 Y55.407013 Z2 I0.522478 J-6.464533
G03 X20.841662 Y55.408320 Z2 I0.105349 J11.200018
G00 Z0.000000

(End cutting path id: path10)


(Start cutting path id: path10)
(Change tool to Default tool)

G00 Z0.000000
G00 X19.952078 Y55.154150

G01 Z2 F100.0(Penetrate)
G01 X19.841076 Y54.264380 Z2 F75.000000
G01 X19.412269 Y52.993740 Z2
G01 X17.537495 Y50.490220 Z2
G01 X9.679901 Y44.601240 Z2
G01 X8.040663 Y43.054660 Z2
G01 X6.838078 Y41.174990 Z2
G01 X5.718745 Y39.268740 Z2
G00 Z0.000000

(End cutting path id: path10)


(Start cutting path id: path10)
(Change tool to Default tool)

G00 Z0.000000
G00 X7.243750 Y36.600000

G01 Z2 F100.0(Penetrate)
G02 X8.224849 Y36.571455 Z2 I0.000000 J-16.874421 F75.000000
G03 X9.277083 Y36.618700 Z2 I0.297681 J5.111304
G03 X9.932949 Y36.866887 Z2 I-0.243613 J1.634479
G02 X10.675000 Y37.257450 Z2 I2.509402 J-3.867530
G03 X12.331717 Y37.992604 Z2 I-14.343747 J34.558923
G03 X13.979167 Y38.893840 Z2 I-6.842015 J14.463502
G03 X17.686591 Y41.425523 Z2 I-29.899960 J47.766255
G03 X20.968750 Y44.479130 Z2 I-12.137272 J16.336420
G02 X22.094067 Y45.719041 Z2 I24.495185 J-21.100688
G03 X23.164957 Y46.893720 Z2 I-24.270474 J23.201540
G02 X23.610709 Y47.379488 Z2 I9.242064 J-8.033347
G03 X23.920397 Y47.910380 Z2 I-0.923716 J0.894607
G01 X23.830767 Y48.799970 Z2
G02 X23.540989 Y49.902135 Z2 I45.798509 J12.630386
G03 X23.236437 Y51.087470 Z2 I-92.912540 J-23.240531
G03 X22.686088 Y52.428350 Z2 I-5.340801 J-1.408691
G03 X21.990314 Y53.513430 Z2 I-11.384616 J-6.534416
G02 X21.676140 Y54.021409 Z2 I3.720874 J2.652426
G03 X21.407457 Y54.518720 Z2 I-36.436389 J-19.364298
G01 X21.046603 Y55.389470 Z2
G01 X21.985412 Y55.800340 Z2
G03 X22.777533 Y55.893080 Z2 I-1.178791 J13.497620
G03 X23.637495 Y56.060390 Z2 I-1.380586 J9.389861
G03 X25.378209 Y56.675569 Z2 I-2.152713 J8.861679
G02 X27.068745 Y57.416140 Z2 I13.964427 J-29.577452
G03 X33.650001 Y60.592700 Z2 I-21.102388 J52.126177
G03 X39.904162 Y64.387580 Z2 I-58.697126 J103.786980
G03 X41.730703 Y65.605976 Z2 I-49.014690 J75.457995
G02 X43.589578 Y66.773040 Z2 I15.570356 J-22.736213
G03 X44.365955 Y67.248619 Z2 I-7.861952 J13.706037
G02 X44.984357 Y67.645170 Z2 I24.430146 J-37.417192
G02 X45.428163 Y67.894887 Z2 I2.744070 J-4.357633
G02 X45.622912 Y67.989550 Z2 I4.559683 J-9.132889
G00 Z0.000000

(End cutting path id: path10)


(Start cutting path id: path10)
(Change tool to Default tool)

G00 Z0.000000
G00 X44.860417 Y72.564580

G01 Z2 F100.0(Penetrate)
G03 X45.343871 Y71.388940 Z2 I5.309358 J1.496124 F75.000000
G03 X45.622917 Y71.039580 Z2 I1.167349 J0.646279
G00 Z0.000000

(End cutting path id: path10)


(Start cutting path id: path10)
(Change tool to Default tool)

G00 Z0.000000
G00 X41.683333 Y72.564580

G01 Z2 F100.0(Penetrate)
G01 X41.429167 Y68.497910 Z2 F75.000000
G00 Z0.000000

(End cutting path id: path10)


(Start cutting path id: path10)
(Change tool to Default tool)

G00 Z0.000000
G00 X39.268750 Y73.072910

G01 Z2 F100.0(Penetrate)
G02 X37.971039 Y72.805605 Z2 I-1.940201 J6.135563 F75.000000
G03 X36.600000 Y72.518980 Z2 I0.660401 J-6.581375
G03 X34.899381 Y71.879811 Z2 I5.894565 J-18.265481
G02 X33.041667 Y71.166660 Z2 I-9.767885 J22.668546
G00 Z0.000000

(End cutting path id: path10)


(Start cutting path id: path10)
(Change tool to Default tool)

G00 Z0.000000
G00 X19.189583 Y72.564580

G01 Z2 F100.0(Penetrate)
G02 X18.904677 Y71.243162 Z2 I-8.541142 J1.150100 F75.000000
G03 X18.690860 Y70.150000 Z2 I5.469464 J-1.637293
G03 X18.688330 Y69.493692 Z2 I3.571024 J-0.341924
G03 X18.958655 Y68.625580 Z2 I2.131176 J0.187491
G03 X19.720194 Y68.056864 Z2 I1.029090 J0.583776
G03 X20.714583 Y68.025860 Z2 I0.574889 J2.476370
G03 X23.510104 Y68.686722 Z2 I-3.574030 J21.361670
G02 X25.543750 Y69.133330 Z2 I3.723191 J-12.100236
G00 Z0.000000

(End cutting path id: path10)


(Start cutting path id: path10)
(Change tool to Default tool)

G00 Z0.000000
G00 X19.062500 Y68.752080

G01 Z2 F100.0(Penetrate)
G01 X19.952279 Y69.536350 Z2 F75.000000
G01 X21.222917 Y70.718240 Z2
G01 X24.145833 Y72.437500 Z2
G00 Z0.000000

(End cutting path id: path10)


(Start cutting path id: path10)
(Change tool to Default tool)

G00 Z0.000000
G00 X19.062500 Y68.243750

G01 Z2 F100.0(Penetrate)
G02 X18.611560 Y67.770431 Z2 I-3.819596 J3.187530 F75.000000
G02 X17.791667 Y67.309060 Z2 I-1.389446 J1.509966
G02 X15.804312 Y67.039472 Z2 I-1.907612 J6.602569
G03 X14.450238 Y65.829070 Z2 I-0.015609 J-1.345140
G03 X15.057912 Y64.717483 Z2 I1.115162 J-0.112264
G02 X16.393750 Y63.868980 Z2 I-3.738014 J-7.360720
G03 X19.899839 Y61.178034 Z2 I186.759195 J239.702910
G02 X23.383333 Y58.458330 Z2 I-85.714829 J-113.377331
G00 Z0.000000

(End cutting path id: path10)


(Start cutting path id: path10)
(Change tool to Default tool)

G00 Z0.000000
G00 X18.554162 Y57.822900

G01 Z2 F100.0(Penetrate)
G01 X19.265868 Y56.667780 Z2 F75.000000
G01 X19.824995 Y55.662490 Z2
G00 Z0.000000

(End cutting path id: path10)


(Start cutting path id: path10)
(Change tool to Default tool)

G00 Z0.000000
G00 X24.272912 Y48.037490

G01 Z2 F100.0(Penetrate)
G03 X26.258972 Y49.004757 Z2 I-4.547972 J11.860799 F75.000000
G02 X28.720828 Y50.356370 Z2 I18.919730 J-31.542956
G03 X29.823796 Y50.965833 Z2 I-6.893879 J13.778876
G02 X30.881245 Y51.503650 Z2 I4.097155 J-6.747299
G02 X31.756883 Y51.672161 Z2 I0.842714 J-2.019714
G03 X32.533328 Y51.756440 Z2 I0.047820 J3.178178
G03 X33.184320 Y51.996744 Z2 I-0.651512 J2.766901
G02 X33.804162 Y52.231240 Z2 I1.331151 J-2.582166
G00 Z0.000000

(End cutting path id: path10)


(Start cutting path id: path10)
(Change tool to Default tool)

G00 Z0.000000
G00 X32.533328 Y51.595820

G01 Z2 F100.0(Penetrate)
G02 X32.409284 Y50.994774 Z2 I-5.348559 J0.790509 F75.000000
G02 X31.991655 Y50.245560 Z2 I-1.686883 J0.449303
G03 X30.955787 Y48.796243 Z2 I4.769499 J-4.503737
G03 X31.026077 Y46.790090 Z2 I1.789653 J-0.941603
G03 X32.251038 Y45.959080 Z2 I1.542089 J0.954796
G03 X33.677078 Y45.733420 Z2 I6.710744 J37.789356
G03 X37.496363 Y45.761653 Z2 I1.813324 J13.043831
G03 X41.174995 Y46.566810 Z2 I-4.587418 J29.765280
G03 X43.006969 Y47.190036 Z2 I-5.326426 J18.661205
G02 X44.733134 Y47.856470 Z2 I36.531164 J-92.052477
G02 X45.412581 Y48.095686 Z2 I6.144159 J-16.366814
G02 X45.622912 Y48.164570 Z2 I24.339957 J-73.963656
G00 Z0.000000

(End cutting path id: path10)


(Start cutting path id: path10)
(Change tool to Default tool)

G00 Z0.000000
G00 X45.241667 Y36.981290

G01 Z2 F100.0(Penetrate)
G01 X45.241667 Y36.600000 Z2 F75.000000
G00 Z0.000000

(End cutting path id: path10)


(Start cutting path id: path10)
(Change tool to Default tool)

G00 Z0.000000
G00 X40.920833 Y36.854170

G01 Z2 F100.0(Penetrate)
G01 X40.920833 Y36.600000 Z2 F75.000000
G00 Z0.000000

(End cutting path id: path10)


(Start cutting path id: path10)
(Change tool to Default tool)

G00 Z0.000000
G00 X38.125000 Y36.600000

G01 Z2 F100.0(Penetrate)
G03 X38.162589 Y36.792650 Z2 I-13.822980 J2.797090 F75.000000
G02 X38.346415 Y37.225220 Z2 I1.077136 J-0.202397
G02 X38.868954 Y37.705699 Z2 I1.391895 J-0.989360
G02 X39.776494 Y37.960560 Z2 I0.932133 J-1.575978
G01 X40.920833 Y36.854170 Z2
G02 X41.715299 Y37.290814 Z2 I2.113497 J-2.904387
G02 X43.081250 Y37.604700 Z2 I1.720405 J-4.357690
G02 X44.558584 Y37.336042 Z2 I0.224614 J-2.961078
G03 X45.348552 Y37.029490 Z2 I2.738297 J5.885311
G01 X45.622917 Y36.981290 Z2
G00 Z0.000000

(End cutting path id: path10)


(Start cutting path id: path10)
(Change tool to Default tool)

G00 Z0.000000
G00 X34.693750 Y36.600000

G01 Z2 F100.0(Penetrate)
G01 X35.837500 Y36.600000 Z2 F75.000000
G00 Z0.000000

(End cutting path id: path10)


(Start cutting path id: path10)
(Change tool to Default tool)

G00 Z0.000000
G00 X19.443750 Y36.600000

G01 Z2 F100.0(Penetrate)
G02 X20.794925 Y36.559130 Z2 I-0.000000 J-22.355446 F75.000000
G03 X21.731250 Y36.639900 Z2 I0.194523 J3.212536
G03 X22.303475 Y36.886748 Z2 I-0.413057 J1.744191
G02 X23.129167 Y37.344350 Z2 I3.420482 J-5.198139
G02 X27.080042 Y38.982000 Z2 I23.984448 J-52.278497
G02 X31.135417 Y39.995350 Z2 I6.577887 J-17.703000
G02 X35.544392 Y40.175817 Z2 I3.171345 J-23.531012
G03 X39.904167 Y40.321690 Z2 I1.329851 J25.478327
G02 X41.632845 Y40.508214 Z2 I8.939433 J-74.745726
G03 X43.335417 Y40.896900 Z2 I-0.652634 J6.782002
G03 X44.271243 Y41.274543 Z2 I-5.698549 J15.469744
G03 X44.984362 Y41.627630 Z2 I-3.514123 J7.994046
G02 X45.428137 Y41.851128 Z2 I3.104385 J-5.611714
G02 X45.622917 Y41.937490 Z2 I4.225972 J-9.268341
G00 Z0.000000

(End cutting path id: path10)


(Start cutting path id: path10)
(Change tool to Default tool)

G00 Z0.000000
G00 X19.316662 Y43.970820

G01 Z2 F100.0(Penetrate)
G01 X20.079162 Y43.589570 Z2 F75.000000
G00 Z0.000000

(End cutting path id: path10)


(Start cutting path id: path10)
(Change tool to Default tool)

G00 Z0.000000
G00 X7.752078 Y54.010400

G01 Z2 F100.0(Penetrate)
G03 X9.276677 Y55.300253 Z2 I-17.582424 J22.328282 F75.000000
G02 X10.929162 Y56.543830 Z2 I7.551465 J-8.314794
G02 X14.675930 Y58.624597 Z2 I24.474243 J-39.656238
G02 X16.647912 Y59.347900 Z2 I4.278952 J-8.616131
G00 Z0.000000

(End cutting path id: path10)


(Start cutting path id: path10)
(Change tool to Default tool)

G00 Z0.000000
G00 X13.470828 Y66.083300

G01 Z2 F100.0(Penetrate)
G01 X14.106245 Y65.829130 Z2 F75.000000
G00 Z0.000000

(End cutting path id: path10)


(Footer)
M5
M2
(Using default footer. To add your own footer create file "footer" in the output dir.)
(end)
%