%
(Header)
(Generated by gcodetools from Inkscape.)
(Using default header. To add your own header create file "header" in the output dir.)
M3
(Header end.)
G21 (All units in mm)

(Start cutting path id: path14)
(Change tool to Default tool)

G00 Z0.000000
G00 X45.750000 Y36.091670

G01 Z2 F100.0(Penetrate)
G01 X46.024367 Y36.070370 Z2 F75.000000
G03 X47.383462 Y36.029151 Z2 I0.874027 J6.391914
G02 X49.054167 Y36.091670 Z2 I1.660700 J-22.024744
G02 X50.189594 Y35.661884 Z2 I-0.000769 J-1.716734
G02 X51.152317 Y34.734160 Z2 I-10.145557 J-11.491688
G03 X52.317592 Y34.277983 Z2 I1.070442 J1.017976
G02 X53.629167 Y34.129530 Z2 I0.240695 J-3.741563
G02 X54.819124 Y33.450681 Z2 I-0.862693 J-2.894583
G02 X55.662500 Y32.406260 Z2 I-3.172425 J-3.424477
G03 X55.753834 Y32.483008 Z2 I-4.849191 J5.863539
G02 X56.176030 Y32.805940 Z2 I3.214400 J-3.764997
G03 X56.552429 Y33.070168 Z2 I-10.132131 J14.833683
G03 X56.879401 Y33.324280 Z2 I-3.383711 J4.691315
G02 X57.777574 Y33.756244 Z2 I1.301461 J-1.556340
G02 X58.839583 Y33.677090 Z2 I0.390471 J-1.925110
G00 Z0.000000

(End cutting path id: path14)


(Start cutting path id: path14)
(Change tool to Default tool)

G00 Z0.000000
G00 X56.933333 Y33.041990

G01 Z2 F100.0(Penetrate)
G01 X56.638865 Y31.913740 Z2 F75.000000
G01 X55.662500 Y32.279490 Z2
G00 Z0.000000

(End cutting path id: path14)


(Start cutting path id: path14)
(Change tool to Default tool)

G00 Z0.000000
G00 X60.110417 Y35.837510

G01 Z2 F100.0(Penetrate)
G03 X61.337425 Y34.073480 Z2 I3.425104 J1.073652 F75.000000
G03 X63.287500 Y32.771330 Z2 I10.218700 J13.192062
G03 X66.443567 Y31.565465 Z2 I5.475850 J9.598678
G03 X69.768750 Y31.130520 Z2 I4.327393 J20.155128
G02 X70.539640 Y31.042291 Z2 I-0.289451 J-5.940921
G02 X71.293750 Y30.881260 Z2 I-2.206831 J-12.180900
G00 Z0.000000

(End cutting path id: path14)


(Start cutting path id: path14)
(Change tool to Default tool)

G00 Z0.000000
G00 X63.160417 Y34.947920

G01 Z2 F100.0(Penetrate)
G01 X66.210417 Y34.460670 Z2 F75.000000
G01 X71.039583 Y34.185520 Z2
G01 X77.647917 Y34.820840 Z2
G01 X79.427083 Y35.019210 Z2
G01 X81.079167 Y35.202090 Z2
G01 X84.510417 Y35.604910 Z2
G01 X89.085417 Y35.837510 Z2
G01 X90.734362 Y35.833510 Z2
G01 X91.372917 Y35.710740 Z2
G00 Z0.000000

(End cutting path id: path14)


(Start cutting path id: path14)
(Change tool to Default tool)

G00 Z0.000000
G00 X91.372917 Y6.481280

G01 Z2 F100.0(Penetrate)
G03 X91.187125 Y6.496899 Z2 I-2.119177 J-24.095356 F75.000000
G02 X90.734362 Y6.581590 Z2 I0.175808 J2.192473
G02 X90.010774 Y6.966206 Z2 I0.592951 J1.988494
G02 X89.500792 Y8.006280 Z2 I0.886177 J1.079589
G02 X89.966815 Y9.161070 Z2 I1.554731 J0.044007
G02 X90.734459 Y9.740730 Z2 I2.625208 J-2.678439
G02 X91.178809 Y9.958629 Z2 I1.969775 J-3.454844
G03 X91.372917 Y10.039610 Z2 I-25.436384 J61.242820
G00 Z0.000000

(End cutting path id: path14)


(Start cutting path id: path14)
(Change tool to Default tool)

G00 Z0.000000
G00 X53.502083 Y15.631530

G01 Z2 F100.0(Penetrate)
G03 X54.748844 Y13.944413 Z2 I8.432676 J4.927427 F75.000000
G03 X56.552083 Y12.800590 Z2 I3.038526 J2.796925
G03 X63.700040 Y12.351352 Z2 I4.487900 J14.317061
G03 X70.277083 Y15.418740 Z2 I-2.519825 J13.987856
G03 X73.120489 Y18.305632 Z2 I-13.194398 J15.839382
G02 X75.682341 Y21.477360 Z2 I28352.694951 J-22898.272301
G03 X77.245934 Y23.417096 Z2 I-928.754379 J750.255385
G02 X79.172917 Y25.063050 Z2 I5.325092 J-4.283320
G02 X82.738475 Y26.852508 Z2 I17.955150 J-31.329295
G02 X86.543750 Y28.007640 Z2 I6.895940 J-15.871538
G02 X88.064698 Y28.178751 Z2 I2.025476 J-11.158598
G02 X89.593750 Y28.212780 Z2 I1.529052 J-34.336434
G01 X90.734362 Y28.212780 Z2
G01 X91.372917 Y28.212780 Z2
G00 Z0.000000

(End cutting path id: path14)


(Start cutting path id: path14)
(Change tool to Default tool)

G00 Z0.000000
G00 X54.518750 Y26.433610

G01 Z2 F100.0(Penetrate)
G01 X54.645833 Y27.450280 Z2 F75.000000
G02 X55.585577 Y27.779805 Z2 I2.849177 J-6.620572
G02 X56.552083 Y28.038530 Z2 I20.200018 J-73.525558
G02 X59.571458 Y28.770028 Z2 I22.638570 J-86.847142
G02 X62.652083 Y29.366720 Z2 I11.805140 J-52.697271
G02 X64.387920 Y29.552729 Z2 I2.541312 J-15.523082
G03 X65.956250 Y29.737780 Z2 I-0.611044 J11.917117
G00 Z0.000000

(End cutting path id: path14)


(Start cutting path id: path14)
(Change tool to Default tool)

G00 Z0.000000
G00 X45.877083 Y25.925280

G01 Z2 F100.0(Penetrate)
G03 X46.829404 Y25.993855 Z2 I-0.057476 J7.445046 F75.000000
G03 X48.800000 Y26.296230 Z2 I-8.342242 J60.939331
G03 X51.739906 Y26.942636 Z2 I-5.263152 J30.945878
G02 X54.645833 Y27.450280 Z2 I4.220826 J-15.590381
G00 Z0.000000

(End cutting path id: path14)


(Start cutting path id: path14)
(Change tool to Default tool)

G00 Z0.000000
G00 X45.750000 Y25.925280

G01 Z2 F100.0(Penetrate)
G01 X45.877083 Y25.925280 Z2 F75.000000
G00 Z0.000000

(End cutting path id: path14)


(Start cutting path id: path14)
(Change tool to Default tool)

G00 Z0.000000
G00 X45.877083 Y17.283660

G01 Z2 F100.0(Penetrate)
G03 X46.068585 Y17.310164 Z2 I-1.392729 J10.768295 F75.000000
G03 X46.640172 Y17.411230 Z2 I-1.481798 J10.047252
G03 X47.648340 Y17.632934 Z2 I-8.170799 J39.558717
G03 X48.672917 Y17.888090 Z2 I-8.089208 J34.666787
G03 X51.471288 Y18.798320 Z2 I-6.782710 J25.609173
G03 X54.137500 Y20.045270 Z2 I-7.900626 J20.366919
G02 X66.376365 Y26.465024 Z2 I153.339485 J-277.456092
G02 X79.427083 Y31.179670 Z2 I27.001921 J-54.324305
G02 X83.407081 Y31.643806 Z2 I3.982359 J-16.852577
G02 X87.433333 Y31.644080 Z2 I4.026251 J-29528.520293
G02 X89.104452 Y31.555300 Z2 I0.000000 J-15.772192
G02 X90.609827 Y31.340980 Z2 I-2.284627 J-21.441164
G03 X91.179882 Y31.272850 Z2 I0.873556 J4.890273
G03 X91.372917 Y31.262780 Z2 I0.655225 J10.704634
G00 Z0.000000

(End cutting path id: path14)


(Start cutting path id: path14)
(Change tool to Default tool)

G00 Z0.000000
G00 X45.750000 Y17.283340

G01 Z2 F100.0(Penetrate)
G01 X45.877083 Y17.283340 Z2 F75.000000
G00 Z0.000000

(End cutting path id: path14)


(Start cutting path id: path14)
(Change tool to Default tool)

G00 Z0.000000
G00 X45.877083 Y7.625010

G01 Z2 F100.0(Penetrate)
G02 X47.282024 Y7.327605 Z2 I-1.283251 J-9.529242 F75.000000
G03 X50.197917 Y6.660900 Z2 I7.142870 J24.530171
G03 X55.103290 Y6.005621 Z2 I12.254409 J73.047321
G03 X60.110417 Y5.994500 Z2 I2.560610 J25.680050
G03 X64.966741 Y6.744633 Z2 I-3.996567 J41.968458
G03 X69.641667 Y8.299650 Z2 I-4.731388 J22.028949
G03 X73.878011 Y10.744250 Z2 I-11.027617 J24.003152
G02 X78.029167 Y13.361310 Z2 I26.470472 J-37.386431
G02 X80.665512 Y14.584532 Z2 I9.512971 J-17.050206
G03 X83.366667 Y15.631260 Z2 I-52.225977 J138.781375
G02 X85.745429 Y16.414021 Z2 I7.538930 J-18.904507
G02 X88.195833 Y16.902090 Z2 I5.305665 J-20.242375
G02 X89.600869 Y17.086082 Z2 I14.630932 J-106.270815
G02 X90.734362 Y17.156260 Z2 I1.134062 J-9.128030
G01 X91.372917 Y17.156260 Z2
G00 Z0.000000

(End cutting path id: path14)


(Start cutting path id: path14)
(Change tool to Default tool)

G00 Z0.000000
G00 X45.750000 Y7.625010

G01 Z2 F100.0(Penetrate)
G01 X45.877083 Y7.625010 Z2 F75.000000
G00 Z0.000000

(End cutting path id: path14)


(Start cutting path id: path14)
(Change tool to Default tool)

G00 Z0.000000
G00 X45.877083 Y4.575010

G01 Z2 F100.0(Penetrate)
G02 X46.984453 Y4.379263 Z2 I-1.825961 J-13.559874 F75.000000
G03 X49.054167 Y4.057160 Z2 I3.642702 J16.595992
G02 X49.538985 Y3.997175 Z2 I-0.744938 J-8.010062
G03 X50.070833 Y3.944590 Z2 I0.744217 J4.811181
G03 X51.200455 Y3.929091 Z2 I0.822529 J18.775463
G02 X52.485417 Y3.939590 Z2 I1.284962 J-78.626383
G02 X56.347463 Y3.929650 Z2 I0.000556 J-750.310891
G03 X60.237500 Y3.920390 Z2 I3.618065 J702.995594
G03 X65.504531 Y4.517590 Z2 I-0.006625 J23.583438
G02 X70.658333 Y5.559920 Z2 I22.639892 J-98.680304
G03 X72.438404 Y5.998206 Z2 I-2.335841 J13.320849
G03 X74.216667 Y6.640910 Z2 I-7.660338 J23.976404
G03 X78.771137 Y8.917846 Z2 I-12.067042 J29.830782
G02 X83.366667 Y11.095400 Z2 I13.117219 J-21.744703
G02 X85.584429 Y11.791742 Z2 I10.273639 J-28.840436
G02 X87.814583 Y12.374570 Z2 I28.498063 J-104.487822
G02 X89.271925 Y12.698030 Z2 I6.814747 J-27.258950
G02 X90.609827 Y12.834950 Z2 I1.428753 J-7.355884
G02 X91.185432 Y12.836181 Z2 I0.349084 J-28.651847
G03 X91.372917 Y12.835440 Z2 I0.187485 J23.715207
G00 Z0.000000

(End cutting path id: path14)


(Start cutting path id: path14)
(Change tool to Default tool)

G00 Z0.000000
G00 X45.750000 Y4.575010

G01 Z2 F100.0(Penetrate)
G01 X45.877083 Y4.575010 Z2 F75.000000
G00 Z0.000000

(End cutting path id: path14)


(Footer)
M5
M2
(Using default footer. To add your own footer create file "footer" in the output dir.)
(end)
%