%
(Header)
(Generated by gcodetools from Inkscape.)
(Using default header. To add your own header create file "header" in the output dir.)
M3
(Header end.)
G21 (All units in mm)

(Start cutting path id: path15)
(Change tool to Default tool)

G00 Z0.000000
G00 X132.547920 Y36.472920

G01 Z2 F100.0(Penetrate)
G03 X135.139595 Y36.118662 Z2 I2.455649 J8.307810 F75.000000
G02 X137.122920 Y36.091670 Z2 I0.531349 J-33.836119
G00 Z0.000000

(End cutting path id: path15)


(Start cutting path id: path15)
(Change tool to Default tool)

G00 Z0.000000
G00 X136.233330 Y33.804140

G01 Z2 F100.0(Penetrate)
G01 X137.122920 Y33.804140 Z2 F75.000000
G00 Z0.000000

(End cutting path id: path15)


(Start cutting path id: path15)
(Change tool to Default tool)

G00 Z0.000000
G00 X137.122920 Y23.129170

G01 Z2 F100.0(Penetrate)
G01 X137.122920 Y21.604170 Z2 F75.000000
G00 Z0.000000

(End cutting path id: path15)


(Start cutting path id: path15)
(Change tool to Default tool)

G00 Z0.000000
G00 X108.529170 Y35.964590

G01 Z2 F100.0(Penetrate)
G03 X108.988966 Y34.528015 Z2 I1.244287 J-0.393618 F75.000000
G03 X110.435420 Y33.931260 Z2 I1.874442 J2.492013
G03 X112.525111 Y33.671281 Z2 I10.381589 J74.917940
G03 X114.629170 Y33.550100 Z2 I2.208985 J20.027608
G02 X123.124519 Y32.899361 Z2 I-0.311682 J-59.847471
G02 X131.531250 Y31.569230 Z2 I-67.856789 J-456.101513
G03 X133.264966 Y31.301982 Z2 I10.989615 J65.535712
G02 X134.835420 Y30.991180 Z2 I-2.005002 J-14.254160
G02 X135.484501 Y30.735530 Z2 I-0.699051 J-2.726673
G02 X136.106250 Y30.389300 Z2 I-19.682798 J-36.077056
G03 X136.927409 Y30.132752 Z2 I1.000961 J1.761420
G03 X137.122920 Y30.118760 Z2 I0.499314 J5.603930
G00 Z0.000000

(End cutting path id: path15)


(Start cutting path id: path15)
(Change tool to Default tool)

G00 Z0.000000
G00 X91.500000 Y31.135420

G01 Z2 F100.0(Penetrate)
G02 X91.698680 Y31.124508 Z2 I-0.307956 J-7.421128 F75.000000
G02 X92.263088 Y31.060420 Z2 I-0.432572 J-6.326937
G02 X93.330388 Y30.852703 Z2 I-2.489523 J-15.637648
G03 X94.550000 Y30.627100 Z2 I3.192665 J13.850166
G02 X97.934459 Y29.924353 Z2 I-3.667604 J-26.164542
G03 X101.285420 Y29.102100 Z2 I15.575174 J56.234879
G02 X105.797265 Y27.946834 Z2 I-12.319838 J-57.502692
G03 X110.308330 Y26.787930 Z2 I17.178273 J57.507705
G02 X111.403135 Y26.549752 Z2 I-75.470705 J-349.542098
G03 X112.468750 Y26.337940 Z2 I5.943783 J27.116474
G02 X113.086480 Y26.202267 Z2 I-1.399963 J-7.848293
G03 X113.739580 Y26.039260 Z2 I7.550626 J28.862225
G03 X114.435243 Y25.948089 Z2 I0.788791 J3.319067
G02 X115.137500 Y25.903340 Z2 I-0.264397 J-9.681969
G02 X117.352259 Y25.581434 Z2 I-2.523318 J-25.140635
G03 X119.585420 Y25.216550 Z2 I7.954279 J41.665653
G03 X122.392199 Y24.899589 Z2 I8.340895 J61.275175
G02 X125.177080 Y24.398640 Z2 I-1.434626 J-15.966716
G03 X127.666990 Y23.747587 Z2 I31.975702 J117.202282
G02 X130.133330 Y23.045830 Z2 I-9.710929 J-38.814131
G03 X131.313465 Y22.712551 Z2 I5.488516 J17.178701
G02 X132.264230 Y22.243520 Z2 I-0.588036 J-2.390151
G01 X131.910540 Y20.972790 Z2
G02 X129.872544 Y20.588458 Z2 I-2.064396 J5.351260
G03 X127.718850 Y20.045840 Z2 I0.021311 J-4.629983
G01 X126.871530 Y18.582720 Z2
G03 X128.263684 Y17.763935 Z2 I1.383343 J0.759143
G02 X130.006250 Y17.670970 Z2 I0.082794 J-14.826167
G02 X132.358051 Y17.398756 Z2 I-43.380645 J-385.083644
G03 X134.708330 Y17.119990 Z2 I605.092830 J5091.495760
G03 X135.700563 Y17.043403 Z2 I1.434859 J12.123763
G03 X136.484360 Y17.029190 Z2 I0.783797 J21.604224
G01 X137.122920 Y17.029190 Z2
G00 Z0.000000

(End cutting path id: path15)


(Start cutting path id: path15)
(Change tool to Default tool)

G00 Z0.000000
G00 X91.500000 Y17.156260

G01 Z2 F100.0(Penetrate)
G01 X92.138555 Y17.156260 Z2 F75.000000
G02 X93.085396 Y17.124946 Z2 I0.000000 J-14.330520
G02 X94.295833 Y17.040450 Z2 I-11.217593 J-169.408237
G02 X97.064407 Y16.785648 Z2 I-5.462823 J-74.525244
G02 X99.760417 Y16.339830 Z2 I-2.814579 J-25.395451
G02 X103.795730 Y15.289091 Z2 I-12.042929 J-54.524375
G03 X107.893750 Y14.282660 Z2 I11.858567 J39.439677
G02 X117.878751 Y11.628866 Z2 I-13.877023 J-72.324202
G03 X128.100000 Y9.912510 Z2 I10.309060 J30.099560
G00 Z0.000000

(End cutting path id: path15)


(Start cutting path id: path15)
(Change tool to Default tool)

G00 Z0.000000
G00 X91.500000 Y10.166670

G01 Z2 F100.0(Penetrate)
G01 X91.627083 Y10.166670 Z2 F75.000000
G00 Z0.000000

(End cutting path id: path15)


(Start cutting path id: path15)
(Change tool to Default tool)

G00 Z0.000000
G00 X91.500000 Y12.835420

G01 Z2 F100.0(Penetrate)
G01 X92.263088 Y12.835420 Z2 F75.000000
G02 X93.983888 Y12.768626 Z2 I-0.000000 J-22.199685
G02 X95.447526 Y11.312390 Z2 I-0.123444 J-1.587727
G01 X94.549902 Y10.517230 Z2
G02 X92.613607 Y10.292909 Z2 I-2.711962 J14.940132
G03 X91.627083 Y10.166670 Z2 I0.333843 J-6.526703
G00 Z0.000000

(End cutting path id: path15)


(Start cutting path id: path15)
(Change tool to Default tool)

G00 Z0.000000
G00 X91.627083 Y6.354170

G01 Z2 F100.0(Penetrate)
G02 X92.576035 Y6.320035 Z2 I0.000000 J-13.207428 F75.000000
G03 X94.677083 Y6.652960 Z2 I0.336565 J4.672168
G03 X98.275204 Y8.442306 Z2 I-10.064420 J24.750448
G02 X102.047920 Y9.816700 Z2 I5.510309 J-9.260559
G02 X106.176437 Y10.176566 Z2 I4.458529 J-27.287996
G02 X110.308330 Y9.857200 Z2 I0.278014 J-23.291565
G02 X112.538283 Y9.321400 Z2 I-2.728070 J-16.262324
G03 X114.756250 Y8.803670 Z2 I4.504834 J14.289038
G03 X119.956361 Y8.332329 Z2 I6.344980 J41.080534
G03 X125.177080 Y8.260420 Z2 I5.220719 J189.480789
G00 Z0.000000

(End cutting path id: path15)


(Start cutting path id: path15)
(Change tool to Default tool)

G00 Z0.000000
G00 X91.500000 Y6.354170

G01 Z2 F100.0(Penetrate)
G01 X91.627083 Y6.354170 Z2 F75.000000
G00 Z0.000000

(End cutting path id: path15)


(Start cutting path id: path15)
(Change tool to Default tool)

G00 Z0.000000
G00 X91.500000 Y28.085420

G01 Z2 F100.0(Penetrate)
G03 X91.689795 Y28.086934 Z2 I0.006880 J11.037885 F75.000000
G02 X92.138555 Y28.080420 Z2 I0.119647 J-7.219003
G02 X92.698108 Y28.020631 Z2 I-0.211348 J-4.626198
G02 X93.406250 Y27.863610 Z2 I-1.185140 J-7.020144
G02 X95.183235 Y27.368258 Z2 I-90.584896 J-328.391374
G02 X96.964583 Y26.850180 Z2 I-29.725222 J-105.528189
G03 X102.094018 Y25.351471 Z2 I106.424734 J354.718596
G02 X107.131250 Y23.564750 Z2 I-11.463215 J-40.311797
G02 X107.728970 Y23.303821 Z2 I-18.504862 J-43.204846
G02 X108.275000 Y23.005420 Z2 I-1.551305 J-3.487440
G03 X109.420142 Y22.370941 Z2 I4.750410 J7.223157
G02 X110.683900 Y21.743320 Z2 I-9.559630 J-20.835094
G01 X110.560150 Y20.289210 Z2
G02 X108.304665 Y19.846829 Z2 I-2.012642 J4.290481
G03 X105.987500 Y19.580450 Z2 I-0.362259 J-7.060207
G01 X105.365910 Y17.954160 Z2
G03 X108.070125 Y17.189515 Z2 I2.764462 J4.612559
G02 X110.943750 Y17.155770 Z2 I-29.886593 J-2667.428535
G03 X116.291190 Y17.112003 Z2 I8.006746 J651.570378
G02 X121.618750 Y16.720590 Z2 I-0.157517 J-38.596617
G02 X123.280552 Y16.389136 Z2 I-2.220778 J-15.465869
G02 X124.793380 Y15.675870 Z2 I-1.103504 J-4.301492
G02 X125.340457 Y14.922947 Z2 I-0.891930 J-1.223297
G03 X125.847900 Y14.200590 Z2 I1.436107 J0.469426
G03 X127.313525 Y13.741305 Z2 I1.346121 J1.727485
G02 X128.989580 Y13.703530 Z2 I0.593632 J-10.862672
G03 X131.599204 Y13.529813 Z2 I3.921464 J39.221205
G02 X134.200000 Y13.241580 Z2 I-0.565426 J-16.979892
G02 X135.339929 Y13.001769 Z2 I-5.455996 J-28.764012
G02 X136.359830 Y12.730990 Z2 I-3.684992 J-15.935816
G03 X136.925535 Y12.605481 Z2 I1.135782 J3.781658
G03 X137.122920 Y12.581260 Z2 I0.630188 J4.319150
G00 Z0.000000

(End cutting path id: path15)


(Start cutting path id: path15)
(Change tool to Default tool)

G00 Z0.000000
G00 X91.500000 Y35.710420

G01 Z2 F100.0(Penetrate)
G01 X92.138555 Y35.688820 Z2 F75.000000
G01 X93.660417 Y35.466430 Z2
G01 X97.727083 Y34.558410 Z2
G01 X101.412500 Y32.450350 Z2
G01 X106.877080 Y31.480360 Z2
G01 X112.595830 Y30.300130 Z2
G01 X118.314580 Y29.683550 Z2
G01 X124.795830 Y28.503910 Z2
G01 X128.227080 Y27.718850 Z2
G01 X130.514580 Y27.117660 Z2
G01 X134.072920 Y25.754160 Z2
G01 X136.359830 Y24.755340 Z2
G01 X137.122920 Y24.527060 Z2
G00 Z0.000000

(End cutting path id: path15)


(Footer)
M5
M2
(Using default footer. To add your own footer create file "footer" in the output dir.)
(end)
%