%
(Header)
(Generated by gcodetools from Inkscape.)
(Using default header. To add your own header create file "header" in the output dir.)
M3
(Header end.)
G21 (All units in mm)

(Start cutting path id: path5)
(Change tool to Default tool)

G00 Z0.000000
G00 X11.945833 Y131.150002

G01 Z2 F100.0(Penetrate)
G03 X11.947224 Y129.239887 Z2 I1311.892389 J-0.000000 F75.000000
G03 X11.974663 Y127.718752 Z2 I45.879780 J0.066801
G02 X11.905409 Y127.070364 Z2 I-2.318709 J-0.080232
G02 X11.557132 Y126.201204 Z2 I-3.404828 J0.859973
G01 X10.547918 Y125.687870 Z2
G02 X9.406559 Y125.727538 Z2 I-0.311566 J7.475178
G03 X7.879168 Y125.812502 Z2 I-1.527392 J-13.686476
G00 Z0.000000

(End cutting path id: path5)


(Start cutting path id: path5)
(Change tool to Default tool)

G00 Z0.000000
G00 X10.039584 Y128.227086

G01 Z2 F100.0(Penetrate)
G03 X11.086524 Y127.116539 Z2 I7.147400 J5.689264 F75.000000
G03 X11.564584 Y126.702086 Z2 I12.435617 J13.861224
G00 Z0.000000

(End cutting path id: path5)


(Start cutting path id: path5)
(Change tool to Default tool)

G00 Z0.000000
G00 X11.564536 Y126.066669

G01 Z2 F100.0(Penetrate)
G01 X12.200000 Y125.431252 Z2 F75.000000
G00 Z0.000000

(End cutting path id: path5)


(Start cutting path id: path5)
(Change tool to Default tool)

G00 Z0.000000
G00 X12.072917 Y124.795787

G01 Z2 F100.0(Penetrate)
G01 X13.432689 Y123.513578 Z2 F75.000000
G01 X14.233333 Y122.508287 Z2
G00 Z0.000000

(End cutting path id: path5)


(Start cutting path id: path5)
(Change tool to Default tool)

G00 Z0.000000
G00 X12.454167 Y124.414537

G01 Z2 F100.0(Penetrate)
G01 X12.072917 Y123.016620 Z2 F75.000000
G01 X12.073407 Y120.983287 Z2
G01 X12.200000 Y115.900003 Z2
G00 Z0.000000

(End cutting path id: path5)


(Start cutting path id: path5)
(Change tool to Default tool)

G00 Z0.000000
G00 X12.962500 Y125.812502

G01 Z2 F100.0(Penetrate)
G03 X13.243101 Y125.597241 Z2 I2.399447 J2.837263 F75.000000
G03 X14.106250 Y125.306620 Z2 I0.933132 J1.344320
G03 X14.656942 Y125.299308 Z2 I0.399225 J9.326413
G02 X15.250000 Y125.304120 Z2 I0.593058 J-36.545520
G00 Z0.000000

(End cutting path id: path5)


(Start cutting path id: path5)
(Change tool to Default tool)

G00 Z0.000000
G00 X14.995834 Y128.227086

G01 Z2 F100.0(Penetrate)
G03 X13.842506 Y126.996570 Z2 I18.424587 J-18.424587 F75.000000
G03 X13.268247 Y126.328189 Z2 I30.479617 J-26.768361
G01 X12.269230 Y125.413013 Z2
G01 X11.684216 Y124.443023 Z2
G02 X11.061589 Y123.905853 Z2 I-9.297880 J10.147638
G03 X9.658334 Y122.635419 Z2 I11.095629 J-13.665844
G00 Z0.000000

(End cutting path id: path5)


(Start cutting path id: path5)
(Change tool to Default tool)

G00 Z0.000000
G00 X26.433333 Y123.779169

G01 Z2 F100.0(Penetrate)
G01 X27.322917 Y122.889586 Z2 F75.000000
G02 X26.750545 Y122.551715 Z2 I-1.067314 J1.154338
G02 X24.908333 Y122.254169 Z2 I-1.842212 J5.554119
G00 Z0.000000

(End cutting path id: path5)


(Start cutting path id: path5)
(Change tool to Default tool)

G00 Z0.000000
G00 X27.450000 Y120.856253

G01 Z2 F100.0(Penetrate)
G02 X27.652109 Y120.516485 Z2 I-1.849441 J-1.330122 F75.000000
G02 X27.794379 Y119.712503 Z2 I-1.355821 J-0.654501
G03 X27.702542 Y117.839127 Z2 I18.498695 J-1.845789
G02 X27.704169 Y115.645836 Z2 I-1478.028686 J-2.193291
G00 Z0.000000

(End cutting path id: path5)


(Start cutting path id: path5)
(Change tool to Default tool)

G00 Z0.000000
G00 X28.085417 Y121.872919

G01 Z2 F100.0(Penetrate)
G02 X28.455356 Y121.492813 Z2 I-20.037072 J-19.871195 F75.000000
G02 X29.864583 Y119.839586 Z2 I-13.896111 J-13.272415
G00 Z0.000000

(End cutting path id: path5)


(Start cutting path id: path5)
(Change tool to Default tool)

G00 Z0.000000
G00 X28.593750 Y122.635419

G01 Z2 F100.0(Penetrate)
G03 X29.136119 Y122.348303 Z2 I0.928204 J1.097565 F75.000000
G03 X30.754167 Y122.127086 Z2 I1.618048 J5.806847
G00 Z0.000000

(End cutting path id: path5)


(Start cutting path id: path5)
(Change tool to Default tool)

G00 Z0.000000
G00 X29.610417 Y123.906252

G01 Z2 F100.0(Penetrate)
G03 X28.469336 Y122.657826 Z2 I162.146657 J-149.350284 F75.000000
G02 X28.085417 Y122.254169 Z2 I-8.716028 J7.905431
G00 Z0.000000

(End cutting path id: path5)


(Start cutting path id: path5)
(Change tool to Default tool)

G00 Z0.000000
G00 X27.831251 Y127.210419

G01 Z2 F100.0(Penetrate)
G03 X27.858832 Y125.293336 Z2 I66.640315 J-0.000000 F75.000000
G02 X27.823751 Y124.033336 Z2 I-11.135184 J-0.320465
G01 X27.527026 Y122.889586 Z2
G01 X27.844833 Y122.254169 Z2
G01 X27.690294 Y121.491766 Z2
G02 X27.256938 Y120.946414 Z2 I-1.328234 J0.610605
G03 X26.179120 Y119.966669 Z2 I5.649562 J-7.297816
G00 Z0.000000

(End cutting path id: path5)


(Start cutting path id: path5)
(Change tool to Default tool)

G00 Z0.000000
G00 X35.693455 Y111.936886

G01 Z2 F100.0(Penetrate)
G01 X36.372801 Y110.437871 Z2 F75.000000
G01 X34.694241 Y109.802454 Z2
G01 X33.773379 Y110.811178 Z2
G01 X34.693752 Y111.683111 Z2
G01 X35.693455 Y111.936886 Z2
G00 Z0.000000

(End cutting path id: path5)


(Footer)
M5
M2
(Using default footer. To add your own footer create file "footer" in the output dir.)
(end)
%