%
(Header)
(Generated by gcodetools from Inkscape.)
(Using default header. To add your own header create file "header" in the output dir.)
M3
(Header end.)
G21 (All units in mm)

(Start cutting path id: path6)
(Change tool to Default tool)

G00 Z0.000000
G00 X64.431250 Y114.883336

G01 Z2 F100.0(Penetrate)
G01 X64.558333 Y112.214586 Z2 F75.000000
G01 X64.342606 Y110.695272 Z2
G01 X63.922917 Y110.181253 Z2
G01 X62.270833 Y111.833336 Z2
G00 Z0.000000

(End cutting path id: path6)


(Start cutting path id: path6)
(Change tool to Default tool)

G00 Z0.000000
G00 X63.922917 Y110.181253

G01 Z2 F100.0(Penetrate)
G01 X63.922917 Y109.800003 Z2 F75.000000
G00 Z0.000000

(End cutting path id: path6)


(Start cutting path id: path6)
(Change tool to Default tool)

G00 Z0.000000
G00 X65.829167 Y109.800003

G01 Z2 F100.0(Penetrate)
G01 X69.641667 Y109.800003 Z2 F75.000000
G00 Z0.000000

(End cutting path id: path6)


(Start cutting path id: path6)
(Change tool to Default tool)

G00 Z0.000000
G00 X67.100000 Y111.579170

G01 Z2 F100.0(Penetrate)
G01 X66.192767 Y110.437871 Z2 F75.000000
G01 X65.445563 Y109.818832 Z2
G01 X64.050000 Y109.800003 Z2
G01 X60.745833 Y109.800003 Z2
G00 Z0.000000

(End cutting path id: path6)


(Footer)
M5
M2
(Using default footer. To add your own footer create file "footer" in the output dir.)
(end)
%