%
(Header)
(Generated by gcodetools from Inkscape.)
(Using default header. To add your own header create file "header" in the output dir.)
M3
(Header end.)
G21 (All units in mm)

(Start cutting path id: path8)
(Change tool to Default tool)

G00 Z0.000000
G00 X180.077080 Y103.064582

G01 Z2 F100.0(Penetrate)
G02 X179.130530 Y101.441489 Z2 I-4.493918 J1.533198 F75.000000
G02 X177.163670 Y99.252082 Z2 I-230.095885 J204.729148
G03 X173.763865 Y95.342131 Z2 I91.556100 J-83.043514
G02 X170.291660 Y91.499998 Z2 I-49.611836 J41.345100
G00 Z0.000000

(End cutting path id: path8)


(Start cutting path id: path8)
(Change tool to Default tool)

G00 Z0.000000
G00 X165.081300 Y90.356248

G01 Z2 F100.0(Penetrate)
G01 X163.937550 Y89.212498 Z2 F75.000000
G00 Z0.000000

(End cutting path id: path8)


(Start cutting path id: path8)
(Change tool to Default tool)

G00 Z0.000000
G00 X164.572910 Y90.610415

G01 Z2 F100.0(Penetrate)
G02 X165.457962 Y90.108342 Z2 I-8.427457 J-15.887011 F75.000000
G03 X166.479160 Y89.639444 Z2 I2.560819 J4.230657
G03 X167.295996 Y89.425479 Z2 I2.177333 J6.646073
G02 X167.986410 Y88.944505 Z2 I-0.204059 J-1.028930
G02 X168.550980 Y87.543495 Z2 I-3.884499 J-2.379610
G02 X168.381780 Y86.300956 Z2 I-1.776855 J-0.390830
G02 X167.992745 Y85.828406 Z2 I-1.350729 J0.715596
G03 X167.576920 Y85.394995 Z2 I1.507646 J-1.862654
G03 X167.184939 Y84.684273 Z2 I2.419615 J-1.797934
G03 X166.999360 Y83.874998 Z2 I2.706390 J-1.046531
G03 X166.965976 Y83.152377 Z2 I10.079139 J-0.827723
G03 X167.081260 Y82.477080 Z2 I1.918668 J-0.019941
G03 X167.337156 Y82.010249 Z2 I1.641416 J0.596201
G02 X167.571060 Y81.460410 Z2 I-0.949776 J-0.728710
G02 X167.523584 Y80.972005 Z2 I-0.992770 J-0.150006
G02 X167.341600 Y80.570830 Z2 I-2.528806 J0.905269
G02 X166.798098 Y79.768314 Z2 I-4.861261 J2.706974
G02 X166.223150 Y79.243220 Z2 I-2.046197 J1.663156
G02 X165.494251 Y79.058143 Z2 I-0.623359 J0.927141
G02 X164.827100 Y79.138010 Z2 I1.293487 J13.631247
G03 X163.493268 Y79.143131 Z2 I-0.685108 J-4.735776
G03 X162.169820 Y78.574560 Z2 I0.366351 J-2.677309
G03 X160.950112 Y77.474855 Z2 I8.828466 J-11.018107
G02 X158.601880 Y76.962100 Z2 I-1.568078 J1.547826
G02 X157.882687 Y77.630087 Z2 I0.460894 J1.217380
G03 X157.175030 Y78.622710 Z2 I-3.026157 J-1.408836
G03 X155.353820 Y79.131063 Z2 I-1.380752 J-1.430156
G02 X153.643760 Y79.482190 Z2 I-0.468081 J2.060083
G02 X153.130003 Y79.920287 Z2 I2.559849 J3.522227
G02 X152.682210 Y80.443750 Z2 I3.063004 J3.073491
G02 X152.472956 Y82.273520 Z2 I1.514445 J1.100043
G03 X152.497760 Y84.383234 Z2 I-2.563223 J1.085139
G03 X151.819353 Y85.107184 Z2 I-1.256201 J-0.497335
G02 X150.991980 Y85.573659 Z2 I2.843798 J6.010944
G02 X150.442683 Y86.622113 Z2 I0.677347 J1.022988
G02 X150.613960 Y87.814581 Z2 I4.952607 J-0.102820
G02 X152.376497 Y89.244930 Z2 I1.873569 J-0.507580
G03 X154.313790 Y90.358208 Z2 I-0.142695 J2.490562
G03 X154.596120 Y91.511534 Z2 I-1.464434 J0.969708
G02 X154.683180 Y92.643748 Z2 I3.128640 J0.328881
G02 X155.255744 Y93.590532 Z2 I1.898036 J-0.501311
G02 X156.312420 Y94.172181 Z2 I1.726994 J-1.886763
G01 X157.594720 Y93.558141 Z2
G03 X158.483824 Y93.109062 Z2 I1.345755 J1.559697
G03 X159.489600 Y93.036862 Z2 I0.738766 J3.249780
G03 X160.361301 Y93.232164 Z2 I-0.256036 J3.185778
G03 X161.141680 Y93.633054 Z2 I-1.361436 J3.610190
G03 X161.763678 Y94.048728 Z2 I-328.947516 J492.898081
G02 X162.539600 Y94.230723 Z2 I0.630183 J-0.941695
G02 X164.384295 Y92.886950 Z2 I-0.305800 J-2.357854
G02 X164.259340 Y90.483331 Z2 I-2.301734 J-1.085399
G01 X163.850140 Y89.466665 Z2
G03 X164.417794 Y88.437388 Z2 I2.879501 J0.916896
G02 X165.022330 Y87.179164 Z2 I-2.142865 J-1.803919
G02 X165.091189 Y86.522524 Z2 I-3.540500 J-0.703208
G02 X165.080130 Y85.781248 Z2 I-13.325115 J-0.171922
G02 X164.989340 Y84.795517 Z2 I-10.125750 J0.435574
G02 X164.842240 Y84.002081 Z2 I-9.377112 J1.328131
G03 X164.681764 Y83.227286 Z2 I17.757388 J-4.081936
G02 X164.334200 Y82.350000 Z2 I-2.398260 J0.442652
G02 X162.351540 Y80.693570 Z2 I-3.641009 J2.343312
G02 X159.743800 Y80.190070 Z2 I-2.531233 J6.105036
G02 X156.856238 Y81.010566 Z2 I0.066214 J5.724352
G02 X154.998870 Y83.239581 Z2 I2.283566 J3.791175
G02 X154.860738 Y84.321467 Z2 I2.202810 J0.831008
G03 X154.860800 Y85.399998 Z2 I-5.034578 J0.539553
G03 X154.662647 Y86.339146 Z2 I-4.718659 J-0.505121
G02 X154.608500 Y87.052081 Z2 I1.472120 J0.470331
G02 X155.140324 Y88.516082 Z2 I4.055413 J-0.644602
G02 X156.440130 Y89.969506 Z2 I4.420436 J-2.645299
G02 X159.225551 Y91.042801 Z2 I3.238450 J-4.253425
G02 X162.158390 Y90.510689 Z2 I0.483419 J-5.684051
G02 X162.910897 Y90.126169 Z2 I-6.347470 J-13.350604
G03 X163.683390 Y89.847915 Z2 I1.275186 J2.328764
G00 Z0.000000

(End cutting path id: path8)


(Start cutting path id: path8)
(Change tool to Default tool)

G00 Z0.000000
G00 X158.345890 Y86.925031

G01 Z2 F100.0(Penetrate)
G03 X158.247659 Y86.640889 Z2 I4.041192 J-1.556139 F75.000000
G03 X157.928450 Y85.145864 Z2 I8.334780 J-2.561183
G03 X157.864046 Y84.568618 Z2 I25.187578 J-3.102441
G03 X157.837550 Y84.129197 Z2 I5.553934 J-0.555393
G00 Z0.000000

(End cutting path id: path8)


(Start cutting path id: path8)
(Change tool to Default tool)

G00 Z0.000000
G00 X160.506300 Y83.875031

G01 Z2 F100.0(Penetrate)
G03 X161.409859 Y83.699476 Z2 I0.737245 J1.381478 F75.000000
G03 X163.683390 Y84.012213 Z2 I-4.024621 J37.678550
G02 X164.321552 Y84.098334 Z2 I1.629664 J-9.668423
G02 X164.827140 Y84.129197 Z2 I0.635221 J-6.249390
G00 Z0.000000

(End cutting path id: path8)


(Start cutting path id: path8)
(Change tool to Default tool)

G00 Z0.000000
G00 X169.402140 Y82.858363

G01 Z2 F100.0(Penetrate)
G02 X173.073405 Y81.388900 Z2 I-5.469193 J-18.984902 F75.000000
G03 X176.645890 Y79.585283 Z2 I68.857023 J131.947547
G03 X177.999734 Y78.936639 Z2 I45.184497 J92.571576
G03 X179.187550 Y78.410443 Z2 I12.286112 J26.130435
G00 Z0.000000

(End cutting path id: path8)


(Start cutting path id: path8)
(Change tool to Default tool)

G00 Z0.000000
G00 X177.535470 Y85.654197

G01 Z2 F100.0(Penetrate)
G01 X178.933390 Y85.781281 Z2 F75.000000
G00 Z0.000000

(End cutting path id: path8)


(Start cutting path id: path8)
(Change tool to Default tool)

G00 Z0.000000
G00 X179.314640 Y89.466665

G01 Z2 F100.0(Penetrate)
G02 X177.146470 Y88.584117 Z2 I-9.735261 J20.812202 F75.000000
G03 X174.358390 Y87.560415 Z2 I30.033284 J-86.105039
G00 Z0.000000

(End cutting path id: path8)


(Start cutting path id: path8)
(Change tool to Default tool)

G00 Z0.000000
G00 X170.545890 Y85.018781

G01 Z2 F100.0(Penetrate)
G03 X173.535349 Y83.949562 Z2 I5.292886 J10.084759 F75.000000
G02 X176.645890 Y83.186074 Z2 I-8.744998 J-42.346270
G02 X178.075882 Y82.769560 Z2 I-35.879445 J-125.845739
G03 X179.187550 Y82.477113 Z2 I5.141336 J17.284468
G00 Z0.000000

(End cutting path id: path8)


(Start cutting path id: path8)
(Change tool to Default tool)

G00 Z0.000000
G00 X179.568800 Y93.787498

G01 Z2 F100.0(Penetrate)
G02 X178.586048 Y93.061671 Z2 I-3.990563 J4.374903 F75.000000
G02 X177.027140 Y92.174246 Z2 I-29.800618 J50.536716
G02 X174.307361 Y90.706066 Z2 I-102.893644 J187.355547
G03 X171.689640 Y89.212498 Z2 I22.984343 J-43.324568
G00 Z0.000000

(End cutting path id: path8)


(Start cutting path id: path8)
(Change tool to Default tool)

G00 Z0.000000
G00 X160.887550 Y77.012533

G01 Z2 F100.0(Penetrate)
G03 X161.929915 Y76.136535 Z2 I8.671522 J9.260229 F75.000000
G02 X162.539640 Y75.614613 Z2 I-3.847642 J-5.112042
G02 X162.168504 Y75.289729 Z2 I-3.441405 J3.556911
G02 X161.014640 Y74.847703 Z2 I-1.283009 J1.622132
G02 X158.720819 Y74.854214 Z2 I-1.097123 J17.542488
G03 X156.312550 Y74.779003 Z2 I-0.826891 J-12.116966
G01 X154.918170 Y74.430503 Z2
G03 X154.574990 Y72.827938 Z2 I1.849303 J-1.234045
G02 X154.639000 Y70.912573 Z2 I-7.119555 J-1.196681
G02 X154.260978 Y67.676794 Z2 I-97.783628 J9.783658
G03 X154.025540 Y64.431323 Z2 I26.690385 J-3.567493
G02 X153.953716 Y63.075599 Z2 I-16.705475 J0.205265
G03 X153.897970 Y61.889853 Z2 I12.687576 J-1.190669
G03 X153.897939 Y61.205094 Z2 I980.558541 J-0.384094
G02 X153.897970 Y61.000073 Z2 I-675.072204 J-0.209560
G00 Z0.000000

(End cutting path id: path8)


(Start cutting path id: path8)
(Change tool to Default tool)

G00 Z0.000000
G00 X158.729100 Y70.445223

G01 Z2 F100.0(Penetrate)
G02 X160.037667 Y69.329796 Z2 I0.208662 J-1.080496 F75.000000
G03 X159.997380 Y67.735483 Z2 I122.919755 J-3.903750
G01 X159.360100 Y66.632133 Z2
G02 X159.010566 Y66.587934 Z2 I-0.343383 J1.311360
G02 X158.600150 Y66.592333 Z2 I0.150683 J33.208577
G01 X157.841080 Y66.795513 Z2
G01 X157.710570 Y67.989663 Z2
G02 X157.776147 Y69.389608 Z2 I16.760091 J-0.083573
G02 X158.729100 Y70.445233 Z2 I1.177018 J-0.104593
G00 Z0.000000

(End cutting path id: path8)


(Start cutting path id: path8)
(Change tool to Default tool)

G00 Z0.000000
G00 X158.345890 Y76.885483

G01 Z2 F100.0(Penetrate)
G02 X157.937465 Y76.573812 Z2 I-1.850057 J2.000938 F75.000000
G02 X156.820890 Y76.250163 Z2 I-1.131161 J1.814565
G02 X156.001019 Y76.279382 Z2 I-0.070943 J9.526607
G02 X155.168800 Y76.504233 Z2 I0.184021 J2.333631
G00 Z0.000000

(End cutting path id: path8)


(Start cutting path id: path8)
(Change tool to Default tool)

G00 Z0.000000
G00 X150.466720 Y82.095863

G01 Z2 F100.0(Penetrate)
G02 X148.668730 Y81.214538 Z2 I-13.842059 J25.964468 F75.000000
G02 X147.165690 Y80.579883 Z2 I-15.053208 J33.553053
G03 X146.730729 Y80.404005 Z2 I12.496404 J-31.530550
G03 X146.527140 Y80.316693 Z2 I3.022458 J-7.328551
G00 Z0.000000

(End cutting path id: path8)


(Start cutting path id: path8)
(Change tool to Default tool)

G00 Z0.000000
G00 X146.400050 Y80.316693

G01 Z2 F100.0(Penetrate)
G01 X146.527140 Y80.316693 Z2 F75.000000
G00 Z0.000000

(End cutting path id: path8)


(Start cutting path id: path8)
(Change tool to Default tool)

G00 Z0.000000
G00 X149.322970 Y83.747947

G01 Z2 F100.0(Penetrate)
G02 X147.529634 Y83.069326 Z2 I-4.512816 J9.216794 F75.000000
G02 X146.527140 Y82.858363 Z2 I-2.234330 J8.130090
G00 Z0.000000

(End cutting path id: path8)


(Start cutting path id: path8)
(Change tool to Default tool)

G00 Z0.000000
G00 X146.400050 Y86.925031

G01 Z2 F100.0(Penetrate)
G01 X147.797970 Y86.925031 Z2 F75.000000
G00 Z0.000000

(End cutting path id: path8)


(Start cutting path id: path8)
(Change tool to Default tool)

G00 Z0.000000
G00 X146.400050 Y89.593748

G01 Z2 F100.0(Penetrate)
G03 X146.873591 Y89.503440 Z2 I14.788475 J76.258379 F75.000000
G02 X148.179220 Y89.212498 Z2 I-3.635206 J-19.388366
G00 Z0.000000

(End cutting path id: path8)


(Start cutting path id: path8)
(Change tool to Default tool)

G00 Z0.000000
G00 X146.399990 Y95.439582

G01 Z2 F100.0(Penetrate)
G01 X147.038550 Y95.285339 Z2 F75.000000
G01 X149.704160 Y93.660415 Z2
G00 Z0.000000

(End cutting path id: path8)


(Start cutting path id: path8)
(Change tool to Default tool)

G00 Z0.000000
G00 X146.399990 Y101.158332

G01 Z2 F100.0(Penetrate)
G03 X146.602656 Y101.070052 Z2 I3.815335 J8.482187 F75.000000
G02 X147.038550 Y100.833662 Z2 I-0.984300 J-2.335090
G02 X147.676413 Y100.332504 Z2 I-3.202818 J-4.732985
G02 X148.433330 Y99.636469 Z2 I-52.846313 J-58.228346
G03 X149.985609 Y98.231727 Z2 I49.164899 J52.768562
G03 X151.483330 Y96.964582 Z2 I34.381599 J39.119140
G00 Z0.000000

(End cutting path id: path8)


(Start cutting path id: path8)
(Change tool to Default tool)

G00 Z0.000000
G00 X154.914640 Y85.654164

G01 Z2 F100.0(Penetrate)
G02 X155.154706 Y85.869569 Z2 I61.674693 J-68.494069 F75.000000
G02 X155.428660 Y86.092681 Z2 I2.555653 J-2.858283
G02 X157.147879 Y86.993905 Z2 I3.751941 J-5.066944
G02 X158.600050 Y87.182597 Z2 I1.193775 J-3.504981
G03 X159.420863 Y87.164132 Z2 I0.605287 J8.653546
G02 X160.633390 Y87.179197 Z2 I1.212527 J-48.787669
G00 Z0.000000

(End cutting path id: path8)


(Start cutting path id: path8)
(Change tool to Default tool)

G00 Z0.000000
G00 X154.914640 Y85.145831

G01 Z2 F100.0(Penetrate)
G03 X155.299333 Y84.843589 Z2 I2.668888 J3.001011 F75.000000
G03 X156.058390 Y84.443735 Z2 I2.035369 J2.943417
G03 X157.017377 Y84.164416 Z2 I2.194503 J5.748498
G02 X157.710470 Y84.014631 Z2 I-6.672654 J-32.554429
G02 X158.359723 Y83.807733 Z2 I-0.889466 J-3.913305
G03 X158.981300 Y83.644465 Z2 I0.904526 J2.178788
G03 X159.692230 Y83.648817 Z2 I0.338335 J2.800458
G03 X160.235170 Y83.856956 Z2 I-0.165897 J1.244961
G03 X160.694789 Y84.453381 Z2 I-0.686736 J1.004524
G03 X160.900400 Y85.145831 Z2 I-6.378619 J2.270770
G03 X160.849246 Y86.645924 Z2 I-2.742454 J0.657400
G03 X160.633390 Y87.179164 Z2 I-3.384580 J-1.059771
G02 X161.652335 Y87.211682 Z2 I0.553426 J-1.361027
G02 X163.810470 Y86.340670 Z2 I-6.027861 J-18.044584
G03 X164.432561 Y86.122700 Z2 I1.318235 J2.765559
G03 X164.827140 Y86.035414 Z2 I3.985534 J17.081175
G00 Z0.000000

(End cutting path id: path8)


(Start cutting path id: path8)
(Change tool to Default tool)

G00 Z0.000000
G00 X162.666720 Y75.614653

G01 Z2 F100.0(Penetrate)
G02 X163.876909 Y74.845007 Z2 I-0.795033 J-2.586380 F75.000000
G02 X164.318710 Y73.708403 Z2 I-1.264582 J-1.145713
G03 X164.382166 Y72.414369 Z2 I14.869118 J0.080574
G02 X164.445890 Y71.039653 Z2 I-14.817055 J-1.375665
G03 X164.573057 Y67.925165 Z2 I38.260892 J0.002271
G02 X164.700050 Y64.812573 Z2 I-38.081334 J-3.112478
G03 X164.772068 Y63.080987 Z2 I20.853083 J-0.000001
G02 X164.827140 Y61.763163 Z2 I-15.891810 J-1.324187
G02 X164.827169 Y61.206129 Z2 I-835.474874 J-0.317412
G03 X164.827140 Y61.000073 Z2 I732.439205 J-0.215568
G00 Z0.000000

(End cutting path id: path8)


(Footer)
M5
M2
(Using default footer. To add your own footer create file "footer" in the output dir.)
(end)
%