%
(Header)
(Generated by gcodetools from Inkscape.)
(Using default header. To add your own header create file "header" in the output dir.)
M3
(Header end.)
G21 (All units in mm)

(Start cutting path id: path13)
(Change tool to Default tool)

G00 Z0.000000
G00 X153.770830 Y60.237500

G01 Z2 F100.0(Penetrate)
G02 X153.470442 Y53.369979 Z2 I-78.653521 J-0.000000 F75.000000
G03 X153.003420 Y46.512500 Z2 I176.248554 J-15.447892
G02 X152.662779 Y43.721919 Z2 I-19.284953 J0.937998
G03 X152.372420 Y41.047920 Z2 I15.331921 J-3.017596
G02 X152.086799 Y39.872817 Z2 I-2.814817 J0.061907
G02 X151.529810 Y39.064590 Z2 I-2.979338 J1.457171
G02 X151.031002 Y38.716661 Z2 I-1.066384 J0.997298
G02 X150.720730 Y38.606560 Z2 I-1.098871 J2.604462
G02 X150.099299 Y38.514286 Z2 I-0.649670 J2.236585
G02 X149.195830 Y38.623660 Z2 I-0.041729 J3.441466
G01 X147.570320 Y38.879110 Z2
G01 X146.527080 Y37.997960 Z2
G00 Z0.000000

(End cutting path id: path13)


(Start cutting path id: path13)
(Change tool to Default tool)

G00 Z0.000000
G00 X151.610410 Y38.887580

G01 Z2 F100.0(Penetrate)
G01 X152.058630 Y37.997900 Z2 F75.000000
G01 X152.518720 Y37.260600 Z2
G01 X153.643740 Y37.229900 Z2
G01 X155.422910 Y36.790990 Z2
G01 X156.799250 Y37.302660 Z2
G01 X157.712270 Y37.952490 Z2
G01 X158.854160 Y37.592810 Z2
G01 X160.633330 Y36.750690 Z2
G01 X162.798740 Y37.855410 Z2
G01 X165.970830 Y37.743820 Z2
G00 Z0.000000

(End cutting path id: path13)


(Start cutting path id: path13)
(Change tool to Default tool)

G00 Z0.000000
G00 X159.362490 Y31.389650

G01 Z2 F100.0(Penetrate)
G02 X160.391910 Y31.814914 Z2 I2.789349 J-5.293500 F75.000000
G03 X161.384450 Y32.346900 Z2 I-0.861381 J2.798996
G03 X162.161893 Y33.126050 Z2 I-3.454756 J4.224630
G02 X163.174990 Y33.631460 Z2 I1.065263 J-0.867243
G02 X165.245092 Y32.780727 Z2 I0.102374 J-2.694864
G03 X166.987490 Y31.307770 Z2 I7.190792 J6.739126
G03 X170.322032 Y29.546049 Z2 I10.471215 J15.783025
G02 X173.463640 Y27.553620 Z2 I-3.939355 J-9.684484
G02 X174.792320 Y25.581727 Z2 I-3.475403 J-3.775343
G03 X175.756240 Y23.383400 Z2 I20.775230 J7.799011
G00 Z0.000000

(End cutting path id: path13)


(Start cutting path id: path13)
(Change tool to Default tool)

G00 Z0.000000
G00 X178.043740 Y19.189650

G01 Z2 F100.0(Penetrate)
G02 X174.091464 Y19.304198 Z2 I0.000000 J68.240483 F75.000000
G02 X170.164580 Y19.771140 Z2 I1.897013 J32.699077
G02 X168.513323 Y20.097771 Z2 I9.050595 J50.091700
G02 X167.016520 Y20.891350 Z2 I0.654265 J3.042420
G02 X167.433708 Y22.702745 Z2 I0.747582 J0.781561
G02 X169.274990 Y22.620900 Z2 I0.810206 J-2.525400
G00 Z0.000000

(End cutting path id: path13)


(Start cutting path id: path13)
(Change tool to Default tool)

G00 Z0.000000
G00 X168.512490 Y17.283400

G01 Z2 F100.0(Penetrate)
G03 X172.259874 Y17.236081 Z2 I2.082016 J16.474432 F75.000000
G02 X175.875870 Y16.185740 Z2 I0.505074 J-5.010729
G01 X175.388720 Y13.979230 Z2
G01 X174.929710 Y12.864510 Z2
G01 X175.756240 Y12.459820 Z2
G03 X176.436124 Y12.446705 Z2 I0.491062 J7.827843
G02 X177.027080 Y12.453820 Z2 I0.590956 J-24.539939
G00 Z0.000000

(End cutting path id: path13)


(Start cutting path id: path13)
(Change tool to Default tool)

G00 Z0.000000
G00 X173.977080 Y15.249660

G01 Z2 F100.0(Penetrate)
G01 X174.358330 Y15.122570 Z2 F75.000000
G00 Z0.000000

(End cutting path id: path13)


(Start cutting path id: path13)
(Change tool to Default tool)

G00 Z0.000000
G00 X169.783330 Y16.012160

G01 Z2 F100.0(Penetrate)
G02 X171.214547 Y15.823480 Z2 I-0.003661 J-5.550316 F75.000000
G03 X172.833330 Y15.503820 Z2 I3.208211 J11.987961
G00 Z0.000000

(End cutting path id: path13)


(Start cutting path id: path13)
(Change tool to Default tool)

G00 Z0.000000
G00 X163.302080 Y12.835070

G01 Z2 F100.0(Penetrate)
G02 X163.809001 Y13.016461 Z2 I1.883709 J-4.465262 F75.000000
G02 X164.318160 Y13.055120 Z2 I0.344268 J-1.161904
G01 X164.957890 Y12.448720 Z2
G01 X164.313250 Y11.527960 Z2
G03 X163.104483 Y10.380833 Z2 I83.456601 J-89.151507
G03 X162.287670 Y8.895490 Z2 I1.975926 J-2.053852
G03 X164.104626 Y6.781870 Z2 I1.728502 J-0.351883
G02 X166.860410 Y6.713600 Z2 I0.923214 J-18.387675
G02 X167.436797 Y6.648943 Z2 I-2.432590 J-24.286835
G03 X168.004160 Y6.607990 Z2 I0.680665 J5.479332
G00 Z0.000000

(End cutting path id: path13)


(Start cutting path id: path13)
(Change tool to Default tool)

G00 Z0.000000
G00 X178.043740 Y6.607990

G01 Z2 F100.0(Penetrate)
G01 X178.424990 Y6.735070 Z2 F75.000000
G00 Z0.000000

(End cutting path id: path13)


(Start cutting path id: path13)
(Change tool to Default tool)

G00 Z0.000000
G00 X174.993740 Y29.737570

G01 Z2 F100.0(Penetrate)
G02 X175.804803 Y29.999913 Z2 I2.803090 J-7.281146 F75.000000
G02 X176.645730 Y29.972420 Z2 I0.374543 J-1.418333
G02 X177.594636 Y29.214725 Z2 I-0.562575 J-1.677578
G03 X178.170830 Y28.339650 Z2 I12.581311 J7.656947
G00 Z0.000000

(End cutting path id: path13)


(Start cutting path id: path13)
(Change tool to Default tool)

G00 Z0.000000
G00 X156.566660 Y27.704230

G01 Z2 F100.0(Penetrate)
G01 X157.710900 Y28.690110 Z2 F75.000000
G02 X158.612140 Y28.379836 Z2 I0.084299 J-1.219175
G03 X159.489580 Y27.832500 Z2 I1.991637 J2.215828
G03 X161.862629 Y27.261996 Z2 I3.108238 J7.708243
G02 X163.810410 Y25.670900 Z2 I-0.198053 J-2.230213
G00 Z0.000000

(End cutting path id: path13)


(Start cutting path id: path13)
(Change tool to Default tool)

G00 Z0.000000
G00 X146.399990 Y23.256320

G01 Z2 F100.0(Penetrate)
G02 X147.516130 Y23.075412 Z2 I-0.582517 J-7.127462 F75.000000
G03 X150.339580 Y22.420670 Z2 I28.783976 J117.710336
G03 X153.886658 Y21.789077 Z2 I9.724671 J44.338439
G03 X157.456240 Y21.330360 Z2 I28.116828 J204.677562
G02 X159.294847 Y21.092564 Z2 I-11.562167 J-96.623893
G03 X161.141660 Y21.095900 Z2 I0.911565 J6.556504
G00 Z0.000000

(End cutting path id: path13)


(Start cutting path id: path13)
(Change tool to Default tool)

G00 Z0.000000
G00 X146.527080 Y30.118820

G01 Z2 F100.0(Penetrate)
G02 X147.239192 Y30.302096 Z2 I1.194576 J-3.166401 F75.000000
G03 X149.068740 Y30.985260 Z2 I-0.654518 J4.544224
G03 X149.972330 Y31.748787 Z2 I-2.470263 J3.839851
G02 X151.096590 Y32.046350 Z2 I0.792850 J-0.722931
G02 X151.673657 Y31.601254 Z2 I-0.334700 J-1.030572
G03 X152.064710 Y31.008400 Z2 I24.339077 J15.628907
G02 X153.022463 Y29.014029 Z2 I-6.224165 J-4.216175
G03 X154.279160 Y27.195900 Z2 I3.518154 J1.088379
G00 Z0.000000

(End cutting path id: path13)


(Start cutting path id: path13)
(Change tool to Default tool)

G00 Z0.000000
G00 X146.399990 Y30.118820

G01 Z2 F100.0(Penetrate)
G01 X146.527080 Y30.118820 Z2 F75.000000
G00 Z0.000000

(End cutting path id: path13)


(Start cutting path id: path13)
(Change tool to Default tool)

G00 Z0.000000
G00 X157.588430 Y48.217120

G01 Z2 F100.0(Penetrate)
G02 X159.384035 Y47.008109 Z2 I0.379127 J-1.374834 F75.000000
G02 X159.489480 Y45.114660 Z2 I-15.472361 J-1.811311
G01 X159.079300 Y43.920510 Z2
G02 X158.655970 Y43.831437 Z2 I-0.412898 J0.911845
G03 X158.218740 Y43.807550 Z2 I-0.035129 J-3.370547
G01 X156.886130 Y43.920510 Z2
G01 X156.567150 Y45.114660 Z2
G02 X156.549337 Y46.840868 Z2 I432.122372 J5.322394
G02 X157.588430 Y48.217120 Z2 I1.415352 J0.011778
G00 Z0.000000

(End cutting path id: path13)


(Start cutting path id: path13)
(Change tool to Default tool)

G00 Z0.000000
G00 X158.092150 Y59.905600

G01 Z2 F100.0(Penetrate)
G02 X159.687532 Y58.701587 Z2 I0.306375 J-1.253028 F75.000000
G02 X159.741780 Y56.806280 Z2 I-100.861667 J-3.835304
G01 X159.221580 Y55.558200 Z2
G02 X158.758950 Y55.509721 Z2 I-0.361176 J1.215023
G03 X158.218740 Y55.535200 Z2 I-0.656065 J-8.170606
G01 X157.169330 Y55.830060 Z2
G01 X156.953010 Y56.933410 Z2
G02 X157.030406 Y58.624441 Z2 I116.240559 J-4.472843
G02 X158.092150 Y59.905650 Z2 I1.393091 J-0.073921
G00 Z0.000000

(End cutting path id: path13)


(Start cutting path id: path13)
(Change tool to Default tool)

G00 Z0.000000
G00 X164.827080 Y60.237540

G01 Z2 F100.0(Penetrate)
G03 X165.224440 Y52.482426 Z2 I90.500148 J0.749355 F75.000000
G02 X165.589580 Y44.733370 Z2 I-82.155225 J-7.754328
G03 X165.707789 Y42.630439 Z2 I18.785882 J0.001192
G03 X165.951120 Y40.539620 Z2 I289.018250 J32.576638
G03 X166.049930 Y39.723157 Z2 I378.613656 J45.406395
G02 X166.097420 Y39.014620 Z2 I-6.459496 J-0.788810
G01 X166.301670 Y37.866950 Z2
G03 X167.520697 Y36.903686 Z2 I6.589469 J7.086102
G03 X169.020830 Y36.329400 Z2 I2.017746 J3.024253
G03 X170.606530 Y36.427869 Z2 I0.555912 J3.864765
G02 X171.938640 Y36.303600 Z2 I0.500939 J-1.832108
G02 X172.697798 Y35.388998 Z2 I-0.630620 J-1.295809
G03 X173.267720 Y34.339590 Z2 I2.527810 J0.693362
G03 X175.449807 Y32.989124 Z2 I3.359822 J2.990667
G03 X177.916660 Y32.660440 Z2 I2.466853 J9.092822
G00 Z0.000000

(End cutting path id: path13)


(Footer)
M5
M2
(Using default footer. To add your own footer create file "footer" in the output dir.)
(end)
%