%
(Header)
(Generated by gcodetools from Inkscape.)
(Using default header. To add your own header create file "header" in the output dir.)
M3
(Header end.)
G21 (All units in mm)

(Start cutting path id: path7)
(Change tool to Default tool)

G00 Z0.000000
G00 X124.033340 Y121.237500

G01 Z2 F100.0(Penetrate)
G02 X126.590623 Y119.081106 Z2 I-18.404112 J-24.420112 F75.000000
G03 X129.243750 Y116.696919 Z2 I52.658133 J55.929762
G02 X135.169288 Y111.470688 Z2 I-184.567622 J-215.236400
G03 X141.062500 Y106.205384 Z2 I353.040860 J389.211723
G02 X142.650296 Y104.779657 Z2 I-70.462482 J-80.069266
G03 X144.239580 Y103.354933 Z2 I66.632114 J72.729563
G02 X144.903667 Y102.755772 Z2 I-21.030700 J-23.977212
G03 X145.509830 Y102.242659 Z2 I5.923492 J6.383086
G03 X146.060570 Y101.897305 Z2 I2.054691 J2.664830
G03 X146.272920 Y101.793749 Z2 I5.493655 J10.995649
G00 Z0.000000

(End cutting path id: path7)


(Start cutting path id: path7)
(Change tool to Default tool)

G00 Z0.000000
G00 X146.272920 Y82.604153

G01 Z2 F100.0(Penetrate)
G01 X145.509830 Y82.382253 Z2 F75.000000
G01 X143.477080 Y81.675453 Z2
G01 X139.029170 Y80.106223 Z2
G01 X117.933340 Y72.637723 Z2
G01 X112.722920 Y70.785403 Z2
G01 X110.565640 Y70.023693 Z2
G01 X109.927090 Y69.768743 Z2
G00 Z0.000000

(End cutting path id: path7)


(Start cutting path id: path7)
(Change tool to Default tool)

G00 Z0.000000
G00 X109.800000 Y69.768750

G01 Z2 F100.0(Penetrate)
G01 X109.927090 Y69.768750 Z2 F75.000000
G00 Z0.000000

(End cutting path id: path7)


(Start cutting path id: path7)
(Change tool to Default tool)

G00 Z0.000000
G00 X109.800000 Y87.687498

G01 Z2 F100.0(Penetrate)
G01 X110.438560 Y87.687498 Z2 F75.000000
G01 X112.468750 Y87.687498 Z2
G01 X117.933340 Y87.560415 Z2
G01 X121.618750 Y87.433331 Z2
G01 X124.033340 Y87.379401 Z2
G01 X125.050000 Y87.306341 Z2
G01 X127.464590 Y87.269961 Z2
G01 X129.879170 Y87.306241 Z2
G01 X139.156250 Y87.052171 Z2
G01 X143.858330 Y86.978921 Z2
G01 X145.634360 Y86.924991 Z2
G01 X146.272920 Y86.924991 Z2
G00 Z0.000000

(End cutting path id: path7)


(Start cutting path id: path7)
(Change tool to Default tool)

G00 Z0.000000
G00 X146.272920 Y80.062493

G01 Z2 F100.0(Penetrate)
G01 X145.509830 Y79.814403 Z2 F75.000000
G01 X143.858330 Y79.075143 Z2
G01 X138.902090 Y76.831473 Z2
G01 X128.481250 Y72.095463 Z2
G01 X118.060420 Y67.382103 Z2
G01 X112.722920 Y64.967523 Z2
G01 X110.565640 Y63.982423 Z2
G01 X109.927090 Y63.795823 Z2
G00 Z0.000000

(End cutting path id: path7)


(Start cutting path id: path7)
(Change tool to Default tool)

G00 Z0.000000
G00 X109.800000 Y96.456248

G01 Z2 F100.0(Penetrate)
G01 X110.438560 Y96.381238 Z2 F75.000000
G01 X112.468750 Y95.998712 Z2
G01 X117.806250 Y95.004403 Z2
G01 X125.685420 Y93.508428 Z2
G01 X127.337500 Y93.114527 Z2
G01 X139.029170 Y90.981371 Z2
G01 X143.858330 Y90.070314 Z2
G01 X145.634360 Y89.742506 Z2
G01 X146.272920 Y89.720836 Z2
G00 Z0.000000

(End cutting path id: path7)


(Start cutting path id: path7)
(Change tool to Default tool)

G00 Z0.000000
G00 X109.800000 Y117.170833

G01 Z2 F100.0(Penetrate)
G01 X110.563090 Y116.851162 Z2 F75.000000
G01 X112.595840 Y115.671228 Z2
G01 X117.679170 Y112.672122 Z2
G01 X139.156250 Y99.989086 Z2
G01 X143.731250 Y97.269542 Z2
G01 X145.509830 Y96.224929 Z2
G01 X146.272920 Y95.820832 Z2
G00 Z0.000000

(End cutting path id: path7)


(Footer)
M5
M2
(Using default footer. To add your own footer create file "footer" in the output dir.)
(end)
%