%
(Header)
(Generated by gcodetools from Inkscape.)
(Using default header. To add your own header create file "header" in the output dir.)
M3
(Header end.)
G21 (All units in mm)

(Start cutting path id: path9)
(Change tool to Default tool)

G00 Z0.000000
G00 X24.781249 Y54.645830

G01 Z2 F100.0(Penetrate)
G01 X31.389582 Y58.422640 Z2 F75.000000
G01 X34.566665 Y60.232010 Z2
G01 X36.345832 Y60.745830 Z2
G00 Z0.000000

(End cutting path id: path9)


(Start cutting path id: path9)
(Change tool to Default tool)

G00 Z0.000000
G00 X35.710415 Y54.137500

G01 Z2 F100.0(Penetrate)
G01 X36.472915 Y54.391670 Z2 F75.000000
G00 Z0.000000

(End cutting path id: path9)


(Start cutting path id: path9)
(Change tool to Default tool)

G00 Z0.000000
G00 X35.583332 Y48.037500

G01 Z2 F100.0(Penetrate)
G01 X34.439582 Y47.402080 Z2 F75.000000
G00 Z0.000000

(End cutting path id: path9)


(Start cutting path id: path9)
(Change tool to Default tool)

G00 Z0.000000
G00 X33.549999 Y48.672920

G01 Z2 F100.0(Penetrate)
G03 X35.662710 Y49.702518 Z2 I-7.665352 J18.411545 F75.000000
G02 X36.472915 Y49.943750 Z2 I0.936897 J-1.665472
G00 Z0.000000

(End cutting path id: path9)


(Start cutting path id: path9)
(Change tool to Default tool)

G00 Z0.000000
G00 X27.577082 Y47.020830

G01 Z2 F100.0(Penetrate)
G02 X27.213842 Y46.489632 Z2 I-32.318858 J21.710229 F75.000000
G03 X26.980888 Y45.877080 Z2 I1.110429 J-0.772870
G03 X26.999006 Y45.394386 Z2 I1.540741 J-0.183855
G03 X27.108364 Y44.860510 Z2 I32.448274 J6.368488
G01 X27.717895 Y43.968680 Z2
G03 X28.502647 Y44.020440 Z2 I0.331412 J0.950187
G03 X29.102082 Y44.479170 Z2 I-0.919929 J1.823109
G00 Z0.000000

(End cutting path id: path9)


(Start cutting path id: path9)
(Change tool to Default tool)

G00 Z0.000000
G00 X23.256249 Y43.462500

G01 Z2 F100.0(Penetrate)
G03 X24.654442 Y44.357421 Z2 I-1.484220 J3.858596 F75.000000
G02 X25.797916 Y45.304420 Z2 I6.491863 J-6.674884
G02 X26.323135 Y45.579073 Z2 I1.312501 J-1.870382
G02 X26.814582 Y45.750000 Z2 I5.259447 J-14.329933
G00 Z0.000000

(End cutting path id: path9)


(Start cutting path id: path9)
(Change tool to Default tool)

G00 Z0.000000
G00 X26.306249 Y52.231250

G01 Z2 F100.0(Penetrate)
G02 X29.655121 Y54.184087 Z2 I19.378089 J-29.383138 F75.000000
G03 X33.168749 Y56.015800 Z2 I-116.751457 J228.240766
G03 X34.496439 Y56.754297 Z2 I-18.446787 J34.726858
G02 X35.709826 Y57.406860 Z2 I10.342743 J-17.777102
G02 X36.255170 Y57.629123 Z2 I1.794419 J-3.622620
G02 X36.472915 Y57.695830 Z2 I2.089704 J-6.432498
G00 Z0.000000

(End cutting path id: path9)


(Start cutting path id: path9)
(Change tool to Default tool)

G00 Z0.000000
G00 X20.968749 Y50.070830

G01 Z2 F100.0(Penetrate)
G02 X16.959103 Y43.310431 Z2 I-20.745374 J7.734969 F75.000000
G02 X10.039583 Y39.141670 Z2 I-9.861275 J8.541177
G00 Z0.000000

(End cutting path id: path9)


(Start cutting path id: path9)
(Change tool to Default tool)

G00 Z0.000000
G00 X8.387500 Y48.291670

G01 Z2 F100.0(Penetrate)
G02 X10.533159 Y50.843479 Z2 I19.158273 J-13.931034 F75.000000
G02 X13.216666 Y52.866670 Z2 I7.807431 J-7.564309
G00 Z0.000000

(End cutting path id: path9)


(Start cutting path id: path9)
(Change tool to Default tool)

G00 Z0.000000
G00 X13.470833 Y55.027080

G01 Z2 F100.0(Penetrate)
G03 X10.553598 Y53.265515 Z2 I57.543812 J-98.591571 F75.000000
G03 X8.133333 Y51.341670 Z2 I7.232531 J-11.583094
G00 Z0.000000

(End cutting path id: path9)


(Start cutting path id: path9)
(Change tool to Default tool)

G00 Z0.000000
G00 X16.647916 Y45.750000

G01 Z2 F100.0(Penetrate)
G02 X14.362088 Y43.553059 Z2 I-47.580262 J47.217698 F75.000000
G02 X11.818750 Y42.064580 Z2 I-4.722412 J5.151986
G00 Z0.000000

(End cutting path id: path9)


(Start cutting path id: path9)
(Change tool to Default tool)

G00 Z0.000000
G00 X13.852083 Y29.864580

G01 Z2 F100.0(Penetrate)
G03 X15.628106 Y30.849536 Z2 I-6.182174 J13.241078 F75.000000
G02 X17.410416 Y31.866440 Z2 I9.737378 J-14.996172
G02 X21.615553 Y33.704276 Z2 I20.824161 J-41.917797
G02 X25.924999 Y35.290040 Z2 I78.477058 J-206.619440
G03 X28.346982 Y36.430545 Z2 I-4.595852 J12.901700
G02 X30.459108 Y36.522830 Z2 I1.141678 J-1.913340
G01 X30.699057 Y36.084210 Z2
G02 X30.707469 Y34.952574 Z2 I-16.791637 J-0.690667
G03 X31.135415 Y33.677080 Z2 I1.961337 J-0.051481
G00 Z0.000000

(End cutting path id: path9)


(Start cutting path id: path9)
(Change tool to Default tool)

G00 Z0.000000
G00 X36.472915 Y32.660410

G01 Z2 F100.0(Penetrate)
G01 X36.472915 Y31.135410 Z2 F75.000000
G00 Z0.000000

(End cutting path id: path9)


(Start cutting path id: path9)
(Change tool to Default tool)

G00 Z0.000000
G00 X23.129166 Y21.731250

G01 Z2 F100.0(Penetrate)
G01 X24.754578 Y22.520810 Z2 F75.000000
G01 X26.687499 Y24.400000 Z2
G00 Z0.000000

(End cutting path id: path9)


(Start cutting path id: path9)
(Change tool to Default tool)

G00 Z0.000000
G00 X25.670832 Y17.156250

G01 Z2 F100.0(Penetrate)
G03 X25.052267 Y16.130274 Z2 I10.226428 J-6.865004 F75.000000
G03 X25.075915 Y14.897770 Z2 I1.105604 J-0.595266
G01 X26.052082 Y14.434940 Z2
G01 X26.911463 Y13.604290 Z2
G02 X25.233303 Y12.311589 Z2 I-2.060188 J0.938869
G02 X23.055327 Y12.911610 Z2 I-0.449030 J2.622951
G02 X22.258826 Y16.040904 Z2 I1.819731 J2.129191
G02 X24.272916 Y18.300000 Z2 I3.980880 J-1.521765
G00 Z0.000000

(End cutting path id: path9)


(Start cutting path id: path9)
(Change tool to Default tool)

G00 Z0.000000
G00 X27.068749 Y14.233330

G01 Z2 F100.0(Penetrate)
G02 X27.743624 Y14.604102 Z2 I1.701356 J-2.297200 F75.000000
G02 X28.847915 Y14.995830 Z2 I7.969493 J-20.713848
G00 Z0.000000

(End cutting path id: path9)


(Start cutting path id: path9)
(Change tool to Default tool)

G00 Z0.000000
G00 X33.422915 Y10.039580

G01 Z2 F100.0(Penetrate)
G03 X32.690742 Y9.490933 Z2 I13.242205 J-18.434697 F75.000000
G02 X31.897915 Y9.018600 Z2 I-2.261732 J2.894830
G02 X31.185773 Y8.874706 Z2 I-0.690369 J1.582515
G02 X30.499999 Y9.150000 Z2 I0.012914 J1.023969
G00 Z0.000000

(End cutting path id: path9)


(Start cutting path id: path9)
(Change tool to Default tool)

G00 Z0.000000
G00 X16.139583 Y11.437500

G01 Z2 F100.0(Penetrate)
G03 X16.362144 Y10.524749 Z2 I1.472381 J-0.124491 F75.000000
G02 X16.807947 Y9.785510 Z2 I-18.234229 J-11.500312
G03 X18.247749 Y8.447615 Z2 I2.886856 J1.663063
G03 X20.079166 Y7.752080 Z2 I4.933119 J10.230497
G00 Z0.000000

(End cutting path id: path9)


(Start cutting path id: path9)
(Change tool to Default tool)

G00 Z0.000000
G00 X12.199999 Y7.625000

G01 Z2 F100.0(Penetrate)
G03 X13.741651 Y8.394761 Z2 I-0.437865 J2.805608 F75.000000
G03 X15.039567 Y9.912400 Z2 I-7.584027 J7.799836
G02 X15.545892 Y10.510868 Z2 I3.700867 J-2.617644
G02 X15.885416 Y10.802080 Z2 I2.158559 J-2.173134
G00 Z0.000000

(End cutting path id: path9)


(Start cutting path id: path9)
(Change tool to Default tool)

G00 Z0.000000
G00 X17.283333 Y23.891660

G01 Z2 F100.0(Penetrate)
G02 X17.617408 Y21.396759 Z2 I-2.412944 J-1.592918 F75.000000
G02 X15.885416 Y19.540920 Z2 I-2.870023 J0.942371
G02 X13.855656 Y19.059815 Z2 I-2.569338 J6.317640
G03 X11.945833 Y18.172910 Z2 I0.239281 J-3.014974
G00 Z0.000000

(End cutting path id: path9)


(Footer)
M5
M2
(Using default footer. To add your own footer create file "footer" in the output dir.)
(end)
%