%
(Header)
(Generated by gcodetools from Inkscape.)
(Using default header. To add your own header create file "header" in the output dir.)
M3
(Header end.)
G21 (All units in mm)

(Start cutting path id: path11)
(Change tool to Default tool)

G00 Z0.000000
G00 X86.543746 Y60.872920

G01 Z2 F100.0(Penetrate)
G01 X83.112497 Y60.287700 Z2 F75.000000
G01 X80.697913 Y59.475000 Z2
G00 Z0.000000

(End cutting path id: path11)


(Start cutting path id: path11)
(Change tool to Default tool)

G00 Z0.000000
G00 X73.327080 Y54.772920

G01 Z2 F100.0(Penetrate)
G01 X73.708330 Y54.900000 Z2 F75.000000
G00 Z0.000000

(End cutting path id: path11)


(Start cutting path id: path11)
(Change tool to Default tool)

G00 Z0.000000
G00 X73.199997 Y54.772920

G01 Z2 F100.0(Penetrate)
G01 X73.327080 Y54.772920 Z2 F75.000000
G00 Z0.000000

(End cutting path id: path11)


(Start cutting path id: path11)
(Change tool to Default tool)

G00 Z0.000000
G00 X74.597914 Y50.452080

G01 Z2 F100.0(Penetrate)
G03 X77.235210 Y51.388953 Z2 I-2.123698 J10.158639 F75.000000
G03 X79.808330 Y52.761250 Z2 I-50.059898 J96.963086
G02 X81.172711 Y53.485802 Z2 I24.605094 J-44.686215
G02 X82.477080 Y53.875880 Z2 I1.709331 J-3.339916
G02 X83.139434 Y53.856729 Z2 I0.261691 J-2.412752
G02 X83.493747 Y53.756250 Z2 I-0.275726 J-1.647219
G00 Z0.000000

(End cutting path id: path11)


(Start cutting path id: path11)
(Change tool to Default tool)

G00 Z0.000000
G00 X88.577080 Y54.772920

G01 Z2 F100.0(Penetrate)
G02 X86.379106 Y54.378568 Z2 I-2.413523 J7.129565 F75.000000
G03 X83.891862 Y53.823810 Z2 I0.192395 J-6.715729
G03 X83.288904 Y53.222736 Z2 I0.465206 J-1.069624
G02 X82.831756 Y52.539350 Z2 I-2.147660 J0.942072
G03 X82.145220 Y51.823491 Z2 I279.855706 J-269.079507
G03 X81.557589 Y50.960420 Z2 I2.290593 J-2.191157
G03 X81.395263 Y49.378900 Z2 I2.227268 J-1.027695
G03 X81.968747 Y47.910420 Z2 I5.330064 J1.235323
G00 Z0.000000

(End cutting path id: path11)


(Start cutting path id: path11)
(Change tool to Default tool)

G00 Z0.000000
G00 X73.327080 Y36.600000

G01 Z2 F100.0(Penetrate)
G02 X74.259596 Y36.745390 Z2 I2.927696 J-15.714667 F75.000000
G02 X75.995830 Y36.854170 Z2 I1.736234 J-13.801646
G00 Z0.000000

(End cutting path id: path11)


(Start cutting path id: path11)
(Change tool to Default tool)

G00 Z0.000000
G00 X73.199997 Y36.600000

G01 Z2 F100.0(Penetrate)
G01 X73.327080 Y36.600000 Z2 F75.000000
G00 Z0.000000

(End cutting path id: path11)


(Start cutting path id: path11)
(Change tool to Default tool)

G00 Z0.000000
G00 X73.327080 Y25.416660

G01 Z2 F100.0(Penetrate)
G03 X74.416656 Y26.241118 Z2 I-1.376116 J2.950832 F75.000000
G02 X76.631247 Y27.704160 Z2 I3.696613 J-3.187900
G00 Z0.000000

(End cutting path id: path11)


(Start cutting path id: path11)
(Change tool to Default tool)

G00 Z0.000000
G00 X77.520830 Y20.841660

G01 Z2 F100.0(Penetrate)
G02 X82.709101 Y24.351650 Z2 I11.689968 J-11.689957 F75.000000
G02 X88.958330 Y25.035410 Z2 I4.248860 J-9.933169
G00 Z0.000000

(End cutting path id: path11)


(Start cutting path id: path11)
(Change tool to Default tool)

G00 Z0.000000
G00 X100.268750 Y23.383330

G01 Z2 F100.0(Penetrate)
G02 X102.122316 Y23.135104 Z2 I-0.171666 J-8.326503 F75.000000
G02 X103.827080 Y22.685640 Z2 I-17.647502 J-70.392634
G01 X104.748820 Y21.385400 Z2
G02 X103.458319 Y20.736919 Z2 I-1.302876 J0.984458
G03 X101.796100 Y20.298030 Z2 I0.026271 J-3.466632
G01 X101.539580 Y18.808330 Z2
G00 Z0.000000

(End cutting path id: path11)


(Start cutting path id: path11)
(Change tool to Default tool)

G00 Z0.000000
G00 X95.566663 Y14.106250

G01 Z2 F100.0(Penetrate)
G02 X96.599539 Y13.973453 Z2 I-29.381143 J-232.605533 F75.000000
G02 X97.599996 Y13.716170 Z2 I-0.552269 J-4.221329
G02 X98.401948 Y12.117491 Z2 I-0.487724 J-1.245141
G02 X97.472913 Y10.675000 Z2 I-2.758484 J0.756181
G00 Z0.000000

(End cutting path id: path11)


(Start cutting path id: path11)
(Change tool to Default tool)

G00 Z0.000000
G00 X98.743746 Y6.354160

G01 Z2 F100.0(Penetrate)
G01 X104.589580 Y8.238840 Z2 F75.000000
G01 X107.385410 Y8.365430 Z2
G01 X108.909820 Y7.990460 Z2
G01 X109.672910 Y7.879160 Z2
G00 Z0.000000

(End cutting path id: path11)


(Start cutting path id: path11)
(Change tool to Default tool)

G00 Z0.000000
G00 X83.747913 Y12.072910

G01 Z2 F100.0(Penetrate)
G01 X83.239580 Y11.183330 Z2 F75.000000
G00 Z0.000000

(End cutting path id: path11)


(Start cutting path id: path11)
(Change tool to Default tool)

G00 Z0.000000
G00 X81.079163 Y6.481250

G01 Z2 F100.0(Penetrate)
G03 X85.369956 Y8.741500 Z2 I-4.137980 J13.058305 F75.000000
G02 X89.720830 Y11.056250 Z2 I8.765384 J-11.229286
G00 Z0.000000

(End cutting path id: path11)


(Start cutting path id: path11)
(Change tool to Default tool)

G00 Z0.000000
G00 X95.820829 Y39.522920

G01 Z2 F100.0(Penetrate)
G02 X99.235904 Y39.130318 Z2 I0.000000 J-15.049432 F75.000000
G02 X102.556250 Y38.186480 Z2 I-8.156615 J-35.006588
G03 X103.733877 Y37.823784 Z2 I7.503781 J22.270640
G02 X104.481420 Y37.095100 Z2 I-0.293036 J-1.048408
G01 X104.069770 Y36.273270 Z2
G03 X103.673426 Y35.951120 Z2 I2.799358 J-3.848954
G03 X103.445830 Y35.710420 Z2 I1.442321 J-1.591757
G00 Z0.000000

(End cutting path id: path11)


(Start cutting path id: path11)
(Change tool to Default tool)

G00 Z0.000000
G00 X105.225000 Y60.872920

G01 Z2 F100.0(Penetrate)
G02 X103.855543 Y60.581385 Z2 I-2.190081 J6.925485 F75.000000
G03 X102.429160 Y60.254660 Z2 I0.739907 J-6.507150
G03 X101.551029 Y59.888582 Z2 I2.721343 J-7.764080
G02 X100.650000 Y59.475000 Z2 I-9.637507 J19.807976
G03 X98.580324 Y58.532161 Z2 I22.960071 J-53.143950
G02 X96.710413 Y57.695830 Z2 I-16.692070 J34.812362
G00 Z0.000000

(End cutting path id: path11)


(Footer)
M5
M2
(Using default footer. To add your own footer create file "footer" in the output dir.)
(end)
%