%
(Header)
(Generated by gcodetools from Inkscape.)
(Using default header. To add your own header create file "header" in the output dir.)
M3
(Header end.)
G21 (All units in mm)

(Start cutting path id: path10)
(Change tool to Default tool)

G00 Z0.000000
G00 X43.081248 Y60.872920

G01 Z2 F100.0(Penetrate)
G02 X42.158221 Y60.645518 Z2 I-1.788683 J5.273296 F75.000000
G03 X41.047915 Y60.312510 Z2 I0.667995 J-4.244687
G03 X38.216690 Y58.758641 Z2 I8.886354 J-19.547623
G02 X36.727082 Y58.077080 Z2 I-3.028811 J4.651104
G00 Z0.000000

(End cutting path id: path10)


(Start cutting path id: path10)
(Change tool to Default tool)

G00 Z0.000000
G00 X36.599998 Y58.077080

G01 Z2 F100.0(Penetrate)
G01 X36.727082 Y58.077080 Z2 F75.000000
G00 Z0.000000

(End cutting path id: path10)


(Start cutting path id: path10)
(Change tool to Default tool)

G00 Z0.000000
G00 X36.599998 Y54.645830

G01 Z2 F100.0(Penetrate)
G01 X36.727082 Y54.645830 Z2 F75.000000
G00 Z0.000000

(End cutting path id: path10)


(Start cutting path id: path10)
(Change tool to Default tool)

G00 Z0.000000
G00 X36.599998 Y51.468750

G01 Z2 F100.0(Penetrate)
G01 X36.727082 Y51.468750 Z2 F75.000000
G00 Z0.000000

(End cutting path id: path10)


(Start cutting path id: path10)
(Change tool to Default tool)

G00 Z0.000000
G00 X49.689581 Y51.722920

G01 Z2 F100.0(Penetrate)
G02 X46.688872 Y49.946100 Z2 I-62.327254 J101.836554 F75.000000
G02 X43.589582 Y48.545830 Z2 I-8.846436 J15.450235
G00 Z0.000000

(End cutting path id: path10)


(Start cutting path id: path10)
(Change tool to Default tool)

G00 Z0.000000
G00 X53.502081 Y49.181250

G01 Z2 F100.0(Penetrate)
G03 X54.892893 Y49.688481 Z2 I-0.532808 J3.621338 F75.000000
G02 X56.280951 Y49.901390 Z2 I0.945018 J-1.529869
G01 X57.115032 Y48.733030 Z2
G03 X58.086839 Y48.495637 Z2 I0.699960 J0.757579
G03 X58.966664 Y48.800030 Z2 I-1.849932 J6.770818
G00 Z0.000000

(End cutting path id: path10)


(Start cutting path id: path10)
(Change tool to Default tool)

G00 Z0.000000
G00 X60.237497 Y42.954200

G01 Z2 F100.0(Penetrate)
G01 X62.016664 Y43.208360 Z2 F75.000000
G00 Z0.000000

(End cutting path id: path10)


(Start cutting path id: path10)
(Change tool to Default tool)

G00 Z0.000000
G00 X52.485414 Y43.335450

G01 Z2 F100.0(Penetrate)
G03 X55.562227 Y43.335790 Z2 I0.017516 J13904.921643 F75.000000
G02 X58.585414 Y43.335450 Z2 I0.999916 J-4527.421574
G01 X59.788686 Y43.131680 Z2
G01 X59.369683 Y41.937530 Z2
G01 X59.070509 Y40.961260 Z2
G01 X60.110414 Y40.666790 Z2
G02 X61.529421 Y40.609297 Z2 I-0.157440 J-21.425951
G02 X62.904287 Y40.087470 Z2 I-0.189751 J-2.572046
G02 X63.623333 Y38.329145 Z2 I-1.138537 J-1.491776
G03 X64.436739 Y37.034520 Z2 I1.169808 J-0.167858
G03 X67.289279 Y36.597056 Z2 I2.833831 J8.959441
G02 X70.277080 Y36.600030 Z2 I2.987801 J-1500.648942
G01 X72.434359 Y36.600030 Z2
G01 X73.072914 Y36.600030 Z2
G00 Z0.000000

(End cutting path id: path10)


(Start cutting path id: path10)
(Change tool to Default tool)

G00 Z0.000000
G00 X73.072914 Y25.543780

G01 Z2 F100.0(Penetrate)
G02 X72.786864 Y24.730145 Z2 I-1.433600 J0.046910 F75.000000
G02 X72.056247 Y23.891210 Z2 I-6.096493 J4.571745
G03 X70.982643 Y22.705964 Z2 I10.523124 J-10.610781
G02 X69.930250 Y21.488490 Z2 I-20.599506 J16.742771
G02 X69.043134 Y20.577883 Z2 I-16.020459 J14.719763
G02 X68.116567 Y19.707450 Z2 I-29.336115 J30.299606
G02 X63.562294 Y15.988685 Z2 I-36.462338 J40.006332
G02 X57.441664 Y16.775030 Z2 I-2.645139 J3.624756
G00 Z0.000000

(End cutting path id: path10)


(Start cutting path id: path10)
(Change tool to Default tool)

G00 Z0.000000
G00 X68.243747 Y24.272940

G01 Z2 F100.0(Penetrate)
G03 X65.306754 Y21.396731 Z2 I15.645516 J-18.913798 F75.000000
G02 X62.016664 Y18.780510 Z2 I-8.559330 J7.387109
G01 X59.347914 Y19.570860 Z2
G00 Z0.000000

(End cutting path id: path10)


(Start cutting path id: path10)
(Change tool to Default tool)

G00 Z0.000000
G00 X45.368748 Y10.420860

G01 Z2 F100.0(Penetrate)
G03 X49.409755 Y8.191803 Z2 I4.575736 J3.517795 F75.000000
G03 X54.010414 Y7.879190 Z2 I8.567683 J92.078913
G00 Z0.000000

(End cutting path id: path10)


(Start cutting path id: path10)
(Change tool to Default tool)

G00 Z0.000000
G00 X43.462498 Y34.693780

G01 Z2 F100.0(Penetrate)
G01 X43.970832 Y32.964030 Z2 F75.000000
G03 X46.848574 Y32.545098 Z2 I6.381991 J33.745961
G03 X49.562498 Y32.406280 Z2 I2.713924 J26.459567
G00 Z0.000000

(End cutting path id: path10)


(Start cutting path id: path10)
(Change tool to Default tool)

G00 Z0.000000
G00 X39.777082 Y33.931280

G01 Z2 F100.0(Penetrate)
G03 X39.989267 Y31.951363 Z2 I1.305150 J-0.861457 F75.000000
G03 X41.683332 Y31.118870 Z2 I2.115352 J2.164696
G03 X46.062814 Y30.719654 Z2 I6.281656 J44.689595
G03 X50.452081 Y30.627110 Z2 I4.389267 J104.042448
G00 Z0.000000

(End cutting path id: path10)


(Start cutting path id: path10)
(Change tool to Default tool)

G00 Z0.000000
G00 X36.599998 Y31.516690

G01 Z2 F100.0(Penetrate)
G03 X38.182213 Y30.259442 Z2 I6.861949 J7.011380 F75.000000
G03 X41.683332 Y28.958560 Z2 I4.765045 J7.462570
G02 X44.882950 Y28.405049 Z2 I-8.261822 J-57.282793
G03 X48.164581 Y28.234100 Z2 I2.216856 J10.972499
G03 X50.414356 Y28.598350 Z2 I-1.662128 J17.396018
G03 X52.485414 Y29.229190 Z2 I-3.469387 J15.105127
G00 Z0.000000

(End cutting path id: path10)


(Start cutting path id: path10)
(Change tool to Default tool)

G00 Z0.000000
G00 X64.177081 Y54.391670

G01 Z2 F100.0(Penetrate)
G03 X66.294543 Y53.657938 Z2 I2.230243 J3.013976 F75.000000
G03 X68.497914 Y53.747330 Z2 I0.469943 J15.616143
G03 X69.343104 Y54.056017 Z2 I-0.210723 J1.888374
G03 X69.768747 Y54.391670 Z2 I-1.920331 J2.872892
G00 Z0.000000

(End cutting path id: path10)


(Start cutting path id: path10)
(Change tool to Default tool)

G00 Z0.000000
G00 X66.591664 Y56.297920

G01 Z2 F100.0(Penetrate)
G03 X67.758571 Y55.578566 Z2 I2.929495 J3.445975 F75.000000
G03 X68.878673 Y55.173480 Z2 I4.357059 J10.296557
G02 X69.406549 Y54.875144 Z2 I-0.400941 J-1.325608
G03 X70.034289 Y54.541400 Z2 I0.977198 J1.080781
G03 X71.434116 Y54.539649 Z2 I0.703476 J2.847654
G02 X72.309824 Y54.645830 Z2 I0.881791 J-3.608210
G02 X72.824317 Y54.645968 Z2 I0.307333 J-186.449103
G03 X73.072914 Y54.645830 Z2 I0.248505 J223.709898
G00 Z0.000000

(End cutting path id: path10)


(Start cutting path id: path10)
(Change tool to Default tool)

G00 Z0.000000
G00 X59.729164 Y60.872920

G01 Z2 F100.0(Penetrate)
G01 X57.187498 Y60.285940 Z2 F75.000000
G01 X52.612498 Y58.243390 Z2
G01 X42.572915 Y53.795080 Z2
G01 X38.760415 Y52.105640 Z2
G01 X37.365636 Y51.549350 Z2
G01 X36.727082 Y51.468750 Z2
G00 Z0.000000

(End cutting path id: path10)


(Start cutting path id: path10)
(Change tool to Default tool)

G00 Z0.000000
G00 X51.849998 Y60.872920

G01 Z2 F100.0(Penetrate)
G02 X50.737299 Y60.613778 Z2 I-1.878338 J5.546763 F75.000000
G03 X49.435415 Y60.271230 Z2 I0.699334 J-5.303114
G03 X48.192264 Y59.729587 Z2 I9.242291 J-22.909844
G02 X46.893748 Y59.132580 Z2 I-40.942657 J87.341431
G02 X43.774225 Y57.740445 Z2 I-185.617855 J411.744786
G03 X40.666665 Y56.325860 Z2 I61.516293 J-139.259639
G03 X38.131638 Y55.106937 Z2 I60.853116 J-129.803407
G02 X36.727082 Y54.645830 Z2 I-2.328912 J4.724258
G00 Z0.000000

(End cutting path id: path10)


(Start cutting path id: path10)
(Change tool to Default tool)

G00 Z0.000000
G00 X57.949998 Y57.314580

G01 Z2 F100.0(Penetrate)
G01 X50.324998 Y53.784100 Z2 F75.000000
G01 X37.743748 Y48.037500 Z2
G00 Z0.000000

(End cutting path id: path10)


(Footer)
M5
M2
(Using default footer. To add your own footer create file "footer" in the output dir.)
(end)
%