%
(Header)
(Generated by gcodetools from Inkscape.)
(Using default header. To add your own header create file "header" in the output dir.)
M3
(Header end.)
G21 (All units in mm)

(Start cutting path id: path6)
(Change tool to Default tool)

G00 Z0.000000
G00 X101.539580 Y121.618750

G01 Z2 F100.0(Penetrate)
G01 X103.064580 Y121.272114 Z2 F75.000000
G01 X106.750000 Y119.127877 Z2
G01 X108.909820 Y117.862535 Z2
G01 X109.672910 Y117.552083 Z2
G00 Z0.000000

(End cutting path id: path6)


(Start cutting path id: path6)
(Change tool to Default tool)

G00 Z0.000000
G00 X81.587497 Y101.793749

G01 Z2 F100.0(Penetrate)
G01 X89.339580 Y100.370829 Z2 F75.000000
G01 X102.810410 Y97.829162 Z2
G01 X107.385410 Y96.964582 Z2
G01 X109.034360 Y96.658345 Z2
G01 X109.672910 Y96.583335 Z2
G00 Z0.000000

(End cutting path id: path6)


(Start cutting path id: path6)
(Change tool to Default tool)

G00 Z0.000000
G00 X109.672910 Y69.641667

G01 Z2 F100.0(Penetrate)
G02 X109.456986 Y69.574280 Z2 I-1.377386 J4.033871 F75.000000
G02 X108.909820 Y69.419767 Z2 I-103.552177 J365.654876
G03 X108.089137 Y69.146640 Z2 I2.510873 J-8.914150
G02 X107.131250 Y68.795827 Z2 I-10.843105 J28.123655
G03 X105.032632 Y68.048325 Z2 I45.490766 J-131.035367
G02 X102.937500 Y67.311907 Z2 I-31.213094 J85.453668
G03 X98.043112 Y65.586637 Z2 I63.370627 J-187.580093
G02 X93.152079 Y63.839577 Z2 I-100.219900 J272.853549
G02 X90.092643 Y62.796185 Z2 I-96.873532 J279.045636
G03 X87.179163 Y61.713277 Z2 I15.113184 J-45.121545
G03 X86.458042 Y61.301803 Z2 I1.213158 J-2.963728
G02 X85.908330 Y61.040307 Z2 I-0.905264 J1.194483
G02 X84.768168 Y60.942849 Z2 I-0.883420 J3.617019
G03 X83.112497 Y61.000000 Z2 I-1.655671 J-23.953816
G00 Z0.000000

(End cutting path id: path6)


(Start cutting path id: path6)
(Change tool to Default tool)

G00 Z0.000000
G00 X102.302080 Y61.000000

G01 Z2 F100.0(Penetrate)
G02 X103.676615 Y60.954048 Z2 I0.000000 J-20.580639 F75.000000
G03 X104.578200 Y61.040300 Z2 I0.187270 J2.797695
G03 X105.025502 Y61.284102 Z2 I-0.271567 J1.030477
G02 X105.484160 Y61.639920 Z2 I2.432064 J-2.661464
G02 X107.177961 Y62.534813 Z2 I5.637079 J-8.619121
G02 X108.909820 Y63.228070 Z2 I29.378441 J-70.881869
G02 X109.465019 Y63.381199 Z2 I1.044513 J-2.704020
G02 X109.672910 Y63.414580 Z2 I1.707947 J-9.972877
G00 Z0.000000

(End cutting path id: path6)


(Start cutting path id: path6)
(Change tool to Default tool)

G00 Z0.000000
G00 X82.095830 Y88.322918

G01 Z2 F100.0(Penetrate)
G01 X91.754163 Y88.069240 Z2 F75.000000
G01 X102.937500 Y87.836155 Z2
G01 X107.385410 Y87.814585 Z2
G01 X109.034360 Y87.692505 Z2
G01 X109.672910 Y87.687505 Z2
G00 Z0.000000

(End cutting path id: path6)


(Footer)
M5
M2
(Using default footer. To add your own footer create file "footer" in the output dir.)
(end)
%