%
(Header)
(Generated by gcodetools from Inkscape.)
(Using default header. To add your own header create file "header" in the output dir.)
M3
(Header end.)
G21 (All units in mm)

(Start cutting path id: path12)
(Change tool to Default tool)

G00 Z0.000000
G00 X136.614590 Y45.877080

G01 Z2 F100.0(Penetrate)
G01 X136.868750 Y46.004170 Z2 F75.000000
G00 Z0.000000

(End cutting path id: path12)


(Start cutting path id: path12)
(Change tool to Default tool)

G00 Z0.000000
G00 X146.272920 Y38.633330

G01 Z2 F100.0(Penetrate)
G03 X146.331838 Y37.050042 Z2 I21.303132 J0.000000 F75.000000
G02 X146.232520 Y35.970070 Z2 I-3.270754 J-0.243763
G02 X145.872791 Y35.421829 Z2 I-0.999290 J0.263547
G03 X145.451000 Y34.934670 Z2 I1.056281 J-1.340724
G03 X144.941783 Y33.600822 Z2 I3.903959 J-2.254520
G02 X144.239580 Y31.643750 Z2 I-7.354387 J1.534264
G00 Z0.000000

(End cutting path id: path12)


(Start cutting path id: path12)
(Change tool to Default tool)

G00 Z0.000000
G00 X145.637500 Y29.610430

G01 Z2 F100.0(Penetrate)
G01 X146.272920 Y29.864600 Z2 F75.000000
G00 Z0.000000

(End cutting path id: path12)


(Start cutting path id: path12)
(Change tool to Default tool)

G00 Z0.000000
G00 X146.272920 Y23.510430

G01 Z2 F100.0(Penetrate)
G03 X146.063903 Y23.509639 Z2 I-0.063270 J-10.895012 F75.000000
G02 X145.509830 Y23.551730 Z2 I-0.041722 J3.118640
G02 X144.680058 Y23.750853 Z2 I0.993830 J5.969860
G03 X143.731250 Y24.036730 Z2 I-11.118599 J-35.184510
G02 X141.005426 Y24.918295 Z2 I11.761915 J41.023138
G02 X138.559370 Y26.406500 Z2 I2.443712 J6.770858
G02 X138.270708 Y27.441196 Z2 I0.695830 J0.751738
G02 X139.029660 Y28.162430 Z2 I0.993537 J-0.285557
G02 X140.696648 Y28.206757 Z2 I0.941536 J-4.040947
G02 X142.206250 Y27.577120 Z2 I-0.656976 J-3.699662
G00 Z0.000000

(End cutting path id: path12)


(Start cutting path id: path12)
(Change tool to Default tool)

G00 Z0.000000
G00 X126.829170 Y35.075000

G01 Z2 F100.0(Penetrate)
G02 X128.778913 Y35.365382 Z2 I2.659256 J-11.164452 F75.000000
G02 X130.641570 Y35.116300 Z2 I0.300096 J-4.844948
G02 X131.727979 Y34.146997 Z2 I-0.600721 J-1.766779
G03 X132.675000 Y33.295850 Z2 I1.488253 J0.703471
G00 Z0.000000

(End cutting path id: path12)


(Start cutting path id: path12)
(Change tool to Default tool)

G00 Z0.000000
G00 X115.900000 Y29.991680

G01 Z2 F100.0(Penetrate)
G02 X117.366097 Y29.901714 Z2 I-0.000000 J-11.990873 F75.000000
G02 X118.822920 Y29.483350 Z2 I-0.592345 J-4.808304
G00 Z0.000000

(End cutting path id: path12)


(Start cutting path id: path12)
(Change tool to Default tool)

G00 Z0.000000
G00 X115.391670 Y31.262520

G01 Z2 F100.0(Penetrate)
G01 X115.645840 Y31.262520 Z2 F75.000000
G00 Z0.000000

(End cutting path id: path12)


(Start cutting path id: path12)
(Change tool to Default tool)

G00 Z0.000000
G00 X118.568750 Y22.747950

G01 Z2 F100.0(Penetrate)
G02 X120.228991 Y22.649271 Z2 I-0.009390 J-14.173826 F75.000000
G02 X122.000000 Y22.336700 Z2 I-1.871640 J-15.778102
G01 X123.673460 Y21.463390 Z2
G01 X123.138160 Y20.526250 Z2
G01 X122.508340 Y18.300040 Z2
G00 Z0.000000

(End cutting path id: path12)


(Start cutting path id: path12)
(Change tool to Default tool)

G00 Z0.000000
G00 X130.768750 Y11.437540

G01 Z2 F100.0(Penetrate)
G02 X131.407433 Y11.390679 Z2 I-0.126532 J-6.100389 F75.000000
G02 X132.039590 Y11.283690 Z2 I-0.959449 J-7.590092
G02 X132.561255 Y11.162506 Z2 I-2.977976 J-14.002790
G02 X133.055660 Y10.995390 Z2 I-0.808328 J-3.206298
G02 X133.672064 Y10.402467 Z2 I-0.476944 J-1.112700
G02 X133.735890 Y9.531290 Z2 I-1.089003 J-0.517712
G02 X133.011948 Y8.268280 Z2 I-3.147163 J0.964933
G03 X132.842980 Y6.763990 Z2 I0.943681 J-0.867633
G03 X134.462256 Y5.978843 Z2 I1.383949 J0.791877
G02 X136.360420 Y5.845870 Z2 I0.649042 J-4.349490
G00 Z0.000000

(End cutting path id: path12)


(Start cutting path id: path12)
(Change tool to Default tool)

G00 Z0.000000
G00 X109.800000 Y7.625000

G01 Z2 F100.0(Penetrate)
G02 X110.815867 Y7.224781 Z2 I-3.736901 J-10.974667 F75.000000
G03 X113.358340 Y6.481250 Z2 I3.950173 J8.788752
G00 Z0.000000

(End cutting path id: path12)


(Footer)
M5
M2
(Using default footer. To add your own footer create file "footer" in the output dir.)
(end)
%