%
(Header)
(Generated by gcodetools from Inkscape.)
(Using default header. To add your own header create file "header" in the output dir.)
M3
(Header end.)
G21 (All units in mm)

(Start cutting path id: path6)
(Change tool to Default tool)

G00 Z0.000000
G00 X159.235420 Y73.200000

G01 Z2 F100.0(Penetrate)
G01 X155.931250 Y70.912500 Z2 F75.000000
G00 Z0.000000

(End cutting path id: path6)


(Start cutting path id: path6)
(Change tool to Default tool)

G00 Z0.000000
G00 X163.556250 Y66.464580

G01 Z2 F100.0(Penetrate)
G01 X160.760420 Y64.127660 Z2 F75.000000
G01 X155.422920 Y60.110420 Z2
G00 Z0.000000

(End cutting path id: path6)


(Start cutting path id: path6)
(Change tool to Default tool)

G00 Z0.000000
G00 X164.064580 Y55.408330

G01 Z2 F100.0(Penetrate)
G03 X159.745484 Y52.141989 Z2 I28.093264 J-41.636595 F75.000000
G02 X155.168750 Y49.308330 Z2 I-11.854044 J14.033001
G00 Z0.000000

(End cutting path id: path6)


(Start cutting path id: path6)
(Change tool to Default tool)

G00 Z0.000000
G00 X164.572920 Y44.352080

G01 Z2 F100.0(Penetrate)
G01 X159.616670 Y39.650000 Z2 F75.000000
G00 Z0.000000

(End cutting path id: path6)


(Start cutting path id: path6)
(Change tool to Default tool)

G00 Z0.000000
G00 X156.566670 Y33.422920

G01 Z2 F100.0(Penetrate)
G01 X157.964580 Y34.058330 Z2 F75.000000
G00 Z0.000000

(End cutting path id: path6)


(Start cutting path id: path6)
(Change tool to Default tool)

G00 Z0.000000
G00 X154.533330 Y31.516670

G01 Z2 F100.0(Penetrate)
G01 X155.804170 Y31.135420 Z2 F75.000000
G00 Z0.000000

(End cutting path id: path6)


(Start cutting path id: path6)
(Change tool to Default tool)

G00 Z0.000000
G00 X152.881250 Y33.931250

G01 Z2 F100.0(Penetrate)
G01 X154.152080 Y33.804170 Z2 F75.000000
G00 Z0.000000

(End cutting path id: path6)


(Start cutting path id: path6)
(Change tool to Default tool)

G00 Z0.000000
G00 X149.322920 Y35.837500

G01 Z2 F100.0(Penetrate)
G01 X148.433330 Y35.456250 Z2 F75.000000
G00 Z0.000000

(End cutting path id: path6)


(Start cutting path id: path6)
(Change tool to Default tool)

G00 Z0.000000
G00 X148.433330 Y33.804170

G01 Z2 F100.0(Penetrate)
G01 X147.543750 Y33.422920 Z2 F75.000000
G00 Z0.000000

(End cutting path id: path6)


(Start cutting path id: path6)
(Change tool to Default tool)

G00 Z0.000000
G00 X147.797920 Y28.085420

G01 Z2 F100.0(Penetrate)
G02 X148.864823 Y28.484926 Z2 I1.782493 J-3.135883 F75.000000
G02 X149.958330 Y28.466670 Z2 I0.505234 J-2.496122
G00 Z0.000000

(End cutting path id: path6)


(Start cutting path id: path6)
(Change tool to Default tool)

G00 Z0.000000
G00 X151.102080 Y26.941670

G01 Z2 F100.0(Penetrate)
G01 X152.372920 Y26.179170 Z2 F75.000000
G00 Z0.000000

(End cutting path id: path6)


(Start cutting path id: path6)
(Change tool to Default tool)

G00 Z0.000000
G00 X149.704170 Y24.908330

G01 Z2 F100.0(Penetrate)
G01 X152.500000 Y24.654170 Z2 F75.000000
G00 Z0.000000

(End cutting path id: path6)


(Start cutting path id: path6)
(Change tool to Default tool)

G00 Z0.000000
G00 X156.566670 Y23.129170

G01 Z2 F100.0(Penetrate)
G01 X157.075000 Y23.129170 Z2 F75.000000
G00 Z0.000000

(End cutting path id: path6)


(Start cutting path id: path6)
(Change tool to Default tool)

G00 Z0.000000
G00 X158.218750 Y25.670830

G01 Z2 F100.0(Penetrate)
G01 X160.887500 Y25.162500 Z2 F75.000000
G00 Z0.000000

(End cutting path id: path6)


(Start cutting path id: path6)
(Change tool to Default tool)

G00 Z0.000000
G00 X163.556250 Y22.875000

G01 Z2 F100.0(Penetrate)
G01 X163.810420 Y23.002080 Z2 F75.000000
G00 Z0.000000

(End cutting path id: path6)


(Start cutting path id: path6)
(Change tool to Default tool)

G00 Z0.000000
G00 X166.860420 Y26.560420

G01 Z2 F100.0(Penetrate)
G01 X167.750000 Y26.052080 Z2 F75.000000
G00 Z0.000000

(End cutting path id: path6)


(Start cutting path id: path6)
(Change tool to Default tool)

G00 Z0.000000
G00 X168.131250 Y27.958330

G01 Z2 F100.0(Penetrate)
G01 X171.054170 Y27.195830 Z2 F75.000000
G00 Z0.000000

(End cutting path id: path6)


(Start cutting path id: path6)
(Change tool to Default tool)

G00 Z0.000000
G00 X171.435420 Y24.781250

G01 Z2 F100.0(Penetrate)
G01 X173.595830 Y24.272920 Z2 F75.000000
G00 Z0.000000

(End cutting path id: path6)


(Start cutting path id: path6)
(Change tool to Default tool)

G00 Z0.000000
G00 X175.756250 Y26.433330

G01 Z2 F100.0(Penetrate)
G01 X177.662500 Y25.289580 Z2 F75.000000
G00 Z0.000000

(End cutting path id: path6)


(Start cutting path id: path6)
(Change tool to Default tool)

G00 Z0.000000
G00 X169.402080 Y32.914580

G01 Z2 F100.0(Penetrate)
G01 X171.816670 Y31.770830 Z2 F75.000000
G00 Z0.000000

(End cutting path id: path6)


(Start cutting path id: path6)
(Change tool to Default tool)

G00 Z0.000000
G00 X165.081250 Y34.693750

G01 Z2 F100.0(Penetrate)
G01 X165.589580 Y34.693750 Z2 F75.000000
G00 Z0.000000

(End cutting path id: path6)


(Start cutting path id: path6)
(Change tool to Default tool)

G00 Z0.000000
G00 X163.556250 Y30.500000

G01 Z2 F100.0(Penetrate)
G01 X165.208330 Y29.737500 Z2 F75.000000
G00 Z0.000000

(End cutting path id: path6)


(Start cutting path id: path6)
(Change tool to Default tool)

G00 Z0.000000
G00 X145.256250 Y27.068750

G01 Z2 F100.0(Penetrate)
G01 X146.400000 Y26.306250 Z2 F75.000000
G00 Z0.000000

(End cutting path id: path6)


(Footer)
M5
M2
(Using default footer. To add your own footer create file "footer" in the output dir.)
(end)
%