%
(Header)
(Generated by gcodetools from Inkscape.)
(Using default header. To add your own header create file "header" in the output dir.)
M3
(Header end.)
G21 (All units in mm)

(Start cutting path id: path5)
(Change tool to Default tool)

G00 Z0.000000
G00 X46.512500 Y133.056250

G01 Z2 F100.0(Penetrate)
G02 X46.675316 Y131.288698 Z2 I-9.529319 J-1.769058 F75.000000
G02 X46.637132 Y129.497917 Z2 I-41.707514 J-0.006482
G01 X46.374336 Y127.723063 Z2
G01 X48.129873 Y127.848284 Z2
G02 X48.421768 Y128.305923 Z2 I26.877947 J-16.821623
G02 X48.800000 Y128.862500 Z2 I13.729367 J-8.923225
G00 Z0.000000

(End cutting path id: path5)


(Start cutting path id: path5)
(Change tool to Default tool)

G00 Z0.000000
G00 X47.783333 Y127.210417

G01 Z2 F100.0(Penetrate)
G03 X48.573472 Y126.878119 Z2 I1.077144 J1.455689 F75.000000
G02 X50.325000 Y126.575000 Z2 I-11.544600 J-71.920792
G00 Z0.000000

(End cutting path id: path5)


(Start cutting path id: path5)
(Change tool to Default tool)

G00 Z0.000000
G00 X46.893750 Y127.083333

G01 Z2 F100.0(Penetrate)
G02 X46.892942 Y126.681880 Z2 I-99.736578 J0.000000 F75.000000
G03 X46.893847 Y126.066667 Z2 I55.968018 J-0.225281
G01 X47.097515 Y125.077063 Z2
G03 X47.713984 Y124.436006 Z2 I2.802150 J2.077733
G02 X48.545833 Y123.525000 Z2 I-2.525055 J-3.140941
G00 Z0.000000

(End cutting path id: path5)


(Start cutting path id: path5)
(Change tool to Default tool)

G00 Z0.000000
G00 X47.147917 Y124.922917

G01 Z2 F100.0(Penetrate)
G01 X46.893750 Y123.652083 Z2 F75.000000
G01 X46.893750 Y121.872917 Z2
G01 X47.020833 Y117.933333 Z2
G00 Z0.000000

(End cutting path id: path5)


(Start cutting path id: path5)
(Change tool to Default tool)

G00 Z0.000000
G00 X44.987500 Y123.779167

G01 Z2 F100.0(Penetrate)
G02 X46.159573 Y124.753266 Z2 I3.706677 J-3.267822 F75.000000
G02 X46.766667 Y125.050000 Z2 I2.066502 J-3.458504
G00 Z0.000000

(End cutting path id: path5)


(Start cutting path id: path5)
(Change tool to Default tool)

G00 Z0.000000
G00 X46.131250 Y127.972917

G01 Z2 F100.0(Penetrate)
G02 X45.131843 Y127.592573 Z2 I-0.972338 J1.051740 F75.000000
G02 X43.335417 Y127.845833 Z2 I0.141841 J7.503951
G00 Z0.000000

(End cutting path id: path5)


(Start cutting path id: path5)
(Change tool to Default tool)

G00 Z0.000000
G00 X44.987500 Y129.625000

G01 Z2 F100.0(Penetrate)
G03 X45.658292 Y128.703384 Z2 I3.371592 J1.749065 F75.000000
G03 X46.131250 Y128.227083 Z2 I114.405484 J113.129658
G00 Z0.000000

(End cutting path id: path5)


(Start cutting path id: path5)
(Change tool to Default tool)

G00 Z0.000000
G00 X46.004167 Y98.870833

G01 Z2 F100.0(Penetrate)
G02 X44.311244 Y98.312630 Z2 I-5.621514 J14.202728 F75.000000
G02 X42.700000 Y97.885154 Z2 I-273.315281 J1026.929881
G03 X40.314610 Y97.208889 Z2 I17.907448 J-67.710128
G02 X37.870833 Y96.535871 Z2 I-14.564047 J48.109797
G02 X37.029895 Y96.364423 Z2 I-2.440942 J9.824509
G03 X36.218750 Y96.202083 Z2 I1.684955 J-10.526684
G00 Z0.000000

(End cutting path id: path5)


(Start cutting path id: path5)
(Change tool to Default tool)

G00 Z0.000000
G00 X36.345833 Y93.660417

G01 Z2 F100.0(Penetrate)
G01 X40.412500 Y94.804167 Z2 F75.000000
G00 Z0.000000

(End cutting path id: path5)


(Start cutting path id: path5)
(Change tool to Default tool)

G00 Z0.000000
G00 X36.218750 Y84.002083

G01 Z2 F100.0(Penetrate)
G02 X40.160751 Y85.369342 Z2 I31.667087 J-84.934374 F75.000000
G02 X44.225000 Y86.459615 Z2 I13.204432 J-41.102275
G03 X47.235951 Y87.133707 Z2 I-47.232770 J218.034928
G02 X50.197917 Y87.814583 Z2 I281.445106 J-1217.567952
G00 Z0.000000

(End cutting path id: path5)


(Start cutting path id: path5)
(Change tool to Default tool)

G00 Z0.000000
G00 X38.760417 Y82.350000

G01 Z2 F100.0(Penetrate)
G03 X43.368949 Y83.888094 Z2 I-58.538467 J183.069847 F75.000000
G02 X48.037500 Y85.145833 Z2 I11.101731 J-31.914687
G00 Z0.000000

(End cutting path id: path5)


(Start cutting path id: path5)
(Change tool to Default tool)

G00 Z0.000000
G00 X30.245833 Y79.554170

G01 Z2 F100.0(Penetrate)
G02 X28.549336 Y78.805314 Z2 I-2.719547 J3.864908 F75.000000
G03 X26.687500 Y78.362860 Z2 I13.711042 J-61.834246
G03 X24.404197 Y77.691934 Z2 I7.829086 J-30.864768
G02 X22.112500 Y77.012500 Z2 I-10.861127 J32.429443
G00 Z0.000000

(End cutting path id: path5)


(Start cutting path id: path5)
(Change tool to Default tool)

G00 Z0.000000
G00 X27.450000 Y76.631250

G01 Z2 F100.0(Penetrate)
G01 X22.747917 Y74.597920 Z2 F75.000000
G00 Z0.000000

(End cutting path id: path5)


(Start cutting path id: path5)
(Change tool to Default tool)

G00 Z0.000000
G00 X27.195833 Y88.450000

G01 Z2 F100.0(Penetrate)
G01 X24.908333 Y87.687500 Z2 F75.000000
G00 Z0.000000

(End cutting path id: path5)


(Start cutting path id: path5)
(Change tool to Default tool)

G00 Z0.000000
G00 X23.383333 Y89.339583

G01 Z2 F100.0(Penetrate)
G03 X26.613195 Y90.200814 Z2 I-0.842258 J9.645776 F75.000000
G02 X29.864583 Y91.500000 Z2 I13.660106 J-29.468145
G00 Z0.000000

(End cutting path id: path5)


(Start cutting path id: path5)
(Change tool to Default tool)

G00 Z0.000000
G00 X65.193750 Y75.487500

G01 Z2 F100.0(Penetrate)
G02 X61.280202 Y73.382200 Z2 I-12.709604 J18.935821 F75.000000
G03 X57.187500 Y71.224130 Z2 I10.006886 J-23.937559
G02 X45.793595 Y64.452300 Z2 I-94.092357 J145.343274
G03 X34.185417 Y58.059530 Z2 I582.868543 J-1072.125368
G02 X30.467183 Y56.148808 Z2 I-29.839452 J53.493924
G03 X26.687500 Y54.359210 Z2 I541.092241 J-1147.688590
G03 X25.315319 Y53.702496 Z2 I129.886029 J-273.154185
G02 X24.018750 Y53.120830 Z2 I-11.344248 J23.551129
G00 Z0.000000

(End cutting path id: path5)


(Start cutting path id: path5)
(Change tool to Default tool)

G00 Z0.000000
G00 X36.981250 Y53.247920

G01 Z2 F100.0(Penetrate)
G01 X53.629167 Y61.017650 Z2 F75.000000
G01 X60.237500 Y63.922920 Z2
G00 Z0.000000

(End cutting path id: path5)


(Start cutting path id: path5)
(Change tool to Default tool)

G00 Z0.000000
G00 X61.000000 Y68.116670

G01 Z2 F100.0(Penetrate)
G01 X50.706250 Y63.129030 Z2 F75.000000
G01 X36.091667 Y56.082970 Z2
G01 X27.831250 Y52.104170 Z2
G00 Z0.000000

(End cutting path id: path5)


(Start cutting path id: path5)
(Change tool to Default tool)

G00 Z0.000000
G00 X37.743750 Y50.452080

G01 Z2 F100.0(Penetrate)
G01 X42.827083 Y52.631610 Z2 F75.000000
G01 X53.247917 Y57.226330 Z2
G01 X58.458333 Y59.475000 Z2
G00 Z0.000000

(End cutting path id: path5)


(Start cutting path id: path5)
(Change tool to Default tool)

G00 Z0.000000
G00 X52.739583 Y53.629170

G01 Z2 F100.0(Penetrate)
G01 X58.077083 Y56.043750 Z2 F75.000000
G00 Z0.000000

(End cutting path id: path5)


(Footer)
M5
M2
(Using default footer. To add your own footer create file "footer" in the output dir.)
(end)
%