%
(Header)
(Generated by gcodetools from Inkscape.)
(Using default header. To add your own header create file "header" in the output dir.)
M3
(Header end.)
G21 (All units in mm)

(Start cutting path id: path17)
(Change tool to Default tool)

G00 Z0.000000
G00 X77.393747 Y109.037503

G01 Z2 F100.0(Penetrate)
G02 X76.905384 Y108.006268 Z2 I-11.050483 J4.601933 F75.000000
G03 X76.541033 Y106.877087 Z2 I2.959020 J-1.578155
G02 X76.069446 Y103.786279 Z2 I-90.454971 J12.220000
G02 X74.979164 Y100.777087 Z2 I-8.857516 J1.507120
G00 Z0.000000

(End cutting path id: path17)


(Start cutting path id: path17)
(Change tool to Default tool)

G00 Z0.000000
G00 X73.199997 Y96.075004

G01 Z2 F100.0(Penetrate)
G01 X73.454164 Y96.075004 Z2 F75.000000
G00 Z0.000000

(End cutting path id: path17)


(Start cutting path id: path17)
(Change tool to Default tool)

G00 Z0.000000
G00 X77.139580 Y92.008337

G01 Z2 F100.0(Penetrate)
G03 X75.806152 Y89.207363 Z2 I4.370784 J-3.798632 F75.000000
G03 X75.625955 Y85.781254 Z2 I14.045366 J-2.456512
G03 X76.194536 Y82.357821 Z2 I17.961741 J1.224245
G03 X77.504650 Y79.172920 Z2 I12.917500 J3.451723
G03 X78.246271 Y78.009540 Z2 I12.449871 J7.118367
G03 X79.104763 Y76.885420 Z2 I15.789693 J11.168726
G03 X80.784853 Y75.259474 Z2 I8.004831 J6.590402
G02 X82.463841 Y73.957510 Z2 I-182.486698 J-237.064903
G01 X83.379902 Y73.240310 Z2
G03 X84.104950 Y73.167035 Z2 I0.583835 J2.153205
G02 X85.145830 Y73.200010 Z2 I1.040880 J-16.411454
G00 Z0.000000

(End cutting path id: path17)


(Start cutting path id: path17)
(Change tool to Default tool)

G00 Z0.000000
G00 X85.527116 Y75.233340

G01 Z2 F100.0(Penetrate)
G01 X85.654199 Y74.343750 Z2 F75.000000
G00 Z0.000000

(End cutting path id: path17)


(Start cutting path id: path17)
(Change tool to Default tool)

G00 Z0.000000
G00 X84.637532 Y75.995840

G01 Z2 F100.0(Penetrate)
G01 X84.764616 Y75.995840 Z2 F75.000000
G00 Z0.000000

(End cutting path id: path17)


(Start cutting path id: path17)
(Change tool to Default tool)

G00 Z0.000000
G00 X81.206247 Y77.266687

G01 Z2 F100.0(Penetrate)
G02 X80.975074 Y78.148508 Z2 I24.136764 J6.798776 F75.000000
G02 X80.818721 Y79.045857 Z2 I6.741075 J1.636849
G01 X80.906681 Y79.931907 Z2
G01 X81.714582 Y80.040757 Z2
G02 X82.495481 Y79.911281 Z2 I-0.515521 J-5.528862
G03 X83.366665 Y79.736967 Z2 I2.718296 J11.321286
G03 X84.332067 Y79.605637 Z2 I3.204555 J19.942638
G02 X84.764582 Y79.554187 Z2 I-3.300935 J-29.592826
G03 X84.764537 Y79.924300 Z2 I-1508.169846 J-0.023930
G02 X84.764582 Y80.570857 Z2 I1024.185236 J0.257658
G02 X84.837453 Y82.691516 Z2 I31.246183 J-0.012111
G02 X85.055030 Y85.018771 Z2 I46.812659 J-3.202760
G03 X85.120649 Y85.618251 Z2 I-32.913335 J3.906034
G03 X85.145830 Y86.035438 Z2 I-5.246406 J0.526018
G03 X83.849399 Y86.035270 Z2 I0.118225 J-5008.211683
G02 X82.095830 Y86.035438 Z2 I-0.661461 J2472.948160
G01 X80.901678 Y86.330004 Z2
G01 X80.836368 Y87.306271 Z2
G02 X81.037266 Y88.719336 Z2 I9.772731 J-0.668591
G03 X81.297046 Y90.229188 Z2 I-17.112886 J3.721663
G02 X81.446676 Y91.107847 Z2 I10.519450 J-1.339325
G02 X81.776942 Y91.954423 Z2 I2.767437 J-0.591923
G03 X81.958705 Y92.516413 Z2 I-1.163357 J0.686650
G02 X82.027677 Y93.025021 Z2 I6.031981 J-0.559015
G02 X82.333129 Y94.587610 Z2 I49.351382 J-8.835980
G03 X82.477077 Y95.439604 Z2 I-10.174761 J2.157222
G02 X82.078924 Y95.441907 Z2 I-0.000000 J34.420313
G03 X81.333327 Y95.435104 Z2 I-0.208433 J-18.017825
G01 X80.110346 Y96.076991 Z2
G02 X80.330457 Y96.649077 Z2 I1.059526 J-0.079266
G02 X80.827347 Y97.180636 Z2 I3.135763 J-2.433227
G02 X82.097354 Y98.046109 Z2 I3.967809 J-4.457866
G03 X83.366660 Y98.719658 Z2 I-17.279089 J34.095322
G02 X85.749393 Y99.808962 Z2 I8.172537 J-14.725897
G02 X88.195827 Y100.268780 Z2 I2.602658 J-7.109319
G00 Z0.000000

(End cutting path id: path17)


(Start cutting path id: path17)
(Change tool to Default tool)

G00 Z0.000000
G00 X91.754160 Y100.268780

G01 Z2 F100.0(Penetrate)
G02 X91.706070 Y99.277086 Z2 I-10.390921 J0.006872 F75.000000
G03 X91.626489 Y97.854197 Z2 I17.570532 J-1.696375
G02 X91.600217 Y97.459572 Z2 I-3.893134 J0.060997
G02 X91.505681 Y96.837531 Z2 I-9.317958 J1.097912
G03 X91.419403 Y96.297779 Z2 I10.391321 J-1.937807
G03 X91.377812 Y95.820864 Z2 I5.197829 J-0.693560
G02 X91.268257 Y93.650867 Z2 I-119.028117 J4.921535
G03 X91.245827 Y92.897947 Z2 I12.625788 J-0.752920
G00 Z0.000000

(End cutting path id: path17)


(Start cutting path id: path17)
(Change tool to Default tool)

G00 Z0.000000
G00 X90.991663 Y92.643754

G01 Z2 F100.0(Penetrate)
G03 X90.092602 Y92.643609 Z2 I0.044930 J-2793.361062 F75.000000
G02 X87.814580 Y92.643754 Z2 I-0.971142 J2955.631861
G01 X86.674850 Y92.847518 Z2
G01 X86.845373 Y94.550004 Z2
G03 X86.980397 Y95.180745 Z2 I-9.609126 J2.386873
G03 X87.055904 Y95.693263 Z2 I-7.958251 J1.434270
G02 X87.209433 Y96.163729 Z2 I1.230092 J-0.141137
G02 X87.614639 Y96.794947 Z2 I6.035975 J-3.429083
G03 X87.807269 Y97.291843 Z2 I-0.857120 J0.618063
G02 X87.873513 Y97.727184 Z2 I6.061601 J-0.699659
G02 X88.223082 Y99.401371 Z2 I44.831940 J-8.487292
G03 X88.195830 Y100.268753 Z2 I-1.670605 J0.381630
G02 X89.626539 Y100.466844 Z2 I1.296900 J-4.101157
G02 X91.118746 Y100.392699 Z2 I-1.253976 J-40.289804
G02 X91.618793 Y100.340546 Z2 I-0.479310 J-7.018955
G03 X92.135413 Y100.268753 Z2 I23.012623 J163.703770
G02 X94.197008 Y99.852191 Z2 I-2.277138 J-16.579497
G02 X96.202079 Y99.102254 Z2 I-2.905439 J-10.823531
G02 X96.848244 Y98.721565 Z2 I-2.086361 J-4.280027
G03 X97.472913 Y98.306317 Z2 I8.761983 J12.503423
G03 X98.062759 Y97.973801 Z2 I3.700455 J5.874770
G02 X98.616663 Y97.638934 Z2 I-1.832172 J-3.656138
G02 X99.729591 Y96.734118 Z2 I-7.020960 J-9.772669
G02 X100.755020 Y95.693754 Z2 I-9.805283 J-10.690066
G02 X101.291030 Y94.932297 Z2 I-3.044567 J-2.712536
G03 X101.755310 Y94.168754 Z2 I8.280153 J4.511906
G03 X102.252576 Y93.536346 Z2 I4.595028 J3.101393
G02 X102.708820 Y92.897920 Z2 I-2.453611 J-2.235682
G02 X104.057415 Y89.961170 Z2 I-19.817576 J-10.878516
G02 X104.185580 Y86.943831 Z2 I-4.542339 J-1.704333
G01 X103.191660 Y86.543851 Z2
G02 X101.970689 Y86.542270 Z2 I-0.750993 J108.495634
G03 X101.285410 Y86.543754 Z2 I-0.685279 J-158.200871
G03 X101.255713 Y87.950202 Z2 I-33.320000 J0.000000
G03 X100.919360 Y90.483337 Z2 I-14.236697 J-0.601472
G02 X100.735121 Y91.381218 Z2 I23.036869 J5.194853
G03 X100.003110 Y92.287606 Z2 I-1.202736 J-0.222561
G03 X99.238768 Y92.408995 Z2 I-0.632852 J-1.517758
G02 X98.489579 Y92.425477 Z2 I-0.294114 J3.666396
G03 X97.571566 Y92.527900 Z2 I-4.420134 J-35.452194
G02 X96.710413 Y92.702785 Z2 I0.422259 J4.286900
G03 X96.114713 Y92.783298 Z2 I-0.534939 J-1.713910
G02 X95.566663 Y92.771325 Z2 I-0.772709 J22.820058
G02 X93.777578 Y92.761966 Z2 I-1.901173 J192.434471
G02 X92.135609 Y92.771226 Z2 I-0.076858 J131.958576
G02 X91.520021 Y92.831942 Z2 I0.042115 J3.578032
G02 X91.245830 Y92.897917 Z2 I0.505703 J2.704436
G01 X90.991663 Y92.643751 Z2
G02 X91.060293 Y92.370117 Z2 I-3.248153 J-0.960090
G02 X91.113353 Y91.753972 Z2 I-2.568157 J-0.531517
G02 X90.978646 Y89.699285 Z2 I-31.000585 J1.000668
G03 X90.864580 Y87.433334 Z2 I23.347763 J-2.311151
G02 X90.841618 Y86.856323 Z2 I-7.631420 J0.014729
G02 X90.752205 Y86.289584 Z2 I-3.630580 J0.282365
G03 X90.658703 Y85.597972 Z2 I3.367021 J-0.807326
G02 X90.588840 Y84.510418 Z2 I-17.727538 J0.592779
G01 X90.250736 Y80.443747 Z2
G01 X90.359777 Y79.267247 Z2
G01 X91.499996 Y79.045837 Z2
G03 X93.873525 Y79.173936 Z2 I0.025107 J21.588298
G02 X95.947913 Y79.299507 Z2 I2.329728 J-21.289367
G02 X96.548656 Y79.301202 Z2 I0.398728 J-34.849585
G03 X96.964579 Y79.299997 Z2 I0.415923 J71.754272
G02 X96.867455 Y78.324263 Z2 I-23.898607 J1.886155
G02 X96.410158 Y76.631247 Z2 I-6.060454 J0.728709
G02 X96.144335 Y76.160551 Z2 I-2.342170 J1.012320
G02 X95.691392 Y75.787757 Z2 I-0.921730 J0.658339
G02 X94.782597 Y75.573652 Z2 I-0.995491 J2.189681
G03 X93.533329 Y75.481127 Z2 I0.596145 J-16.529195
G02 X92.288875 Y75.384939 Z2 I-2.011854 J17.930467
G03 X91.118746 Y75.287367 Z2 I0.614467 J-14.434168
G01 X90.269563 Y75.364067 Z2
G01 X89.979997 Y76.631267 Z2
G02 X90.090418 Y78.301064 Z2 I36.789088 J-1.594244
G03 X90.102080 Y79.045857 Z2 I-5.079499 J0.452026
G00 Z0.000000

(End cutting path id: path17)


(Start cutting path id: path17)
(Change tool to Default tool)

G00 Z0.000000
G00 X90.102080 Y79.045840

G01 Z2 F100.0(Penetrate)
G02 X89.731523 Y79.067529 Z2 I0.108457 J5.029384 F75.000000
G02 X89.085413 Y79.136640 Z2 I2.763599 J28.891170
G03 X87.498239 Y79.260625 Z2 I-2.347465 J-19.829684
G03 X85.908330 Y79.300490 Z2 I-2.326231 J-61.051386
G02 X85.263255 Y79.354206 Z2 I0.056522 J4.578998
G02 X84.891663 Y79.427090 Z2 I0.727819 J4.694408
G02 X84.887417 Y78.833937 Z2 I-41.429372 J0.000000
G03 X84.893563 Y77.393750 Z2 I38.743658 J-0.554758
G02 X84.864487 Y76.530501 Z2 I-7.646853 J-0.174554
G03 X85.177930 Y75.644790 Z2 I1.121591 J-0.101399
G01 X86.416699 Y75.359930 Z2
G02 X87.180498 Y75.307363 Z2 I0.001027 J-5.560375
G03 X88.068782 Y75.235200 Z2 I1.081476 J7.809105
G03 X89.142344 Y75.218711 Z2 I1.436816 J58.590729
G02 X89.847949 Y74.979170 Z2 I-0.007317 J-1.180561
G01 X89.847949 Y74.852090 Z2
G01 X89.847949 Y74.725000 Z2
G01 X89.847949 Y74.597920 Z2
G00 Z0.000000

(End cutting path id: path17)


(Start cutting path id: path17)
(Change tool to Default tool)

G00 Z0.000000
G00 X95.693782 Y75.614590

G01 Z2 F100.0(Penetrate)
G01 X95.693782 Y75.360420 Z2 F75.000000
G00 Z0.000000

(End cutting path id: path17)


(Start cutting path id: path17)
(Change tool to Default tool)

G00 Z0.000000
G00 X97.345829 Y79.681250

G01 Z2 F100.0(Penetrate)
G01 X96.964579 Y79.300000 Z2 F75.000000
G00 Z0.000000

(End cutting path id: path17)


(Start cutting path id: path17)
(Change tool to Default tool)

G00 Z0.000000
G00 X97.727079 Y86.289587

G01 Z2 F100.0(Penetrate)
G02 X99.447352 Y86.476948 Z2 I1.378138 J-4.662396 F75.000000
G03 X101.158330 Y86.416671 Z2 I1.710978 J24.253103
G00 Z0.000000

(End cutting path id: path17)


(Start cutting path id: path17)
(Change tool to Default tool)

G00 Z0.000000
G00 X101.285413 Y86.289547

G01 Z2 F100.0(Penetrate)
G02 X101.125354 Y84.593459 Z2 I-16.622246 J0.713037 F75.000000
G03 X100.688143 Y81.587460 Z2 I1711.506103 J-250.466791
G02 X100.448628 Y80.681527 Z2 I-4.044068 J0.584562
G02 X99.887499 Y79.808300 Z2 I-2.459479 J0.963541
G00 Z0.000000

(End cutting path id: path17)


(Start cutting path id: path17)
(Change tool to Default tool)

G00 Z0.000000
G00 X97.727079 Y86.289587

G01 Z2 F100.0(Penetrate)
G01 X97.726589 Y85.399808 Z2 F75.000000
G01 X97.621569 Y84.256254 Z2
G01 X97.367402 Y80.697920 Z2
G01 X97.345832 Y79.681250 Z2
G03 X97.767892 Y79.672924 Z2 I0.338605 J6.462700
G03 X98.616666 Y79.735050 Z2 I-0.091255 J7.075810
G02 X99.286543 Y79.767889 Z2 I0.529447 J-3.951266
G02 X99.887499 Y79.554130 Z2 I-0.037232 J-1.056306
G01 X99.887499 Y79.427050 Z2
G01 X99.887499 Y79.299960 Z2
G01 X99.887499 Y79.172880 Z2
G00 Z0.000000

(End cutting path id: path17)


(Start cutting path id: path17)
(Change tool to Default tool)

G00 Z0.000000
G00 X103.954196 Y73.835420

G01 Z2 F100.0(Penetrate)
G01 X103.954196 Y73.200000 Z2 F75.000000
G00 Z0.000000

(End cutting path id: path17)


(Start cutting path id: path17)
(Change tool to Default tool)

G00 Z0.000000
G00 X104.335410 Y86.543764

G01 Z2 F100.0(Penetrate)
G02 X104.164768 Y84.100226 Z2 I-17.580603 J0.000000 F75.000000
G02 X103.529180 Y81.460430 Z2 I-13.905933 J1.951737
G02 X102.184217 Y78.594149 Z2 I-14.190097 J4.909814
G02 X100.266880 Y76.123030 Z2 I-11.607585 J7.026917
G02 X99.104402 Y75.065140 Z2 I-9.836576 J9.641419
G02 X97.854260 Y74.143040 Z2 I-10.701031 J13.199487
G03 X97.107638 Y73.542337 Z2 I3.041542 J-4.544719
G02 X96.571954 Y73.240410 Z2 I-0.854172 J0.889315
G02 X95.685788 Y73.153823 Z2 I-0.704966 J2.636916
G03 X94.295829 Y73.200010 Z2 I-1.389959 J-20.891602
G00 Z0.000000

(End cutting path id: path17)


(Start cutting path id: path17)
(Change tool to Default tool)

G00 Z0.000000
G00 X85.399996 Y86.289587

G01 Z2 F100.0(Penetrate)
G01 X85.145830 Y86.035421 Z2 F75.000000
G00 Z0.000000

(End cutting path id: path17)


(Start cutting path id: path17)
(Change tool to Default tool)

G00 Z0.000000
G00 X80.697913 Y86.035421

G01 Z2 F100.0(Penetrate)
G03 X80.608652 Y84.844984 Z2 I11.644357 J-1.471674 F75.000000
G03 X80.570830 Y81.841670 Z2 I132.035935 J-3.164700
G03 X80.572702 Y81.064864 Z2 I106.957217 J-0.130599
G03 X80.697913 Y80.189590 Z2 I3.259537 J0.019694
G00 Z0.000000

(End cutting path id: path17)


(Start cutting path id: path17)
(Change tool to Default tool)

G00 Z0.000000
G00 X78.410413 Y81.079170

G01 Z2 F100.0(Penetrate)
G03 X79.487729 Y80.782903 Z2 I16.202972 J56.811974 F75.000000
G03 X80.316663 Y80.697920 Z2 I0.683318 J2.579929
G00 Z0.000000

(End cutting path id: path17)


(Start cutting path id: path17)
(Change tool to Default tool)

G00 Z0.000000
G00 X77.774997 Y86.416671

G01 Z2 F100.0(Penetrate)
G03 X79.564604 Y86.183030 Z2 I1.627115 J5.492423 F75.000000
G02 X80.697913 Y86.035421 Z2 I0.103093 J-3.632929
G00 Z0.000000

(End cutting path id: path17)


(Start cutting path id: path17)
(Change tool to Default tool)

G00 Z0.000000
G00 X81.333330 Y91.500004

G01 Z2 F100.0(Penetrate)
G02 X80.800766 Y91.506941 Z2 I0.000000 J20.445171 F75.000000
G03 X79.935413 Y91.488624 Z2 I-0.238845 J-9.166165
G03 X78.379930 Y91.351834 Z2 I2.757116 J-40.264503
G02 X77.272155 Y92.142868 Z2 I-0.109404 J1.017978
G02 X77.615962 Y93.592303 Z2 I1.647939 J0.374601
G03 X78.591527 Y94.803675 Z2 I-53.008913 J43.688663
G02 X79.334641 Y95.510056 Z2 I2.806136 J-2.207989
G02 X79.935413 Y95.820832 Z2 I1.414264 J-1.997889
G00 Z0.000000

(End cutting path id: path17)


(Start cutting path id: path17)
(Change tool to Default tool)

G00 Z0.000000
G00 X83.493747 Y96.075004

G01 Z2 F100.0(Penetrate)
G03 X85.061270 Y96.187261 Z2 I-0.007335 J11.102776 F75.000000
G02 X87.052080 Y96.329170 Z2 I1.990810 J-13.893338
G00 Z0.000000

(End cutting path id: path17)


(Start cutting path id: path17)
(Change tool to Default tool)

G00 Z0.000000
G00 X87.941663 Y96.710420

G01 Z2 F100.0(Penetrate)
G03 X89.825226 Y96.780182 Z2 I0.000000 J25.462842 F75.000000
G02 X91.372913 Y96.837504 Z2 I1.547687 J-20.865010
G00 Z0.000000

(End cutting path id: path17)


(Start cutting path id: path17)
(Change tool to Default tool)

G00 Z0.000000
G00 X91.754163 Y96.837504

G01 Z2 F100.0(Penetrate)
G02 X93.203576 Y96.817580 Z2 I-0.000000 J-52.729098 F75.000000
G03 X94.804163 Y96.837504 Z2 I0.550990 J20.037228
G00 Z0.000000

(End cutting path id: path17)


(Start cutting path id: path17)
(Change tool to Default tool)

G00 Z0.000000
G00 X94.931246 Y97.091670

G01 Z2 F100.0(Penetrate)
G03 X95.833370 Y96.535183 Z2 I1.279194 J1.064244 F75.000000
G03 X96.583329 Y96.456254 Z2 I0.692306 J2.975687
G00 Z0.000000

(End cutting path id: path17)


(Start cutting path id: path17)
(Change tool to Default tool)

G00 Z0.000000
G00 X95.820829 Y96.202087

G01 Z2 F100.0(Penetrate)
G02 X96.269665 Y94.636073 Z2 I-16.117323 J-5.466717 F75.000000
G02 X96.583329 Y92.897920 Z2 I-16.314861 J-3.841532
G00 Z0.000000

(End cutting path id: path17)


(Start cutting path id: path17)
(Change tool to Default tool)

G00 Z0.000000
G00 X97.091663 Y92.389587

G01 Z2 F100.0(Penetrate)
G02 X97.089763 Y92.101180 Z2 I-19.895067 J-0.013159 F75.000000
G03 X97.103043 Y91.626498 Z2 I5.680763 J-0.078601
G03 X97.310347 Y89.579845 Z2 I32.913200 J2.299925
G02 X97.563720 Y87.560421 Z2 I-138.020531 J-18.342779
G02 X97.600985 Y86.903571 Z2 I-5.373909 J-0.634362
G03 X97.600000 Y86.416671 Z2 I114.175195 J-0.474500
G01 X96.583333 Y86.411671 Z2
G01 X95.439583 Y86.294589 Z2
G01 X91.754756 Y86.287789 Z2
G01 X90.991667 Y86.162470 Z2
G00 Z0.000000

(End cutting path id: path17)


(Start cutting path id: path17)
(Change tool to Default tool)

G00 Z0.000000
G00 X86.543746 Y92.770832

G01 Z2 F100.0(Penetrate)
G03 X86.176817 Y92.084431 Z2 I1.938116 J-1.477333 F75.000000
G03 X86.032276 Y91.372915 Z2 I2.646255 J-0.908013
G02 X85.864798 Y90.141038 Z2 I-9.570273 J0.673791
G03 X85.622785 Y88.831249 Z2 I37.839307 J-7.668908
G02 X85.475865 Y87.963929 Z2 I-184.991143 J30.890583
G03 X85.401958 Y87.179166 Z2 I5.099221 J-0.876092
G01 X85.530610 Y86.366264 Z2
G01 X86.670830 Y86.162499 Z2
G03 X89.273907 Y86.162300 Z2 I1.561904 J3480.402762
G02 X90.610413 Y86.162499 Z2 I1.354369 J-4491.388459
G00 Z0.000000

(End cutting path id: path17)


(Start cutting path id: path17)
(Change tool to Default tool)

G00 Z0.000000
G00 X82.095830 Y91.881254

G01 Z2 F100.0(Penetrate)
G02 X83.985373 Y92.266829 Z2 I3.113958 J-10.437487 F75.000000
G02 X86.162496 Y92.389587 Z2 I2.177123 J-19.244398
G00 Z0.000000

(End cutting path id: path17)


(Start cutting path id: path17)
(Change tool to Default tool)

G00 Z0.000000
G00 X83.493744 Y98.616697

G01 Z2 F100.0(Penetrate)
G02 X83.728016 Y97.610115 Z2 I-1.766961 J-0.941795 F75.000000
G02 X83.368131 Y96.334198 Z2 I-2.758313 J0.089296
G02 X82.983775 Y95.873769 Z2 I-1.470983 J0.837303
G03 X82.477077 Y95.439614 Z2 I18.861142 J-22.525416
G00 Z0.000000

(End cutting path id: path17)


(Start cutting path id: path17)
(Change tool to Default tool)

G00 Z0.000000
G00 X73.327080 Y89.847921

G01 Z2 F100.0(Penetrate)
G03 X73.501402 Y90.000867 Z2 I-191.649247 J218.609474 F75.000000
G03 X73.810017 Y90.370863 Z2 I-1.029437 J1.172365
G03 X74.349851 Y91.583755 Z2 I-4.700577 J2.818713
G03 X74.597325 Y93.279170 Z2 I-5.395423 J1.653321
G03 X74.091260 Y95.154503 Z2 I-3.833741 J-0.028600
G03 X73.454164 Y96.075004 Z2 I-5.674212 J-3.246505
G03 X74.085561 Y97.155199 Z2 I-2.700339 J2.303034
G02 X75.741761 Y98.771505 Z2 I2.519092 J-0.924577
G02 X76.892654 Y98.771648 Z2 I0.575658 J-1.695096
G03 X78.156247 Y98.654815 Z2 I0.875858 J2.581184
G03 X80.400808 Y99.386526 Z2 I-0.978840 J6.811147
G03 X82.349899 Y100.637159 Z2 I-6.545998 J12.345962
G03 X83.596991 Y102.862487 Z2 I-1.960773 J2.560938
G02 X85.399996 Y104.584095 Z2 I1.914722 J-0.200320
G03 X86.267446 Y104.645688 Z2 I-1.968995 J33.869728
G02 X87.052080 Y104.705295 Z2 I4.174457 J-49.756162
G03 X87.486788 Y104.739773 Z2 I-1.317325 J19.366960
G02 X88.028444 Y104.639985 Z2 I0.092330 J-1.018795
G01 X88.442642 Y103.700490 Z2
G03 X89.221773 Y102.715464 Z2 I1.670080 J0.520341
G03 X90.483330 Y102.313946 Z2 I1.502839 J2.539230
G03 X92.193304 Y102.304229 Z2 I0.918641 J11.196512
G03 X93.781907 Y102.892884 Z2 I-0.212685 J3.011882
G01 X94.938208 Y104.120276 Z2
G02 X96.027202 Y104.037587 Z2 I0.443164 J-1.375875
G02 X97.091172 Y103.471720 Z2 I-10.508065 J-21.040954
G02 X97.610578 Y103.078437 Z2 I-1.202738 J-2.128074
G02 X97.931139 Y102.555759 Z2 I-0.912703 J-0.919406
G02 X98.057736 Y101.671261 Z2 I-2.527500 J-0.813066
G03 X98.200799 Y100.777083 Z2 I2.453264 J-0.066026
G03 X98.899038 Y99.797400 Z2 I2.085169 J0.747474
G03 X99.887496 Y99.159712 Z2 I3.559986 J4.433282
G03 X102.459112 Y99.090931 Z2 I1.358372 J2.678668
G02 X104.711560 Y98.996152 Z2 I1.030065 J-2.332634
G02 X105.452747 Y98.316992 Z2 I-1.006232 J-1.842151
G02 X106.014360 Y97.472916 Z2 I-3195.728395 J-2126.910855
G02 X106.353804 Y96.818702 Z2 I-2.836939 J-1.887139
G02 X106.434250 Y96.075000 Z2 I-1.343652 J-0.521544
G02 X106.220475 Y95.539005 Z2 I-1.278922 J0.199455
G02 X105.858940 Y95.058333 Z2 I-6.101183 J4.212669
G03 X105.141182 Y93.575913 Z2 I2.743253 J-2.243200
G03 X105.212740 Y91.881250 Z2 I3.239367 J-0.712059
G03 X105.974495 Y89.894654 Z2 I15.551266 J4.823746
G03 X107.258820 Y88.313698 Z2 I3.728894 J1.717098
G03 X108.046788 Y87.799407 Z2 I4.703592 J6.345799
G02 X108.615850 Y87.051593 Z2 I-0.595781 J-1.043795
G02 X108.665065 Y86.320030 Z2 I-1.966792 J-0.499750
G02 X108.583050 Y85.654167 Z2 I-41.298560 J4.748781
G03 X108.578777 Y84.129410 Z2 I5.933004 J-0.779011
G02 X108.185620 Y82.617506 Z2 I-2.092781 J-0.262862
G02 X107.397472 Y82.063948 Z2 I-1.216199 J0.893753
G03 X106.507650 Y81.625346 Z2 I0.829585 J-2.804957
G03 X105.646784 Y80.572059 Z2 I1.571542 J-2.162887
G03 X105.194460 Y79.299996 Z2 I7.122415 J-3.249057
G03 X105.211384 Y77.668657 Z2 I3.006036 J-0.784572
G02 X105.444120 Y76.249996 Z2 I-6.109364 J-1.730683
G02 X105.308311 Y75.524982 Z2 I-1.586102 J-0.078119
G02 X104.920880 Y74.852176 Z2 I-3.451133 J1.539359
G02 X104.560007 Y74.379154 Z2 I-9.168378 J6.620476
G02 X104.076200 Y74.021536 Z2 I-0.924383 J0.744491
G02 X102.672698 Y73.960353 Z2 I-0.789127 J1.973780
G03 X101.425690 Y73.873266 Z2 I-0.508841 J-1.685410
G03 X100.853959 Y73.515348 Z2 I1.119447 J-2.423776
G02 X100.014540 Y73.199996 Z2 I-0.885149 J1.081253
G00 Z0.000000

(End cutting path id: path17)


(Start cutting path id: path17)
(Change tool to Default tool)

G00 Z0.000000
G00 X99.760413 Y92.770832

G01 Z2 F100.0(Penetrate)
G01 X99.760413 Y92.516670 Z2 F75.000000
G00 Z0.000000

(End cutting path id: path17)


(Start cutting path id: path17)
(Change tool to Default tool)

G00 Z0.000000
G00 X109.037500 Y95.058332

G01 Z2 F100.0(Penetrate)
G01 X109.672910 Y94.931249 Z2 F75.000000
G00 Z0.000000

(End cutting path id: path17)


(Start cutting path id: path17)
(Change tool to Default tool)

G00 Z0.000000
G00 X103.954150 Y105.987503

G01 Z2 F100.0(Penetrate)
G01 X105.097900 Y106.368753 Z2 F75.000000
G00 Z0.000000

(End cutting path id: path17)


(Start cutting path id: path17)
(Change tool to Default tool)

G00 Z0.000000
G00 X107.512500 Y109.037503

G01 Z2 F100.0(Penetrate)
G03 X108.088559 Y107.040095 Z2 I6.703908 J0.851656 F75.000000
G03 X108.983560 Y105.484171 Z2 I9.388199 J4.364921
G03 X109.392676 Y104.940161 Z2 I7.757380 J5.408007
G02 X109.633000 Y104.457502 Z2 I-0.965030 J-0.781664
G02 X109.696527 Y103.781167 Z2 I-2.211085 J-0.548834
G03 X109.672900 Y102.937503 Z2 I15.050926 J-0.843664
G01 X109.672900 Y101.412503 Z2
G00 Z0.000000

(End cutting path id: path17)


(Start cutting path id: path17)
(Change tool to Default tool)

G00 Z0.000000
G00 X99.760413 Y103.572920

G01 Z2 F100.0(Penetrate)
G01 X100.014580 Y103.572920 Z2 F75.000000
G00 Z0.000000

(End cutting path id: path17)


(Start cutting path id: path17)
(Change tool to Default tool)

G00 Z0.000000
G00 X101.412490 Y108.910420

G01 Z2 F100.0(Penetrate)
G01 X102.683320 Y101.793753 Z2 F75.000000
G00 Z0.000000

(End cutting path id: path17)


(Start cutting path id: path17)
(Change tool to Default tool)

G00 Z0.000000
G00 X94.168746 Y109.037503

G01 Z2 F100.0(Penetrate)
G01 X94.549996 Y107.131253 Z2 F75.000000
G00 Z0.000000

(End cutting path id: path17)


(Start cutting path id: path17)
(Change tool to Default tool)

G00 Z0.000000
G00 X88.322913 Y109.037503

G01 Z2 F100.0(Penetrate)
G01 X88.449996 Y107.385420 Z2 F75.000000
G00 Z0.000000

(End cutting path id: path17)


(Start cutting path id: path17)
(Change tool to Default tool)

G00 Z0.000000
G00 X85.018746 Y109.037503

G01 Z2 F100.0(Penetrate)
G02 X84.626609 Y107.698401 Z2 I-8.464731 J1.751809 F75.000000
G02 X84.002080 Y106.622920 Z2 I-3.635202 J1.391881
G00 Z0.000000

(End cutting path id: path17)


(Start cutting path id: path17)
(Change tool to Default tool)

G00 Z0.000000
G00 X78.791653 Y106.750003

G01 Z2 F100.0(Penetrate)
G02 X79.900642 Y106.409645 Z2 I-0.562765 J-3.810549 F75.000000
G02 X81.079153 Y105.733337 Z2 I-4.096392 J-8.503201
G00 Z0.000000

(End cutting path id: path17)


(Start cutting path id: path17)
(Change tool to Default tool)

G00 Z0.000000
G00 X73.199987 Y106.877087

G01 Z2 F100.0(Penetrate)
G01 X74.343737 Y106.241670 Z2 F75.000000
G00 Z0.000000

(End cutting path id: path17)


(Start cutting path id: path17)
(Change tool to Default tool)

G00 Z0.000000
G00 X73.199997 Y82.477090

G01 Z2 F100.0(Penetrate)
G03 X73.403833 Y82.390122 Z2 I2.332174 J5.183822 F75.000000
G02 X73.836590 Y82.150550 Z2 I-0.762036 J-1.887167
G02 X74.638175 Y81.112394 Z2 I-1.365002 J-1.882490
G02 X75.069475 Y79.427090 Z2 I-6.710877 J-2.615275
G02 X74.871970 Y77.708363 Z2 I-3.552157 J-0.462522
G03 X74.537216 Y76.122920 Z2 I5.070055 J-1.898566
G03 X75.000561 Y74.855581 Z2 I1.696081 J-0.098276
G02 X75.694105 Y73.963090 Z2 I-4.179130 J-3.963272
G01 X76.384435 Y73.240400 Z2
G03 X76.996573 Y73.176875 Z2 I0.499441 J1.831621
G02 X77.774997 Y73.200000 Z2 I0.778424 J-13.090202
G01 X80.824997 Y73.200000 Z2
G00 Z0.000000

(End cutting path id: path17)


(Footer)
M5
M2
(Using default footer. To add your own footer create file "footer" in the output dir.)
(end)
%