%
(Header)
(Generated by gcodetools from Inkscape.)
(Using default header. To add your own header create file "header" in the output dir.)
M3
(Header end.)
G21 (All units in mm)

(Start cutting path id: path25)
(Change tool to Default tool)

G00 Z0.000000
G00 X12.962499 Y36.218760

G01 Z2 F100.0(Penetrate)
G01 X13.343749 Y36.218760 Z2 F75.000000
G00 Z0.000000

(End cutting path id: path25)


(Start cutting path id: path25)
(Change tool to Default tool)

G00 Z0.000000
G00 X17.029166 Y36.091670

G01 Z2 F100.0(Penetrate)
G03 X16.068544 Y34.101494 Z2 I16.568559 J-9.224271 F75.000000
G03 X15.431505 Y31.770840 Z2 I8.986829 J-3.708763
G03 X15.598104 Y28.091161 Z2 I9.781854 J-1.400735
G03 X16.520833 Y24.527090 Z2 I86.888237 J20.593676
G00 Z0.000000

(End cutting path id: path25)


(Start cutting path id: path25)
(Change tool to Default tool)

G00 Z0.000000
G00 X12.835418 Y24.272920

G01 Z2 F100.0(Penetrate)
G02 X13.481644 Y23.240435 Z2 I-2.644542 J-2.373680 F75.000000
G02 X13.852085 Y21.350010 Z2 I-4.638365 J-1.890425
G00 Z0.000000

(End cutting path id: path25)


(Start cutting path id: path25)
(Change tool to Default tool)

G00 Z0.000000
G00 X12.835418 Y26.052090

G01 Z2 F100.0(Penetrate)
G01 X12.835418 Y24.272920 Z2 F75.000000
G03 X12.440938 Y24.002417 Z2 I0.735653 J-1.495709
G03 X12.045560 Y23.509840 Z2 I1.438850 J-1.559892
G03 X11.540675 Y22.592129 Z2 I18.840772 J-10.963108
G02 X11.017029 Y21.604170 Z2 I-58.751255 J30.507090
G03 X10.144149 Y19.592828 Z2 I11.177429 J-6.045843
G03 X9.785418 Y17.410420 Z2 I6.575610 J-2.201546
G00 Z0.000000

(End cutting path id: path25)


(Start cutting path id: path25)
(Change tool to Default tool)

G00 Z0.000000
G00 X12.199999 Y16.520840

G01 Z2 F100.0(Penetrate)
G01 X12.327083 Y14.614590 Z2 F75.000000
G00 Z0.000000

(End cutting path id: path25)


(Start cutting path id: path25)
(Change tool to Default tool)

G00 Z0.000000
G00 X10.293752 Y9.658340

G01 Z2 F100.0(Penetrate)
G02 X11.259201 Y11.467386 Z2 I2051.998227 J-1093.944969 F75.000000
G03 X11.904553 Y13.343760 Z2 I-5.512958 J2.945270
G01 X12.345814 Y14.402880 Z2
G01 X13.597820 Y13.216670 Z2
G02 X14.054160 Y11.985805 Z2 I-11.589104 J-4.996656
G02 X14.228236 Y10.675010 Z2 I-3.708812 J-1.159493
G02 X14.085164 Y9.214616 Z2 I-12.495572 J0.486960
G03 X14.433079 Y7.752090 Z2 I1.953419 J-0.307954
G03 X15.432031 Y6.724070 Z2 I3.956429 J2.845195
G03 X16.946212 Y6.891530 Z2 I0.669396 J0.876665
G03 X17.300231 Y8.014705 Z2 I-1.177519 J0.988529
G03 X17.071038 Y9.150010 Z2 I-5.184059 J-0.455762
G03 X16.115712 Y11.392303 Z2 I-12.623711 J-4.053662
G02 X15.112132 Y13.597920 Z2 I15.741301 J8.493593
G02 X14.416499 Y17.882571 Z2 I10.315247 J3.873523
G02 X16.266668 Y20.968760 Z2 I3.731460 J-0.139327
G00 Z0.000000

(End cutting path id: path25)


(Start cutting path id: path25)
(Change tool to Default tool)

G00 Z0.000000
G00 X19.062501 Y29.356260

G01 Z2 F100.0(Penetrate)
G02 X19.275390 Y29.097852 Z2 I-7.203191 J-6.151244 F75.000000
G02 X19.608000 Y28.466480 Z2 I-1.505975 J-1.196651
G03 X20.120850 Y26.977001 Z2 I22.599750 J6.948401
G03 X20.831078 Y25.416670 Z2 I12.875539 J4.918855
G02 X21.716409 Y22.576853 Z2 I-7.054332 J-3.757145
G02 X21.707815 Y19.570840 Z2 I-12.694798 J-1.466725
G02 X20.918868 Y16.807461 Z2 I-9.102513 J1.104461
G03 X20.030238 Y13.979170 Z2 I10.286239 J-4.785615
G03 X19.920424 Y12.005561 Z2 I8.282398 J-1.450703
G03 X20.495817 Y10.887500 Z2 I1.563227 J0.097402
G01 X21.476987 Y11.818760 Z2
G02 X21.579485 Y13.633438 Z2 I18.341739 J-0.125757
G02 X22.235563 Y15.504170 Z2 I4.299348 J-0.457399
G02 X23.414562 Y16.907425 Z2 I5.949811 J-3.802047
G03 X24.608080 Y18.300010 Z2 I-5.160853 J5.630865
G03 X25.269823 Y19.905376 Z2 I-3.685775 J2.458371
G03 X25.522277 Y21.604170 Z2 I-18.239628 J3.578710
G02 X25.663974 Y22.398490 Z2 I5.341149 J-0.542998
G03 X25.685837 Y23.129170 Z2 I-1.608865 J0.413806
G03 X25.312911 Y24.125645 Z2 I-3.156867 J-0.613423
G03 X24.654168 Y25.162510 Z2 I-12.757191 J-7.377229
G00 Z0.000000

(End cutting path id: path25)


(Start cutting path id: path25)
(Change tool to Default tool)

G00 Z0.000000
G00 X30.627084 Y25.035420

G01 Z2 F100.0(Penetrate)
G02 X31.209570 Y23.283626 Z2 I-2.514763 J-1.808918 F75.000000
G03 X31.824864 Y20.079170 Z2 I9.571442 J0.176531
G03 X33.159488 Y17.973602 Z2 I5.756885 J2.173265
G02 X34.525092 Y16.012510 Z2 I-5.368429 J-5.194313
G02 X34.808358 Y15.225034 Z2 I-3.692959 J-1.773092
G02 X34.950271 Y14.488100 Z2 I-6.909574 J-1.712727
G01 X35.347992 Y13.823750 Z2
G01 X36.342305 Y14.160870 Z2
G01 X36.472917 Y15.631260 Z2
G00 Z0.000000

(End cutting path id: path25)


(Start cutting path id: path25)
(Change tool to Default tool)

G00 Z0.000000
G00 X35.202082 Y13.725010

G01 Z2 F100.0(Penetrate)
G01 X35.202082 Y13.470840 Z2 F75.000000
G00 Z0.000000

(End cutting path id: path25)


(Start cutting path id: path25)
(Change tool to Default tool)

G00 Z0.000000
G00 X28.847917 Y19.443760

G01 Z2 F100.0(Penetrate)
G02 X29.332441 Y18.436121 Z2 I-1.699682 J-1.437604 F75.000000
G02 X29.518634 Y16.393760 Z2 I-9.742684 J-1.917867
G02 X29.403245 Y15.897318 Z2 I-1.190036 J0.014971
G03 X29.264468 Y15.122920 Z2 I1.347006 J-0.641026
G03 X29.498294 Y13.358519 Z2 I20.994156 J1.884547
G02 X29.610417 Y12.072920 Z2 I-7.314290 J-1.285599
G00 Z0.000000

(End cutting path id: path25)


(Start cutting path id: path25)
(Change tool to Default tool)

G00 Z0.000000
G00 X28.339584 Y19.316670

G01 Z2 F100.0(Penetrate)
G03 X28.082874 Y18.459320 Z2 I1.994084 J-1.064181 F75.000000
G03 X28.302614 Y16.394250 Z2 I5.265873 J-0.483895
G03 X28.654367 Y15.800606 Z2 I1.436445 J0.450105
G03 X28.974999 Y15.504170 Z2 I2.694322 J2.592623
G00 Z0.000000

(End cutting path id: path25)


(Start cutting path id: path25)
(Change tool to Default tool)

G00 Z0.000000
G00 X21.222916 Y10.420840

G01 Z2 F100.0(Penetrate)
G01 X21.985416 Y8.768760 Z2 F75.000000
G00 Z0.000000

(End cutting path id: path25)


(Start cutting path id: path25)
(Change tool to Default tool)

G00 Z0.000000
G00 X31.262501 Y27.195840

G01 Z2 F100.0(Penetrate)
G03 X31.019613 Y26.199383 Z2 I5.122229 J-1.776383 F75.000000
G02 X30.634928 Y25.189080 Z2 I-2.457126 J0.357192
G02 X30.108493 Y24.631025 Z2 I-1.860160 J1.227430
G03 X29.702298 Y24.143880 Z2 I0.817836 J-1.094854
G03 X29.256389 Y22.681931 Z2 I4.172610 J-2.071665
G03 X29.107085 Y20.968760 Z2 I19.237720 J-2.539674
G01 X28.591788 Y19.470040 Z2
G01 X27.738880 Y20.460420 Z2
G03 X26.731422 Y22.092137 Z2 I-7.226881 J-3.335163
G03 X25.797918 Y22.747920 Z2 I-1.587984 J-1.268176
G00 Z0.000000

(End cutting path id: path25)


(Start cutting path id: path25)
(Change tool to Default tool)

G00 Z0.000000
G00 X26.179165 Y31.262510

G01 Z2 F100.0(Penetrate)
G03 X25.192889 Y30.106673 Z2 I14.880623 J-13.696358 F75.000000
G03 X24.527081 Y28.339590 Z2 I2.439648 J-1.928194
G00 Z0.000000

(End cutting path id: path25)


(Start cutting path id: path25)
(Change tool to Default tool)

G00 Z0.000000
G00 X19.189582 Y30.118760

G01 Z2 F100.0(Penetrate)
G02 X18.679696 Y28.982214 Z2 I-2.330423 J0.362845 F75.000000
G03 X18.311373 Y27.831260 Z2 I1.259799 J-1.037567
G03 X18.813340 Y23.919774 Z2 I33.872838 J2.359001
G02 X18.350403 Y19.843830 Z2 I-6.847073 J-1.286586
G01 X16.881297 Y20.081620 Z2
G02 X16.522209 Y20.784273 Z2 I2.073788 J1.502882
G02 X16.393751 Y21.604170 Z2 I2.438428 J0.802055
G00 Z0.000000

(End cutting path id: path25)


(Start cutting path id: path25)
(Change tool to Default tool)

G00 Z0.000000
G00 X19.062499 Y35.964590

G01 Z2 F100.0(Penetrate)
G03 X20.193370 Y34.175366 Z2 I2.517703 J0.339310 F75.000000
G02 X21.650154 Y32.787020 Z2 I-3.003923 J-4.610471
G02 X22.262014 Y31.270525 Z2 I-2.765079 J-1.997306
G03 X22.620832 Y29.864590 Z2 I6.635786 J0.944809
G00 Z0.000000

(End cutting path id: path25)


(Start cutting path id: path25)
(Change tool to Default tool)

G00 Z0.000000
G00 X26.179166 Y33.804170

G01 Z2 F100.0(Penetrate)
G02 X26.086636 Y32.535927 Z2 I-8.737692 J0.000000 F75.000000
G03 X26.255846 Y31.442740 Z2 I1.856437 J-0.272339
G01 X27.190340 Y30.725640 Z2
G02 X28.103309 Y29.170153 Z2 I-1.922369 J-2.173974
G03 X28.466664 Y27.577090 Z2 I84.208265 J18.368768
G00 Z0.000000

(End cutting path id: path25)


(Start cutting path id: path25)
(Change tool to Default tool)

G00 Z0.000000
G00 X36.472917 Y26.560420

G01 Z2 F100.0(Penetrate)
G03 X35.977062 Y25.873465 Z2 I6.008697 J-4.859610 F75.000000
G03 X35.075001 Y24.400010 Z2 I34.580544 J-22.183336
G00 Z0.000000

(End cutting path id: path25)


(Start cutting path id: path25)
(Change tool to Default tool)

G00 Z0.000000
G00 X32.914582 Y35.964590

G01 Z2 F100.0(Penetrate)
G03 X33.932565 Y34.871478 Z2 I3.514152 J2.252061 F75.000000
G02 X35.004201 Y33.803680 Z2 I-3.184412 J-4.267502
G02 X35.601499 Y32.562774 Z2 I-2.825446 J-2.124205
G02 X35.917612 Y31.262510 Z2 I-46.048194 J-11.883545
G03 X36.298811 Y30.090688 Z2 I6.676434 J1.523963
G02 X36.198744 Y28.995400 Z2 I-1.062794 J-0.455116
G02 X36.027576 Y28.788983 Z2 I-1.060210 J0.704982
G03 X35.837499 Y28.593760 Z2 I3.691878 J-3.784717
G00 Z0.000000

(End cutting path id: path25)


(Start cutting path id: path25)
(Change tool to Default tool)

G00 Z0.000000
G00 X31.389582 Y35.964590

G01 Z2 F100.0(Penetrate)
G01 X31.620312 Y32.025010 Z2 F75.000000
G01 X31.008332 Y29.737510 Z2
G00 Z0.000000

(End cutting path id: path25)


(Start cutting path id: path25)
(Change tool to Default tool)

G00 Z0.000000
G00 X7.879166 Y35.964590

G01 Z2 F100.0(Penetrate)
G03 X8.524898 Y32.917911 Z2 I7.815513 J0.064697 F75.000000
G03 X9.785416 Y30.118760 Z2 I102.865688 J44.639270
G00 Z0.000000

(End cutting path id: path25)


(Footer)
M5
M2
(Using default footer. To add your own footer create file "footer" in the output dir.)
(end)
%