%
(Header)
(Generated by gcodetools from Inkscape.)
(Using default header. To add your own header create file "header" in the output dir.)
M3
(Header end.)
G21 (All units in mm)

(Start cutting path id: path28)
(Change tool to Default tool)

G00 Z0.000000
G00 X143.858330 Y35.837510

G01 Z2 F100.0(Penetrate)
G02 X142.777500 Y34.788351 Z2 I-32.703384 J32.609306 F75.000000
G03 X141.582310 Y33.665230 Z2 I5609.191147 J-5970.320053
G03 X140.665480 Y32.714378 Z2 I9.198692 J-9.786993
G02 X139.628300 Y31.677290 Z2 I-8.194774 J7.158324
G02 X139.068443 Y31.355034 Z2 I-1.093121 J1.251637
G03 X138.520840 Y31.139440 Z2 I1.952212 J-5.761810
G03 X137.697732 Y30.661191 Z2 I1.903892 J-4.224204
G03 X137.142820 Y29.986670 Z2 I1.026387 J-1.409901
G01 X137.571930 Y28.720840 Z2
G02 X138.130951 Y27.591874 Z2 I-6.381210 J-3.862620
G02 X138.377280 Y26.179170 Z2 I-3.315567 J-1.305952
G02 X137.820958 Y25.148243 Z2 I-1.305861 J0.039118
G02 X136.995840 Y24.654170 Z2 I-3.861030 J5.512020
G00 Z0.000000

(End cutting path id: path28)


(Start cutting path id: path28)
(Change tool to Default tool)

G00 Z0.000000
G00 X140.808290 Y22.239590

G01 Z2 F100.0(Penetrate)
G02 X141.168378 Y21.858286 Z2 I-11.242434 J-10.977584 F75.000000
G02 X141.725230 Y21.095840 Z2 I-3.195691 J-2.918542
G03 X142.780391 Y19.570375 Z2 I9.626796 J5.531174
G02 X143.324650 Y17.791670 Z2 I-1.880300 J-1.547966
G02 X142.180972 Y14.380971 Z2 I-7.899442 J0.751747
G03 X141.190030 Y10.802090 Z2 I5.679145 J-3.499106
G03 X141.234450 Y10.225955 Z2 I4.484324 J0.055963
G03 X141.444880 Y9.671680 Z2 I1.336313 J0.190248
G03 X142.022314 Y9.181480 Z2 I1.132404 J0.748726
G03 X142.714540 Y9.039890 Z2 I0.663620 J1.481477
G03 X143.451733 Y9.199323 Z2 I-0.034726 J1.944618
G03 X144.003410 Y9.665690 Z2 I-0.495231 J1.145300
G03 X144.255222 Y10.586553 Z2 I-1.319526 J0.855688
G02 X144.239630 Y11.437510 Z2 I18.381229 J0.762413
G02 X144.310860 Y12.338774 Z2 I6.113636 J-0.029736
G02 X144.590780 Y13.343760 Z2 I4.350830 J-0.670366
G02 X145.694343 Y14.940441 Z2 I4.218730 J-1.736110
G03 X146.272870 Y16.266670 Z2 I-1.245656 J1.332677
G00 Z0.000000

(End cutting path id: path28)


(Start cutting path id: path28)
(Change tool to Default tool)

G00 Z0.000000
G00 X146.272870 Y21.222920

G01 Z2 F100.0(Penetrate)
G02 X145.722107 Y21.774439 Z2 I0.668170 J1.218017 F75.000000
G03 X145.153730 Y22.747920 Z2 I-17.605186 J-9.626307
G03 X144.907142 Y23.086467 Z2 I-2.439165 J-1.517539
G02 X144.636380 Y23.764590 Z2 I0.878964 J0.744071
G02 X144.699262 Y24.312978 Z2 I1.616467 J0.092445
G02 X144.839950 Y24.781260 Z2 I36.695349 J-10.769286
G02 X145.810661 Y26.305143 Z2 I3.249914 J-0.999078
G02 X146.272870 Y26.560420 Z2 I0.776049 J-0.859046
G00 Z0.000000

(End cutting path id: path28)


(Start cutting path id: path28)
(Change tool to Default tool)

G00 Z0.000000
G00 X143.604120 Y21.985420

G01 Z2 F100.0(Penetrate)
G03 X144.083857 Y22.990616 Z2 I-47.370250 J23.224847 F75.000000
G02 X144.493700 Y23.510420 Z2 I1.300456 J-0.603880
G00 Z0.000000

(End cutting path id: path28)


(Start cutting path id: path28)
(Change tool to Default tool)

G00 Z0.000000
G00 X140.681240 Y28.085420

G01 Z2 F100.0(Penetrate)
G03 X140.792167 Y26.682357 Z2 I10.049065 J0.088571 F75.000000
G02 X140.829900 Y25.289590 Z2 I-5.665804 J-0.850392
G03 X140.861110 Y23.955821 Z2 I5.628368 J-0.535547
G02 X140.734100 Y22.493760 Z2 I-3.209602 J-0.457728
G02 X140.448196 Y21.782058 Z2 I-5.443933 J1.773651
G03 X140.156450 Y20.968760 Z2 I3.727832 J-1.796224
G03 X139.892646 Y19.577869 Z2 I13.129161 J-3.210615
G02 X139.554660 Y18.172920 Z2 I-7.097947 J0.964410
G02 X138.918773 Y16.657551 Z2 I-12.891562 J4.518522
G03 X138.525840 Y15.122920 Z2 I3.460231 J-1.703591
G03 X138.533542 Y14.548494 Z2 I5.021137 J-0.219943
G03 X138.594440 Y13.979170 Z2 I7.940561 J0.561451
G03 X138.962929 Y11.893778 Z2 I32.462167 J4.660813
G02 X139.154350 Y9.785420 Z2 I-8.900862 J-1.870993
G02 X138.986792 Y8.516659 Z2 I-6.091281 J0.158994
G02 X138.358800 Y7.406240 Z2 I-2.258054 J0.544244
G02 X137.299547 Y6.850286 Z2 I-1.445806 J1.467607
G02 X136.106700 Y7.012830 Z2 I-0.354570 J1.856136
G02 X134.939415 Y9.435633 Z2 I0.970162 J1.960011
G03 X135.379990 Y12.072920 Z2 I-27.404654 J5.933559
G03 X135.445602 Y12.716310 Z2 I-19.693046 J2.333321
G03 X135.470690 Y13.343760 Z2 I-6.899232 J0.590082
G03 X135.315942 Y14.200187 Z2 I-2.527469 J-0.014493
G03 X134.925580 Y14.959560 Z2 I-3.265371 J-1.198572
G03 X134.310114 Y15.663310 Z2 I-3.208871 J-2.185322
G03 X133.564540 Y16.261570 Z2 I-5.775647 J-6.434113
G03 X132.070134 Y17.273842 Z2 I-20.568166 J-28.755351
G02 X130.824790 Y18.681260 Z2 I1.856535 J2.897416
G02 X130.591700 Y19.997657 Z2 I2.238238 J1.075152
G03 X130.641030 Y21.095840 Z2 I-10.440686 J1.019193
G03 X130.379321 Y22.220278 Z2 I-2.625664 J-0.018440
G03 X130.133290 Y22.620840 Z2 I-2.109607 J-1.019911
G03 X129.658405 Y22.219138 Z2 I2.019442 J-2.868895
G03 X129.255660 Y21.349910 Z2 I1.004055 J-0.993133
G03 X129.195399 Y20.549427 Z2 I31.364363 J-2.763638
G02 X129.123090 Y19.697920 Z2 I-19.103669 J1.193442
G03 X129.176456 Y18.116902 Z2 I5.605041 J-0.602216
G02 X129.359310 Y16.647920 Z2 I-14.390537 J-2.537159
G02 X129.428001 Y15.462930 Z2 I-38.920931 J-2.850654
G02 X129.257230 Y14.494470 Z2 I-2.279289 J-0.097373
G01 X128.613390 Y13.965250 Z2
G01 X128.105540 Y14.490060 Z2
G03 X127.942956 Y15.104405 Z2 I-102.879538 J-26.897889
G03 X127.654870 Y15.885420 Z2 I-4.391745 J-1.176307
G02 X127.200959 Y17.376949 Z2 I4.719428 J2.251079
G02 X127.083380 Y18.935420 Z2 I10.979608 J1.612026
G02 X127.097862 Y20.040609 Z2 I31.006727 J0.146384
G03 X126.973660 Y21.095840 Z2 I-3.598833 J0.111337
G03 X126.568181 Y21.841026 Z2 I-1.772369 J-0.481493
G03 X126.320790 Y22.112510 Z2 I-17.966780 J-16.123805
G02 X126.140482 Y21.926735 Z2 I-4.169829 J3.866728
G03 X125.957680 Y21.710860 Z2 I1.096725 J-1.114039
G03 X125.860154 Y21.569859 Z2 I9.644540 J-6.775090
G03 X125.738030 Y21.349420 Z2 I1.134486 J-0.772555
G02 X124.871097 Y19.849166 Z2 I-7.227476 J3.175841
G02 X124.033290 Y19.189590 Z2 I-1.610859 J1.184259
G00 Z0.000000

(End cutting path id: path28)


(Start cutting path id: path28)
(Change tool to Default tool)

G00 Z0.000000
G00 X123.397920 Y21.604170

G01 Z2 F100.0(Penetrate)
G02 X123.477752 Y21.415165 Z2 I-1.001202 J-0.534251 F75.000000
G02 X123.688270 Y20.460420 Z2 I-5.063017 J-1.616960
G03 X123.774520 Y19.912460 Z2 I8.827894 J1.108760
G02 X123.722070 Y19.338250 Z2 I-1.030753 J-0.195349
G02 X123.368918 Y18.799045 Z2 I-1.438527 J0.556910
G03 X123.004480 Y18.299520 Z2 I1.365219 J-1.378728
G02 X122.057667 Y16.553724 Z2 I-33.184097 J16.867379
G03 X121.007330 Y14.360420 Z2 I13.687202 J-7.902722
G03 X120.492552 Y12.806906 Z2 I15.381520 J-5.958923
G03 X120.343380 Y11.183340 Z2 I4.418964 J-1.224646
G01 X120.339380 Y10.116270 Z2
G01 X119.458330 Y9.985360 Z2
G02 X118.150839 Y11.191425 Z2 I0.529130 J1.885384
G02 X117.787020 Y13.216670 Z2 I5.494860 J2.032408
G02 X119.114665 Y16.312117 Z2 I4.261340 J0.004740
G03 X120.828200 Y19.062510 Z2 I-4.434267 J4.671589
G01 X121.040100 Y20.791660 Z2
G02 X121.629135 Y21.206042 Z2 I1.043085 J-0.856881
G02 X122.381240 Y21.434040 Z2 I2.714937 J-7.601361
G02 X122.820606 Y21.538114 Z2 I4.176141 J-16.650841
G03 X123.270830 Y21.711250 Z2 I-0.356777 J1.599714
G03 X123.842995 Y22.084509 Z2 I-2.667633 J4.714346
G02 X124.541660 Y22.431000 Z2 I1.297366 J-1.738373
G02 X125.202219 Y22.567908 Z2 I1.237850 J-4.310431
G03 X125.807490 Y22.732530 Z2 I-0.296747 J2.286078
G03 X126.435149 Y23.195647 Z2 I-0.658865 J1.549843
G02 X126.834160 Y23.588090 Z2 I2.319636 J-1.959395
G02 X127.560024 Y24.085186 Z2 I3.303805 J-4.045747
G02 X128.481240 Y24.542480 Z2 I4.584105 J-8.078102
G02 X129.334132 Y24.793214 Z2 I1.470983 J-3.427709
G03 X129.984670 Y25.033950 Z2 I-0.307581 J1.830511
G03 X130.557999 Y25.535773 Z2 I-1.119417 J1.857348
G02 X131.150090 Y26.098180 Z2 I2.352713 J-1.884017
G02 X131.778228 Y26.468145 Z2 I2.329867 J-3.237500
G03 X132.420830 Y26.827430 Z2 I-2.276643 J4.826217
G03 X134.681858 Y28.444280 Z2 I-18.144614 J27.763064
G02 X136.868740 Y29.610420 Z2 I4.433747 J-5.681061
G00 Z0.000000

(End cutting path id: path28)


(Start cutting path id: path28)
(Change tool to Default tool)

G00 Z0.000000
G00 X142.587500 Y34.312510

G01 Z2 F100.0(Penetrate)
G02 X142.866261 Y34.033333 Z2 I-27.988143 J-28.225156 F75.000000
G03 X143.604170 Y33.392520 Z2 I4.575711 J4.523761
G03 X144.803146 Y32.690741 Z2 I3.790830 J5.101456
G02 X145.871270 Y32.141890 Z2 I-4.485101 J-10.042269
G02 X146.127781 Y31.987349 Z2 I-5.831683 J-9.969736
G03 X146.272920 Y31.897920 Z2 I15.072095 J24.298755
G00 Z0.000000

(End cutting path id: path28)


(Start cutting path id: path28)
(Change tool to Default tool)

G00 Z0.000000
G00 X130.133290 Y25.035420

G01 Z2 F100.0(Penetrate)
G02 X130.248933 Y24.379299 Z2 I-1.969380 J-0.685359 F75.000000
G02 X130.260370 Y22.747920 Z2 I-116.339969 J-1.631379
G00 Z0.000000

(End cutting path id: path28)


(Start cutting path id: path28)
(Change tool to Default tool)

G00 Z0.000000
G00 X126.320790 Y22.620840

G01 Z2 F100.0(Penetrate)
G01 X126.320790 Y22.112510 Z2 F75.000000
G00 Z0.000000

(End cutting path id: path28)


(Start cutting path id: path28)
(Change tool to Default tool)

G00 Z0.000000
G00 X135.852090 Y17.029170

G01 Z2 F100.0(Penetrate)
G01 X134.962500 Y15.122920 Z2 F75.000000
G00 Z0.000000

(End cutting path id: path28)


(Start cutting path id: path28)
(Change tool to Default tool)

G00 Z0.000000
G00 X120.475000 Y10.166670

G01 Z2 F100.0(Penetrate)
G01 X120.856250 Y9.404170 Z2 F75.000000
G00 Z0.000000

(End cutting path id: path28)


(Start cutting path id: path28)
(Change tool to Default tool)

G00 Z0.000000
G00 X112.850000 Y14.614590

G01 Z2 F100.0(Penetrate)
G02 X112.126839 Y12.302937 Z2 I-16.999082 J4.048930 F75.000000
G03 X111.652910 Y8.260420 Z2 I7.490249 J-2.927168
G03 X112.445081 Y6.641437 Z2 I2.872654 J0.402297
G03 X114.247920 Y6.231210 Z2 I1.217173 J1.182536
G03 X115.793931 Y9.134998 Z2 I-0.851995 J2.317063
G03 X114.857450 Y12.072920 Z2 I-21.842994 J-5.344373
G02 X114.468026 Y13.070117 Z2 I102.021777 J40.416074
G03 X114.050040 Y13.972210 Z2 I-6.984474 J-2.688379
G03 X113.558280 Y14.469882 Z2 I-1.114331 J-0.609299
G02 X113.102700 Y14.897190 Z2 I0.641262 J1.140205
G02 X112.827788 Y15.640610 Z2 I1.508200 J0.980262
G03 X112.706250 Y16.520840 Z2 I-85.416559 J-11.345450
G01 X112.655150 Y17.531920 Z2
G01 X113.739580 Y18.263920 Z2
G03 X116.027150 Y19.025540 Z2 I-22.552397 J71.553680
G02 X118.314580 Y19.825010 Z2 I326.208534 J-929.670099
G02 X119.612960 Y20.265974 Z2 I29.692363 J-85.294678
G02 X120.602080 Y20.587510 Z2 I29.651732 J-89.533413
G00 Z0.000000

(End cutting path id: path28)


(Start cutting path id: path28)
(Change tool to Default tool)

G00 Z0.000000
G00 X109.927080 Y17.283340

G01 Z2 F100.0(Penetrate)
G02 X110.551313 Y17.399788 Z2 I1.492122 J-6.267333 F75.000000
G02 X112.468740 Y17.537510 Z2 I2.043045 J-15.027676
G00 Z0.000000

(End cutting path id: path28)


(Start cutting path id: path28)
(Change tool to Default tool)

G00 Z0.000000
G00 X109.800000 Y17.283340

G01 Z2 F100.0(Penetrate)
G01 X109.927090 Y17.283340 Z2 F75.000000
G00 Z0.000000

(End cutting path id: path28)


(Footer)
M5
G00 X0.0000 Y0.0000
M2
(Using default footer. To add your own footer create file "footer" in the output dir.)
(end)
%