%
(Header)
(Generated by gcodetools from Inkscape.)
(Using default header. To add your own header create file "header" in the output dir.)
M3
(Header end.)
G21 (All units in mm)

(Start cutting path id: path26)
(Change tool to Default tool)

G00 Z0.000000
G00 X36.599998 Y36.218760

G01 Z2 F100.0(Penetrate)
G02 X37.219376 Y36.102002 Z2 I-1.156248 J-7.834874 F75.000000
G02 X38.379165 Y35.601970 Z2 I-0.786792 J-3.419951
G02 X40.681616 Y33.614619 Z2 I-6.816027 J-10.224156
G03 X43.208332 Y31.389590 Z2 I10.965986 J9.905676
G01 X41.429165 Y31.770840 Z2
G01 X41.556248 Y31.389590 Z2
G01 X41.683332 Y31.262510 Z2
G00 Z0.000000

(End cutting path id: path26)


(Start cutting path id: path26)
(Change tool to Default tool)

G00 Z0.000000
G00 X42.191665 Y31.135420

G01 Z2 F100.0(Penetrate)
G01 X42.318748 Y31.008340 Z2 F75.000000
G00 Z0.000000

(End cutting path id: path26)


(Start cutting path id: path26)
(Change tool to Default tool)

G00 Z0.000000
G00 X42.827082 Y31.516670

G01 Z2 F100.0(Penetrate)
G01 X42.191665 Y30.881260 Z2 F75.000000
G00 Z0.000000

(End cutting path id: path26)


(Start cutting path id: path26)
(Change tool to Default tool)

G00 Z0.000000
G00 X43.208332 Y31.135420

G01 Z2 F100.0(Penetrate)
G03 X44.125433 Y30.475972 Z2 I4.596108 J5.424417 F75.000000
G03 X45.114581 Y29.940490 Z2 I6.103742 J10.093578
G02 X46.138238 Y29.304994 Z2 I-2.443855 J-5.078760
G03 X47.147915 Y28.558160 Z2 I14.968004 J19.179973
G02 X47.913152 Y27.951620 Z2 I-4.735504 J-6.760509
G03 X48.582113 Y27.377050 Z2 I14.863331 J16.628393
G03 X49.168932 Y27.050949 Z2 I1.176146 J1.425437
G02 X49.816665 Y26.773010 Z2 I-1.392938 J-4.139950
G02 X50.579590 Y26.250589 Z2 I-1.893288 J-3.583177
G03 X51.250862 Y25.730950 Z2 I4.970445 J5.727445
G03 X51.726432 Y25.494720 Z2 I1.065548 J1.548309
G02 X52.231248 Y25.291650 Z2 I-1.352916 J-4.092241
G02 X55.834838 Y23.563435 Z2 I-555.828204 J-1163.606895
G02 X58.585414 Y21.731260 Z2 I-5.178272 J-10.754704
G03 X58.407211 Y21.390189 Z2 I1.410717 J-0.954159
G03 X58.317226 Y20.714590 Z2 I1.360697 J-0.525028
G03 X58.653255 Y19.635500 Z2 I2.850948 J0.295921
G03 X59.613553 Y18.300010 Z2 I5.878644 J3.214098
G01 X61.502839 Y16.711070 Z2
G01 X62.089227 Y17.285300 Z2
G03 X62.316145 Y17.642616 Z2 I-2102.644688 J1335.562975
G03 X62.528430 Y18.045840 Z2 I-2.373742 J1.507193
G03 X62.634364 Y18.485780 Z2 I-1.250568 J0.533851
G03 X62.652081 Y18.935420 Z2 I-7.548911 J0.522614
G02 X62.675615 Y19.395891 Z2 I5.579489 J-0.054324
G03 X62.594621 Y19.938750 Z2 I-1.147261 J0.106301
G01 X61.762500 Y20.586920 Z2
G03 X59.826772 Y21.356919 Z2 I-10.765146 J-24.244741
G03 X58.712501 Y21.731260 Z2 I-12.860431 J-36.435054
G00 Z0.000000

(End cutting path id: path26)


(Start cutting path id: path26)
(Change tool to Default tool)

G00 Z0.000000
G00 X57.060410 Y22.493760

G01 Z2 F100.0(Penetrate)
G03 X56.866922 Y22.185304 Z2 I2.142594 J-1.558915 F75.000000
G03 X56.597084 Y21.477090 Z2 I2.628629 J-1.407054
G03 X56.410300 Y20.526088 Z2 I11.049425 J-2.664029
G03 X56.363217 Y19.443760 Z2 I4.976303 J-0.758667
G03 X56.741654 Y17.016058 Z2 I13.595562 J0.875967
G02 X57.242798 Y14.614590 Z2 I-30.360746 J-7.588778
G02 X57.525854 Y12.805838 Z2 I-79.939579 J-13.436467
G02 X56.425484 Y11.245900 Z2 I-1.373651 J-0.199101
G01 X55.571692 Y13.979170 Z2
G03 X55.077778 Y14.788381 Z2 I-2.431054 J-0.928491
G03 X54.645827 Y15.250010 Z2 I-11.196074 J-10.043379
G03 X53.727950 Y14.085473 Z2 I8.631107 J-7.746952
G03 X53.088959 Y12.200010 Z2 I2.999225 J-2.067460
G03 X53.329247 Y10.127149 Z2 I6.329478 J-0.316639
G02 X53.143579 Y8.006350 Z2 I-2.842109 J-0.819711
G02 X51.738114 Y6.623882 Z2 I-2.668068 J1.306795
G02 X50.020525 Y6.951740 Z2 I-0.632807 J1.347838
G01 X50.007385 Y8.260420 Z2
G03 X50.245844 Y9.492115 Z2 I-19.829784 J4.478021
G03 X50.322544 Y10.802090 Z2 I-6.367703 J1.030067
G01 X49.924918 Y11.607150 Z2
G01 X48.927176 Y11.308560 Z2
G01 X47.924238 Y12.073020 Z2
G02 X47.988549 Y13.216001 Z2 I3.397717 J0.382123
G02 X48.376580 Y14.360420 Z2 I5.757465 J-1.314154
G02 X48.972717 Y15.303149 Z2 I3.781961 J-1.731681
G03 X49.529057 Y16.266670 Z2 I-2.451181 J2.057698
G03 X49.566023 Y17.697765 Z2 I-2.118534 J0.770748
G03 X49.181245 Y18.427090 Z2 I-2.107177 J-0.645543
G00 Z0.000000

(End cutting path id: path26)


(Start cutting path id: path26)
(Change tool to Default tool)

G00 Z0.000000
G00 X46.893745 Y18.045780

G01 Z2 F100.0(Penetrate)
G01 X47.020828 Y17.410360 Z2 F75.000000
G00 Z0.000000

(End cutting path id: path26)


(Start cutting path id: path26)
(Change tool to Default tool)

G00 Z0.000000
G00 X45.368744 Y23.256260

G01 Z2 F100.0(Penetrate)
G01 X46.512494 Y24.382360 Z2 F75.000000
G01 X47.656244 Y24.781260 Z2
G00 Z0.000000

(End cutting path id: path26)


(Start cutting path id: path26)
(Change tool to Default tool)

G00 Z0.000000
G00 X48.545831 Y27.195840

G01 Z2 F100.0(Penetrate)
G01 X48.154677 Y26.306060 Z2 F75.000000
G01 X47.779017 Y24.908340 Z2
G01 X47.856577 Y23.891670 Z2
G01 X48.291661 Y22.620840 Z2
G00 Z0.000000

(End cutting path id: path26)


(Start cutting path id: path26)
(Change tool to Default tool)

G00 Z0.000000
G00 X51.214577 Y25.670840

G01 Z2 F100.0(Penetrate)
G03 X50.900300 Y24.948013 Z2 I1.510334 J-1.086413 F75.000000
G03 X50.833327 Y23.256260 Z2 I5.305639 J-1.057240
G00 Z0.000000

(End cutting path id: path26)


(Start cutting path id: path26)
(Change tool to Default tool)

G00 Z0.000000
G00 X54.899995 Y17.156200

G01 Z2 F100.0(Penetrate)
G01 X54.645828 Y15.249950 Z2 F75.000000
G00 Z0.000000

(End cutting path id: path26)


(Start cutting path id: path26)
(Change tool to Default tool)

G00 Z0.000000
G00 X49.943745 Y11.945780

G01 Z2 F100.0(Penetrate)
G01 X49.943745 Y11.818700 Z2 F75.000000
G00 Z0.000000

(End cutting path id: path26)


(Start cutting path id: path26)
(Change tool to Default tool)

G00 Z0.000000
G00 X57.441661 Y6.735360

G01 Z2 F100.0(Penetrate)
G03 X58.265296 Y7.361193 Z2 I-2.040044 J3.539718 F75.000000
G03 X58.912730 Y8.133080 Z2 I-3.677856 J3.742335
G01 X59.726024 Y8.796350 Z2
G01 X61.013233 Y7.372740 Z2
G03 X62.933947 Y6.401021 Z2 I2.287492 J2.137373
G03 X65.066661 Y6.666820 Z2 I0.526594 J4.463828
G03 X65.779422 Y6.957788 Z2 I-6.205028 J16.218467
G03 X66.464578 Y7.278020 Z2 I-5.484438 J12.627354
G03 X67.994800 Y8.250529 Z2 I-4.010738 J8.000946
G03 X69.375630 Y9.531200 Z2 I-7.278858 J9.232876
G03 X70.297001 Y10.877112 Z2 I-4.228280 J3.882880
G02 X71.305216 Y12.129050 Z2 I3.300357 J-1.625916
G02 X71.828343 Y12.434908 Z2 I1.319878 J-1.657165
G02 X72.309821 Y12.593550 Z2 I1.417958 J-3.493546
G02 X72.932791 Y12.697062 Z2 I0.909339 J-3.546321
G03 X73.072911 Y12.708280 Z2 I-3.464562 J44.156483
G00 Z0.000000

(End cutting path id: path26)


(Start cutting path id: path26)
(Change tool to Default tool)

G00 Z0.000000
G00 X69.133327 Y17.918700

G01 Z2 F100.0(Penetrate)
G03 X70.545352 Y17.600072 Z2 I3.045158 J10.206805 F75.000000
G02 X71.802077 Y17.156200 Z2 I-0.553733 J-3.568775
G00 Z0.000000

(End cutting path id: path26)


(Start cutting path id: path26)
(Change tool to Default tool)

G00 Z0.000000
G00 X66.083328 Y18.808280

G01 Z2 F100.0(Penetrate)
G03 X65.885715 Y18.402440 Z2 I1.120133 J-0.796449 F75.000000
G03 X65.809548 Y17.537450 Z2 I2.091737 J-0.620038
G03 X66.304733 Y15.283832 Z2 I11.066508 J1.250419
G02 X66.312881 Y12.708280 Z2 I-3.922566 J-1.300198
G02 X65.794751 Y11.628079 Z2 I-4.280667 J1.388904
G02 X64.558915 Y11.055310 Z2 I-1.078738 J0.707905
G02 X63.674334 Y12.220793 Z2 I0.124234 J1.012724
G03 X63.868980 Y13.597860 Z2 I-69.703078 J10.554723
G03 X63.665112 Y16.342384 Z2 I-6.711853 J0.881265
G03 X62.652078 Y17.918700 Z2 I-3.125184 J-0.894751
G00 Z0.000000

(End cutting path id: path26)


(Start cutting path id: path26)
(Change tool to Default tool)

G00 Z0.000000
G00 X62.779161 Y19.952090

G01 Z2 F100.0(Penetrate)
G02 X63.673377 Y19.761430 Z2 I-3.551041 J-18.847070 F75.000000
G02 X65.066661 Y19.321180 Z2 I-2.349257 J-9.859655
G02 X65.502959 Y19.122709 Z2 I-1.816875 J-4.572825
G03 X65.956244 Y18.900420 Z2 I5.865094 J11.386607
G03 X66.399441 Y18.750225 Z2 I0.904687 J1.940560
G03 X66.845828 Y18.662920 Z2 I2.033917 J9.214553
G02 X68.016257 Y18.376619 Z2 I-1.431209 J-8.386513
G02 X69.006244 Y17.918760 Z2 I-1.365722 J-4.252182
G03 X68.813956 Y17.583604 Z2 I1.530119 J-1.100611
G03 X68.621071 Y16.775010 Z2 I2.075629 J-0.922430
G03 X68.646025 Y15.501092 Z2 I9.133860 J-0.458288
G03 X69.768744 Y14.543200 Z2 I1.050225 J0.094039
G03 X70.922136 Y15.155819 Z2 I-0.110251 J1.599640
G03 X71.450046 Y16.139590 Z2 I-2.591400 J2.024124
G01 X71.947889 Y16.971710 Z2
G01 X72.434453 Y17.033110 Z2
G02 X72.790936 Y17.030995 Z2 I0.036005 J-23.972985
G03 X73.072911 Y17.029110 Z2 I0.281976 J21.091066
G00 Z0.000000

(End cutting path id: path26)


(Start cutting path id: path26)
(Change tool to Default tool)

G00 Z0.000000
G00 X59.602078 Y9.277030

G01 Z2 F100.0(Penetrate)
G01 X59.602078 Y9.022860 Z2 F75.000000
G00 Z0.000000

(End cutting path id: path26)


(Start cutting path id: path26)
(Change tool to Default tool)

G00 Z0.000000
G00 X41.429161 Y23.637510

G01 Z2 F100.0(Penetrate)
G03 X41.285983 Y23.389651 Z2 I4.387160 J-2.699576 F75.000000
G03 X41.035458 Y22.747730 Z2 I2.450871 J-1.326356
G03 X40.848521 Y21.740332 Z2 I7.685021 J-1.947111
G02 X40.666563 Y20.587510 Z2 I-15.359896 J1.833584
G02 X39.879663 Y17.370546 Z2 I-35.626054 J7.009747
G03 X39.292180 Y14.106260 Z2 I14.837026 J-4.355272
G03 X39.672852 Y10.938949 Z2 I8.414794 J-0.595176
G02 X40.263250 Y8.006260 Z2 I-12.839422 J-4.110558
G02 X40.234572 Y7.357246 Z2 I-2.465284 J-0.216206
G02 X40.069389 Y6.735420 Z2 I-3.781823 J0.671756
G01 X38.760509 Y5.588930 Z2
G01 X37.882301 Y7.116670 Z2
G02 X38.096150 Y8.278093 Z2 I5.399099 J-0.393720
G03 X38.250117 Y9.404170 Z2 I-3.514741 J1.054130
G03 X37.696085 Y12.285601 Z2 I-8.652508 J-0.169697
G03 X36.727078 Y13.979170 Z2 I-5.751872 J-2.167037
G00 Z0.000000

(End cutting path id: path26)


(Start cutting path id: path26)
(Change tool to Default tool)

G00 Z0.000000
G00 X36.599995 Y14.106200

G01 Z2 F100.0(Penetrate)
G01 X36.727079 Y13.979110 Z2 F75.000000
G00 Z0.000000

(End cutting path id: path26)


(Start cutting path id: path26)
(Change tool to Default tool)

G00 Z0.000000
G00 X41.429168 Y28.212510

G01 Z2 F100.0(Penetrate)
G03 X41.282106 Y26.698797 Z2 I26.140964 J-3.303677 F75.000000
G03 X41.354148 Y25.035420 Z2 I7.479713 J-0.509297
G02 X41.383349 Y24.428389 Z2 I-2.824613 J-0.440093
G03 X41.505845 Y23.827450 Z2 I1.192941 J-0.069783
G03 X41.981278 Y23.299980 Z2 I1.179784 J0.585393
G02 X42.528688 Y22.747430 Z2 I-0.928981 J-1.467775
G03 X43.732510 Y20.914614 Z2 I35.547100 J22.036127
G02 X44.462787 Y18.681260 Z2 I-3.358676 J-2.334316
G02 X43.593612 Y15.537629 Z2 I-5.617873 J-0.138702
G03 X42.586151 Y12.327090 Z2 I5.527851 J-3.497969
G03 X42.775324 Y10.384265 Z2 I6.937366 J-0.305132
G03 X43.848845 Y8.862700 Z2 I2.461885 J0.597466
G01 X45.074179 Y9.154320 Z2
G03 X45.025172 Y11.622955 Z2 I-4.275560 J1.149926
G02 X45.160669 Y14.360420 Z2 I3.795498 J1.184218
G02 X45.703003 Y15.267948 Z2 I3.555214 J-1.508766
G03 X46.307654 Y16.139590 Z2 I-5.960869 J4.780547
G01 X47.277351 Y17.284810 Z2
G03 X47.870148 Y17.475916 Z2 I-0.559520 J2.750552
G03 X48.345499 Y17.800500 Z2 I-0.674517 J1.498192
G02 X48.740905 Y18.177983 Z2 I14.750054 J-15.054529
G03 X49.050732 Y18.575750 Z2 I-1.079059 J1.160046
G03 X49.189343 Y19.170404 Z2 I-0.992767 J0.544891
G02 X49.181248 Y19.570840 Z2 I8.426654 J0.370645
G00 Z0.000000

(End cutting path id: path26)


(Start cutting path id: path26)
(Change tool to Default tool)

G00 Z0.000000
G00 X43.843751 Y30.118760

G01 Z2 F100.0(Penetrate)
G03 X43.953885 Y29.377020 Z2 I2.965038 J0.061206 F75.000000
G02 X44.352084 Y27.195840 Z2 I-11.418950 J-3.211594
G00 Z0.000000

(End cutting path id: path26)


(Start cutting path id: path26)
(Change tool to Default tool)

G00 Z0.000000
G00 X42.191665 Y32.025010

G01 Z2 F100.0(Penetrate)
G01 X41.683332 Y31.516670 Z2 F75.000000
G00 Z0.000000

(End cutting path id: path26)


(Start cutting path id: path26)
(Change tool to Default tool)

G00 Z0.000000
G00 X41.556248 Y32.660420

G01 Z2 F100.0(Penetrate)
G01 X41.047915 Y31.770840 Z2 F75.000000
G01 X40.666665 Y32.152090 Z2
G01 X41.047915 Y32.025010 Z2
G00 Z0.000000

(End cutting path id: path26)


(Start cutting path id: path26)
(Change tool to Default tool)

G00 Z0.000000
G00 X39.904165 Y31.897920

G01 Z2 F100.0(Penetrate)
G03 X39.148208 Y30.369878 Z2 I5.039223 J-3.444036 F75.000000
G02 X38.233549 Y28.720840 Z2 I-4.812385 J1.591064
G02 X37.401804 Y27.795222 Z2 I-12.429149 J10.332125
G02 X36.727082 Y27.195840 Z2 I-4.384058 J4.255659
G00 Z0.000000

(End cutting path id: path26)


(Start cutting path id: path26)
(Change tool to Default tool)

G00 Z0.000000
G00 X39.904165 Y32.406260

G01 Z2 F100.0(Penetrate)
G03 X40.593140 Y31.380773 Z2 I1.189229 J0.054797 F75.000000
G03 X41.937498 Y31.008340 Z2 I1.801521 J3.890332
G00 Z0.000000

(End cutting path id: path26)


(Start cutting path id: path26)
(Change tool to Default tool)

G00 Z0.000000
G00 X40.666665 Y33.295840

G01 Z2 F100.0(Penetrate)
G01 X40.285415 Y32.660420 Z2 F75.000000
G00 Z0.000000

(End cutting path id: path26)


(Start cutting path id: path26)
(Change tool to Default tool)

G00 Z0.000000
G00 X39.904165 Y32.787510

G01 Z2 F100.0(Penetrate)
G01 X40.158332 Y32.787510 Z2 F75.000000
G00 Z0.000000

(End cutting path id: path26)


(Footer)
M5
M2
(Using default footer. To add your own footer create file "footer" in the output dir.)
(end)
%