%
(Header)
(Generated by gcodetools from Inkscape.)
(Using default header. To add your own header create file "header" in the output dir.)
M3
(Header end.)
G21 (All units in mm)

(Start cutting path id: path14)
(Change tool to Default tool)

G00 Z0.000000
G00 X164.445830 Y146.272918

G01 Z2 F100.0(Penetrate)
G01 X164.445830 Y145.129168 Z2 F75.000000
G00 Z0.000000

(End cutting path id: path14)


(Start cutting path id: path14)
(Change tool to Default tool)

G00 Z0.000000
G00 X163.047910 Y146.145831

G01 Z2 F100.0(Penetrate)
G01 X164.064580 Y146.018748 Z2 F75.000000
G00 Z0.000000

(End cutting path id: path14)


(Start cutting path id: path14)
(Change tool to Default tool)

G00 Z0.000000
G00 X165.462400 Y140.627318

G01 Z2 F100.0(Penetrate)
G03 X167.969234 Y140.987749 Z2 I-13.463119 J102.535102 F75.000000
G02 X170.269510 Y140.459835 Z2 I0.490500 J-3.138188
G02 X171.537076 Y138.964562 Z2 I-2.160991 J-3.116809
G03 X172.579070 Y137.122917 Z2 I13.092705 J6.192193
G03 X173.563643 Y135.835017 Z2 I10.430933 J6.953946
G02 X174.200260 Y134.454167 Z2 I-2.034662 J-1.775221
G02 X173.346136 Y131.723600 Z2 I-3.255293 J-0.480610
G03 X171.461110 Y129.243750 Z2 I11.059872 J-10.363384
G02 X170.880819 Y128.465010 Z2 I-4.447554 J2.708591
G02 X170.037400 Y128.012140 Z2 I-1.053289 J0.949811
G02 X168.190109 Y127.981497 Z2 I-1.039104 J6.944999
G03 X166.224900 Y128.100100 Z2 I-2.058438 J-17.766844
G02 X165.644110 Y128.128146 Z2 I0.034709 J6.746413
G02 X165.083020 Y128.273762 Z2 I0.163381 J1.783351
G02 X164.349156 Y128.799606 Z2 I0.895940 J2.025377
G03 X163.682750 Y129.497920 Z2 I-19.484970 J-17.927514
G03 X162.223355 Y130.961154 Z2 I-191.718616 J-189.756163
G02 X160.760320 Y132.420836 Z2 I532.148100 J534.833684
G03 X160.043269 Y133.103433 Z2 I-14.099790 J-14.093541
G02 X159.575970 Y133.945836 Z2 I1.002576 J1.106963
G02 X159.928694 Y135.165880 Z2 I1.409179 J0.253605
G03 X160.807490 Y136.233336 Z2 I-9.783041 J8.949472
G03 X161.888894 Y137.753388 Z2 I-41.123075 J30.400709
G02 X162.957700 Y139.283336 Z2 I79.676510 J-54.522886
G03 X163.395900 Y139.919383 Z2 I-19.425077 J13.851752
G02 X163.948880 Y140.423555 Z2 I1.287083 J-0.856340
G02 X164.659200 Y140.589377 Z2 I0.660093 J-1.223310
G03 X165.462400 Y140.627321 Z2 I0.174502 J4.826148
G00 Z0.000000

(End cutting path id: path14)


(Start cutting path id: path14)
(Change tool to Default tool)

G00 Z0.000000
G00 X152.245740 Y143.731250

G01 Z2 F100.0(Penetrate)
G01 X152.372820 Y142.841666 Z2 F75.000000
G00 Z0.000000

(End cutting path id: path14)


(Start cutting path id: path14)
(Change tool to Default tool)

G00 Z0.000000
G00 X151.483330 Y144.747918

G01 Z2 F100.0(Penetrate)
G01 X150.833400 Y145.269880 Z2 F75.000000
G01 X152.881240 Y146.016300 Z2
G01 X153.389580 Y144.747918 Z2
G02 X153.274888 Y144.865406 Z2 I0.744203 J0.841216
G03 X152.751020 Y145.217810 Z2 I-0.878328 J-0.740103
G01 X152.250140 Y145.165740 Z2
G01 X151.782010 Y144.384217 Z2
G01 X152.375360 Y144.042976 Z2
G03 X152.897051 Y144.254742 Z2 I-0.229144 J1.312988
G03 X153.389580 Y144.620831 Z2 I-4.240985 J6.220092
G00 Z0.000000

(End cutting path id: path14)


(Start cutting path id: path14)
(Change tool to Default tool)

G00 Z0.000000
G00 X146.399990 Y144.239581

G01 Z2 F100.0(Penetrate)
G02 X146.666481 Y144.100005 Z2 I-3.383205 J-6.783718 F75.000000
G02 X147.470590 Y143.471492 Z2 I-1.531447 J-2.787944
G02 X148.302774 Y142.563465 Z2 I-102.836385 J-95.082405
G02 X149.303200 Y141.443748 Z2 I-67.319592 J-61.154319
G02 X151.326298 Y139.014241 Z2 I-44.712589 J-39.290136
G02 X153.243270 Y136.487498 Z2 I-66.283169 J-52.277810
G02 X154.217993 Y135.064426 Z2 I-23.462491 J-17.115825
G03 X155.173840 Y133.697156 Z2 I17.878718 J11.481109
G01 X156.058230 Y133.052521 Z2
G01 X156.617060 Y133.331202 Z2
G01 X156.929280 Y134.454165 Z2
G02 X157.477196 Y135.498487 Z2 I3.518302 J-1.180023
G03 X158.176380 Y136.487498 Z2 I-17.705863 J13.258860
G03 X159.595424 Y138.647570 Z2 I-159.020111 J106.013716
G02 X161.014580 Y140.808331 Z2 I163.130348 J-105.595684
G03 X161.756886 Y141.957479 Z2 I-39.963995 J26.629543
G02 X162.793740 Y142.758708 Z2 I1.603749 J-1.003878
G02 X163.563520 Y142.856015 Z2 I0.654479 J-2.084015
G03 X164.445830 Y142.843528 Z2 I0.602588 J11.400051
G03 X167.304749 Y142.986057 Z2 I-1.384874 J56.522510
G02 X170.164580 Y143.095833 Z2 I2.922262 J-38.823067
G02 X171.318693 Y143.034392 Z2 I0.016272 J-10.564525
G02 X172.186050 Y142.664476 Z2 I-0.174532 J-1.611053
G02 X172.488397 Y142.358630 Z2 I-1.492129 J-1.777427
G02 X172.761060 Y141.951986 Z2 I-1.970918 J-1.616273
G02 X173.017764 Y141.296668 Z2 I-2.563725 J-1.382209
G03 X173.269000 Y140.554166 Z2 I5.130842 J1.322340
G03 X174.425068 Y138.176470 Z2 I23.311464 J9.864454
G03 X175.845870 Y135.979167 Z2 I16.565120 J9.153196
G03 X176.424754 Y135.259754 Z2 I10.740169 J8.049597
G02 X176.765460 Y134.581250 Z2 I-1.177235 J-1.015933
G02 X176.841981 Y133.993125 Z2 I-3.244178 J-0.721139
G02 X176.727660 Y133.310417 Z2 I-1.691143 J-0.067740
G02 X176.401869 Y132.605837 Z2 I-5.899671 J2.300336
G03 X176.041750 Y131.912500 Z2 I22.337512 J-12.042302
G03 X174.990231 Y129.754099 Z2 I104.133922 J-52.066778
G02 X173.946050 Y127.591667 Z2 I-158.849941 J75.371103
G03 X173.553771 Y126.550474 Z2 I5.189808 J-2.549800
G02 X172.925460 Y125.687085 Z2 I-1.443408 J0.390093
G02 X171.857797 Y125.402160 Z2 I-0.969887 J1.491511
G03 X170.799950 Y125.431250 Z2 I-1.057847 J-19.219356
G02 X168.587604 Y125.494460 Z2 I0.000000 J38.747404
G03 X166.352040 Y125.558334 Z2 I-2.235564 J-39.090164
G02 X165.684137 Y125.559378 Z2 I-0.000001 J213.676939
G03 X165.081200 Y125.558237 Z2 I-0.187791 J-60.078359
G01 X164.267810 Y125.427721 Z2
G01 X163.989620 Y124.795244 Z2
G03 X163.592502 Y123.293340 Z2 I21.659382 J-6.530401
G02 X162.993250 Y122.179741 Z2 I-2.315199 J0.527825
G01 X162.182900 Y121.357622 Z2
G03 X162.176322 Y120.648791 Z2 I1.609084 J-0.369378
G03 X162.470010 Y119.844684 Z2 I2.937383 J0.617148
G03 X162.940294 Y119.309225 Z2 I1.392277 J0.748561
G02 X163.408230 Y118.799481 Z2 I-0.989416 J-1.377917
G02 X164.025170 Y117.265995 Z2 I-4.605944 J-2.743873
G03 X164.626800 Y115.264584 Z2 I15.846621 J3.672405
G02 X164.834090 Y114.641117 Z2 I-8.717486 J-3.244574
G02 X164.910970 Y114.120834 Z2 I-1.821662 J-0.535002
G03 X164.919748 Y113.553531 Z2 I35.157441 J0.260282
G03 X164.974270 Y112.850001 Z2 I6.559065 J0.154435
G03 X165.212300 Y111.915613 Z2 I4.051213 J0.534510
G02 X165.498190 Y110.816668 Z2 I-4.690797 J-1.806969
G01 X166.105270 Y109.818830 Z2
G03 X166.794473 Y109.778520 Z2 I0.526635 J3.092148
G02 X167.622820 Y109.800000 Z2 I0.828347 J-15.961057
G01 X171.435320 Y109.800000 Z2
G02 X172.255759 Y109.778568 Z2 I0.000000 J-15.714488
G03 X172.952970 Y109.818830 Z2 I0.166195 J3.178916
G01 X173.706150 Y110.689681 Z2
G02 X174.019781 Y111.426752 Z2 I28.219598 J-11.572461
G02 X174.389620 Y112.214584 Z2 I16.968011 J-7.484718
G03 X175.342174 Y114.185140 Z2 I-81.051879 J40.395463
G02 X176.295870 Y116.154167 Z2 I77.036812 J-36.097223
G02 X176.788278 Y117.125177 Z2 I89.740429 J-44.897831
G03 X177.020810 Y118.187501 Z2 I-1.886449 J0.969536
G03 X176.692133 Y119.293675 Z2 I-2.376437 J-0.104193
G02 X176.083470 Y120.347917 Z2 I51.218251 J30.273508
G02 X174.548755 Y123.217929 Z2 I63.527956 J35.816392
G03 X173.087400 Y125.685417 Z2 I-19.408228 J-9.827922
G00 Z0.000000

(End cutting path id: path14)


(Start cutting path id: path14)
(Change tool to Default tool)

G00 Z0.000000
G00 X163.429070 Y119.077087

G01 Z2 F100.0(Penetrate)
G03 X163.841207 Y119.561154 Z2 I-4.949138 J4.631204 F75.000000
G03 X164.853360 Y121.110420 Z2 I-9.193294 J7.111339
G03 X165.388984 Y122.295411 Z2 I-7.671708 J4.181211
G02 X166.111160 Y123.140224 Z2 I1.492698 J-0.544934
G02 X166.882554 Y123.303672 Z2 I0.652293 J-1.176478
G03 X167.622820 Y123.270837 Z2 I0.740266 J8.328237
G03 X169.339855 Y123.372053 Z2 I0.000000 J14.614610
G02 X171.052110 Y123.088645 Z2 I0.366638 J-3.099038
G02 X172.723828 Y121.428039 Z2 I-1.539702 J-3.221760
G02 X173.713310 Y119.204170 Z2 I-32.340570 J-15.721585
G02 X173.814584 Y118.845912 Z2 I-1.579888 J-0.640053
G02 X173.834610 Y118.441670 Z2 I-1.715933 J-0.287623
G02 X173.739011 Y117.982926 Z2 I-1.695342 J0.113964
G02 X173.562790 Y117.552087 Z2 I-4.928838 J1.764526
G03 X173.226437 Y116.806968 Z2 I42.595859 J-19.676632
G02 X172.864320 Y116.027087 Z2 I-20.291615 J8.947850
G03 X172.083145 Y113.849967 Z2 I9.503529 J-4.638682
G02 X170.903060 Y112.253126 Z2 I-2.470567 J0.591310
G02 X170.358608 Y112.047685 Z2 I-0.863383 J1.463937
G02 X169.783240 Y111.971893 Z2 I-0.942597 J4.933842
G02 X167.860017 Y112.036005 Z2 I-0.661728 J9.027969
G03 X166.352180 Y112.080248 Z2 I-0.953337 J-6.774165
G03 X165.707072 Y111.869166 Z2 I0.118112 J-1.452298
G03 X165.462400 Y111.706254 Z2 I2.131453 J-3.466360
G00 Z0.000000

(End cutting path id: path14)


(Start cutting path id: path14)
(Change tool to Default tool)

G00 Z0.000000
G00 X162.031150 Y121.491670

G01 Z2 F100.0(Penetrate)
G02 X160.134588 Y124.603754 Z2 I7.405628 J6.647070 F75.000000
G03 X158.327990 Y128.481253 Z2 I-27.468725 J-10.438569
G03 X157.425841 Y129.988036 Z2 I-25.056506 J-13.978504
G02 X156.799460 Y131.404170 Z2 I4.258973 J2.730415
G02 X156.599932 Y132.187394 Z2 I29.186921 J7.852473
G03 X156.439490 Y132.802086 Z2 I-16.053154 J-3.861771
G02 X157.070766 Y132.663746 Z2 I-0.714121 J-4.768198
G02 X158.091570 Y132.131761 Z2 I-0.818038 J-2.815080
G02 X158.895794 Y131.351604 Z2 I-3.817597 J-4.739961
G03 X159.754930 Y130.387503 Z2 I25.167294 J21.562396
G02 X161.283344 Y128.726074 Z2 I-226.797946 J-210.174092
G02 X162.757370 Y127.083337 Z2 I-93.115430 J-85.035062
G03 X163.461547 Y126.310601 Z2 I23.859935 J21.035809
G03 X164.191570 Y125.558337 Z2 I25.523409 J24.038444
G00 Z0.000000

(End cutting path id: path14)


(Footer)
M5
M2
(Using default footer. To add your own footer create file "footer" in the output dir.)
(end)
%