%
(Header)
(Generated by gcodetools from Inkscape.)
(Using default header. To add your own header create file "header" in the output dir.)
M3
(Header end.)
G21 (All units in mm)

(Start cutting path id: path19)
(Change tool to Default tool)

G00 Z0.000000
G00 X167.877080 Y94.041670

G01 Z2 F100.0(Penetrate)
G02 X167.880394 Y94.765070 Z2 I78.961740 J-0.000000 F75.000000
G03 X167.875080 Y95.439587 Z2 I-19.793817 J0.181347
G03 X167.831337 Y95.956993 Z2 I-4.383002 J-0.109999
G02 X167.771440 Y96.456254 Z2 I10.286652 J1.487328
G02 X167.745115 Y96.968877 Z2 I5.824612 J0.556105
G03 X167.713540 Y97.472920 Z2 I-4.582570 J-0.034056
G03 X167.339748 Y100.619307 Z2 I-2143.742185 J-253.082117
G03 X166.894760 Y103.954170 Z2 I-122.179888 J-14.605968
G03 X166.631635 Y105.542263 Z2 I-44.578013 J-6.570124
G03 X166.326510 Y107.131253 Z2 I-103.911972 J-19.129831
G03 X166.175951 Y107.799898 Z2 I-13.969140 J-2.794167
G02 X166.091660 Y108.402086 Z2 I2.775280 J0.695460
G01 X167.114410 Y109.411303 Z2
G02 X168.979540 Y109.457175 Z2 I1.300256 J-14.927016
G03 X171.308160 Y109.418803 Z2 I2.067846 J54.811526
G03 X172.055908 Y109.481653 Z2 I-0.022991 J4.753049
G02 X172.706070 Y109.520588 Z2 I0.513304 J-3.123622
G02 X173.318042 Y109.325576 Z2 I-0.052957 J-1.223918
G02 X173.828150 Y108.904784 Z2 I-1.550370 J-2.399030
G02 X175.164398 Y107.305813 Z2 I-10.916173 J-10.480392
G03 X176.646050 Y105.352040 Z2 I45.953546 J33.310380
G03 X177.883734 Y103.943805 Z2 I14.522670 J11.515821
G02 X178.400310 Y102.429123 Z2 I-1.338158 J-1.301802
G02 X178.017936 Y101.393356 Z2 I-2.313576 J0.265637
G03 X177.367660 Y100.395790 Z2 I32.277015 J-21.750933
G03 X175.856013 Y97.961881 Z2 I183.383279 J-115.581652
G02 X174.328740 Y95.566623 Z2 I-65.631355 J40.163567
G02 X173.820543 Y94.810686 Z2 I-65.540230 J43.512221
G02 X173.082320 Y94.177239 Z2 I-1.540950 J1.048945
G02 X171.430246 Y93.997895 Z2 I-1.081924 J2.267498
G03 X169.783160 Y94.166839 Z2 I-1.486599 J-6.379854
G03 X169.298048 Y94.130826 Z2 I0.120241 J-4.905105
G03 X168.766590 Y94.060739 Z2 I4.450712 J-35.798810
G01 X167.971240 Y93.525834 Z2
G03 X167.961183 Y92.688354 Z2 I3.524064 J-0.461119
G02 X168.004040 Y91.881203 Z2 I-7.579355 J-0.807151
G03 X168.015068 Y90.613676 Z2 I72.848878 J0.000000
G02 X167.950140 Y89.466620 Z2 I-7.774574 J-0.135293
G03 X167.882091 Y88.346202 Z2 I7.974851 J-1.046632
G02 X167.875140 Y87.433286 Z2 I-27.190959 J-0.249454
G02 X167.833900 Y86.938208 Z2 I-4.162146 J0.097453
G03 X167.771500 Y86.416620 Z2 I10.952377 J-1.574804
G03 X167.749675 Y85.966616 Z2 I4.779648 J-0.457343
G02 X167.728400 Y85.527036 Z2 I-4.700340 J0.007185
G02 X167.298221 Y81.758260 Z2 I-102.679327 J9.811182
G02 X166.701930 Y77.774949 Z2 I-120.598485 J16.016977
G02 X166.353741 Y75.896970 Z2 I-51.846613 J8.641407
G02 X166.024740 Y74.343699 Z2 I-107.540595 J21.966906
G03 X165.867653 Y73.432669 Z2 I9.991001 J-2.191784
G03 X165.843720 Y73.199949 Z2 I5.032710 J-0.635160
G00 Z0.000000

(End cutting path id: path19)


(Start cutting path id: path19)
(Change tool to Default tool)

G00 Z0.000000
G00 X169.910380 Y75.360370

G01 Z2 F100.0(Penetrate)
G01 X168.713090 Y75.781920 Z2 F75.000000
G01 X168.805690 Y77.084530 Z2
G02 X169.640631 Y77.440833 Z2 I0.888474 J-0.925571
G02 X170.799990 Y77.393700 Z2 I0.294218 J-7.045196
G00 Z0.000000

(End cutting path id: path19)


(Start cutting path id: path19)
(Change tool to Default tool)

G00 Z0.000000
G00 X170.672880 Y73.199950

G01 Z2 F100.0(Penetrate)
G03 X170.620897 Y73.362764 Z2 I-3.553434 J-1.044827 F75.000000
G03 X170.364780 Y73.963040 Z2 I-4.338802 J-1.496442
G02 X170.091648 Y74.697181 Z2 I2.952728 J1.516421
G03 X169.910380 Y75.360370 Z2 I-11.561065 J-2.803591
G03 X170.582620 Y75.988700 Z2 I-1.447319 J2.222237
G03 X170.866250 Y76.631200 Z2 I-1.236037 J0.929499
G01 X170.984020 Y77.353300 Z2
G01 X171.943710 Y77.647770 Z2
G02 X172.945558 Y77.649198 Z2 I0.648375 J-103.438543
G03 X173.722880 Y77.647870 Z2 I0.777325 J227.474740
G00 Z0.000000

(End cutting path id: path19)


(Start cutting path id: path19)
(Change tool to Default tool)

G00 Z0.000000
G00 X173.849940 Y82.477040

G01 Z2 F100.0(Penetrate)
G03 X173.849587 Y81.319823 Z2 I1637.739138 J-1.076152 F75.000000
G03 X173.849940 Y79.681200 Z2 I4909.846995 J0.226684
G02 X173.788209 Y78.815292 Z2 I-6.070649 J-0.002374
G03 X173.926640 Y77.942440 Z2 I1.479971 J-0.212685
G01 X175.629130 Y77.636500 Z2
G02 X176.644903 Y77.555503 Z2 I-3.108189 J-45.389371
G03 X177.408300 Y77.520790 Z2 I0.764339 J8.397500
G01 X177.644420 Y76.432150 Z2
G01 X179.346710 Y76.770250 Z2
G01 X177.535380 Y77.647870 Z2
G00 Z0.000000

(End cutting path id: path19)


(Start cutting path id: path19)
(Change tool to Default tool)

G00 Z0.000000
G00 X177.535410 Y74.343700

G01 Z2 F100.0(Penetrate)
G03 X177.218232 Y73.431793 Z2 I6.164268 J-2.655160 F75.000000
G02 X177.154160 Y73.199950 Z2 I-16.864277 J4.535824
G00 Z0.000000

(End cutting path id: path19)


(Start cutting path id: path19)
(Change tool to Default tool)

G00 Z0.000000
G00 X173.214560 Y94.041620

G01 Z2 F100.0(Penetrate)
G02 X173.544312 Y93.260896 Z2 I-3.280916 J-1.845750 F75.000000
G02 X173.724650 Y92.135370 Z2 I-4.283852 J-1.263594
G03 X173.881510 Y89.399728 Z2 I51.993277 J1.608952
G03 X174.125710 Y86.670787 Z2 I242.507484 J20.325412
G03 X174.218786 Y85.982395 Z2 I8.756187 J0.833410
G02 X174.154410 Y85.418291 Z2 I-0.985991 J-0.173204
G01 X172.651280 Y84.356223 Z2
G03 X172.448480 Y83.495693 Z2 I0.830055 J-0.649780
G03 X172.967710 Y82.788860 Z2 I1.025609 J0.209271
G03 X173.462122 Y82.619493 Z2 I0.726402 J1.314175
G03 X173.977030 Y82.598430 Z2 I0.349244 J2.233364
G03 X175.290618 Y83.816270 Z2 I-0.105160 J1.430780
G03 X174.358280 Y85.018704 Z2 I-1.040204 J0.156125
G00 Z0.000000

(End cutting path id: path19)


(Start cutting path id: path19)
(Change tool to Default tool)

G00 Z0.000000
G00 X168.512470 Y107.766619

G01 Z2 F100.0(Penetrate)
G03 X169.631410 Y107.767070 Z2 I-0.000962 J1386.770775 F75.000000
G02 X170.672890 Y107.766619 Z2 I0.338856 J-419.847946
G03 X171.163458 Y107.768176 Z2 I0.084711 J50.598562
G02 X171.689070 Y107.672289 Z2 I0.011437 J-1.425843
G02 X172.300252 Y107.236436 Z2 I-0.545839 J-1.411859
G03 X172.844680 Y106.622870 Z2 I12.528314 J10.568264
G03 X175.089732 Y104.670921 Z2 I10.443583 J9.744723
G02 X176.194150 Y102.429120 Z2 I-1.491326 J-2.127643
G02 X175.763162 Y101.211758 Z2 I-2.208837 J0.097031
G03 X174.860270 Y99.887453 Z2 I16.859305 J-12.464370
G03 X173.822225 Y97.833845 Z2 I10.591277 J-6.642767
G02 X172.425390 Y96.205568 Z2 I-3.050858 J1.203929
G02 X171.159847 Y95.967203 Z2 I-0.967137 J1.656055
G03 X169.783310 Y96.074954 Z2 I-1.376537 J-8.738893
G00 Z0.000000

(End cutting path id: path19)


(Footer)
M5
M2
(Using default footer. To add your own footer create file "footer" in the output dir.)
(end)
%