%
(Header)
(Generated by gcodetools from Inkscape.)
(Using default header. To add your own header create file "header" in the output dir.)
M3
(Header end.)
G21 (All units in mm)

(Start cutting path id: path9)
(Change tool to Default tool)

G00 Z0.000000
G00 X159.616660 Y177.408334

G01 Z2 F100.0(Penetrate)
G02 X157.254137 Y176.461622 Z2 I-6.766529 J13.464698 F75.000000
G03 X154.787490 Y175.541307 Z2 I6.359751 J-20.811272
G02 X153.975288 Y175.200870 Z2 I-8.614949 J19.414199
G03 X153.356340 Y174.600538 Z2 I0.412619 J-1.044650
G03 X153.189977 Y174.013285 Z2 I2.151272 J-0.926626
G03 X153.233660 Y173.487479 Z2 I1.153410 J-0.168894
G01 X154.025090 Y173.016311 Z2
G01 X155.414380 Y172.319412 Z2
G02 X155.238169 Y171.047030 Z2 I-1.040147 J-0.504343
G03 X155.002630 Y169.812359 Z2 I0.916323 J-0.814610
G01 X156.287390 Y169.107517 Z2
G02 X156.347645 Y167.938431 Z2 I-1.199839 J-0.647936
G02 X155.680310 Y166.971615 Z2 I-2.579774 J1.066945
G03 X155.308635 Y166.615863 Z2 I19.977191 J-21.243330
G03 X155.168740 Y166.479167 Z2 I45.644605 J-46.852992
G02 X153.927374 Y167.729731 Z2 I79.088045 J79.747732
G02 X153.262490 Y168.512501 Z2 I5.272338 J5.152080
G02 X153.726090 Y168.844034 Z2 I1.541996 J-1.666350
G03 X154.914580 Y169.656251 Z2 I-3.276136 J6.069508
G00 Z0.000000

(End cutting path id: path9)


(Start cutting path id: path9)
(Change tool to Default tool)

G00 Z0.000000
G00 X151.737490 Y170.800004

G01 Z2 F100.0(Penetrate)
G03 X151.910942 Y170.613411 Z2 I4.560387 J4.065296 F75.000000
G02 X152.085800 Y170.398358 Z2 I-1.144069 J-1.108850
G02 X152.606394 Y169.288724 Z2 I-3.247020 J-2.200305
G03 X153.262490 Y168.512504 Z2 I1.197264 J0.346591
G00 Z0.000000

(End cutting path id: path9)


(Start cutting path id: path9)
(Change tool to Default tool)

G00 Z0.000000
G00 X149.831240 Y168.639587

G01 Z2 F100.0(Penetrate)
G01 X151.737490 Y168.133214 Z2 F75.000000
G03 X152.583760 Y168.415487 Z2 I-0.092199 J1.686135
G03 X152.881240 Y168.639587 Z2 I-1.837144 J2.748198
G00 Z0.000000

(End cutting path id: path9)


(Start cutting path id: path9)
(Change tool to Default tool)

G00 Z0.000000
G00 X149.704160 Y167.877087

G01 Z2 F100.0(Penetrate)
G02 X149.531412 Y167.172578 Z2 I-35.781042 J8.400186 F75.000000
G03 X149.269370 Y165.843754 Z2 I11.800804 J-3.017351
G03 X149.244077 Y165.100486 Z2 I3.509481 J-0.491490
G02 X149.228570 Y164.445837 Z2 I-3.450496 J-0.245775
G02 X148.812305 Y163.651759 Z2 I-1.250180 J0.149214
G03 X148.306230 Y163.175004 Z2 I7.277515 J-8.232053
G03 X148.820939 Y163.396032 Z2 I-0.199753 J1.174982
G03 X149.449980 Y163.937504 Z2 I-3.666764 J4.895889
G00 Z0.000000

(End cutting path id: path9)


(Start cutting path id: path9)
(Change tool to Default tool)

G00 Z0.000000
G00 X149.322900 Y163.810417

G01 Z2 F100.0(Penetrate)
G02 X149.808801 Y162.920007 Z2 I-2.947607 J-2.186308 F75.000000
G02 X149.958320 Y162.412501 Z2 I-3.330161 J-1.256892
G01 X149.372620 Y163.263253 Z2
G01 X149.577070 Y163.429167 Z2
G00 Z0.000000

(End cutting path id: path9)


(Start cutting path id: path9)
(Change tool to Default tool)

G00 Z0.000000
G00 X149.195820 Y163.047917

G01 Z2 F100.0(Penetrate)
G01 X148.814570 Y162.920834 Z2 F75.000000
G00 Z0.000000

(End cutting path id: path9)


(Start cutting path id: path9)
(Change tool to Default tool)

G00 Z0.000000
G00 X148.687480 Y162.920834

G01 Z2 F100.0(Penetrate)
G01 X148.814570 Y162.920834 Z2 F75.000000
G00 Z0.000000

(End cutting path id: path9)


(Start cutting path id: path9)
(Change tool to Default tool)

G00 Z0.000000
G00 X148.052070 Y163.175001

G01 Z2 F100.0(Penetrate)
G01 X148.306230 Y163.175001 Z2 F75.000000
G00 Z0.000000

(End cutting path id: path9)


(Start cutting path id: path9)
(Change tool to Default tool)

G00 Z0.000000
G00 X150.085400 Y162.285418

G01 Z2 F100.0(Penetrate)
G01 X150.339570 Y161.777084 Z2 F75.000000
G00 Z0.000000

(End cutting path id: path9)


(Start cutting path id: path9)
(Change tool to Default tool)

G00 Z0.000000
G00 X148.814570 Y160.887501

G01 Z2 F100.0(Penetrate)
G02 X148.793763 Y160.091872 Z2 I-15.546931 J0.008495 F75.000000
G03 X148.872070 Y159.624120 Z2 I1.096838 J-0.056807
G01 X149.831270 Y159.026161 Z2
G03 X151.270454 Y158.719970 Z2 I5.281546 J21.289375
G03 X152.627110 Y158.600001 Z2 I1.359139 J7.638890
G03 X153.573252 Y158.638464 Z2 I0.003706 J11.565126
G03 X154.533360 Y158.758463 Z2 I-0.922245 J11.279708
G01 X155.804190 Y159.870834 Z2
G00 Z0.000000

(End cutting path id: path9)


(Start cutting path id: path9)
(Change tool to Default tool)

G00 Z0.000000
G00 X155.677110 Y159.108334

G01 Z2 F100.0(Penetrate)
G02 X156.205745 Y157.506386 Z2 I-3.959809 J-2.194914 F75.000000
G03 X156.876750 Y156.225327 Z2 I2.084002 J0.275316
G03 X157.570987 Y155.834059 Z2 I1.206097 J1.328474
G02 X158.345370 Y155.442236 Z2 I-0.694753 J-2.334223
G02 X158.756073 Y155.084600 Z2 I-2.386785 J-3.155582
G03 X159.162290 Y154.769655 Z2 I1.448149 J1.448386
G03 X159.941533 Y154.505298 Z2 I1.020163 J1.726462
G02 X160.920370 Y153.895467 Z2 I-0.163777 J-1.353358
G02 X161.218037 Y152.905938 Z2 I-1.541963 J-1.003385
G02 X161.213370 Y152.500001 Z2 I-10.667247 J-0.080346
G01 X161.222370 Y151.996768 Z2
G03 X161.767655 Y151.350480 Z2 I1.029699 J0.315598
G02 X162.311100 Y150.715735 Z2 I-0.486949 J-0.966919
G01 X162.213300 Y149.577085 Z2
G03 X162.424574 Y149.006826 Z2 I1.502272 J0.232307
G02 X162.766550 Y148.433335 Z2 I-15.328997 J-9.529474
G03 X163.129650 Y147.894781 Z2 I3.812848 J2.178990
G02 X163.475500 Y147.416668 Z2 I-5.655555 J-4.455172
G02 X163.877358 Y146.570278 Z2 I-2.759439 J-1.828751
G03 X163.937650 Y146.400002 Z2 I2.210851 J0.687013
G00 Z0.000000

(End cutting path id: path9)


(Start cutting path id: path9)
(Change tool to Default tool)

G00 Z0.000000
G00 X161.268630 Y151.483334

G01 Z2 F100.0(Penetrate)
G03 X161.327266 Y150.974953 Z2 I7.655336 J0.625381 F75.000000
G03 X161.904050 Y149.831250 Z2 I2.020147 J0.301495
G00 Z0.000000

(End cutting path id: path9)


(Start cutting path id: path9)
(Change tool to Default tool)

G00 Z0.000000
G00 X159.235300 Y154.533334

G01 Z2 F100.0(Penetrate)
G03 X159.821572 Y153.031801 Z2 I4.402721 J0.853817 F75.000000
G03 X161.014470 Y152.118750 Z2 I1.792709 J1.106384
G00 Z0.000000

(End cutting path id: path9)


(Start cutting path id: path9)
(Change tool to Default tool)

G00 Z0.000000
G00 X155.804050 Y150.085417

G01 Z2 F100.0(Penetrate)
G01 X155.325620 Y148.876458 Z2 F75.000000
G01 X154.279640 Y148.614546 Z2
G01 X153.516550 Y148.941667 Z2
G00 Z0.000000

(End cutting path id: path9)


(Start cutting path id: path9)
(Change tool to Default tool)

G00 Z0.000000
G00 X150.085300 Y146.400001

G01 Z2 F100.0(Penetrate)
G01 X151.991550 Y146.400001 Z2 F75.000000
G00 Z0.000000

(End cutting path id: path9)


(Start cutting path id: path9)
(Change tool to Default tool)

G00 Z0.000000
G00 X148.687380 Y149.577084

G01 Z2 F100.0(Penetrate)
G03 X149.151103 Y147.671203 Z2 I4.535742 J0.094244 F75.000000
G03 X149.831130 Y146.527084 Z2 I7.502984 J3.685374
G03 X150.319986 Y146.837018 Z2 I-43.392779 J68.983610
G02 X150.847800 Y147.009235 Z2 I0.596687 J-0.933801
G01 X151.610300 Y146.759680 Z2
G03 X152.429219 Y146.458096 Z2 I1.225949 J2.066302
G03 X153.643630 Y146.407455 Z2 I0.803082 J4.671911
G03 X154.337345 Y146.674258 Z2 I-0.116556 J1.338322
G03 X154.777870 Y147.163090 Z2 I-1.051444 J1.390452
G03 X155.068899 Y147.871317 Z2 I-2.140022 J1.293300
G03 X155.168630 Y148.560417 Z2 I-3.666523 J0.882410
G00 Z0.000000

(End cutting path id: path9)


(Start cutting path id: path9)
(Change tool to Default tool)

G00 Z0.000000
G00 X153.897800 Y153.389584

G01 Z2 F100.0(Penetrate)
G02 X155.661180 Y153.193612 Z2 I0.648289 J-2.198164 F75.000000
G02 X156.312380 Y152.754167 Z2 I-2.238691 J-4.019661
G00 Z0.000000

(End cutting path id: path9)


(Start cutting path id: path9)
(Change tool to Default tool)

G00 Z0.000000
G00 X156.947800 Y156.058333

G01 Z2 F100.0(Penetrate)
G03 X156.757412 Y155.651360 Z2 I0.986162 J-0.709363 F75.000000
G03 X156.566550 Y154.152084 Z2 I5.872939 J-1.509426
G02 X156.500882 Y153.288779 Z2 I-5.829160 J0.009247
G03 X156.439470 Y152.372917 Z2 I5.454081 J-0.825709
G00 Z0.000000

(End cutting path id: path9)


(Start cutting path id: path9)
(Change tool to Default tool)

G00 Z0.000000
G00 X156.439740 Y156.566668

G01 Z2 F100.0(Penetrate)
G03 X156.259009 Y156.389697 Z2 I2.998267 J-3.242745 F75.000000
G02 X156.038090 Y156.205422 Z2 I-0.957741 J0.923629
G01 X155.676650 Y156.007343 Z2
G02 X153.258952 Y156.319821 Z2 I-0.854985 J2.894147
G02 X152.754320 Y156.693751 Z2 I1.743676 J2.880627
G03 X152.984342 Y156.917307 Z2 I-4.362105 J4.718379
G02 X153.268340 Y157.130600 Z2 I0.838475 J-0.820708
G01 X155.168710 Y157.098830 Z2
G03 X155.708207 Y157.174878 Z2 I0.082243 J1.368214
G03 X156.058490 Y157.329169 Z2 I-0.854440 J2.414584
G00 Z0.000000

(End cutting path id: path9)


(Start cutting path id: path9)
(Change tool to Default tool)

G00 Z0.000000
G00 X151.610570 Y156.693752

G01 Z2 F100.0(Penetrate)
G01 X152.754320 Y156.693752 Z2 F75.000000
G00 Z0.000000

(End cutting path id: path9)


(Start cutting path id: path9)
(Change tool to Default tool)

G00 Z0.000000
G00 X150.466550 Y152.881250

G01 Z2 F100.0(Penetrate)
G02 X150.829696 Y153.186133 Z2 I3.365138 J-3.639503 F75.000000
G02 X151.737380 Y153.514216 Z2 I0.977248 J-1.284028
G01 X153.643630 Y152.500000 Z2
G00 Z0.000000

(End cutting path id: path9)


(Start cutting path id: path9)
(Change tool to Default tool)

G00 Z0.000000
G00 X148.560300 Y150.085417

G01 Z2 F100.0(Penetrate)
G01 X149.576970 Y149.555610 Z2 F75.000000
G03 X150.647957 Y149.479268 Z2 I1.761590 J17.162594
G02 X151.715810 Y149.246333 Z2 I-0.125831 J-3.141011
G01 X152.753950 Y148.586696 Z2
G01 X153.516550 Y149.322917 Z2
G03 X152.734221 Y149.443943 Z2 I-0.840331 J-2.842966
G03 X152.118630 Y149.450000 Z2 I-0.619141 J-31.638879
G00 Z0.000000

(End cutting path id: path9)


(Start cutting path id: path9)
(Change tool to Default tool)

G00 Z0.000000
G00 X147.924880 Y153.135417

G01 Z2 F100.0(Penetrate)
G01 X148.814470 Y153.135417 Z2 F75.000000
G00 Z0.000000

(End cutting path id: path9)


(Start cutting path id: path9)
(Change tool to Default tool)

G00 Z0.000000
G00 X147.798070 Y156.058335

G01 Z2 F100.0(Penetrate)
G02 X147.797348 Y155.474600 Z2 I-235.934853 J0.000008 F75.000000
G03 X147.798170 Y154.152086 Z2 I213.599526 J-0.528479
G03 X147.808032 Y153.645109 Z2 I15.096346 J0.040079
G02 X147.817270 Y153.135419 Z2 I-14.056042 J-0.509690
G02 X147.803096 Y152.571380 Z2 I-11.229852 J0.000000
G03 X147.809270 Y151.991669 Z2 I4.756934 J-0.239227
G03 X148.114427 Y150.804595 Z2 I3.421038 J0.246674
G03 X148.560300 Y150.085419 Z2 I3.114472 J1.433100
G02 X148.839580 Y150.307030 Z2 I3.689178 J-4.362407
G02 X149.576970 Y150.586300 Z2 I0.858845 J-1.154569
G02 X150.500521 Y150.611282 Z2 I0.678867 J-8.013161
G03 X151.610300 Y150.666900 Z2 I0.210205 J6.905480
G02 X153.415792 Y150.742989 Z2 I1.331816 J-10.143182
G02 X154.914270 Y150.550701 Z2 I-0.430641 J-9.290796
G02 X155.523760 Y150.288615 Z2 I-0.351211 J-1.656494
G02 X155.804050 Y150.085415 Z2 I-4.091819 J-5.939067
G03 X156.238180 Y151.152903 Z2 I-1.866396 J1.381053
G03 X156.312380 Y152.245832 Z2 I-8.024825 J1.093798
G03 X155.999639 Y152.231685 Z2 I0.036001 J-4.259830
G03 X155.041550 Y152.121199 Z2 I1.201725 J-14.630138
G02 X154.172379 Y152.253292 Z2 I-0.219923 J1.478525
G03 X153.643630 Y152.445477 Z2 I-1.215570 J-2.520886
G03 X152.615329 Y152.522083 Z2 I-0.732591 J-2.893865
G02 X151.356130 Y152.507257 Z2 I-0.714153 J7.173816
G02 X150.917369 Y152.588459 Z2 I0.157483 J2.076920
G02 X150.466550 Y152.755344 Z2 I1.072139 J3.588609
G02 X149.887496 Y153.051902 Z2 I2.425873 J5.450334
G03 X149.577560 Y153.186897 Z2 I-0.728817 J-1.250000
G01 X148.814470 Y153.135417 Z2
G01 X150.085300 Y152.754167 Z2
G00 Z0.000000

(End cutting path id: path9)


(Start cutting path id: path9)
(Change tool to Default tool)

G00 Z0.000000
G00 X148.306400 Y157.075002

G01 Z2 F100.0(Penetrate)
G02 X146.888872 Y156.127456 Z2 I-2.504499 J2.212645 F75.000000
G02 X146.527240 Y156.058335 Z2 I-0.421832 J1.226408
G00 Z0.000000

(End cutting path id: path9)


(Start cutting path id: path9)
(Change tool to Default tool)

G00 Z0.000000
G00 X146.400150 Y156.058335

G01 Z2 F100.0(Penetrate)
G01 X146.527240 Y156.058335 Z2 F75.000000
G00 Z0.000000

(End cutting path id: path9)


(Start cutting path id: path9)
(Change tool to Default tool)

G00 Z0.000000
G00 X146.527110 Y159.489584

G01 Z2 F100.0(Penetrate)
G03 X147.034147 Y159.545560 Z2 I-0.006509 J2.383338 F75.000000
G02 X148.687520 Y159.489584 Z2 I0.717540 J-3.251856
G00 Z0.000000

(End cutting path id: path9)


(Start cutting path id: path9)
(Change tool to Default tool)

G00 Z0.000000
G00 X148.687520 Y159.489584

G01 Z2 F100.0(Penetrate)
G03 X148.526071 Y159.171212 Z2 I2.879639 J-1.660409 F75.000000
G03 X148.317650 Y158.345834 Z2 I2.325408 J-1.026207
G03 X148.292332 Y157.657711 Z2 I8.121007 J-0.643321
G03 X148.433360 Y156.947918 Z2 I1.909562 J0.010502
G03 X148.600880 Y157.023580 Z2 I-2.217863 J5.133762
G02 X148.835000 Y157.117069 Z2 I0.885607 J-1.877890
G02 X149.313599 Y157.254294 Z2 I1.956948 J-5.922038
G02 X150.593770 Y157.310341 Z2 I0.781559 J-3.203350
G02 X151.267480 Y156.999993 Z2 I-0.203036 J-1.327182
G02 X151.610440 Y156.693751 Z2 I-8.654451 J-10.037267
G01 X150.085440 Y156.314365 Z2
G01 X149.323530 Y156.425464 Z2
G01 X148.560440 Y156.947918 Z2
G00 Z0.000000

(End cutting path id: path9)


(Start cutting path id: path9)
(Change tool to Default tool)

G00 Z0.000000
G00 X146.400020 Y159.489584

G01 Z2 F100.0(Penetrate)
G01 X146.527110 Y159.489584 Z2 F75.000000
G00 Z0.000000

(End cutting path id: path9)


(Start cutting path id: path9)
(Change tool to Default tool)

G00 Z0.000000
G00 X146.527070 Y161.777084

G01 Z2 F100.0(Penetrate)
G03 X146.858471 Y161.843147 Z2 I-6.509452 J33.518544 F75.000000
G03 X147.670820 Y162.031251 Z2 I-3.233945 J15.814329
G00 Z0.000000

(End cutting path id: path9)


(Start cutting path id: path9)
(Change tool to Default tool)

G00 Z0.000000
G00 X146.399980 Y161.777084

G01 Z2 F100.0(Penetrate)
G01 X146.527070 Y161.777084 Z2 F75.000000
G00 Z0.000000

(End cutting path id: path9)


(Start cutting path id: path9)
(Change tool to Default tool)

G00 Z0.000000
G00 X146.399980 Y164.064584

G01 Z2 F100.0(Penetrate)
G03 X146.757930 Y163.900080 Z2 I1.756145 J3.349564 F75.000000
G03 X147.670820 Y163.683334 Z2 I1.195652 J3.005021
G00 Z0.000000

(End cutting path id: path9)


(Start cutting path id: path9)
(Change tool to Default tool)

G00 Z0.000000
G00 X147.670820 Y166.097920

G01 Z2 F100.0(Penetrate)
G01 X148.306230 Y166.479170 Z2 F75.000000
G00 Z0.000000

(End cutting path id: path9)


(Start cutting path id: path9)
(Change tool to Default tool)

G00 Z0.000000
G00 X149.195820 Y165.589587

G01 Z2 F100.0(Penetrate)
G01 X148.306230 Y166.479170 Z2 F75.000000
G02 X149.083122 Y166.818584 Z2 I1.356517 J-2.046134
G02 X149.322900 Y166.860420 Z2 I0.438242 J-1.803665
G00 Z0.000000

(End cutting path id: path9)


(Start cutting path id: path9)
(Change tool to Default tool)

G00 Z0.000000
G00 X147.543740 Y168.258337

G01 Z2 F100.0(Penetrate)
G02 X147.473766 Y167.471719 Z2 I-5.886958 J0.127253 F75.000000
G02 X147.297620 Y166.994956 Z2 I-1.275768 J0.200428
G02 X146.701430 Y166.531216 Z2 I-0.918563 J0.565811
G02 X146.527080 Y166.479170 Z2 I-2.035330 J6.500172
G00 Z0.000000

(End cutting path id: path9)


(Start cutting path id: path9)
(Change tool to Default tool)

G00 Z0.000000
G00 X147.035400 Y166.479170

G01 Z2 F100.0(Penetrate)
G02 X147.824794 Y165.715815 Z2 I-4.094399 J-5.023905 F75.000000
G02 X148.176600 Y164.827087 Z2 I-1.078616 J-0.940969
G02 X148.071536 Y163.952916 Z2 I-2.829230 J-0.103361
G03 X147.932930 Y163.302087 Z2 I4.860686 J-1.375343
G03 X147.815278 Y162.325214 Z2 I20.283798 J-2.938450
G03 X148.114240 Y161.472422 Z2 I1.071816 J-0.103054
G03 X148.445147 Y161.215085 Z2 I1.081008 J1.048632
G03 X148.814670 Y161.080384 Z2 I0.572925 J0.997496
G03 X149.272341 Y161.083664 Z2 I0.220070 J1.224920
G03 X149.704150 Y161.212860 Z2 I-0.436957 J2.246635
G03 X150.030996 Y161.406372 Z2 I-0.498234 J1.214309
G02 X150.466650 Y161.691482 Z2 I1.634730 J-2.022503
G02 X151.103501 Y161.816080 Z2 I0.530276 J-1.020517
G03 X151.864570 Y161.777082 Z2 I0.848926 J9.121388
G02 X152.549179 Y161.714908 Z2 I-0.040684 J-4.248274
G03 X153.256990 Y161.705112 Z2 I0.384704 J2.220357
G01 X154.301120 Y162.666769 Z2
G03 X155.122556 Y164.483664 Z2 I-3.108539 J2.499539
G03 X155.168730 Y166.479170 Z2 I-6.630365 J1.151706
G00 Z0.000000

(End cutting path id: path9)


(Start cutting path id: path9)
(Change tool to Default tool)

G00 Z0.000000
G00 X155.549980 Y164.954167

G01 Z2 F100.0(Penetrate)
G03 X155.960911 Y164.804208 Z2 I0.736386 J1.379894 F75.000000
G03 X156.947900 Y164.700001 Z2 I0.990655 J4.656727
G00 Z0.000000

(End cutting path id: path9)


(Start cutting path id: path9)
(Change tool to Default tool)

G00 Z0.000000
G00 X157.583320 Y162.666668

G01 Z2 F100.0(Penetrate)
G02 X157.011060 Y162.380181 Z2 I-2.611006 J4.500709 F75.000000
G03 X156.039190 Y161.268751 Z2 I0.665433 J-1.562508
G01 X155.937120 Y160.185110 Z2
G01 X157.456230 Y159.803174 Z2
G02 X158.236396 Y159.432117 Z2 I-0.518642 J-2.096165
G03 X158.981230 Y158.898392 Z2 I11.684982 J15.520280
G03 X160.041941 Y158.289231 Z2 I4.485165 J6.581791
G02 X161.141650 Y157.665311 Z2 I-3.798153 J-7.975675
G02 X162.201887 Y156.956494 Z2 I-219.508619 J-329.484774
G03 X163.302070 Y156.255333 Z2 I15.460303 J23.044848
G02 X163.838442 Y155.904790 Z2 I-4.744409 J-7.845128
G03 X164.318730 Y155.589911 Z2 I4.936610 J7.006130
G03 X164.890936 Y155.276940 Z2 I3.664777 J6.020751
G02 X165.335400 Y155.041668 Z2 I-3.382548 J-6.927610
G00 Z0.000000

(End cutting path id: path9)


(Start cutting path id: path9)
(Change tool to Default tool)

G00 Z0.000000
G00 X164.191650 Y164.700001

G01 Z2 F100.0(Penetrate)
G02 X166.232146 Y165.171134 Z2 I1.841843 J-3.322793 F75.000000
G02 X167.749980 Y164.700001 Z2 I-0.168837 J-3.224480
G00 Z0.000000

(End cutting path id: path9)


(Start cutting path id: path9)
(Change tool to Default tool)

G00 Z0.000000
G00 X167.749990 Y167.877087

G01 Z2 F100.0(Penetrate)
G02 X169.534545 Y168.459559 Z2 I1.766574 J-2.387398 F75.000000
G02 X170.545830 Y168.258337 Z2 I-0.016497 J-2.724730
G00 Z0.000000

(End cutting path id: path9)


(Start cutting path id: path9)
(Change tool to Default tool)

G00 Z0.000000
G00 X171.181240 Y168.512504

G01 Z2 F100.0(Penetrate)
G03 X171.905414 Y168.266911 Z2 I0.920075 J1.522532 F75.000000
G03 X173.341660 Y168.512504 Z2 I0.290611 J2.622925
G00 Z0.000000

(End cutting path id: path9)


(Start cutting path id: path9)
(Change tool to Default tool)

G00 Z0.000000
G00 X172.197900 Y165.970837

G01 Z2 F100.0(Penetrate)
G01 X172.960400 Y165.462504 Z2 F75.000000
G00 Z0.000000

(End cutting path id: path9)


(Start cutting path id: path9)
(Change tool to Default tool)

G00 Z0.000000
G00 X160.887490 Y166.733334

G01 Z2 F100.0(Penetrate)
G02 X163.589090 Y167.366830 Z2 I80.017141 J-335.162898 F75.000000
G02 X166.224990 Y167.840312 Z2 I6.188486 J-26.877794
G02 X166.891794 Y167.903310 Z2 I1.233932 J-9.500162
G02 X167.467390 Y167.800402 Z2 I0.073976 J-1.247421
G02 X168.257993 Y167.316063 Z2 I-1.366710 J-3.118363
G03 X169.654280 Y167.040745 Z2 I0.955268 J1.166358
G03 X170.355422 Y167.611273 Z2 I-0.351014 J1.147466
G02 X170.922470 Y168.367766 Z2 I2.935693 J-1.609754
G03 X171.336810 Y169.060479 Z2 I-1.173292 J1.172068
G02 X171.617800 Y169.910416 Z2 I16.442979 J-4.964643
G03 X171.855558 Y170.581205 Z2 I-70.990891 J25.539973
G02 X172.160060 Y171.178895 Z2 I2.347905 J-0.819761
G02 X172.796492 Y171.718681 Z2 I1.329009 J-0.921877
G02 X173.722910 Y172.016901 Z2 I1.594411 J-3.364959
G02 X175.705125 Y172.235423 Z2 I2.536673 J-13.910601
G02 X177.317030 Y170.672916 Z2 I0.060823 J-1.549940
G02 X176.818421 Y169.412640 Z2 I-1.881180 J0.015488
G02 X175.883420 Y168.490436 Z2 I-10.261099 J9.468403
G02 X174.537277 Y167.338185 Z2 I-25.170003 J28.042964
G03 X173.320480 Y166.056634 Z2 I4.414789 J-5.410153
G03 X172.887288 Y164.750508 Z2 I1.805665 J-1.323769
G02 X172.286750 Y163.361506 Z2 I-1.942000 J0.015304
G02 X170.758190 Y162.468624 Z2 I-2.638489 J2.762089
G03 X169.147910 Y161.928289 Z2 I8.533904 J-28.101956
G02 X168.384799 Y161.680561 Z2 I-3.574591 J9.712102
G02 X167.622910 Y161.529389 Z2 I-1.332720 J4.721237
G02 X165.970764 Y161.500533 Z2 I-0.971096 J8.288949
G03 X164.318740 Y161.511539 Z2 I-0.899211 J-10.982253
G03 X163.241041 Y161.335366 Z2 I0.398891 J-5.824487
G02 X162.158330 Y161.153039 Z2 I-1.564504 J5.984606
G03 X160.809430 Y161.042197 Z2 I13.107071 J-167.770513
G02 X159.489670 Y161.235509 Z2 I-0.249754 J2.896631
G02 X158.976754 Y161.576452 Z2 I0.544303 J1.375142
G02 X158.546060 Y162.018502 Z2 I110.023025 J107.627291
G03 X158.140878 Y162.373580 Z2 I-2.394041 J-2.323145
G02 X157.781990 Y162.714323 Z2 I1.225000 J1.649601
G02 X157.477702 Y163.303220 Z2 I1.204847 J0.995616
G03 X157.281500 Y163.937500 Z2 I-8.725170 J-2.351477
G02 X157.512313 Y165.515194 Z2 I1.623326 J0.568242
G03 X157.964580 Y166.860416 Z2 I-1.925945 J1.396145
G02 X157.155714 Y166.994723 Z2 I0.382551 J4.806783
G02 X156.312490 Y167.368750 Z2 I0.682236 J2.675577
G00 Z0.000000

(End cutting path id: path9)


(Start cutting path id: path9)
(Change tool to Default tool)

G00 Z0.000000
G00 X158.091660 Y166.987500

G01 Z2 F100.0(Penetrate)
G02 X159.488403 Y168.058175 Z2 I1.881485 J-1.008087 F75.000000
G03 X161.395830 Y168.597222 Z2 I-4.859801 J20.840731
G02 X164.654791 Y169.663947 Z2 I100.003892 J-300.011118
G02 X168.004160 Y170.546225 Z2 I9.936772 J-30.924017
G03 X169.552385 Y170.966563 Z2 I-2.673554 J12.908915
G02 X170.927080 Y171.285387 Z2 I2.307192 J-6.824977
G02 X171.593966 Y171.332078 Z2 I0.722674 J-5.536060
G02 X172.070830 Y171.308337 Z2 I0.039957 J-3.998518
G00 Z0.000000

(End cutting path id: path9)


(Start cutting path id: path9)
(Change tool to Default tool)

G00 Z0.000000
G00 X160.887490 Y174.739584

G01 Z2 F100.0(Penetrate)
G02 X160.327104 Y173.957548 Z2 I-3.784890 J2.120356 F75.000000
G03 X159.634310 Y173.087500 Z2 I6.846034 J-6.162149
G02 X158.014900 Y171.008808 Z2 I-21.670861 J15.212589
G02 X156.439580 Y169.275001 Z2 I-34.221894 J29.511103
G00 Z0.000000

(End cutting path id: path9)


(Start cutting path id: path9)
(Change tool to Default tool)

G00 Z0.000000
G00 X160.252070 Y164.700004

G01 Z2 F100.0(Penetrate)
G03 X161.608805 Y164.708627 Z2 I-0.000000 J106.732362 F75.000000
G03 X162.920820 Y164.790704 Z2 I-0.167964 J13.212442
G01 X164.024660 Y164.605669 Z2
G01 X164.539560 Y163.733441 Z2
G03 X165.171884 Y163.364928 Z2 I0.818992 J0.678540
G03 X165.970820 Y163.304144 Z2 I0.700887 J3.931399
G03 X166.781119 Y163.466326 Z2 I-0.058916 J2.399671
G03 X167.304010 Y163.837579 Z2 I-0.475130 J1.223055
G03 X167.503982 Y164.165763 Z2 I-0.921353 J0.786422
G02 X167.814700 Y164.671466 Z2 I1.692696 J-0.691732
G02 X168.381920 Y165.063348 Z2 I1.043877 J-0.904490
G02 X169.020820 Y165.194508 Z2 I0.753763 J-2.050022
G02 X170.049762 Y164.945313 Z2 I0.097287 J-1.847175
G03 X171.181230 Y164.572917 Z2 I1.439827 J2.469600
G00 Z0.000000

(End cutting path id: path9)


(Start cutting path id: path9)
(Change tool to Default tool)

G00 Z0.000000
G00 X153.770820 Y161.777084

G01 Z2 F100.0(Penetrate)
G03 X154.467385 Y161.255916 Z2 I2.522637 J2.645537 F75.000000
G03 X155.804150 Y160.760418 Z2 I2.128264 J3.690754
G00 Z0.000000

(End cutting path id: path9)


(Start cutting path id: path9)
(Change tool to Default tool)

G00 Z0.000000
G00 X153.008320 Y161.650001

G01 Z2 F100.0(Penetrate)
G03 X152.754732 Y161.089430 Z2 I1.478052 J-1.006276 F75.000000
G02 X152.301320 Y160.328766 Z2 I-1.521961 J0.391736
G01 X150.923600 Y160.640591 Z2
G03 X150.568935 Y161.215645 Z2 I-12.910659 J-7.565749
G03 X150.339570 Y161.522918 Z2 I-2.438863 J-1.581261
G00 Z0.000000

(End cutting path id: path9)


(Start cutting path id: path9)
(Change tool to Default tool)

G00 Z0.000000
G00 X146.399990 Y169.529170

G01 Z2 F100.0(Penetrate)
G01 X147.617970 Y168.388951 Z2 F75.000000
G01 X148.560410 Y168.272163 Z2
G03 X149.130777 Y168.473464 Z2 I-0.144502 J1.318120
G03 X149.831240 Y169.020837 Z2 I-2.554481 J3.990795
G00 Z0.000000

(End cutting path id: path9)


(Start cutting path id: path9)
(Change tool to Default tool)

G00 Z0.000000
G00 X150.212490 Y173.341667

G01 Z2 F100.0(Penetrate)
G02 X149.198790 Y172.819124 Z2 I-1.215090 J1.112667 F75.000000
G03 X148.168570 Y171.938162 Z2 I0.150048 J-1.218334
G03 X148.512560 Y170.826487 Z2 I1.023150 J-0.292461
G02 X149.143170 Y170.037501 Z2 I-1.588657 J-1.916265
G01 X149.721030 Y169.226266 Z2
G01 X150.611390 Y169.800005 Z2
G02 X151.154633 Y170.344363 Z2 I4.712742 J-4.159844
G02 X151.610510 Y170.731262 Z2 I9.232544 J-10.416538
G02 X152.313552 Y171.256805 Z2 I6.862710 J-8.447534
G02 X152.627080 Y171.435417 Z2 I1.220596 J-1.778099
G00 Z0.000000

(End cutting path id: path9)


(Start cutting path id: path9)
(Change tool to Default tool)

G00 Z0.000000
G00 X146.399990 Y176.900000

G01 Z2 F100.0(Penetrate)
G03 X147.131917 Y176.620680 Z2 I5.103079 J12.273410 F75.000000
G02 X148.807620 Y175.760565 Z2 I-2.233253 J-6.413278
G02 X149.629192 Y174.750847 Z2 I-1.382499 J-1.963991
G03 X150.277210 Y173.533566 Z2 I7.859202 J3.402714
G01 X151.483330 Y173.090834 Z2
G03 X152.372618 Y173.096172 Z2 I0.408733 J5.985090
G03 X153.008330 Y173.214584 Z2 I-0.249573 J3.105539
G00 Z0.000000

(End cutting path id: path9)


(Footer)
M5
M2
(Using default footer. To add your own footer create file "footer" in the output dir.)
(end)
%