%
(Header)
(Generated by gcodetools from Inkscape.)
(Using default header. To add your own header create file "header" in the output dir.)
M3
(Header end.)
G21 (All units in mm)

(Start cutting path id: path7)
(Change tool to Default tool)

G00 Z0.000000
G00 X108.783330 Y177.281250

G01 Z2 F100.0(Penetrate)
G02 X107.716819 Y175.523691 Z2 I-3.071414 J0.661410 F75.000000
G03 X106.339130 Y173.468750 Z2 I2.778012 J-3.351746
G01 X106.217830 Y171.427573 Z2
G02 X104.459685 Y171.071259 Z2 I-1.279787 J1.799072
G03 X102.302080 Y171.413843 Z2 I-3.886588 J-17.512222
G03 X101.719657 Y171.443750 Z2 I-0.621568 J-6.418606
G02 X101.170190 Y171.585249 Z2 I0.007072 J1.165052
G02 X100.673955 Y172.028673 Z2 I0.693568 J1.275550
G03 X100.287080 Y172.579166 Z2 I-121.043539 J-84.655681
G03 X98.961882 Y174.338013 Z2 I-29.161411 J-20.592926
G02 X98.539590 Y176.391666 Z2 I1.791669 J1.438665
G02 X98.862759 Y177.125946 Z2 I2.699598 J-0.749883
G02 X99.306600 Y177.789583 Z2 I10.848861 J-6.775490
G02 X100.017808 Y178.745373 Z2 I25.474629 J-18.213289
G02 X101.036250 Y179.560806 Z2 I2.197894 J-1.701365
G02 X101.897359 Y179.724995 Z2 I0.752292 J-1.605298
G03 X102.683330 Y179.696321 Z2 I0.967424 J15.731341
G03 X103.214833 Y179.691671 Z2 I1.108705 J96.339860
G03 X103.700000 Y179.700831 Z2 I0.058453 J9.756761
G03 X104.836622 Y179.816298 Z2 I-0.435117 J9.935153
G02 X105.987500 Y179.769763 Z2 I0.460139 J-2.874790
G02 X107.271682 Y178.965187 Z2 I-0.571217 J-2.338847
G03 X108.138400 Y178.022759 Z2 I9.378325 J7.755150
G01 X108.921200 Y177.360379 Z2
G01 X109.672910 Y177.789578 Z2
G00 Z0.000000

(End cutting path id: path7)


(Start cutting path id: path7)
(Change tool to Default tool)

G00 Z0.000000
G00 X103.572910 Y177.862730

G01 Z2 F100.0(Penetrate)
G02 X104.815055 Y177.796599 Z2 I0.443088 J-3.376175 F75.000000
G02 X105.708620 Y176.899504 Z2 I-0.284001 J-1.176456
G02 X105.656428 Y176.239879 Z2 I-1.049037 J-0.248873
G02 X105.383070 Y175.629161 Z2 I-10.310819 J4.248591
G02 X104.619683 Y174.131994 Z2 I-36.600937 J17.719154
G02 X103.318750 Y173.238111 Z2 I-1.516169 J0.812979
G02 X102.625995 Y173.218606 Z2 I-0.446305 J3.539277
G02 X102.061250 Y173.418342 Z2 I0.077352 J1.116969
G02 X101.666142 Y173.844639 Z2 I0.789876 J1.128337
G02 X101.381510 Y174.358328 Z2 I8.752714 J5.185524
G03 X100.899216 Y175.232704 Z2 I-16.461974 J-8.509993
G02 X100.727170 Y176.137494 Z2 I1.180386 J0.693204
G02 X101.945484 Y177.521774 Z2 I1.697270 J-0.265517
G02 X103.572910 Y177.862730 Z2 I3.051743 J-10.511918
G00 Z0.000000

(End cutting path id: path7)


(Start cutting path id: path7)
(Change tool to Default tool)

G00 Z0.000000
G00 X106.622910 Y171.562500

G01 Z2 F100.0(Penetrate)
G02 X107.853028 Y170.018106 Z2 I-7.008081 J-6.844067 F75.000000
G03 X108.984840 Y168.523876 Z2 I10.300138 J6.626129
G02 X109.423693 Y167.880087 Z2 I-2.311031 J-2.046835
G02 X109.654090 Y166.360027 Z2 I-2.167833 J-1.106072
G01 X108.529160 Y166.007115 Z2
G02 X107.399427 Y166.241198 Z2 I2.330767 J14.091976
G03 X106.114580 Y166.529961 Z2 I-6.749586 J-27.029344
G03 X102.776585 Y167.102415 Z2 I-12.041069 J-60.193613
G03 X99.506246 Y167.532115 Z2 I-20.139203 J-140.614695
G03 X98.130263 Y167.680117 Z2 I-6.913871 J-57.808466
G03 X96.837496 Y167.750491 Z2 I-1.506645 J-15.767715
G02 X96.342664 Y167.781128 Z2 I0.068618 J5.119649
G02 X95.820829 Y167.840801 Z2 I8.056524 J72.765628
G03 X95.308175 Y167.873943 Z2 I-0.569410 J-4.826328
G03 X94.804163 Y167.877081 Z2 I-0.539741 J-46.213004
G02 X94.089302 Y167.908585 Z2 I0.006368 J8.270827
G02 X93.279163 Y167.982591 Z2 I9.371374 J107.058616
G03 X90.789994 Y168.096511 Z2 I-2.402700 J-25.248125
G03 X88.322913 Y167.931011 Z2 I0.066347 J-19.460011
G02 X87.737291 Y167.884808 Z2 I-0.738232 J5.622650
G02 X87.179163 Y167.877081 Z2 I-0.574665 J21.346573
G03 X86.675151 Y167.873950 Z2 I0.035681 J-46.312928
G03 X86.162496 Y167.840801 Z2 I0.056590 J-4.855893
G02 X85.640710 Y167.781144 Z2 I-8.503113 J72.060530
G02 X85.145830 Y167.750491 Z2 I-0.564143 J5.097660
G03 X83.360930 Y167.648358 Z2 I0.276627 J-20.482094
G03 X81.460413 Y167.422585 Z2 I5.525774 J-54.627016
G03 X78.714410 Y167.030315 Z2 I30.161803 J-220.948755
G03 X75.995830 Y166.555457 Z2 I8.206404 J-55.001409
G03 X75.111188 Y166.364279 Z2 I5.888344 J-29.389620
G02 X74.343747 Y166.200094 Z2 I-5.163957 J22.261896
G03 X73.550001 Y166.031487 Z2 I4.964725 J-25.324946
G03 X73.327080 Y165.970834 Z2 I0.634682 J-2.772658
G00 Z0.000000

(End cutting path id: path7)


(Start cutting path id: path7)
(Change tool to Default tool)

G00 Z0.000000
G00 X73.199997 Y165.970834

G01 Z2 F100.0(Penetrate)
G01 X73.327080 Y165.970834 Z2 F75.000000
G00 Z0.000000

(End cutting path id: path7)


(Start cutting path id: path7)
(Change tool to Default tool)

G00 Z0.000000
G00 X73.327080 Y171.181244

G01 Z2 F100.0(Penetrate)
G01 X73.728726 Y171.260084 Z2 F75.000000
G01 X76.122913 Y171.708405 Z2
G01 X77.266663 Y172.830877 Z2
G01 X77.788725 Y173.403535 Z2
G01 X78.791663 Y173.665840 Z2
G01 X82.477080 Y173.977078 Z2
G00 Z0.000000

(End cutting path id: path7)


(Start cutting path id: path7)
(Change tool to Default tool)

G00 Z0.000000
G00 X73.327080 Y173.087495

G01 Z2 F100.0(Penetrate)
G02 X74.458741 Y173.480631 Z2 I2.945194 J-6.652542 F75.000000
G02 X76.249997 Y173.813517 Z2 I3.332932 J-12.948630
G02 X77.217010 Y173.649758 Z2 I0.202274 J-1.742582
G02 X77.520830 Y173.468745 Z2 I-0.894828 J-1.847392
G00 Z0.000000

(End cutting path id: path7)


(Start cutting path id: path7)
(Change tool to Default tool)

G00 Z0.000000
G00 X73.199997 Y173.087495

G01 Z2 F100.0(Penetrate)
G01 X73.327080 Y173.087495 Z2 F75.000000
G00 Z0.000000

(End cutting path id: path7)


(Start cutting path id: path7)
(Change tool to Default tool)

G00 Z0.000000
G00 X73.199997 Y171.181250

G01 Z2 F100.0(Penetrate)
G01 X73.327080 Y171.181250 Z2 F75.000000
G00 Z0.000000

(End cutting path id: path7)


(Start cutting path id: path7)
(Change tool to Default tool)

G00 Z0.000000
G00 X109.672910 Y170.799995

G01 Z2 F100.0(Penetrate)
G03 X109.357747 Y171.563122 Z2 I-1.329127 J-0.102271 F75.000000
G02 X108.866190 Y172.199775 Z2 I6.243147 J5.328401
G02 X108.567655 Y172.889931 Z2 I1.551054 J1.080571
G02 X108.548480 Y173.468648 Z2 I1.627869 J0.343614
G02 X108.660647 Y173.828084 Z2 I1.164127 J-0.166063
G02 X108.928650 Y174.176136 Z2 I1.024940 J-0.512002
G02 X109.542156 Y174.462270 Z2 I0.794502 J-0.902727
G03 X109.672910 Y174.485411 Z2 I-0.414930 J2.725435
G00 Z0.000000

(End cutting path id: path7)


(Footer)
M5
M2
(Using default footer. To add your own footer create file "footer" in the output dir.)
(end)
%