%
(Header)
(Generated by gcodetools from Inkscape.)
(Using default header. To add your own header create file "header" in the output dir.)
M3
(Header end.)
G21 (All units in mm)

(Start cutting path id: path29)
(Change tool to Default tool)

G00 Z0.000000
G00 X161.777080 Y36.091670

G01 Z2 F100.0(Penetrate)
G01 X159.734920 Y33.295840 Z2 F75.000000
G01 X159.495070 Y32.065410 Z2
G01 X160.506240 Y31.770940 Z2
G01 X163.302080 Y32.020010 Z2
G01 X168.512490 Y32.407630 Z2
G01 X169.885210 Y32.827410 Z2
G01 X169.731260 Y33.931260 Z2
G01 X168.639580 Y35.964590 Z2
G00 Z0.000000

(End cutting path id: path29)


(Start cutting path id: path29)
(Change tool to Default tool)

G00 Z0.000000
G00 X164.572910 Y34.820840

G01 Z2 F100.0(Penetrate)
G02 X165.809519 Y34.546030 Z2 I-0.036496 J-3.083931 F75.000000
G03 X166.860410 Y34.312510 Z2 I1.081820 J2.387048
G00 Z0.000000

(End cutting path id: path29)


(Start cutting path id: path29)
(Change tool to Default tool)

G00 Z0.000000
G00 X163.429160 Y35.456260

G01 Z2 F100.0(Penetrate)
G01 X164.572910 Y34.820840 Z2 F75.000000
G02 X163.906604 Y34.346734 Z2 I-1.881728 J1.939307
G02 X162.158330 Y33.931260 Z2 I-1.748693 J3.472306
G00 Z0.000000

(End cutting path id: path29)


(Start cutting path id: path29)
(Change tool to Default tool)

G00 Z0.000000
G00 X158.854160 Y35.964590

G01 Z2 F100.0(Penetrate)
G02 X157.312771 Y34.329317 Z2 I-10.371138 J8.231626 F75.000000
G02 X155.549990 Y33.041670 Z2 I-7.356646 J8.220763
G00 Z0.000000

(End cutting path id: path29)


(Start cutting path id: path29)
(Change tool to Default tool)

G00 Z0.000000
G00 X151.737490 Y30.754170

G01 Z2 F100.0(Penetrate)
G02 X151.483637 Y29.102182 Z2 I-11.412762 J0.908244 F75.000000
G03 X151.175720 Y27.450010 Z2 I19.849597 J-4.554171
G03 X151.085544 Y26.794790 Z2 I52.076506 J-7.500964
G03 X151.100120 Y26.179170 Z2 I1.988200 J-0.260908
G03 X151.285170 Y25.683860 Z2 I1.455564 J0.261582
G02 X151.518240 Y25.289590 Z2 I-57.904335 J-34.495777
G03 X152.328737 Y24.182149 Z2 I5.851147 J3.431943
G02 X153.220620 Y23.002090 Z2 I-6.404165 J-5.767305
G02 X153.662067 Y21.495873 Z2 I-2.436446 J-1.531879
G02 X153.389580 Y19.952090 Z2 I-4.292564 J-0.038277
G00 Z0.000000

(End cutting path id: path29)


(Start cutting path id: path29)
(Change tool to Default tool)

G00 Z0.000000
G00 X157.710390 Y21.222860

G01 Z2 F100.0(Penetrate)
G02 X157.920913 Y20.960855 Z2 I-4.260777 J-3.639145 F75.000000
G02 X158.267260 Y20.333080 Z2 I-2.011073 J-1.518949
G03 X158.773245 Y19.146118 Z2 I14.536150 J5.495229
G03 X160.123110 Y18.251900 Z2 I1.418744 J0.675710
G03 X161.175269 Y18.901259 Z2 I0.048215 J1.098965
G02 X161.777060 Y19.697860 Z2 I2.033788 J-0.910811
G00 Z0.000000

(End cutting path id: path29)


(Start cutting path id: path29)
(Change tool to Default tool)

G00 Z0.000000
G00 X161.649990 Y21.858280

G01 Z2 F100.0(Penetrate)
G03 X161.723070 Y21.337112 Z2 I19.315899 J2.442842 F75.000000
G02 X161.772080 Y20.841610 Z2 I-4.538515 J-0.699076
G02 X161.772854 Y20.386682 Z2 I-5.319019 J-0.236509
G03 X161.851380 Y19.824950 Z2 I1.583369 J-0.065010
G03 X162.132074 Y19.232174 Z2 I2.532528 J0.836369
G02 X162.392270 Y18.681200 Z2 I-2.074525 J-1.316614
G03 X163.198409 Y17.163401 Z2 I4.788527 J1.570321
G02 X164.150460 Y15.631200 Z2 I-6.891660 J-5.344097
G02 X164.482751 Y14.829006 Z2 I-6.549999 J-3.183111
G02 X164.683890 Y14.106290 Z2 I-5.756280 J-1.991376
G03 X164.932220 Y13.574944 Z2 I1.272372 J0.270952
G03 X165.462470 Y13.216610 Z2 I0.820747 J0.643025
G00 Z0.000000

(End cutting path id: path29)


(Start cutting path id: path29)
(Change tool to Default tool)

G00 Z0.000000
G00 X164.954140 Y13.343700

G01 Z2 F100.0(Penetrate)
G01 X164.445810 Y12.835360 Z2 F75.000000
G00 Z0.000000

(End cutting path id: path29)


(Start cutting path id: path29)
(Change tool to Default tool)

G00 Z0.000000
G00 X165.335390 Y11.818700

G01 Z2 F100.0(Penetrate)
G01 X164.445810 Y11.183280 Z2 F75.000000
G00 Z0.000000

(End cutting path id: path29)


(Start cutting path id: path29)
(Change tool to Default tool)

G00 Z0.000000
G00 X153.516640 Y14.995780

G01 Z2 F100.0(Penetrate)
G02 X153.804185 Y16.212455 Z2 I5.991985 J-0.773809 F75.000000
G02 X154.533310 Y17.029110 Z2 I1.349217 J-0.470790
G00 Z0.000000

(End cutting path id: path29)


(Start cutting path id: path29)
(Change tool to Default tool)

G00 Z0.000000
G00 X148.941660 Y21.985360

G01 Z2 F100.0(Penetrate)
G02 X149.569595 Y24.469853 Z2 I10.514041 J-1.335736 F75.000000
G02 X150.847910 Y25.924950 Z2 I2.619578 J-1.012268
G00 Z0.000000

(End cutting path id: path29)


(Start cutting path id: path29)
(Change tool to Default tool)

G00 Z0.000000
G00 X148.179160 Y31.643760

G01 Z2 F100.0(Penetrate)
G01 X149.449990 Y31.262510 Z2 F75.000000
G00 Z0.000000

(End cutting path id: path29)


(Start cutting path id: path29)
(Change tool to Default tool)

G00 Z0.000000
G00 X147.670830 Y32.787510

G01 Z2 F100.0(Penetrate)
G02 X147.728656 Y32.038045 Z2 I-5.239020 J-0.781185 F75.000000
G02 X147.543740 Y30.500010 Z2 I-6.180892 J-0.037014
G00 Z0.000000

(End cutting path id: path29)


(Start cutting path id: path29)
(Change tool to Default tool)

G00 Z0.000000
G00 X146.399990 Y31.389590

G01 Z2 F100.0(Penetrate)
G02 X146.770685 Y31.219328 Z2 I-2.313530 J-5.525708 F75.000000
G02 X147.543740 Y30.754170 Z2 I-2.625619 J-5.238519
G00 Z0.000000

(End cutting path id: path29)


(Start cutting path id: path29)
(Change tool to Default tool)

G00 Z0.000000
G00 X151.610410 Y35.964590

G01 Z2 F100.0(Penetrate)
G03 X152.055454 Y34.420448 Z2 I3.448989 J0.157842 F75.000000
G02 X152.881240 Y32.914590 Z2 I-53.809469 J-30.487536
G00 Z0.000000

(End cutting path id: path29)


(Start cutting path id: path29)
(Change tool to Default tool)

G00 Z0.000000
G00 X158.727080 Y29.483340

G01 Z2 F100.0(Penetrate)
G01 X162.666660 Y29.737510 Z2 F75.000000
G01 X164.064580 Y29.828310 Z2
G01 X165.462490 Y29.864610 Z2
G01 X166.606240 Y29.937710 Z2
G01 X167.749990 Y29.991610 Z2
G01 X169.529160 Y30.118700 Z2
G00 Z0.000000

(End cutting path id: path29)


(Start cutting path id: path29)
(Change tool to Default tool)

G00 Z0.000000
G00 X167.749990 Y27.068700

G01 Z2 F100.0(Penetrate)
G01 X166.606240 Y25.162450 Z2 F75.000000
G00 Z0.000000

(End cutting path id: path29)


(Start cutting path id: path29)
(Change tool to Default tool)

G00 Z0.000000
G00 X160.379160 Y23.764530

G01 Z2 F100.0(Penetrate)
G03 X160.934941 Y24.640936 Z2 I-2.408275 J2.141659 F75.000000
G03 X161.161470 Y25.543700 Z2 I-2.727131 J1.164119
G03 X160.776283 Y27.001579 Z2 I-2.211250 J0.195589
G03 X159.489580 Y27.680290 Z2 I-1.294289 J-0.894694
G03 X158.290245 Y27.340823 Z2 I-0.010332 J-2.251851
G03 X157.329160 Y26.690680 Z2 I7.957307 J-12.798473
G02 X156.570978 Y26.157023 Z2 I-13.759100 J18.742550
G02 X155.677170 Y25.863760 Z2 I-0.963956 J1.429238
G02 X154.592339 Y27.431088 Z2 I-0.045894 J1.127333
G02 X155.931240 Y28.847860 Z2 I2.571353 J-1.088980
G00 Z0.000000

(End cutting path id: path29)


(Start cutting path id: path29)
(Change tool to Default tool)

G00 Z0.000000
G00 X158.345830 Y24.145780

G01 Z2 F100.0(Penetrate)
G03 X158.029069 Y22.600297 Z2 I5.027529 J-1.835643 F75.000000
G02 X157.616760 Y21.386230 Z2 I-2.372964 J0.128836
G02 X157.198840 Y20.853693 Z2 I-4.307927 J2.950487
G03 X156.966740 Y20.459870 Z2 I0.866933 J-0.776233
G03 X156.861294 Y19.966307 Z2 I1.921107 J-0.668475
G03 X156.875740 Y19.316610 Z2 I2.994238 J-0.258432
G03 X157.182635 Y17.754647 Z2 I12.444130 J1.633898
G03 X157.744730 Y16.266610 Z2 I7.429590 J1.956289
G02 X158.731629 Y14.242989 Z2 I-90.411084 J-45.345025
G02 X158.422900 Y11.825660 Z2 I-2.041509 J-0.967648
G02 X157.744440 Y11.285221 Z2 I-1.662203 J1.390622
G02 X156.947910 Y11.074530 Z2 I-0.886345 J1.739872
G02 X156.427385 Y11.127123 Z2 I-0.082196 J1.788655
G02 X155.931240 Y11.295160 Z2 I0.809971 J3.207998
G02 X154.770825 Y12.420704 Z2 I0.895117 J2.083803
G02 X154.193460 Y13.852030 Z2 I13.248633 J6.176319
G01 X153.275240 Y14.824770 Z2
G01 X152.611000 Y13.597860 Z2
G03 X152.252352 Y10.919395 Z2 I71.719459 J-10.966514
G02 X150.466660 Y8.845670 Z2 I-2.420126 J0.278283
G01 X148.702400 Y8.718790 Z2
G01 X148.808400 Y9.785360 Z2
G02 X149.717095 Y11.313749 Z2 I4.639636 J-1.724145
G03 X150.242700 Y12.961860 Z2 I-1.642130 J1.431565
G03 X149.221433 Y13.958136 Z2 I-1.104195 J-0.110313
G02 X147.837720 Y14.870660 Z2 I0.127275 J1.698357
G02 X147.544069 Y15.589101 Z2 I3.765319 J1.958247
G02 X147.420190 Y16.266610 Z2 I2.855372 J0.872169
G02 X147.455663 Y16.866562 Z2 I2.418923 J0.158004
G03 X147.543740 Y17.410360 Z2 I-11.895429 J2.205698
G02 X147.764517 Y18.588555 Z2 I12.508211 J-1.734082
G02 X148.052080 Y19.697860 Z2 I26.645051 J-6.315212
G00 Z0.000000

(End cutting path id: path29)


(Start cutting path id: path29)
(Change tool to Default tool)

G00 Z0.000000
G00 X146.527060 Y15.885360

G01 Z2 F100.0(Penetrate)
G01 X147.289560 Y16.012450 Z2 F75.000000
G00 Z0.000000

(End cutting path id: path29)


(Start cutting path id: path29)
(Change tool to Default tool)

G00 Z0.000000
G00 X146.399970 Y15.885360

G01 Z2 F100.0(Penetrate)
G01 X146.527060 Y15.885360 Z2 F75.000000
G00 Z0.000000

(End cutting path id: path29)


(Start cutting path id: path29)
(Change tool to Default tool)

G00 Z0.000000
G00 X173.722910 Y28.466610

G01 Z2 F100.0(Penetrate)
G03 X173.414391 Y28.087319 Z2 I4.035062 J-3.597277 F75.000000
G03 X173.035520 Y27.449950 Z2 I2.945371 J-2.182108
G02 X171.816984 Y25.294421 Z2 I-14.132091 J6.566789
G02 X169.656240 Y23.406130 Z2 I-4.650564 J3.141172
G02 X168.155704 Y23.456014 Z2 I-0.703833 J1.421732
G02 X167.152530 Y24.284630 Z2 I1.998186 J3.440689
G01 X166.344820 Y25.054290 Z2
G01 X165.551820 Y24.625580 Z2
G03 X165.103336 Y23.285126 Z2 I1.601174 J-1.280968
G03 X165.330900 Y21.985360 Z2 I4.585865 J0.133093
G03 X165.941987 Y20.625620 Z2 I6.772983 J2.226693
G02 X166.543980 Y19.189530 Z2 I-5.184180 J-3.017369
G02 X166.676532 Y16.788457 Z2 I-5.522113 J-1.509044
G02 X166.168610 Y14.360360 Z2 I-24.636866 J3.886491
G02 X165.911907 Y13.776807 Z2 I-1.954268 J0.511438
G03 X165.644590 Y13.216610 Z2 I2.048691 J-1.321480
G03 X165.531000 Y12.596107 Z2 I2.201251 J-0.723613
G02 X165.335410 Y11.818700 Z2 I-1.996176 J0.088915
G01 X164.445830 Y12.708280 Z2
G03 X164.190319 Y11.626483 Z2 I4.128924 J-1.546287
G02 X163.810410 Y10.674950 Z2 I-1.880568 J0.199229
G00 Z0.000000

(End cutting path id: path29)


(Start cutting path id: path29)
(Change tool to Default tool)

G00 Z0.000000
G00 X173.468740 Y30.754170

G01 Z2 F100.0(Penetrate)
G03 X173.495917 Y29.570823 Z2 I25.897456 J0.002783 F75.000000
G03 X173.829400 Y28.488250 Z2 I2.260322 J0.103634
G02 X174.259991 Y27.691342 Z2 I-6.831693 J-4.206138
G02 X174.463350 Y26.560420 Z2 I-2.015508 J-0.946167
G02 X173.732045 Y23.831934 Z2 I-7.914413 J0.659021
G03 X172.983850 Y21.222920 Z2 I7.638702 J-3.602362
G03 X173.034375 Y20.207155 Z2 I3.026170 J-0.358616
G03 X173.251050 Y19.316670 Z2 I20.978541 J4.632956
G02 X173.356980 Y18.763199 Z2 I-3.843784 J-1.022541
G03 X173.434320 Y18.172920 Z2 I24.481297 J2.907410
G03 X174.211151 Y15.188351 Z2 I13.624165 J1.952748
G03 X175.392550 Y12.327090 Z2 I58.574883 J22.510725
G02 X176.021582 Y10.517880 Z2 I-10.742901 J-4.749081
G03 X176.772910 Y8.895840 Z2 I4.812526 J1.244134
G00 Z0.000000

(End cutting path id: path29)


(Footer)
M5
G00 X0.0000 Y0.0000
M2
(Using default footer. To add your own footer create file "footer" in the output dir.)
(end)
%