%
(Header)
(Generated by gcodetools from Inkscape.)
(Using default header. To add your own header create file "header" in the output dir.)
M3
(Header end.)
G21 (All units in mm)

(Start cutting path id: path22)
(Change tool to Default tool)

G00 Z0.000000
G00 X82.731247 Y73.072910

G01 Z2 F100.0(Penetrate)
G03 X83.617425 Y72.842614 Z2 I2.034093 J6.007024 F75.000000
G02 X84.764580 Y72.576150 Z2 I-2.306190 J-12.530935
G02 X85.571353 Y72.348110 Z2 I-112.224637 J-398.576660
G03 X86.416663 Y72.131750 Z2 I4.597245 J16.201748
G03 X86.990724 Y72.054679 Z2 I0.708886 J3.103631
G02 X87.560413 Y72.001820 Z2 I-0.241640 J-5.700650
G03 X89.246999 Y71.825839 Z2 I3.119886 J21.730641
G03 X90.991663 Y71.807080 Z2 I1.043999 J15.956519
G03 X92.495118 Y72.018817 Z2 I-0.347062 J7.907923
G03 X93.914579 Y72.383460 Z2 I-11.063476 J46.012324
G02 X95.946807 Y72.813731 Z2 I4.702196 J-17.194738
G02 X97.091663 Y72.945830 Z2 I2.433912 J-16.066756
G00 Z0.000000

(End cutting path id: path22)


(Start cutting path id: path22)
(Change tool to Default tool)

G00 Z0.000000
G00 X97.218746 Y73.072910

G01 Z2 F100.0(Penetrate)
G01 X97.091663 Y72.945830 Z2 F75.000000
G00 Z0.000000

(End cutting path id: path22)


(Start cutting path id: path22)
(Change tool to Default tool)

G00 Z0.000000
G00 X101.158330 Y73.072910

G01 Z2 F100.0(Penetrate)
G02 X100.247558 Y72.807809 Z2 I-2.162274 J5.731588 F75.000000
G03 X99.192265 Y72.175980 Z2 I0.383549 J-1.837809
G03 X98.511887 Y70.862509 Z2 I2.601744 J-2.180657
G02 X97.952712 Y69.516540 Z2 I-5.218168 J1.378719
G02 X97.172381 Y68.759666 Z2 I-1.749796 J1.023332
G02 X96.074996 Y68.227570 Z2 I-6.181531 J11.351006
G02 X95.276920 Y67.924007 Z2 I-4.115781 J9.619643
G02 X94.573432 Y67.941040 Z2 I-0.328183 J0.981591
G01 X93.764060 Y68.725020 Z2
G03 X92.321483 Y69.552065 Z2 I-2.414022 J-2.539038
G03 X90.610413 Y69.755510 Z2 I-1.475536 J-5.112772
G03 X88.904426 Y69.449586 Z2 I0.288748 J-6.519894
G03 X87.487262 Y68.597930 Z2 I1.105941 J-3.445211
G03 X87.059745 Y68.142643 Z2 I4.816867 J-4.951423
G02 X86.543648 Y67.738950 Z2 I-1.262705 J1.082547
G02 X85.992772 Y67.604489 Z2 I-0.567634 J1.129875
G02 X85.399996 Y67.630000 Z2 I-0.069920 J5.274995
G02 X84.026791 Y67.919388 Z2 I0.642903 J6.453461
G02 X82.977078 Y68.754430 Z2 I0.598393 J1.829534
G02 X82.208672 Y70.578711 Z2 I5.894575 J3.556827
G03 X81.079065 Y72.238150 Z2 I-2.886186 J-0.750482
G03 X80.090946 Y72.665995 Z2 I-1.445181 J-1.982719
G03 X79.172913 Y72.797170 Z2 I-1.900871 J-10.025266
G03 X77.680817 Y72.789436 Z2 I-0.708140 J-7.317637
G02 X76.377080 Y72.691660 Z2 I-2.180043 J20.327569
G00 Z0.000000

(End cutting path id: path22)


(Start cutting path id: path22)
(Change tool to Default tool)

G00 Z0.000000
G00 X79.045834 Y60.364580

G01 Z2 F100.0(Penetrate)
G01 X79.045834 Y60.237500 Z2 F75.000000
G00 Z0.000000

(End cutting path id: path22)


(Start cutting path id: path22)
(Change tool to Default tool)

G00 Z0.000000
G00 X80.825001 Y59.856250

G01 Z2 F100.0(Penetrate)
G01 X81.333334 Y59.856250 Z2 F75.000000
G00 Z0.000000

(End cutting path id: path22)


(Start cutting path id: path22)
(Change tool to Default tool)

G00 Z0.000000
G00 X92.770833 Y61.762500

G01 Z2 F100.0(Penetrate)
G02 X92.450052 Y61.444013 Z2 I-19.871861 J19.694232 F75.000000
G03 X91.798881 Y60.618750 Z2 I2.854352 J-2.921749
G03 X91.385783 Y59.868053 Z2 I10.238798 J-6.123268
G02 X90.864192 Y58.966660 Z2 I-8.099858 J4.085382
G02 X89.366292 Y56.877220 Z2 I-26.881180 J17.689233
G03 X87.941667 Y54.772910 Z2 I15.014000 J-11.698921
G00 Z0.000000

(End cutting path id: path22)


(Start cutting path id: path22)
(Change tool to Default tool)

G00 Z0.000000
G00 X91.627080 Y67.481250

G01 Z2 F100.0(Penetrate)
G02 X91.966716 Y67.011526 Z2 I-107.553582 J-78.124790 F75.000000
G02 X92.449002 Y65.956250 Z2 I-2.427887 J-1.747447
G02 X92.529822 Y64.958808 Z2 I-3.201082 J-0.761369
G03 X92.528042 Y63.922910 Z2 I7.376749 J-0.530623
G02 X92.569255 Y63.012871 Z2 I-19.661152 J-1.346352
G03 X92.774952 Y62.040100 Z2 I2.684143 J0.059441
G03 X93.150846 Y61.533922 Z2 I1.203996 J0.501442
G02 X93.332511 Y61.339970 Z2 I-0.649885 J-0.790768
G02 X93.532144 Y60.878198 Z2 I-0.960289 J-0.689190
G03 X93.741903 Y59.983330 Z2 I12.311483 J2.413823
G03 X94.051474 Y59.168505 Z2 I4.377013 J1.196712
G03 X94.591674 Y58.331250 Z2 I3.935399 J1.946235
G03 X96.227401 Y56.413618 Z2 I49.940182 J40.942166
G02 X97.345833 Y54.391660 Z2 I-3.951340 J-3.505963
G00 Z0.000000

(End cutting path id: path22)


(Start cutting path id: path22)
(Change tool to Default tool)

G00 Z0.000000
G00 X73.327084 Y50.833330

G01 Z2 F100.0(Penetrate)
G02 X73.529399 Y50.779410 Z2 I-0.877839 J-3.700304 F75.000000
G02 X74.343751 Y50.505920 Z2 I-3.388371 J-11.438469
G03 X75.900040 Y49.948094 Z2 I18.376064 J48.817851
G03 X77.775001 Y49.361870 Z2 I12.524992 J36.768029
G03 X82.238831 Y48.369203 Z2 I10.645993 J37.340144
G03 X86.670834 Y47.747050 Z2 I17.438041 J108.125436
G03 X87.185741 Y47.687613 Z2 I7.600064 J63.579961
G03 X87.687500 Y47.656750 Z2 I0.562729 J5.054471
G03 X88.345009 Y47.654304 Z2 I0.464585 J36.511715
G02 X89.085417 Y47.656260 Z2 I0.740408 J-140.135006
G01 X91.372917 Y47.656260 Z2
G02 X91.874990 Y47.654044 Z2 I-0.000000 J-56.866903
G03 X92.389583 Y47.658260 Z2 I0.133460 J15.115713
G03 X92.822201 Y47.690860 Z2 I-0.102402 J4.245756
G02 X93.279167 Y47.747160 Z2 I7.784408 J-61.300397
G03 X97.854404 Y48.387602 Z2 I-13.687120 J114.441826
G03 X102.556254 Y49.435520 Z2 I-6.346462 J39.547803
G03 X104.673734 Y50.116329 Z2 I-9.706054 J33.821500
G03 X106.750004 Y50.910120 Z2 I-16.616157 J46.574141
G03 X107.702301 Y51.319182 Z2 I-10.843228 J26.556026
G03 X108.529164 Y51.693700 Z2 I-123.926663 J274.706395
G02 X109.464769 Y52.047790 Z2 I3.186902 J-7.007575
G02 X109.672914 Y52.104270 Z2 I0.991456 J-3.242027
G00 Z0.000000

(End cutting path id: path22)


(Start cutting path id: path22)
(Change tool to Default tool)

G00 Z0.000000
G00 X73.200001 Y50.833440

G01 Z2 F100.0(Penetrate)
G01 X73.327084 Y50.833440 Z2 F75.000000
G00 Z0.000000

(End cutting path id: path22)


(Footer)
M5
M2
(Using default footer. To add your own footer create file "footer" in the output dir.)
(end)
%