%
(Header)
(Generated by gcodetools from Inkscape.)
(Using default header. To add your own header create file "header" in the output dir.)
M3
(Header end.)
G21 (All units in mm)

(Start cutting path id: path11)
(Change tool to Default tool)

G00 Z0.000000
G00 X36.727082 Y145.637502

G01 Z2 F100.0(Penetrate)
G03 X37.550324 Y145.910531 Z2 I-23.733368 J72.938952 F75.000000
G02 X38.379165 Y146.145835 Z2 I2.800285 J-8.286375
G00 Z0.000000

(End cutting path id: path11)


(Start cutting path id: path11)
(Change tool to Default tool)

G00 Z0.000000
G00 X36.599998 Y145.637502

G01 Z2 F100.0(Penetrate)
G01 X36.727082 Y145.637502 Z2 F75.000000
G00 Z0.000000

(End cutting path id: path11)


(Start cutting path id: path11)
(Change tool to Default tool)

G00 Z0.000000
G00 X50.833331 Y109.800003

G01 Z2 F100.0(Penetrate)
G03 X50.886344 Y110.024669 Z2 I-4.625332 J1.210008 F75.000000
G02 X51.131722 Y110.816670 Z2 I4.375028 J-0.921458
G02 X51.340731 Y111.268720 Z2 I5.781025 J-2.398562
G03 X51.627307 Y111.833336 Z2 I-87.974979 J45.007515
G02 X52.345573 Y113.175376 Z2 I27.258410 J-13.725594
G02 X53.120831 Y114.502086 Z2 I53.553291 J-30.403806
G02 X54.403091 Y116.522628 Z2 I42.424272 J-25.505814
G02 X55.774873 Y118.441669 Z2 I31.676367 J-21.193299
G02 X56.954521 Y119.924954 Z2 I37.107593 J-28.300719
G02 X58.184455 Y121.364586 Z2 I49.126953 J-40.725886
G03 X58.513230 Y121.746124 Z2 I-17.849610 J15.713594
G02 X58.850956 Y122.127086 Z2 I7.895236 J-6.659019
G02 X59.406363 Y122.698205 Z2 I13.562083 J-12.633346
G03 X59.983331 Y123.270836 Z2 I-75.597989 J76.747588
G03 X60.560254 Y123.851607 Z2 I-87.077762 J87.077762
G02 X61.127081 Y124.409585 Z2 I19.503599 J-19.246007
G02 X61.569172 Y124.808965 Z2 I7.267038 J-7.599840
G03 X62.016664 Y125.196795 Z2 I-24.808282 J29.076696
G02 X64.972956 Y127.599873 Z2 I32.031172 J-36.385121
G02 X68.116664 Y129.758459 Z2 I27.544228 J-36.746187
G02 X69.498991 Y130.600243 Z2 I32.607324 J-51.989909
G02 X70.912497 Y131.372693 Z2 I12.176410 J-20.602095
G03 X71.549533 Y131.694848 Z2 I-92.757201 J184.211188
G02 X72.056247 Y131.938880 Z2 I6.030672 J-11.874121
G02 X72.847875 Y132.229312 Z2 I2.301193 J-5.048268
G03 X73.072914 Y132.293752 Z2 I-9.579516 J33.878745
G00 Z0.000000

(End cutting path id: path11)


(Start cutting path id: path11)
(Change tool to Default tool)

G00 Z0.000000
G00 X73.072914 Y125.812502

G01 Z2 F100.0(Penetrate)
G02 X72.796720 Y125.170791 Z2 I-1.409136 J0.226203 F75.000000
G02 X72.216179 Y124.414095 Z2 I-530.453701 J406.365479
G03 X71.041522 Y122.505724 Z2 I8.609982 J-6.615394
G02 X70.053901 Y120.475003 Z2 I-237.897564 J114.443595
G03 X68.681259 Y117.300654 Z2 I31.810761 J-15.639465
G02 X67.130395 Y114.247920 Z2 I-14.505860 J5.449026
G02 X66.130128 Y112.971328 Z2 I-8.093030 J5.311076
G03 X65.104023 Y111.706253 Z2 I8.910884 J-8.276316
G03 X64.738493 Y111.181220 Z2 I41.624252 J-29.368738
G03 X64.438602 Y110.689784 Z2 I4.397279 J-3.020588
G03 X64.198029 Y109.963915 Z2 I1.945848 J-1.047708
G03 X64.177081 Y109.800003 Z2 I4.294079 J-0.632084
G00 Z0.000000

(End cutting path id: path11)


(Start cutting path id: path11)
(Change tool to Default tool)

G00 Z0.000000
G00 X73.072914 Y117.425003

G01 Z2 F100.0(Penetrate)
G01 X73.072914 Y117.170836 Z2 F75.000000
G00 Z0.000000

(End cutting path id: path11)


(Footer)
M5
M2
(Using default footer. To add your own footer create file "footer" in the output dir.)
(end)
%