%
(Header)
(Generated by gcodetools from Inkscape.)
(Using default header. To add your own header create file "header" in the output dir.)
M3
(Header end.)
G21 (All units in mm)

(Start cutting path id: path27)
(Change tool to Default tool)

G00 Z0.000000
G00 X105.987500 Y10.802090

G01 Z2 F100.0(Penetrate)
G03 X106.991078 Y12.583838 Z2 I-23.018051 J14.138532 F75.000000
G03 X107.628200 Y14.868760 Z2 I-5.226959 J2.688760
G03 X107.600276 Y15.654009 Z2 I-3.766274 J0.259191
G02 X107.697000 Y16.375420 Z2 I1.336232 J0.188034
G01 X108.783090 Y16.944550 Z2
G02 X109.396068 Y17.020524 Z2 I0.770180 J-3.703202
G02 X109.672870 Y17.029150 Z2 I0.552329 J-13.278090
G00 Z0.000000

(End cutting path id: path27)


(Start cutting path id: path27)
(Change tool to Default tool)

G00 Z0.000000
G00 X100.395790 Y15.250020

G01 Z2 F100.0(Penetrate)
G02 X101.932774 Y15.651865 Z2 I1.586315 J-2.927105 F75.000000
G03 X103.445790 Y15.758350 Z2 I-0.202771 J13.683328
G00 Z0.000000

(End cutting path id: path27)


(Start cutting path id: path27)
(Change tool to Default tool)

G00 Z0.000000
G00 X98.743706 Y15.122880

G01 Z2 F100.0(Penetrate)
G02 X96.387963 Y15.126913 Z2 I0.000000 J687.970142 F75.000000
G03 X93.533289 Y14.959420 Z2 I-0.078978 J-23.064524
G03 X93.090364 Y14.897029 Z2 I1.400254 J-11.544013
G02 X92.643706 Y14.852930 Z2 I-0.585756 J3.648823
G02 X91.981760 Y14.853770 Z2 I-0.320204 J8.484226
G03 X91.245790 Y14.868730 Z2 I-0.743088 J-18.446365
G03 X90.394240 Y14.865427 Z2 I-0.032443 J-101.398423
G03 X89.721377 Y14.664960 Z2 I0.010209 J-1.263724
G03 X89.073332 Y13.933899 Z2 I0.973670 J-1.515863
G03 X88.777373 Y13.089560 Z2 I3.553184 J-1.719506
G02 X88.377320 Y11.401857 Z2 I-92.133472 J20.948060
G03 X88.376217 Y9.658410 Z2 I3.541816 J-0.873964
G03 X89.050707 Y8.688568 Z2 I1.598618 J0.392318
G03 X90.102040 Y8.189200 Z2 I2.148446 J3.166797
G03 X94.513555 Y8.673431 Z2 I1.633260 J5.457769
G03 X97.685854 Y11.691640 Z2 I-4.297358 J7.692987
G03 X98.085671 Y12.364886 Z2 I-14.244189 J8.914464
G03 X98.430508 Y13.089560 Z2 I-5.112563 J2.877201
G03 X98.689671 Y14.056560 Z2 I-4.099572 J1.616944
G03 X98.741156 Y14.486890 Z2 I-7.404991 J1.104181
G01 X98.947470 Y15.119360 Z2
G02 X99.837385 Y15.365477 Z2 I0.734768 J-0.924845
G02 X100.366760 Y15.161960 Z2 I-0.159765 J-1.205813
G01 X101.666720 Y13.690400 Z2
G03 X102.115457 Y13.687920 Z2 I0.231207 J1.235959
G03 X102.555720 Y13.832200 Z2 I-0.281580 J1.603085
G03 X103.042443 Y14.170726 Z2 I-0.891038 J1.800266
G03 X103.362730 Y14.616560 Z2 I-0.986606 J1.046743
G01 X103.670640 Y15.791200 Z2
G02 X104.549125 Y16.209051 Z2 I0.926395 J-0.815259
G03 X105.860370 Y16.266680 Z2 I-5.007326 J128.878124
G03 X106.809881 Y16.347993 Z2 I-0.641437 J13.074744
G02 X107.512460 Y16.393770 Z2 I0.754026 J-6.158205
G00 Z0.000000

(End cutting path id: path27)


(Start cutting path id: path27)
(Change tool to Default tool)

G00 Z0.000000
G00 X92.516623 Y13.470840

G01 Z2 F100.0(Penetrate)
G01 X93.279123 Y13.470840 Z2 F75.000000
G00 Z0.000000

(End cutting path id: path27)


(Start cutting path id: path27)
(Change tool to Default tool)

G00 Z0.000000
G00 X86.543706 Y14.868760

G01 Z2 F100.0(Penetrate)
G03 X86.591399 Y14.317549 Z2 I4.219364 J0.087408 F75.000000
G02 X86.750119 Y12.708340 Z2 I-14.920077 J-2.284034
G02 X86.698166 Y12.138996 Z2 I-2.110465 J-0.094460
G02 X86.559788 Y11.564590 Z2 I-29.755024 J6.864282
G02 X84.000272 Y7.678291 Z2 I-6.837782 J1.717364
G02 X79.172971 Y7.008420 Z2 I-3.006598 J3.938036
G02 X77.709588 Y8.536444 Z2 I0.931086 J2.356447
G02 X78.223965 Y10.609800 Z2 I1.852470 J0.640907
G01 X79.164244 Y11.221880 Z2
G01 X78.664540 Y12.454170 Z2
G00 Z0.000000

(End cutting path id: path27)


(Start cutting path id: path27)
(Change tool to Default tool)

G00 Z0.000000
G00 X81.333290 Y15.377100

G01 Z2 F100.0(Penetrate)
G02 X83.192143 Y15.242114 Z2 I-0.001502 J-12.887054 F75.000000
G03 X85.654123 Y15.000460 Z2 I3.798602 J26.038069
G03 X86.084084 Y14.985116 Z2 I0.720678 J14.162439
G02 X86.543706 Y14.974760 Z2 I-2.327263 J-113.496810
G02 X87.266475 Y14.922425 Z2 I-0.186553 J-7.593370
G03 X88.068706 Y14.869250 Z2 I0.894667 J7.419491
G02 X88.765899 Y14.847490 Z2 I-0.234485 J-18.693043
G02 X89.339442 Y14.664990 Z2 I-0.058735 J-1.177071
G02 X90.008975 Y13.954673 Z2 I-1.063512 J-1.673151
G03 X90.371502 Y13.357580 Z2 I7.921504 J4.400976
G03 X91.587234 Y12.877171 Z2 I0.951363 J0.629054
G03 X92.476223 Y13.736870 Z2 I-0.281255 J1.180325
G03 X92.532346 Y14.464481 Z2 I-1.859152 J0.509373
G02 X92.516623 Y14.741670 Z2 I2.429798 J0.276867
G00 Z0.000000

(End cutting path id: path27)


(Start cutting path id: path27)
(Change tool to Default tool)

G00 Z0.000000
G00 X76.758290 Y16.012520

G01 Z2 F100.0(Penetrate)
G03 X76.869382 Y15.399668 Z2 I9.270623 J1.364002 F75.000000
G03 X77.528144 Y14.276590 Z2 I2.035757 J0.439367
G03 X78.148980 Y13.854323 Z2 I1.989409 J2.257392
G02 X78.791623 Y13.470850 Z2 I-2.588122 J-5.067530
G00 Z0.000000

(End cutting path id: path27)


(Start cutting path id: path27)
(Change tool to Default tool)

G00 Z0.000000
G00 X73.199957 Y11.818760

G01 Z2 F100.0(Penetrate)
G01 X73.327040 Y11.818760 Z2 F75.000000
G00 Z0.000000

(End cutting path id: path27)


(Start cutting path id: path27)
(Change tool to Default tool)

G00 Z0.000000
G00 X73.199957 Y16.774990

G01 Z2 F100.0(Penetrate)
G02 X73.419433 Y16.774097 Z2 I-0.232989 J-84.199278 F75.000000
G02 X74.343707 Y16.699990 Z2 I-0.033412 J-6.217655
G02 X74.985982 Y16.595648 Z2 I-7.747286 J-49.717014
G02 X75.741624 Y16.436220 Z2 I-1.593387 J-9.422682
G02 X76.272501 Y16.260446 Z2 I-0.963488 J-3.799520
G03 X76.885373 Y16.057030 Z2 I1.743264 J4.227313
G03 X77.462323 Y15.943127 Z2 I1.324621 J5.191434
G03 X78.029123 Y15.890420 Z2 I0.840362 J5.963050
G02 X79.742500 Y15.756771 Z2 I-1.204822 J-26.495436
G02 X81.333290 Y15.377090 Z2 I-0.727198 J-6.569202
G03 X81.179638 Y14.914848 Z2 I1.224212 J-0.663594
G02 X80.759650 Y14.050070 Z2 I-1.573885 J0.229998
G02 X79.880804 Y13.646007 Z2 I-0.944173 J0.895810
G03 X78.959009 Y13.396020 Z2 I0.112548 J-2.239503
G01 X78.148754 Y12.494570 Z2
G02 X77.098099 Y12.420759 Z2 I-0.709585 J2.585897
G03 X75.995790 Y12.432070 Z2 I-0.599155 J-4.672286
G03 X74.384358 Y12.053144 Z2 I0.715355 J-6.658020
G02 X73.327040 Y11.818720 Z2 I-1.380836 J3.726341
G00 Z0.000000

(End cutting path id: path27)


(Footer)
M5
M2
(Using default footer. To add your own footer create file "footer" in the output dir.)
(end)
%