%
(Header)
(Generated by gcodetools from Inkscape.)
(Using default header. To add your own header create file "header" in the output dir.)
M3
(Header end.)
G21 (All units in mm)

(Start cutting path id: path23)
(Change tool to Default tool)

G00 Z0.000000
G00 X125.177090 Y72.564580

G01 Z2 F100.0(Penetrate)
G03 X122.902695 Y69.844045 Z2 I19.107640 J-18.285159 F75.000000
G03 X121.079040 Y66.845830 Z2 I17.159676 J-12.491042
G02 X120.380421 Y65.613588 Z2 I-12.172969 J6.087295
G03 X119.867630 Y64.304160 Z2 I3.065990 J-1.955808
G03 X119.629677 Y62.587287 Z2 I20.817966 J-3.760226
G03 X119.678670 Y61.000000 Z2 I6.210619 J-0.602704
G01 X120.350370 Y60.049320 Z2
G03 X121.022404 Y60.259620 Z2 I0.047587 J1.026856
G03 X121.491570 Y60.642670 Z2 I-5.781194 J7.559750
G03 X122.223142 Y61.390152 Z2 I-4.316730 J4.956587
G02 X122.894490 Y62.143750 Z2 I11.837864 J-9.870014
G03 X125.722486 Y65.483858 Z2 I-27.383351 J26.052138
G03 X128.218950 Y69.133330 Z2 I-39.560011 J29.740090
G03 X129.271245 Y70.921670 Z2 I-37.683876 J23.377702
G03 X130.006250 Y72.437500 Z2 I-12.919509 J7.200607
G00 Z0.000000

(End cutting path id: path23)


(Start cutting path id: path23)
(Change tool to Default tool)

G00 Z0.000000
G00 X120.220840 Y59.856250

G01 Z2 F100.0(Penetrate)
G02 X119.668181 Y58.901811 Z2 I-1.518414 J0.241998 F75.000000
G02 X118.822920 Y58.228970 Z2 I-49.862460 J61.772687
G02 X115.976943 Y56.065218 Z2 I-71.413942 J90.977032
G02 X112.977090 Y54.067480 Z2 I-22.695467 J30.828880
G02 X111.865296 Y53.416513 Z2 I-30.980463 J51.636965
G02 X110.943750 Y52.905990 Z2 I-19.942109 J34.910549
G02 X110.122903 Y52.547246 Z2 I-2.625971 J4.890055
G02 X109.927090 Y52.485410 Z2 I-1.316842 J3.829010
G00 Z0.000000

(End cutting path id: path23)


(Start cutting path id: path23)
(Change tool to Default tool)

G00 Z0.000000
G00 X109.800000 Y52.485410

G01 Z2 F100.0(Penetrate)
G01 X109.927090 Y52.485410 Z2 F75.000000
G00 Z0.000000

(End cutting path id: path23)


(Start cutting path id: path23)
(Change tool to Default tool)

G00 Z0.000000
G00 X146.272920 Y39.268750

G01 Z2 F100.0(Penetrate)
G01 X146.196220 Y38.024490 Z2 F75.000000
G01 X145.542760 Y37.336510 Z2
G01 X144.858610 Y36.676680 Z2
G01 X143.477060 Y36.599980 Z2
G00 Z0.000000

(End cutting path id: path23)


(Footer)
M5
G00 X0.0000 Y0.0000
M2
(Using default footer. To add your own footer create file "footer" in the output dir.)
(end)
%