%
(Header)
(Generated by gcodetools from Inkscape.)
(Using default header. To add your own header create file "header" in the output dir.)
M3
(Header end.)
G21 (All units in mm)

(Start cutting path id: path8)
(Change tool to Default tool)

G00 Z0.000000
G00 X109.927090 Y178.170833

G01 Z2 F100.0(Penetrate)
G03 X110.308997 Y178.549966 Z2 I-0.952981 J1.341871 F75.000000
G02 X111.330000 Y179.347335 Z2 I1.881735 J-1.357131
G02 X112.450734 Y179.502587 Z2 I0.874268 J-2.188380
G03 X113.612500 Y179.441666 Z2 I1.161766 J11.047176
G03 X116.097737 Y179.513796 Z2 I-0.000000 J42.850620
G02 X118.568750 Y179.568261 Z2 I1.991802 J-34.284970
G02 X119.045481 Y179.539929 Z2 I-0.073313 J-5.258684
G02 X119.458240 Y179.418917 Z2 I-0.125357 J-1.192019
G02 X120.096986 Y178.910271 Z2 I-0.892177 J-1.775761
G02 X120.681610 Y178.170833 Z2 I-16.217758 J-13.423123
G02 X122.287260 Y176.012316 Z2 I-152.303241 J-114.969817
G03 X123.890170 Y173.850000 Z2 I201.387347 J147.611800
G03 X124.550506 Y172.999642 Z2 I25.382393 J19.028838
G02 X124.903500 Y172.070834 Z2 I-1.253326 J-1.007809
G02 X124.418461 Y170.710788 Z2 I-1.888607 J-0.092972
G03 X123.445380 Y169.529167 Z2 I12.512627 J-11.295802
G03 X122.331853 Y167.789027 Z2 I11.138611 J-8.354016
G02 X120.945190 Y166.355615 Z2 I-3.244891 J1.751638
G02 X120.404297 Y166.215776 Z2 I-0.518122 J0.888087
G03 X119.839590 Y166.188719 Z2 I-0.089472 J-4.039069
G02 X118.254527 Y166.063253 Z2 I-2.404029 J20.296032
G03 X116.662500 Y165.982306 Z2 I2.979332 J-74.291793
G02 X115.719458 Y166.225684 Z2 I-0.096918 J1.573201
G02 X115.180060 Y166.728234 Z2 I1.085093 J1.705402
G03 X114.848383 Y167.137263 Z2 I-4.812581 J-3.563473
G02 X114.756250 Y167.241667 Z2 I22.806734 J20.219094
G02 X116.412207 Y167.381711 Z2 I1.168111 J-3.951885
G03 X118.059930 Y167.590165 Z2 I0.406110 J3.406346
G03 X119.422319 Y168.828893 Z2 I-0.927366 J2.388505
G02 X120.432940 Y170.418751 Z2 I8.358842 J-4.197306
G02 X120.943189 Y170.984341 Z2 I4.475366 J-3.524506
G03 X121.392340 Y171.562500 Z2 I-1.820285 J1.877660
G03 X121.529878 Y172.051594 Z2 I-0.905689 J0.518574
G03 X121.483840 Y172.579167 Z2 I-2.300825 J0.065017
G03 X121.259814 Y173.125643 Z2 I-1.558581 J-0.319777
G03 X120.867550 Y173.722917 Z2 I-55.783619 J-36.208863
G02 X120.089691 Y174.930954 Z2 I41.504974 J27.579641
G02 X119.337740 Y176.137500 Z2 I1785.035086 J1113.317942
G02 X118.935152 Y176.872492 Z2 I6.369862 J3.966812
G03 X118.307740 Y177.458735 Z2 I-1.060427 J-0.506037
G03 X116.371545 Y177.639816 Z2 I-1.278082 J-3.223949
G02 X114.247940 Y177.410197 Z2 I-2.438308 J12.615643
G02 X113.532854 Y177.421627 Z2 I-0.216435 J8.834335
G03 X112.850020 Y177.379308 Z2 I-0.163473 J-2.892406
G03 X111.606383 Y176.672318 Z2 I0.388175 J-2.130131
G02 X110.565660 Y175.646229 Z2 I-7.322602 J6.386211
G02 X110.122924 Y175.345671 Z2 I-1.625298 J1.917775
G02 X109.927110 Y175.247917 Z2 I-1.925269 J3.611555
G00 Z0.000000

(End cutting path id: path8)


(Start cutting path id: path8)
(Change tool to Default tool)

G00 Z0.000000
G00 X109.800000 Y170.800001

G01 Z2 F100.0(Penetrate)
G02 X109.977083 Y170.651833 Z2 I-13.913731 J-16.808823 F75.000000
G02 X110.360410 Y170.277058 Z2 I-2.403074 J-2.841340
G02 X111.379829 Y168.868711 Z2 I-6.650793 J-5.887236
G03 X112.724780 Y167.548883 Z2 I3.091666 J1.805326
G03 X113.256141 Y167.327583 Z2 I1.223339 J2.188769
G03 X113.739590 Y167.235881 Z2 I0.737921 J2.570081
G03 X114.314851 Y167.225723 Z2 I0.352894 J3.690981
G02 X114.756250 Y167.241681 Z2 I0.554871 J-9.235414
G00 Z0.000000

(End cutting path id: path8)


(Start cutting path id: path8)
(Change tool to Default tool)

G00 Z0.000000
G00 X113.866670 Y167.114602

G01 Z2 F100.0(Penetrate)
G03 X113.910207 Y165.921121 Z2 I16.380066 J-0.000000 F75.000000
G03 X113.993750 Y165.462519 Z2 I2.171259 J0.158623
G02 X114.324240 Y165.676267 Z2 I1.235166 J-1.547408
G02 X115.518750 Y165.970852 Z2 I1.218643 J-2.372364
G00 Z0.000000

(End cutting path id: path8)


(Start cutting path id: path8)
(Change tool to Default tool)

G00 Z0.000000
G00 X113.866670 Y165.081266

G01 Z2 F100.0(Penetrate)
G03 X114.114846 Y164.715961 Z2 I3.191794 J1.901446 F75.000000
G03 X114.634270 Y164.293367 Z2 I1.155620 J0.889893
G03 X116.342544 Y163.643565 Z2 I4.542117 J9.370480
G02 X118.314590 Y162.994098 Z2 I-6.643691 J-23.491656
G02 X123.433273 Y160.859132 Z2 I-28.398312 J-75.289948
G02 X128.354170 Y158.384681 Z2 I-31.608892 J-68.990312
G02 X133.761850 Y155.101166 Z2 I-35.038397 J-63.800124
G02 X138.902090 Y151.400686 Z2 I-50.583754 J-75.684900
G02 X139.986408 Y150.510481 Z2 I-14.990840 J-19.365148
G03 X141.062500 Y149.618380 Z2 I19.225601 J22.095701
G03 X141.668536 Y149.157458 Z2 I13.036906 J16.512490
G02 X142.260180 Y148.706931 Z2 I-11.758077 J-16.054764
G01 X143.549650 Y149.184572 Z2
G02 X143.961665 Y149.623444 Z2 I26.001023 J-23.997035
G03 X144.351760 Y150.340088 Z2 I-1.131252 J1.080275
G01 X144.339660 Y150.838028 Z2
G01 X144.194150 Y151.042873 Z2
G01 X143.053140 Y150.339600 Z2
G02 X142.816289 Y150.042260 Z2 I-9.744432 J7.519084
G02 X142.536180 Y149.707321 Z2 I-20.080258 J16.508491
G02 X142.116009 Y149.240530 Z2 I-8.544974 J7.269060
G02 X141.952050 Y149.068766 Z2 I-67.488993 J64.258139
G00 Z0.000000

(End cutting path id: path8)


(Start cutting path id: path8)
(Change tool to Default tool)

G00 Z0.000000
G00 X142.841180 Y148.179164

G01 Z2 F100.0(Penetrate)
G03 X144.005964 Y146.727291 Z2 I14.355883 J10.324026 F75.000000
G02 X144.239090 Y146.399998 Z2 I-1.367131 J-1.220459
G00 Z0.000000

(End cutting path id: path8)


(Start cutting path id: path8)
(Change tool to Default tool)

G00 Z0.000000
G00 X143.095340 Y150.212497

G01 Z2 F100.0(Penetrate)
G01 X143.730760 Y149.577081 Z2 F75.000000
G00 Z0.000000

(End cutting path id: path8)


(Start cutting path id: path8)
(Change tool to Default tool)

G00 Z0.000000
G00 X145.001590 Y153.897914

G01 Z2 F100.0(Penetrate)
G02 X144.301965 Y152.344880 Z2 I-29.133813 J12.190357 F75.000000
G03 X143.984930 Y151.356247 Z2 I3.351471 J-1.619901
G00 Z0.000000

(End cutting path id: path8)


(Start cutting path id: path8)
(Change tool to Default tool)

G00 Z0.000000
G00 X146.272430 Y155.804164

G01 Z2 F100.0(Penetrate)
G03 X145.715132 Y155.300522 Z2 I0.954254 J-1.616074 F75.000000
G03 X145.128680 Y154.024997 Z2 I2.797374 J-2.058736
G01 X146.272430 Y154.024997 Z2
G00 Z0.000000

(End cutting path id: path8)


(Start cutting path id: path8)
(Change tool to Default tool)

G00 Z0.000000
G00 X144.112010 Y158.091683

G01 Z2 F100.0(Penetrate)
G02 X144.849525 Y158.870479 Z2 I1.574310 J-0.752253 F75.000000
G02 X145.509340 Y159.103936 Z2 I1.052697 J-1.926076
G01 X146.157210 Y158.935865 Z2
G01 X145.253900 Y157.785644 Z2
G01 X143.730760 Y157.789744 Z2
G03 X142.936266 Y157.202565 Z2 I1.583143 J-2.973198
G02 X142.333330 Y156.639717 Z2 I-8.927539 J8.959012
G03 X141.654200 Y155.950422 Z2 I4.284225 J-4.900253
G02 X140.933060 Y155.283181 Z2 I-3.112799 J2.640928
G02 X140.035364 Y154.683326 Z2 I-8.575006 J11.861042
G02 X139.155760 Y154.152081 Z2 I-30.429459 J49.389480
G00 Z0.000000

(End cutting path id: path8)


(Start cutting path id: path8)
(Change tool to Default tool)

G00 Z0.000000
G00 X137.504130 Y162.539599

G01 Z2 F100.0(Penetrate)
G01 X137.506130 Y162.026166 Z2 F75.000000
G01 X137.903760 Y161.309166 Z2
G03 X138.740155 Y161.171568 Z2 I0.955744 J3.198699
G03 X139.664100 Y161.143546 Z2 I3.038268 J84.932115
G02 X141.644607 Y161.044711 Z2 I-0.987202 J-39.674614
G02 X143.603680 Y160.866434 Z2 I-4.625229 J-61.679573
G03 X144.545121 Y160.814071 Z2 I0.982733 J9.179448
G03 X145.382650 Y160.988615 Z2 I0.009181 J2.052615
G03 X146.082256 Y161.310694 Z2 I-9.680259 J21.947915
G02 X146.272430 Y161.395849 Z2 I1.701553 J-3.545085
G00 Z0.000000

(End cutting path id: path8)


(Start cutting path id: path8)
(Change tool to Default tool)

G00 Z0.000000
G00 X143.985420 Y163.810431

G01 Z2 F100.0(Penetrate)
G01 X140.045840 Y163.810431 Z2 F75.000000
G03 X139.395684 Y163.802502 Z2 I-0.000000 J-26.658659
G02 X138.775000 Y163.873291 Z2 I-0.055396 J2.270774
G02 X138.176277 Y164.068460 Z2 I1.232704 J4.797526
G03 X137.504170 Y164.177761 Z2 I-0.583335 J-1.465916
G03 X136.898415 Y164.005829 Z2 I0.081086 J-1.438753
G02 X136.433570 Y163.759642 Z2 I-12.841450 J23.685007
G02 X135.752757 Y163.563548 Z2 I-0.832011 J1.608736
G03 X135.091450 Y163.371624 Z2 I0.145478 J-1.736555
G01 X133.337090 Y162.774451 Z2
G02 X132.635811 Y163.602405 Z2 I1.232937 J1.755270
G03 X131.890440 Y164.695018 Z2 I-3.948183 J-1.892866
G03 X129.802920 Y166.531204 Z2 I-10.280644 J-9.583122
G02 X127.838480 Y168.512519 Z2 I4.883389 J6.806307
G02 X127.479984 Y169.585987 Z2 I1.609597 J1.134139
G02 X128.100590 Y170.564384 Z2 I1.031408 J0.031796
G02 X129.322252 Y170.813597 Z2 I1.200610 J-2.766535
G02 X130.514590 Y170.799431 Z2 I-0.849303 J-121.668212
G02 X131.036674 Y170.738446 Z2 I-0.044712 J-2.647989
G02 X131.658340 Y170.567425 Z2 I-1.307982 J-5.969968
G03 X132.211258 Y170.437991 Z2 I0.983491 J2.955582
G02 X132.675000 Y170.353462 Z2 I-0.782972 J-5.609917
G02 X133.531417 Y170.081420 Z2 I-1.155919 J-5.123028
G03 X134.454170 Y169.707161 Z2 I24.119354 J58.142675
G03 X136.623149 Y169.007885 Z2 I6.412093 J16.175257
G03 X138.775000 Y168.482708 Z2 I38.777261 J154.214147
G02 X140.727801 Y167.937398 Z2 I-5.854246 J-24.733754
G03 X142.714590 Y167.517425 Z2 I3.007394 J9.317760
G02 X144.217118 Y167.327561 Z2 I-3.711952 J-35.415430
G03 X145.509830 Y167.150982 Z2 I8.522958 J57.575447
G03 X146.094497 Y167.115151 Z2 I0.574785 J4.590988
G02 X146.272920 Y167.114602 Z2 I0.036539 J-17.107534
G00 Z0.000000

(End cutting path id: path8)


(Start cutting path id: path8)
(Change tool to Default tool)

G00 Z0.000000
G00 X146.272920 Y165.208349

G01 Z2 F100.0(Penetrate)
G01 X146.272920 Y164.318766 Z2 F75.000000
G00 Z0.000000

(End cutting path id: path8)


(Start cutting path id: path8)
(Change tool to Default tool)

G00 Z0.000000
G00 X138.647880 Y163.810432

G01 Z2 F100.0(Penetrate)
G02 X138.415159 Y163.206113 Z2 I-2.812426 J0.736088 F75.000000
G02 X137.129740 Y162.733656 Z2 I-0.901750 J0.468547
G02 X136.613233 Y163.170843 Z2 I0.411987 J1.010438
G03 X136.360380 Y163.556266 Z2 I-7.133579 J-4.404261
G00 Z0.000000

(End cutting path id: path8)


(Start cutting path id: path8)
(Change tool to Default tool)

G00 Z0.000000
G00 X134.326600 Y162.285433

G01 Z2 F100.0(Penetrate)
G03 X135.488803 Y161.370338 Z2 I1.311724 J0.470369 F75.000000
G03 X137.376600 Y161.268766 Z2 I1.887797 J17.492332
G00 Z0.000000

(End cutting path id: path8)


(Start cutting path id: path8)
(Change tool to Default tool)

G00 Z0.000000
G00 X133.056250 Y167.241685

G01 Z2 F100.0(Penetrate)
G01 X133.582920 Y165.666283 Z2 F75.000000
G03 X134.929308 Y166.014975 Z2 I0.447774 J1.044748
G03 X135.343750 Y166.733352 Z2 I-2.421854 J1.875939
G00 Z0.000000

(End cutting path id: path8)


(Start cutting path id: path8)
(Change tool to Default tool)

G00 Z0.000000
G00 X131.531250 Y170.545852

G01 Z2 F100.0(Penetrate)
G02 X131.684548 Y169.788154 Z2 I-99.242307 J-20.473179 F75.000000
G03 X131.993010 Y168.766685 Z2 I5.378140 J1.066774
G03 X132.443042 Y167.928157 Z2 I4.327531 J1.782526
G03 X133.067630 Y167.426231 Z2 I1.125188 J0.760587
G03 X133.744798 Y167.336296 Z2 I0.518086 J1.306597
G02 X134.581250 Y167.267672 Z2 I0.244760 J-2.148672
G02 X135.078923 Y167.092598 Z2 I-1.181563 J-4.153662
G03 X135.597920 Y166.932116 Z2 I1.063328 J2.519326
G03 X136.185943 Y166.867667 Z2 I0.646235 J3.181393
G02 X136.868750 Y166.801503 Z2 I-0.078268 J-4.364081
G02 X138.066194 Y166.508260 Z2 I-1.657341 J-9.359138
G03 X139.283340 Y166.246592 Z2 I2.006766 J6.372855
G03 X141.580425 Y166.070686 Z2 I3.239773 J27.220643
G02 X143.858330 Y165.716685 Z2 I-0.331715 J-9.640352
G00 Z0.000000

(End cutting path id: path8)


(Start cutting path id: path8)
(Change tool to Default tool)

G00 Z0.000000
G00 X142.079190 Y174.231250

G01 Z2 F100.0(Penetrate)
G01 X144.543490 Y171.790093 Z2 F75.000000
G01 X145.514950 Y170.574859 Z2
G01 X146.272940 Y170.164584 Z2
G00 Z0.000000

(End cutting path id: path8)


(Start cutting path id: path8)
(Change tool to Default tool)

G00 Z0.000000
G00 X144.493770 Y177.789583

G01 Z2 F100.0(Penetrate)
G03 X145.862540 Y177.262531 Z2 I12.788658 J31.171609 F75.000000
G03 X146.272940 Y177.154167 Z2 I0.821882 J2.281332
G00 Z0.000000

(End cutting path id: path8)


(Start cutting path id: path8)
(Change tool to Default tool)

G00 Z0.000000
G00 X109.800000 Y165.970852

G01 Z2 F100.0(Penetrate)
G03 X110.100603 Y165.795686 Z2 I3.278125 J5.280079 F75.000000
G03 X110.816670 Y165.528415 Z2 I1.290226 J2.363879
G03 X111.329902 Y165.451618 Z2 I0.834733 J3.825142
G02 X112.087500 Y165.371226 Z2 I-1.330659 J-16.149755
G03 X113.143612 Y165.274667 Z2 I1.796265 J13.822697
G03 X113.993750 Y165.462516 Z2 I0.086477 J1.626272
G00 Z0.000000

(End cutting path id: path8)


(Footer)
M5
M2
(Using default footer. To add your own footer create file "footer" in the output dir.)
(end)
%