%
(Header)
(Generated by gcodetools from Inkscape.)
(Using default header. To add your own header create file "header" in the output dir.)
M3
(Header end.)
G21 (All units in mm)

(Start cutting path id: path15)
(Change tool to Default tool)

G00 Z0.000000
G00 X8.895833 Y109.164586

G01 Z2 F100.0(Penetrate)
G03 X8.925595 Y108.253900 Z2 I13.947819 J0.000000 F75.000000
G02 X8.855433 Y107.514857 Z2 I-2.324972 J-0.152127
G01 X8.495756 Y106.974261 Z2
G02 X7.769517 Y106.532860 Z2 I-2.049721 J2.554274
G03 X7.146182 Y105.732846 Z2 I0.433089 J-0.980288
G03 X7.447071 Y104.590557 Z2 I1.407137 J-0.240121
G03 X8.387500 Y104.061445 Z2 I1.143942 J0.932909
G03 X9.265896 Y104.146236 Z2 I0.261774 J1.880424
G03 X10.113420 Y104.730005 Z2 I-0.621207 J1.808986
G03 X9.724817 Y106.406071 Z2 I-0.828364 J0.691023
G02 X8.641666 Y107.004170 Z2 I2.983597 J6.683105
G00 Z0.000000

(End cutting path id: path15)


(Start cutting path id: path15)
(Change tool to Default tool)

G00 Z0.000000
G00 X8.387500 Y103.954170

G01 Z2 F100.0(Penetrate)
G02 X8.343489 Y101.865693 Z2 I-49.575607 J-0.000000 F75.000000
G03 X8.409073 Y99.379170 Z2 I18.151824 J-0.765363
G03 X8.475863 Y98.790859 Z2 I16.222304 J1.543744
G02 X8.513701 Y98.235420 Z2 I-4.369899 J-0.576699
G02 X8.505171 Y97.795548 Z2 I-9.082375 J-0.043906
G03 X8.495364 Y97.345837 Z2 I10.305449 J-0.449711
G03 X8.504796 Y96.774134 Z2 I17.330744 J0.000000
G02 X8.514584 Y96.202087 Z2 I-17.999132 J-0.594075
G02 X8.461811 Y95.312533 Z2 I-7.372006 J-0.009001
G03 X8.518114 Y94.577068 Z2 I1.878935 J-0.226049
G01 X9.700597 Y93.151990 Z2
G02 X9.455348 Y91.947739 Z2 I-1.274258 J-0.367592
G02 X8.387500 Y91.392826 Z2 I-1.174245 J0.954747
G02 X7.044144 Y92.092887 Z2 I-0.101750 J1.443674
G02 X7.012333 Y93.653067 Z2 I1.348977 J0.807919
G02 X7.662831 Y94.171323 Z2 I0.939478 J-0.511833
G02 X8.260417 Y94.295837 Z2 I1.211772 J-4.319435
G00 Z0.000000

(End cutting path id: path15)


(Start cutting path id: path15)
(Change tool to Default tool)

G00 Z0.000000
G00 X8.387500 Y91.245837

G01 Z2 F100.0(Penetrate)
G03 X8.416095 Y89.013886 Z2 I111.026073 J0.306251 F75.000000
G03 X8.519585 Y85.908337 Z2 I148.657597 J3.399383
G03 X8.591902 Y85.097253 Z2 I9.008977 J0.394490
G02 X8.641569 Y84.383337 Z2 I-5.490152 J-0.740633
G02 X8.542066 Y83.024078 Z2 I-8.757090 J-0.042218
G03 X8.718348 Y81.882070 Z2 I1.907453 J-0.290173
G01 X9.404755 Y81.588090 Z2
G01 X10.961917 Y81.060340 Z2
G02 X11.168894 Y78.554875 Z2 I-3.419001 J-1.543725
G03 X10.803946 Y75.995840 Z2 I10.646631 J-2.823870
G02 X10.789339 Y75.464180 Z2 I-74.976207 J1.793963
G03 X10.878766 Y75.007710 Z2 I1.044326 J-0.032399
G01 X11.664604 Y74.436030 Z2
G02 X12.173061 Y73.584895 Z2 I-0.625239 J-0.950949
G02 X12.200001 Y73.200000 Z2 I-10.714981 J-0.943384
G00 Z0.000000

(End cutting path id: path15)


(Start cutting path id: path15)
(Change tool to Default tool)

G00 Z0.000000
G00 X10.802085 Y74.852090

G01 Z2 F100.0(Penetrate)
G03 X9.724858 Y73.831845 Z2 I3.145217 J-4.399702 F75.000000
G03 X9.404169 Y73.200000 Z2 I1.356860 J-1.085971
G00 Z0.000000

(End cutting path id: path15)


(Start cutting path id: path15)
(Change tool to Default tool)

G00 Z0.000000
G00 X8.641669 Y81.714590

G01 Z2 F100.0(Penetrate)
G02 X8.300199 Y81.565453 Z2 I-1.119237 J2.097155 F75.000000
G02 X7.751890 Y81.462680 Z2 I-0.618727 J1.786964
G02 X6.409324 Y81.515786 Z2 I-0.326285 J8.748374
G03 X5.250819 Y80.933260 Z2 I-0.136870 J-1.171056
G03 X5.069135 Y80.200112 Z2 I1.185307 J-0.682820
G02 X5.083336 Y79.427090 Z2 I-20.959900 J-0.771673
G03 X5.128433 Y77.521816 Z2 I40.160696 J-0.002584
G02 X5.215420 Y75.614590 Z2 I-524.824437 J-24.892511
G03 X5.294757 Y74.598160 Z2 I14.921860 J0.653402
G02 X5.337502 Y73.838560 Z2 I-6.775864 J-0.762307
G02 X5.337527 Y73.367006 Z2 I-682.914483 J-0.278527
G03 X5.337502 Y73.200000 Z2 I569.379328 J-0.152717
G00 Z0.000000

(End cutting path id: path15)


(Start cutting path id: path15)
(Change tool to Default tool)

G00 Z0.000000
G00 X16.139583 Y108.910420

G01 Z2 F100.0(Penetrate)
G02 X15.421543 Y104.782842 Z2 I-47.436536 J6.125888 F75.000000
G03 X14.687832 Y100.650003 Z2 I50.822115 J-11.154100
G03 X14.455108 Y98.637994 Z2 I49.679879 J-6.765798
G03 X14.360416 Y96.710420 Z2 I20.949147 J-1.995244
G02 X14.334653 Y96.094730 Z2 I-7.979022 J0.025491
G02 X14.269616 Y95.439587 Z2 I-17.734591 J1.429739
G03 X14.234113 Y94.849642 Z2 I5.120065 J-0.604166
G03 X14.233336 Y94.295837 Z2 I204.342386 J-0.563656
G02 X14.196694 Y93.425054 Z2 I-10.381366 J0.000675
G03 X14.117627 Y92.389587 Z2 I66.063320 J-5.565289
G03 X14.113262 Y91.104445 Z2 I9.872921 J-0.676115
G03 X14.211767 Y89.847921 Z2 I37.770802 J2.328925
G02 X14.234709 Y89.334891 Z2 I-5.094743 J-0.484861
G03 X14.233337 Y88.831254 Z2 I90.603959 J-0.498699
G02 X14.232538 Y88.205517 Z2 I-233.488274 J-0.014913
G03 X14.269617 Y87.560421 Z2 I5.385164 J-0.014088
G02 X14.423093 Y85.535952 Z2 I-24.135622 J-2.847781
G03 X14.578304 Y83.493754 Z2 I24.391204 J0.826774
G03 X15.017395 Y80.095392 Z2 I159.521054 J18.883645
G03 X15.605855 Y76.631250 Z2 I59.789329 J8.374465
G03 X15.924183 Y75.230107 Z2 I27.068396 J5.412980
G02 X16.119386 Y74.216670 Z2 I-8.459996 J-2.155039
G03 X16.226250 Y73.444556 Z2 I60.483251 J7.977723
G03 X16.266669 Y73.200000 Z2 I6.172201 J0.894485
G00 Z0.000000

(End cutting path id: path15)


(Footer)
M5
M2
(Using default footer. To add your own footer create file "footer" in the output dir.)
(end)
%