%
(Header)
(Generated by gcodetools from Inkscape.)
(Using default header. To add your own header create file "header" in the output dir.)
M3
(Header end.)
G21 (All units in mm)

(Start cutting path id: path18)
(Change tool to Default tool)

G00 Z0.000000
G00 X109.927090 Y94.550004

G01 Z2 F100.0(Penetrate)
G01 X111.159380 Y94.464594 Z2 F75.000000
G01 X111.541810 Y95.058925 Z2
G01 X111.995720 Y95.829171 Z2
G02 X112.517602 Y96.083660 Z2 I0.973203 J-1.333399
G03 X112.977090 Y96.264353 Z2 I-0.691584 J2.433205
G02 X113.709473 Y96.637216 Z2 I122.424941 J-239.563505
G02 X114.629170 Y96.952427 Z2 I1.584805 J-3.124697
G02 X116.678974 Y97.053480 Z2 I1.378996 J-7.132059
G02 X118.420100 Y96.376336 Z2 I-0.313835 J-3.383989
G01 X119.456470 Y95.867611 Z2
G01 X119.990200 Y96.214639 Z2
G03 X120.664883 Y97.327304 Z2 I-5.118673 J3.864679
G03 X121.093850 Y99.125003 Z2 I-4.018578 J1.908943
G03 X120.872993 Y100.173278 Z2 I-2.322587 J0.058066
G02 X120.470490 Y101.158337 Z2 I9.191493 J4.330479
G02 X120.243386 Y102.362846 Z2 I3.894321 J1.357917
G02 X120.220840 Y103.572920 Z2 I32.557877 J1.211873
G03 X120.185198 Y104.377503 Z2 I-9.115995 J-0.000751
G02 X120.243740 Y105.097920 Z2 I2.133472 J0.189217
G02 X120.415053 Y105.542116 Z2 I1.969855 J-0.504580
G03 X120.639410 Y105.987503 Z2 I-11.736075 J6.191075
G02 X121.525847 Y107.624433 Z2 I17.312852 J-8.316842
G02 X122.889550 Y108.956408 Z2 I3.264450 J-1.978130
G02 X123.640215 Y109.228855 Z2 I1.154385 J-2.010276
G02 X124.414550 Y109.289219 Z2 I0.696540 J-3.938396
G01 X125.148120 Y109.141836 Z2
G02 X125.617782 Y108.524136 Z2 I-0.550757 J-0.906165
G02 X125.880510 Y107.385420 Z2 I-11.538745 J-3.261916
G02 X126.182523 Y104.976497 Z2 I-22.429857 J-4.035480
G03 X126.660180 Y102.556253 Z2 I9.993691 J0.715089
G03 X127.753368 Y100.022328 Z2 I14.740453 J4.856567
G02 X128.586230 Y97.345837 Z2 I-6.371896 J-3.450614
G02 X128.436245 Y93.709775 Z2 I-12.247166 J-1.315939
G03 X128.238910 Y90.102087 Z2 I13.197295 J-2.531114
G03 X128.557899 Y88.514659 Z2 I6.849422 J0.550609
G02 X128.948160 Y86.925004 Z2 I-10.290293 J-3.369000
G02 X129.146113 Y84.253824 Z2 I-14.518799 J-2.418867
G02 X128.914560 Y81.587500 Z2 I-19.271722 J0.330406
G02 X128.526806 Y79.266879 Z2 I-123.185502 J19.390465
G02 X127.928680 Y77.012500 Z2 I-13.631094 J2.410027
G02 X126.943851 Y75.141419 Z2 I-7.092300 J2.538258
G03 X126.083720 Y73.838560 Z2 I15.142296 J-10.932106
G03 X125.876680 Y73.394026 Z2 I1.988871 J-1.196787
G03 X125.812490 Y73.200000 Z2 I9.171598 J-3.141915
G00 Z0.000000

(End cutting path id: path18)


(Start cutting path id: path18)
(Change tool to Default tool)

G00 Z0.000000
G00 X117.170840 Y87.941671

G01 Z2 F100.0(Penetrate)
G02 X120.663058 Y89.256150 Z2 I3.678792 J-4.477378 F75.000000
G02 X124.287500 Y87.941671 Z2 I0.167279 J-5.192874
G00 Z0.000000

(End cutting path id: path18)


(Start cutting path id: path18)
(Change tool to Default tool)

G00 Z0.000000
G00 X119.839590 Y95.566670

G01 Z2 F100.0(Penetrate)
G03 X119.970354 Y94.076311 Z2 I8.865220 J0.026918 F75.000000
G02 X120.220840 Y91.754170 Z2 I-17.839062 J-3.098854
G00 Z0.000000

(End cutting path id: path18)


(Start cutting path id: path18)
(Change tool to Default tool)

G00 Z0.000000
G00 X122.889590 Y98.616670

G01 Z2 F100.0(Penetrate)
G01 X123.779170 Y97.854170 Z2 F75.000000
G00 Z0.000000

(End cutting path id: path18)


(Start cutting path id: path18)
(Change tool to Default tool)

G00 Z0.000000
G00 X117.297910 Y109.037503

G01 Z2 F100.0(Penetrate)
G02 X117.469822 Y108.113845 Z2 I-23.696498 J-4.888249 F75.000000
G03 X117.792610 Y107.258336 Z2 I2.313650 J0.384302
G03 X118.265051 Y106.675578 Z2 I2.569207 J1.599970
G02 X118.770250 Y106.115075 Z2 I-3.636740 J-3.785836
G03 X119.320917 Y105.497896 Z2 I4.881642 J3.801307
G03 X120.093740 Y105.097920 Z2 I1.037977 J1.058951
G00 Z0.000000

(End cutting path id: path18)


(Start cutting path id: path18)
(Change tool to Default tool)

G00 Z0.000000
G00 X110.816650 Y106.495837

G01 Z2 F100.0(Penetrate)
G02 X112.861693 Y107.154268 Z2 I2.532311 J-4.360095 F75.000000
G02 X115.010400 Y107.258336 Z2 I2.148707 J-22.130200
G00 Z0.000000

(End cutting path id: path18)


(Start cutting path id: path18)
(Change tool to Default tool)

G00 Z0.000000
G00 X109.800000 Y101.920837

G01 Z2 F100.0(Penetrate)
G03 X109.992774 Y101.758181 Z2 I4.942966 J5.662660 F75.000000
G02 X110.454150 Y101.153140 Z2 I-1.031597 J-1.265081
G02 X110.664943 Y100.457859 Z2 I-2.732436 J-1.208006
G02 X110.806370 Y99.633337 Z2 I-158.399636 J-27.594020
G03 X111.303091 Y97.159716 Z2 I40.270647 J6.799949
G03 X111.833340 Y95.820837 Z2 I4.754578 J1.108563
G00 Z0.000000

(End cutting path id: path18)


(Start cutting path id: path18)
(Change tool to Default tool)

G00 Z0.000000
G00 X109.800000 Y94.677087

G01 Z2 F100.0(Penetrate)
G01 X109.927090 Y94.550004 Z2 F75.000000
G00 Z0.000000

(End cutting path id: path18)


(Start cutting path id: path18)
(Change tool to Default tool)

G00 Z0.000000
G00 X132.039580 Y108.910420

G01 Z2 F100.0(Penetrate)
G02 X133.613384 Y103.083948 Z2 I-920.659158 J-251.807543 F75.000000
G02 X134.781480 Y97.218754 Z2 I-45.124892 J-12.035863
G02 X134.818809 Y96.838629 Z2 I-5.466142 J-0.728680
G03 X134.846280 Y96.456254 Z2 I22.582734 J1.430244
G03 X134.900154 Y96.010208 Z2 I5.580794 J0.447777
G02 X134.951110 Y95.566670 Z2 I-4.797472 J-0.775856
G02 X134.967420 Y94.958733 Z2 I-7.288029 J-0.499718
G03 X134.962510 Y94.295837 Z2 I44.742691 J-0.662896
G01 X134.962510 Y91.245837 Z2
G03 X134.965511 Y90.737662 Z2 I43.032891 J-0.000000
G02 X134.951110 Y90.229171 Z2 I-6.340604 J-0.074881
G02 X134.900122 Y89.785364 Z2 I-4.853563 J0.332783
G03 X134.846280 Y89.339587 Z2 I5.526339 J-0.893624
G02 X134.668175 Y87.605874 Z2 I-39.246989 J3.155846
G02 X134.419630 Y85.781254 Z2 I-83.977617 J10.509989
G02 X133.545471 Y81.530217 Z2 I-37.984338 J5.595486
G02 X132.220480 Y77.393750 Z2 I-41.472163 J11.003898
G02 X131.571163 Y75.725985 Z2 I-78.593565 J29.638831
G02 X130.995440 Y74.343750 Z2 I-54.568506 J21.917643
G03 X130.699311 Y73.436053 Z2 I4.768814 J-2.057944
G02 X130.641650 Y73.200000 Z2 I-7.284003 J1.654194
G00 Z0.000000

(End cutting path id: path18)


(Footer)
M5
M2
(Using default footer. To add your own footer create file "footer" in the output dir.)
(end)
%