%
(Header)
(Generated by gcodetools from Inkscape.)
(Using default header. To add your own header create file "header" in the output dir.)
M3
(Header end.)
G21 (All units in mm)

(Start cutting path id: path21)
(Change tool to Default tool)

G00 Z0.000000
G00 X72.056247 Y73.072910

G01 Z2 F100.0(Penetrate)
G01 X72.056247 Y72.945830 Z2 F75.000000
G00 Z0.000000

(End cutting path id: path21)


(Start cutting path id: path21)
(Change tool to Default tool)

G00 Z0.000000
G00 X58.077081 Y72.564580

G01 Z2 F100.0(Penetrate)
G03 X61.764244 Y67.631309 Z2 I19.932213 J11.052940 F75.000000
G02 X64.177081 Y61.762500 Z2 I-5.987386 J-5.891986
G00 Z0.000000

(End cutting path id: path21)


(Start cutting path id: path21)
(Change tool to Default tool)

G00 Z0.000000
G00 X50.833331 Y72.437500

G01 Z2 F100.0(Penetrate)
G02 X51.504009 Y71.152782 Z2 I-31.879900 J-17.460104 F75.000000
G03 X52.377453 Y69.514580 Z2 I29.026207 J14.424018
G03 X54.895621 Y65.618141 Z2 I36.468201 J20.806522
G03 X57.801832 Y62.016660 Z2 I37.484220 J27.274530
G03 X60.035102 Y59.696419 Z2 I32.121729 J28.682788
G03 X62.524997 Y57.473440 Z2 I30.271896 J31.400766
G03 X64.658596 Y55.835929 Z2 I23.830486 J28.841242
G03 X66.845831 Y54.348030 Z2 I36.032109 J50.616190
G03 X68.718511 Y53.212517 Z2 I19.252794 J29.639597
G03 X70.658330 Y52.180650 Z2 I21.421108 J37.930532
G03 X71.455463 Y51.788824 Z2 I29.234949 J58.469026
G03 X72.056247 Y51.502090 Z2 I30.358485 J62.836270
G03 X72.856593 Y51.245329 Z2 I1.381330 J2.929970
G03 X73.072914 Y51.214580 Z2 I0.500834 J2.747100
G00 Z0.000000

(End cutting path id: path21)


(Footer)
M5
M2
(Using default footer. To add your own footer create file "footer" in the output dir.)
(end)
%