%
(Header)
(Generated by gcodetools from Inkscape.)
(Using default header. To add your own header create file "header" in the output dir.)
M3
(Header end.)
G21 (All units in mm)

(Start cutting path id: path13)
(Change tool to Default tool)

G00 Z0.000000
G00 X145.383330 Y145.637502

G01 Z2 F100.0(Penetrate)
G01 X146.272920 Y145.129168 Z2 F75.000000
G00 Z0.000000

(End cutting path id: path13)


(Start cutting path id: path13)
(Change tool to Default tool)

G00 Z0.000000
G00 X109.800000 Y132.420835

G01 Z2 F100.0(Penetrate)
G03 X110.025373 Y132.356291 Z2 I9.864045 J34.017526 F75.000000
G02 X110.816670 Y132.065964 Z2 I-1.509693 J-5.338233
G02 X112.373498 Y131.276243 Z2 I-8.676324 J-19.033598
G02 X114.375000 Y130.107547 Z2 I-32.725891 J-58.344398
G02 X119.132848 Y126.772106 Z2 I-23.009803 J-37.883526
G02 X123.249260 Y122.889586 Z2 I-22.417142 J-27.891064
G02 X126.813577 Y118.501081 Z2 I-39.308339 J-35.567705
G02 X129.779930 Y113.739586 Z2 I-31.696051 J-23.050998
G02 X130.646575 Y111.983975 Z2 I-32.098283 J-16.936799
G02 X131.179220 Y110.816670 Z2 I-167.024315 J-76.918942
G02 X131.470273 Y110.030330 Z2 I-5.454098 J-2.465796
G02 X131.531250 Y109.800003 Z2 I-4.467399 J-1.305936
G00 Z0.000000

(End cutting path id: path13)


(Start cutting path id: path13)
(Change tool to Default tool)

G00 Z0.000000
G00 X122.889590 Y109.800003

G01 Z2 F100.0(Penetrate)
G01 X125.177090 Y109.800003 Z2 F75.000000
G00 Z0.000000

(End cutting path id: path13)


(Start cutting path id: path13)
(Change tool to Default tool)

G00 Z0.000000
G00 X109.800000 Y117.297919

G01 Z2 F100.0(Penetrate)
G01 X110.435420 Y117.297919 Z2 F75.000000
G00 Z0.000000

(End cutting path id: path13)


(Start cutting path id: path13)
(Change tool to Default tool)

G00 Z0.000000
G00 X109.800000 Y125.685419

G01 Z2 F100.0(Penetrate)
G03 X109.987253 Y125.560112 Z2 I2.856810 J4.066523 F75.000000
G02 X110.604770 Y125.033431 Z2 I-1.572160 J-2.468659
G02 X111.162817 Y124.301456 Z2 I-4.649373 J-4.123329
G02 X111.665170 Y123.397919 Z2 I-6.207835 J-4.042878
G02 X112.439967 Y120.706172 Z2 I-8.096314 J-3.787840
G03 X113.033370 Y117.933336 Z2 I16.030312 J1.980666
G03 X113.763779 Y116.381360 Z2 I5.826058 J1.794061
G02 X114.668880 Y114.883336 Z2 I-19.493995 J-12.800652
G03 X115.481167 Y113.567882 Z2 I14.326191 J7.937842
G02 X116.241640 Y112.214586 Z2 I-7.251161 J-4.965045
G02 X116.570309 Y111.420747 Z2 I-12.645373 J-5.700461
G02 X116.818710 Y110.689784 Z2 I-10.627660 J-4.019250
G02 X116.999815 Y109.986011 Z2 I-8.337001 J-2.520586
G03 X117.043750 Y109.800003 Z2 I4.285823 J0.914116
G00 Z0.000000

(End cutting path id: path13)


(Footer)
M5
M2
(Using default footer. To add your own footer create file "footer" in the output dir.)
(end)
%