%
(Header)
(Generated by gcodetools from Inkscape.)
(Using default header. To add your own header create file "header" in the output dir.)
M3
(Header end.)
G21 (All units in mm)

(Start cutting path id: path20)
(Change tool to Default tool)

G00 Z0.000000
G00 X9.531250 Y72.691660

G01 Z2 F100.0(Penetrate)
G03 X10.672968 Y72.310611 Z2 I1.090327 J1.365934 F75.000000
G03 X11.818750 Y72.691660 Z2 I-0.061741 J2.098811
G00 Z0.000000

(End cutting path id: path20)


(Start cutting path id: path20)
(Change tool to Default tool)

G00 Z0.000000
G00 X16.647916 Y72.310410

G01 Z2 F100.0(Penetrate)
G03 X17.807126 Y68.047945 Z2 I35.211634 J7.287213 F75.000000
G03 X19.323040 Y63.795830 Z2 I138.234990 J46.885636
G03 X22.969790 Y55.729330 Z2 I62.235990 J23.278437
G03 X27.580319 Y48.164580 Z2 I69.647383 J37.260986
G03 X29.952260 Y45.100362 Z2 I28.879440 J19.904771
G02 X32.225725 Y42.064580 Z2 I-20.142706 J-17.453838
G02 X32.646647 Y41.024834 Z2 I-2.538335 J-1.632672
G03 X32.906248 Y40.519670 Z2 I1.018353 J0.204040
G01 X33.804068 Y40.087440 Z2
G02 X34.729330 Y39.319287 Z2 I-1.227293 J-2.419638
G03 X35.456737 Y38.513110 Z2 I5.413841 J4.153610
G01 X36.427516 Y37.482920 Z2
G01 X36.345836 Y36.600000 Z2
G00 Z0.000000

(End cutting path id: path20)


(Start cutting path id: path20)
(Change tool to Default tool)

G00 Z0.000000
G00 X31.262541 Y36.599860

G01 Z2 F100.0(Penetrate)
G01 X31.262541 Y36.874220 Z2 F75.000000
G03 X31.242372 Y37.927523 Z2 I-27.514039 J0.000000
G02 X31.483465 Y39.263120 Z2 I3.151206 J0.120724
G02 X32.099337 Y39.894413 Z2 I1.103843 J-0.460819
G02 X32.406291 Y40.031110 Z2 I55.528816 J-124.277071
G00 Z0.000000

(End cutting path id: path20)


(Start cutting path id: path20)
(Change tool to Default tool)

G00 Z0.000000
G00 X32.787547 Y40.412360

G01 Z2 F100.0(Penetrate)
G03 X32.671273 Y39.989640 Z2 I0.951469 J-0.489063 F75.000000
G03 X32.658206 Y39.141530 Z2 I9.077287 J-0.564014
G03 X32.685836 Y38.578630 Z2 I15.818042 J0.494314
G03 X32.751266 Y37.870690 Z2 I14.016464 J0.938443
G02 X32.792478 Y36.935138 Z2 I-6.337241 J-0.747847
G03 X32.787546 Y36.599860 Z2 I11.393133 J-0.335278
G00 Z0.000000

(End cutting path id: path20)


(Start cutting path id: path20)
(Change tool to Default tool)

G00 Z0.000000
G00 X19.316713 Y40.158190

G01 Z2 F100.0(Penetrate)
G01 X18.827108 Y37.870690 Z2 F75.000000
G01 X18.920948 Y37.001500 Z2
G01 X18.935458 Y36.599860 Z2
G00 Z0.000000

(End cutting path id: path20)


(Start cutting path id: path20)
(Change tool to Default tool)

G00 Z0.000000
G00 X17.664625 Y36.599860

G01 Z2 F100.0(Penetrate)
G02 X17.878070 Y37.006340 Z2 I1.091010 J-0.313615 F75.000000
G02 X18.681291 Y37.616530 Z2 I1.681681 J-1.379920
G00 Z0.000000

(End cutting path id: path20)


(Start cutting path id: path20)
(Change tool to Default tool)

G00 Z0.000000
G00 X13.725041 Y39.649860

G01 Z2 F100.0(Penetrate)
G01 X13.329181 Y37.362950 Z2 F75.000000
G01 X13.216708 Y36.599860 Z2
G00 Z0.000000

(End cutting path id: path20)


(Start cutting path id: path20)
(Change tool to Default tool)

G00 Z0.000000
G00 X8.895881 Y46.004020

G01 Z2 F100.0(Penetrate)
G03 X8.701624 Y45.638108 Z2 I1.815457 J-1.198317 F75.000000
G03 X8.515122 Y44.733190 Z2 I2.266681 J-0.938839
G02 X8.312809 Y42.123662 Z2 I-20.605536 J0.284908
G02 X7.889510 Y39.395690 Z2 I-104.960748 J14.889910
G03 X7.744987 Y38.312728 Z2 I15.710452 J-2.647714
G03 X7.732421 Y37.362950 Z2 I5.557745 J-0.548502
G02 X7.752111 Y36.795437 Z2 I-7.607879 J-0.548051
G03 X7.752131 Y36.599860 Z2 I36.829232 J-0.093967
G00 Z0.000000

(End cutting path id: path20)


(Start cutting path id: path20)
(Change tool to Default tool)

G00 Z0.000000
G00 X19.825047 Y45.368610

G01 Z2 F100.0(Penetrate)
G03 X20.281798 Y45.153083 Z2 I1.496057 J2.578747 F75.000000
G02 X20.841223 Y44.878910 Z2 I-1.091983 J-2.935904
G02 X21.735542 Y44.015308 Z2 I-1.553203 J-2.503315
G03 X22.451927 Y42.954020 Z2 I152.462832 J102.142172
G03 X23.753414 Y41.146034 Z2 I34.532030 J23.485612
G02 X24.527130 Y39.014440 Z2 I-3.029325 J-2.305787
G00 Z0.000000

(End cutting path id: path20)


(Start cutting path id: path20)
(Change tool to Default tool)

G00 Z0.000000
G00 X7.879214 Y55.535270

G01 Z2 F100.0(Penetrate)
G03 X8.237794 Y51.853021 Z2 I19.085794 J-0.000000 F75.000000
G02 X8.641714 Y47.910270 Z2 I-21.151878 J-4.159000
G03 X8.665487 Y47.008015 Z2 I27.680855 J0.277883
G03 X8.918140 Y46.157680 Z2 I1.818425 J0.077593
G03 X9.433986 Y45.584579 Z2 I1.687076 J0.999824
G02 X9.910684 Y45.112480 Z2 I-1.430630 J-1.921289
G03 X10.863648 Y43.973395 Z2 I12.606294 J9.578315
G03 X12.072474 Y42.790170 Z2 I11.859641 J10.907142
G02 X13.262555 Y41.066991 Z2 I-2.862652 J-3.249580
G03 X13.852131 Y39.776940 Z2 I9.700461 J3.653532
G02 X14.299781 Y39.982066 Z2 I2.630684 J-5.149969
G03 X14.868797 Y40.246250 Z2 I-2.489664 J6.107274
G03 X17.431480 Y41.752327 Z2 I-14.049768 J26.839867
G03 X19.473803 Y44.224860 Z2 I-2.975392 J4.537437
G03 X19.757455 Y45.303073 Z2 I-3.883011 J1.597943
G03 X19.825047 Y46.385270 Z2 I-8.722488 J1.088003
G00 Z0.000000

(End cutting path id: path20)


(Start cutting path id: path20)
(Change tool to Default tool)

G00 Z0.000000
G00 X9.404214 Y58.458340

G01 Z2 F100.0(Penetrate)
G03 X9.452015 Y57.657893 Z2 I6.725858 J0.000000 F75.000000
G02 X9.236731 Y56.426970 Z2 I-2.151887 J-0.257930
G02 X7.781047 Y55.660172 Z2 I-1.264446 J0.635288
G02 X6.463255 Y56.679660 Z2 I0.225439 J1.652837
G02 X6.498297 Y57.919634 Z2 I1.414486 J0.580509
G02 X7.243896 Y58.612190 Z2 I1.249124 J-0.597164
G02 X7.747184 Y58.722832 Z2 I0.603761 J-1.546395
G02 X8.260464 Y58.716920 Z2 I0.215703 J-3.557453
G02 X8.715809 Y58.656979 Z2 I-0.405492 J-4.839807
G03 X9.150048 Y58.592290 Z2 I1.284144 J7.130320
G03 X9.778187 Y58.570735 Z2 I0.443409 J3.758372
G02 X10.293798 Y58.585290 Z2 I0.610827 J-12.498667
G03 X10.968779 Y58.590789 Z2 I-1.665562 J245.864744
G02 X11.564631 Y58.580290 Z2 I0.104535 J-10.980719
G02 X12.093274 Y58.525911 Z2 I-0.198453 J-4.526072
G03 X12.581297 Y58.469590 Z2 I0.851931 J5.239432
G03 X13.189900 Y58.454379 Z2 I0.478360 J6.956415
G02 X13.597964 Y58.458190 Z2 I0.408064 J-21.842781
G00 Z0.000000

(End cutting path id: path20)


(Start cutting path id: path20)
(Change tool to Default tool)

G00 Z0.000000
G00 X7.497916 Y67.227080

G01 Z2 F100.0(Penetrate)
G02 X8.773743 Y67.388313 Z2 I1.132129 J-3.830092 F75.000000
G03 X10.675000 Y67.354160 Z2 I1.897861 J52.714742
G03 X11.182270 Y67.354271 Z2 I-0.161789 J1904.517345
G03 X11.691666 Y67.375260 Z2 I-0.002194 J6.245068
G01 X12.995251 Y67.064610 Z2
G02 X13.357501 Y65.927880 Z2 I-1.354781 J-1.057824
G03 X13.343749 Y64.685420 Z2 I17.809559 J-0.818435
G03 X13.548103 Y62.131997 Z2 I22.845669 J0.543485
G02 X13.724902 Y59.602090 Z2 I-19.001074 J-2.598992
G02 X13.712998 Y58.993666 Z2 I-13.110091 J-0.047835
G03 X13.727402 Y58.458340 Z2 I3.842725 J-0.164464
G03 X13.823846 Y57.864406 Z2 I4.644676 J0.449414
G02 X13.942834 Y57.187510 Z2 I-6.508035 J-1.492919
G02 X14.180369 Y54.596068 Z2 I-41.515482 J-5.111964
G03 X14.349089 Y51.977090 Z2 I324.286961 J19.576371
G02 X14.354095 Y50.878573 Z2 I-8.592664 J-0.588428
G03 X14.506374 Y49.962590 Z2 I2.086441 J-0.123786
G01 X15.377229 Y49.561140 Z2
G02 X16.496096 Y49.273899 Z2 I-0.140044 J-2.868241
G02 X17.026076 Y47.915430 Z2 I-0.471439 J-0.966538
G02 X15.540499 Y46.744447 Z2 I-1.741551 J0.681597
G02 X13.844777 Y47.542510 Z2 I-0.235049 J1.701134
G02 X13.846958 Y48.769601 Z2 I0.989537 J0.611789
G02 X14.360464 Y49.562510 Z2 I23.022932 J-14.347464
G00 Z0.000000

(End cutting path id: path20)


(Start cutting path id: path20)
(Change tool to Default tool)

G00 Z0.000000
G00 X5.337500 Y72.564580

G01 Z2 F100.0(Penetrate)
G03 X5.403770 Y71.154546 Z2 I18.249337 J0.151130 F75.000000
G02 X5.464583 Y69.768750 Z2 I-16.539086 J-1.420016
G01 X5.595197 Y68.845920 Z2
G01 X6.479288 Y68.440350 Z2
G02 X7.157094 Y67.658488 Z2 I-0.675348 J-1.270197
G02 X7.079404 Y66.597160 Z2 I-1.229036 J-0.443542
G02 X5.935371 Y65.883674 Z2 I-1.194091 J0.640718
G02 X4.796415 Y66.470170 Z2 I-0.048256 J1.305446
G02 X4.775134 Y67.868785 Z2 I1.086219 J0.715996
G02 X5.464583 Y68.752080 Z2 I4.328860 J-2.668135
G00 Z0.000000

(End cutting path id: path20)


(Footer)
M5
M2
(Using default footer. To add your own footer create file "footer" in the output dir.)
(end)
%