%
(Header)
(Generated by gcodetools from Inkscape.)
(Using default header. To add your own header create file "header" in the output dir.)
M3
(Header end.)
G21 (All units in mm)

(Start cutting path id: path20)
(Change tool to Default tool)

G00 Z0.000000
G00 X168.625000 Y40.375000

G01 Z2 F100.0(Penetrate)
G03 X168.033631 Y40.960151 Z2 I-258.335627 J-260.489655 F75.000000
G03 X167.375000 Y41.445790 Z2 I-2.008326 J-2.034278
G03 X166.607000 Y41.577169 Z2 I-0.580694 J-1.084125
G03 X166.000000 Y41.374990 Z2 I0.290291 J-1.883826
G02 X165.681863 Y42.679566 Z2 I7.291809 J2.469275
G03 X165.417340 Y44.124990 Z2 I-24.932293 J-3.815877
G03 X165.226507 Y44.882275 Z2 I-10.407217 J-2.219895
G02 X165.186050 Y45.499410 Z2 I1.372083 J0.399842
G01 X166.000100 Y46.154600 Z2
G02 X166.626184 Y46.050229 Z2 I-0.046571 J-2.209372
G02 X167.125000 Y45.845190 Z2 I-1.018189 J-3.186313
G02 X167.865961 Y45.381361 Z2 I-2.240834 J-4.403454
G02 X168.625000 Y44.749990 Z2 I-6.485974 J-8.569437
G00 Z0.000000

(End cutting path id: path20)


(Start cutting path id: path20)
(Change tool to Default tool)

G00 Z0.000000
G00 X166.000000 Y41.375000

G01 Z2 F100.0(Penetrate)
G03 X166.122184 Y39.808373 Z2 I11.392137 J0.100414 F75.000000
G02 X166.410200 Y37.750000 Z2 I-131.250408 J-19.414437
G01 X166.700330 Y36.700420 Z2
G01 X167.750000 Y36.363910 Z2
G02 X168.634293 Y35.785858 Z2 I-1.203214 J-2.806070
G02 X169.375000 Y35.000000 Z2 I-5.947201 J-6.347508
G00 Z0.000000

(End cutting path id: path20)


(Start cutting path id: path20)
(Change tool to Default tool)

G00 Z0.000000
G00 X166.750000 Y36.500000

G01 Z2 F100.0(Penetrate)
G03 X166.782677 Y35.146933 Z2 I28.029527 J-0.000000 F75.000000
G02 X166.870080 Y33.250000 Z2 I-421.784256 J-20.384527
G02 X166.837700 Y32.463721 Z2 I-4.634659 J-0.202943
G03 X166.950380 Y31.789740 Z2 I1.178522 J-0.149377
G01 X167.750060 Y31.519580 Z2
G02 X168.129384 Y31.467595 Z2 I-0.057095 J-1.826538
G02 X168.499960 Y31.319830 Z2 I-0.345609 J-1.405301
G02 X169.341178 Y30.719543 Z2 I-2.506186 J-4.401633
G02 X170.124960 Y30.000000 Z2 I-16.978426 J-19.280876
G00 Z0.000000

(End cutting path id: path20)


(Start cutting path id: path20)
(Change tool to Default tool)

G00 Z0.000000
G00 X167.000000 Y31.500000

G01 Z2 F100.0(Penetrate)
G02 X166.999596 Y30.086824 Z2 I-2474.500365 J0.003757 F75.000000
G03 X167.000000 Y28.375000 Z2 I1060.838055 J-0.606410
G03 X167.009319 Y27.844172 Z2 I16.245436 J0.019716
G02 X167.018900 Y27.250000 Z2 I-16.709259 J-0.566587
G02 X166.992378 Y26.693596 Z2 I-6.054616 J0.009769
G02 X166.928000 Y26.125000 Z2 I-14.918903 J1.401220
G03 X166.773818 Y24.207482 Z2 I18.513026 J-2.453538
G02 X166.608650 Y22.250000 Z2 I-17.708443 J0.508489
G02 X166.433217 Y21.133578 Z2 I-34.685065 J4.878373
G03 X166.285640 Y20.125000 Z2 I18.804265 J-3.266558
G01 X166.325340 Y19.162810 Z2
G03 X166.790853 Y18.645608 Z2 I1.087567 J0.510780
G02 X167.461340 Y17.999520 Z2 I-1.091338 J-1.803500
G02 X168.900684 Y15.737103 Z2 I-76.648117 J-50.352400
G03 X170.333250 Y13.500000 Z2 I64.327293 J39.615815
G02 X170.838071 Y12.733528 Z2 I-80.411484 J-53.510841
G02 X171.208830 Y12.000000 Z2 I-3.145412 J-2.050301
G02 X171.408571 Y11.326582 Z2 I-4.704124 J-1.761612
G03 X171.499920 Y11.000000 Z2 I3.045809 J0.675882
G01 X170.249920 Y11.094200 Z2
G01 X168.624920 Y12.053020 Z2
G01 X164.255320 Y14.755370 Z2
G01 X163.215580 Y15.830310 Z2
G01 X162.000000 Y15.750000 Z2
G01 X159.250000 Y15.396120 Z2
G01 X156.125100 Y15.124420 Z2
G01 X155.351660 Y14.731480 Z2
G01 X155.687400 Y13.755020 Z2
G01 X157.375000 Y12.500000 Z2
G00 Z0.000000

(End cutting path id: path20)


(Start cutting path id: path20)
(Change tool to Default tool)

G00 Z0.000000
G00 X151.125000 Y14.750000

G01 Z2 F100.0(Penetrate)
G02 X151.926784 Y14.966820 Z2 I0.872160 J-1.634309 F75.000000
G02 X153.750000 Y15.000000 Z2 I1.749252 J-46.010728
G02 X154.492437 Y14.961557 Z2 I-0.011677 J-7.413901
G02 X155.250000 Y14.875000 Z2 I-3.266719 J-31.949491
G00 Z0.000000

(End cutting path id: path20)


(Start cutting path id: path20)
(Change tool to Default tool)

G00 Z0.000000
G00 X147.250000 Y15.000000

G01 Z2 F100.0(Penetrate)
G02 X147.905893 Y15.113592 Z2 I0.815722 J-2.759680 F75.000000
G02 X149.750000 Y15.119980 Z2 I0.983299 J-17.676835
G02 X150.339020 Y15.050179 Z2 I-0.208674 J-4.281052
G02 X150.965660 Y14.769580 Z2 I-0.275770 J-1.455870
G02 X151.412177 Y14.197610 Z2 I-0.882221 J-1.148994
G03 X151.776720 Y13.665700 Z2 I1.556759 J0.676046
G03 X152.710270 Y12.922538 Z2 I3.942209 J3.994213
G02 X153.750000 Y12.125000 Z2 I-3.973719 J-6.256939
G00 Z0.000000

(End cutting path id: path20)


(Start cutting path id: path20)
(Change tool to Default tool)

G00 Z0.000000
G00 X143.750000 Y15.374970

G01 Z2 F100.0(Penetrate)
G02 X144.072164 Y15.446904 Z2 I0.692455 J-2.343852 F75.000000
G02 X144.875000 Y15.498140 Z2 I0.690582 J-4.505368
G02 X146.113605 Y15.388534 Z2 I-0.240075 J-9.766241
G02 X147.062600 Y14.929460 Z2 I-0.271188 J-1.771012
G02 X147.380045 Y14.447111 Z2 I-0.828669 J-0.890999
G03 X147.581020 Y13.999970 Z2 I2.892292 J1.031254
G03 X148.058304 Y13.307313 Z2 I3.654705 J2.007554
G02 X148.625000 Y12.624970 Z2 I-29.873273 J-25.386676
G00 Z0.000000

(End cutting path id: path20)


(Start cutting path id: path20)
(Change tool to Default tool)

G00 Z0.000000
G00 X145.125000 Y20.375000

G01 Z2 F100.0(Penetrate)
G03 X146.619887 Y19.533725 Z2 I4.643468 J6.502322 F75.000000
G03 X148.125000 Y19.000000 Z2 I4.899015 J11.426224
G00 Z0.000000

(End cutting path id: path20)


(Start cutting path id: path20)
(Change tool to Default tool)

G00 Z0.000000
G00 X138.375000 Y16.124970

G01 Z2 F100.0(Penetrate)
G03 X138.998299 Y14.953870 Z2 I2.574767 J0.618957 F75.000000
G03 X140.750000 Y13.124970 Z2 I43.289545 J39.708943
G00 Z0.000000

(End cutting path id: path20)


(Start cutting path id: path20)
(Change tool to Default tool)

G00 Z0.000000
G00 X136.500000 Y17.125000

G01 Z2 F100.0(Penetrate)
G01 X138.000000 Y16.446570 Z2 F75.000000
G03 X138.678539 Y16.390758 Z2 I0.454346 J1.371152
G02 X139.625000 Y16.374970 Z2 I0.427927 J-2.723709
G02 X141.101843 Y16.085655 Z2 I-33.236718 J-173.574505
G02 X142.375000 Y15.785270 Z2 I-3.780403 J-18.871236
G03 X142.903104 Y15.655118 Z2 I2.969386 J10.912072
G02 X143.471930 Y15.394550 Z2 I-0.320996 J-1.451907
G02 X143.854909 Y14.862190 Z2 I-0.652090 J-0.873049
G03 X144.051790 Y14.374970 Z2 I3.781237 J1.244578
G03 X144.542820 Y13.586868 Z2 I3.911239 J1.889893
G02 X145.125000 Y12.749970 Z2 I-7.108588 J-5.565964
G00 Z0.000000

(End cutting path id: path20)


(Start cutting path id: path20)
(Change tool to Default tool)

G00 Z0.000000
G00 X136.500000 Y22.750000

G01 Z2 F100.0(Penetrate)
G02 X137.465656 Y22.335951 Z2 I-3.207218 J-8.813053 F75.000000
G03 X140.250000 Y21.375000 Z2 I5.102465 J10.270051
G00 Z0.000000

(End cutting path id: path20)


(Start cutting path id: path20)
(Change tool to Default tool)

G00 Z0.000000
G00 X136.500000 Y29.250000

G01 Z2 F100.0(Penetrate)
G03 X136.702387 Y29.076544 Z2 I18.394038 J21.257168 F75.000000
G03 X137.128090 Y28.732930 Z2 I7.156762 J8.431004
G03 X138.659943 Y27.637348 Z2 I17.105760 J22.298710
G03 X140.750000 Y26.407310 Z2 I12.133459 J18.226235
G03 X144.753723 Y24.839741 Z2 I9.558910 J18.517645
G02 X148.625000 Y23.000000 Z2 I-3.303680 J-11.944715
G00 Z0.000000

(End cutting path id: path20)


(Start cutting path id: path20)
(Change tool to Default tool)

G00 Z0.000000
G00 X153.125000 Y30.000000

G01 Z2 F100.0(Penetrate)
G01 X154.250000 Y29.000000 Z2 F75.000000
G00 Z0.000000

(End cutting path id: path20)


(Start cutting path id: path20)
(Change tool to Default tool)

G00 Z0.000000
G00 X160.749960 Y32.250000

G01 Z2 F100.0(Penetrate)
G01 X161.124960 Y31.875000 Z2 F75.000000
G00 Z0.000000

(End cutting path id: path20)


(Start cutting path id: path20)
(Change tool to Default tool)

G00 Z0.000000
G00 X158.250000 Y37.750000

G01 Z2 F100.0(Penetrate)
G02 X158.968499 Y37.112301 Z2 I-0.517340 J-1.306506 F75.000000
G02 X159.250000 Y36.250000 Z2 I-2.221927 J-1.202456
G00 Z0.000000

(End cutting path id: path20)


(Start cutting path id: path20)
(Change tool to Default tool)

G00 Z0.000000
G00 X158.625000 Y45.874990

G01 Z2 F100.0(Penetrate)
G02 X160.290825 Y43.222374 Z2 I-54.865514 J-36.304557 F75.000000
G02 X161.836420 Y40.499990 Z2 I-65.348251 J-38.900468
G02 X162.801231 Y38.700014 Z2 I-240.408908 J-130.020900
G03 X164.125000 Y37.124990 Z2 I4.345209 J2.308233
G00 Z0.000000

(End cutting path id: path20)


(Start cutting path id: path20)
(Change tool to Default tool)

G00 Z0.000000
G00 X167.125000 Y27.250000

G01 Z2 F100.0(Penetrate)
G02 X168.212473 Y26.870813 Z2 I-0.045326 J-1.878967 F75.000000
G02 X169.375000 Y25.750000 Z2 I-4.056984 J-5.371282
G00 Z0.000000

(End cutting path id: path20)


(Start cutting path id: path20)
(Change tool to Default tool)

G00 Z0.000000
G00 X166.250000 Y19.000000

G01 Z2 F100.0(Penetrate)
G03 X165.857998 Y18.012042 Z2 I2.100342 J-1.405123 F75.000000
G02 X165.178920 Y16.678720 Z2 I-2.455426 J0.410986
G02 X164.133450 Y16.121098 Z2 I-1.409905 J1.384519
G03 X163.500000 Y15.875000 Z2 I0.340554 J-1.814873
G00 Z0.000000

(End cutting path id: path20)


(Start cutting path id: path20)
(Change tool to Default tool)

G00 Z0.000000
G00 X171.500000 Y10.875000

G01 Z2 F100.0(Penetrate)
G01 X172.375000 Y9.875000 Z2 F75.000000
G00 Z0.000000

(End cutting path id: path20)


(Start cutting path id: path20)
(Change tool to Default tool)

G00 Z0.000000
G00 X148.625000 Y38.374950

G01 Z2 F100.0(Penetrate)
G02 X150.967032 Y37.432565 Z2 I0.424112 J-2.327411 F75.000000
G03 X152.696950 Y35.124950 Z2 I65.520807 J47.315855
G02 X155.700267 Y31.201540 Z2 I-250.490170 J-194.858016
G02 X158.491800 Y27.124950 Z2 I-43.746534 J-32.950461
G02 X159.463126 Y25.098957 Z2 I-8.835284 J-5.481758
G03 X160.375000 Y23.124950 Z2 I10.932245 J3.852428
G00 Z0.000000

(End cutting path id: path20)


(Start cutting path id: path20)
(Change tool to Default tool)

G00 Z0.000000
G00 X142.249960 Y31.625000

G01 Z2 F100.0(Penetrate)
G03 X143.703392 Y29.978387 Z2 I4.040933 J2.102087 F75.000000
G03 X145.624960 Y28.726370 Z2 I24.424185 J35.385085
G02 X147.709056 Y27.439320 Z2 I-263.244997 J-428.598640
G03 X149.874960 Y26.303050 Z2 I8.903616 J14.339243
G03 X152.342753 Y25.342322 Z2 I13.427453 J30.840846
G02 X154.624960 Y24.000000 Z2 I-2.173333 J-6.306347
G00 Z0.000000

(End cutting path id: path20)


(Start cutting path id: path20)
(Change tool to Default tool)

G00 Z0.000000
G00 X147.250000 Y39.125000

G01 Z2 F100.0(Penetrate)
G01 X148.382810 Y38.078130 Z2 F75.000000
G01 X148.794370 Y37.125000 Z2
G01 X151.583330 Y33.000000 Z2
G01 X152.720200 Y31.250000 Z2
G01 X153.125000 Y30.125000 Z2
G02 X152.679800 Y30.070251 Z2 I-0.440361 J1.743398
G02 X151.875000 Y30.199700 Z2 I0.007024 J2.610171
G02 X150.778681 Y30.700029 Z2 I1.680150 J5.132826
G03 X149.625000 Y31.342640 Z2 I-10.699748 J-17.852375
G03 X145.743628 Y33.236238 Z2 I-43.863533 J-84.983865
G02 X143.250000 Y34.874950 Z2 I4.171698 J9.064707
G00 Z0.000000

(End cutting path id: path20)


(Start cutting path id: path20)
(Change tool to Default tool)

G00 Z0.000000
G00 X136.625000 Y29.749990

G01 Z2 F100.0(Penetrate)
G02 X138.198249 Y31.067320 Z2 I14.823701 J-16.105414 F75.000000
G03 X141.125000 Y33.428520 Z2 I-39.735152 J52.246925
G03 X141.689042 Y33.938091 Z2 I-9.085528 J10.623683
G02 X142.250000 Y34.411450 Z2 I4.156247 J-4.356333
G02 X142.667354 Y34.674976 Z2 I1.922695 J-2.582775
G03 X143.098860 Y34.960540 Z2 I-1.234548 J2.334285
G03 X143.541619 Y35.429630 Z2 I-1.551720 J1.908118
G02 X143.982350 Y35.999990 Z2 I8.892677 J-6.416119
G02 X145.555322 Y37.586474 Z2 I9.541325 J-7.887029
G03 X147.203120 Y39.160680 Z2 I-11.604621 J13.796644
G03 X148.592647 Y40.771097 Z2 I-23.622766 J21.787265
G02 X150.010030 Y42.499990 Z2 I109.970723 J-88.710882
G03 X151.268427 Y44.110416 Z2 I-25.070084 J20.886795
G02 X152.485630 Y45.608300 Z2 I15.453751 J-11.314448
G02 X153.224399 Y46.026156 Z2 I0.993016 J-0.893652
G02 X154.250000 Y46.124990 Z2 I1.029156 J-5.308794
G00 Z0.000000

(End cutting path id: path20)


(Start cutting path id: path20)
(Change tool to Default tool)

G00 Z0.000000
G00 X154.250000 Y44.500000

G01 Z2 F100.0(Penetrate)
G02 X155.371968 Y43.237453 Z2 I-3.043090 J-3.834051 F75.000000
G02 X155.375000 Y41.500000 Z2 I-1.411066 J-0.871191
G00 Z0.000000

(End cutting path id: path20)


(Start cutting path id: path20)
(Change tool to Default tool)

G00 Z0.000000
G00 X139.250000 Y42.625000

G01 Z2 F100.0(Penetrate)
G02 X141.092842 Y40.982637 Z2 I-6.868983 J-9.562540 F75.000000
G03 X142.786170 Y39.130400 Z2 I334.834223 J304.407645
G03 X143.285291 Y38.678180 Z2 I2.719726 J2.500241
G02 X143.736880 Y38.223860 Z2 I-1.345702 J-1.789211
G02 X144.186527 Y37.522846 Z2 I-4.882865 J-3.626701
G03 X144.625000 Y36.875000 Z2 I3.685131 J2.021851
G00 Z0.000000

(End cutting path id: path20)


(Footer)
M5
M2
(Using default footer. To add your own footer create file "footer" in the output dir.)
(end)
%