%
(Header)
(Generated by gcodetools from Inkscape.)
(Using default header. To add your own header create file "header" in the output dir.)
M3
(Header end.)
G21 (All units in mm)

(Start cutting path id: path11)
(Change tool to Default tool)

G00 Z0.000000
G00 X92.500000 Y135.875000

G01 Z2 F100.0(Penetrate)
G02 X93.070805 Y134.512289 Z2 I-7.411841 J-3.905535 F75.000000
G03 X93.538484 Y133.125000 Z2 I41.590547 J13.248416
G02 X94.128750 Y131.268533 Z2 I-26.930801 J-9.584757
G03 X94.750000 Y129.875000 Z2 I5.062234 J1.421544
G02 X95.209529 Y130.052259 Z2 I2.413132 J-5.571571
G03 X95.750000 Y130.279320 Z2 I-1.345629 J3.959755
G03 X96.675263 Y130.800164 Z2 I-5.341985 J10.572147
G02 X97.625000 Y131.254242 Z2 I2.501614 J-4.012045
G02 X98.287482 Y131.391135 Z2 I0.852109 J-2.452254
G02 X98.995081 Y131.282212 Z2 I0.116766 J-1.594313
G02 X100.293708 Y130.386848 Z2 I-1.306198 J-3.283935
G02 X101.399500 Y129.126927 Z2 I-28.368918 J-26.013710
G03 X101.880850 Y128.661869 Z2 I2.467127 J2.071921
G02 X102.338930 Y128.275075 Z2 I-4.981457 J-6.364184
G02 X102.646509 Y127.784411 Z2 I-0.724011 J-0.795592
G03 X102.855520 Y127.249997 Z2 I3.225506 J0.953429
G02 X103.489667 Y125.925066 Z2 I-55.828023 J-27.535002
G02 X104.084590 Y124.499997 Z2 I-17.902856 J-8.310611
G01 X104.888120 Y122.838925 Z2
G01 X105.750000 Y123.073878 Z2
G02 X106.348098 Y123.379529 Z2 I9.747326 J-18.335559
G02 X107.000000 Y123.677564 Z2 I5.751446 J-11.718356
G02 X107.954803 Y124.030151 Z2 I4.178120 J-9.845229
G02 X108.875000 Y124.296391 Z2 I5.891740 J-18.640082
G01 X109.746530 Y124.689137 Z2
G01 X109.874900 Y125.499997 Z2
G03 X109.876235 Y126.106478 Z2 I-50.203323 J0.413761
G02 X109.875000 Y126.749997 Z2 I167.640434 J0.643520
G01 X109.875000 Y133.624997 Z2
G03 X109.810092 Y134.707917 Z2 I-9.066129 J0.000000
G02 X109.750000 Y135.749997 Z2 I8.345323 J1.004010
G00 Z0.000000

(End cutting path id: path11)


(Start cutting path id: path11)
(Change tool to Default tool)

G00 Z0.000000
G00 X102.500000 Y128.249997

G01 Z2 F100.0(Penetrate)
G03 X104.243849 Y129.999459 Z2 I-14.036979 J15.735807 F75.000000
G03 X106.785690 Y132.874997 Z2 I-1097.244946 J972.474095
G02 X107.529976 Y133.716088 Z2 I228.451624 J-201.408193
G02 X108.261190 Y134.494500 Z2 I14.318384 J-12.717565
G02 X108.935386 Y134.980459 Z2 I1.803383 J-1.791275
G02 X109.625000 Y135.249997 Z2 I1.877006 J-3.785364
G00 Z0.000000

(End cutting path id: path11)


(Start cutting path id: path11)
(Change tool to Default tool)

G00 Z0.000000
G00 X109.875000 Y124.624997

G01 Z2 F100.0(Penetrate)
G02 X110.375050 Y124.621239 Z2 I-0.000000 J-33.271256 F75.000000
G03 X111.000000 Y124.646217 Z2 I0.085535 J5.690533
G02 X112.725678 Y124.738849 Z2 I1.983684 J-20.834455
G02 X114.348380 Y124.179588 Z2 I0.031350 J-2.542813
G02 X115.025721 Y123.199122 Z2 I-1.303448 J-1.624666
G02 X115.247400 Y122.125091 Z2 I-4.711928 J-1.532432
G01 X115.757330 Y121.311050 Z2
G03 X116.173758 Y121.324644 Z2 I0.174010 J1.054548
G03 X116.625000 Y121.434795 Z2 I-4.959772 J21.297480
G03 X118.181472 Y121.918353 Z2 I-3.943210 J15.439110
G02 X119.750000 Y122.493341 Z2 I282.668271 J-768.673520
G03 X121.758806 Y123.251999 Z2 I-34.242408 J93.707301
G02 X123.625000 Y123.810276 Z2 I4.363701 J-11.188592
G02 X124.176505 Y123.871652 Z2 I0.585751 J-2.754865
G02 X124.625000 Y123.874996 Z2 I0.579780 J-47.679318
G02 X124.056894 Y121.788674 Z2 I-7.713875 J0.979980
G02 X122.711420 Y118.749996 Z2 I-132.881394 J57.020380
G02 X122.278337 Y117.832325 Z2 I-36.571889 J16.698601
G03 X121.912420 Y116.874996 Z2 I5.213092 J-2.541181
G03 X121.796111 Y116.430558 Z2 I10.664969 J-3.028445
G03 X121.783570 Y116.005493 Z2 I1.012114 J-0.242579
G01 X122.625000 Y115.267454 Z2
G02 X123.964709 Y114.621250 Z2 I-30.670115 J-65.297097
G02 X125.019580 Y113.731575 Z2 I-1.283162 J-2.591628
G02 X125.502085 Y112.346220 Z2 I-2.045806 J-1.489237
G03 X125.603780 Y110.874996 Z2 I26.364289 J1.083244
G01 X125.700380 Y110.039734 Z2
G01 X126.749960 Y109.749996 Z2
G02 X128.542019 Y109.687431 Z2 I-0.056921 J-27.326639
G03 X130.374960 Y109.624996 Z2 I1.843430 J27.182232
G02 X130.880196 Y109.621619 Z2 I-0.015313 J-40.084366
G02 X131.374960 Y109.589306 Z2 I-0.061667 J-4.748240
G03 X132.257557 Y109.519760 Z2 I1.336842 J11.330402
G03 X133.249960 Y109.499996 Z2 I0.992403 J24.905849
G03 X134.825397 Y109.570092 Z2 I0.000000 J17.739248
G02 X135.867530 Y109.407206 Z2 I0.193898 J-2.174639
G01 X136.259800 Y108.869494 Z2
G01 X135.374960 Y107.803135 Z2
G02 X133.140653 Y105.932151 Z2 I-58.195073 J67.226281
G03 X130.874960 Y104.035292 Z2 I57.109765 J-70.515985
G02 X129.960120 Y103.308934 Z2 I-9.048011 J10.456576
G03 X129.169900 Y102.588820 Z2 I2.858659 J-3.930594
G03 X129.304946 Y101.124629 Z2 I0.759531 J-0.668270
G02 X130.556380 Y99.749991 Z2 I-3.451741 J-4.399328
G02 X130.941389 Y98.980544 Z2 I-3.369418 J-2.167004
G02 X131.058800 Y98.124991 Z2 I-1.854545 J-0.690340
G02 X130.871006 Y97.320109 Z2 I-2.838393 J0.237900
G03 X130.568060 Y96.499991 Z2 I19.400978 J-7.632611
G03 X130.434386 Y96.002977 Z2 I3.468998 J-1.199483
G02 X130.251410 Y95.535677 Z2 I-1.370838 J0.267294
G02 X129.827322 Y95.040676 Z2 I-1.800889 J1.113731
G03 X129.374960 Y94.624510 Z2 I5.570917 J-6.509374
G03 X128.091734 Y93.339144 Z2 I96.707241 J-97.829463
G02 X126.870040 Y92.178618 Z2 I-18.131800 J17.864169
G02 X126.339651 Y91.757144 Z2 I-4.082890 J4.593504
G02 X125.749960 Y91.518511 Z2 I-0.800339 J1.129818
G02 X124.928642 Y91.476517 Z2 I-0.616509 J4.004993
G03 X124.000000 Y91.500000 Z2 I-0.928642 J-18.349818
G01 X119.500000 Y91.500000 Z2
G01 X100.375000 Y91.500000 Z2
G00 Z0.000000

(End cutting path id: path11)


(Start cutting path id: path11)
(Change tool to Default tool)

G00 Z0.000000
G00 X98.000000 Y97.750000

G01 Z2 F100.0(Penetrate)
G02 X99.471686 Y99.201973 Z2 I108.414482 J-108.414606 F75.000000
G03 X100.863810 Y100.625000 Z2 I-28.384861 J29.160895
G03 X101.308748 Y101.127595 Z2 I-9.693911 J9.030079
G02 X101.754920 Y101.625000 Z2 I8.024558 J-6.749218
G02 X102.246404 Y102.124511 Z2 I17.724036 J-16.947667
G03 X102.750000 Y102.625000 Z2 I-80.619146 J81.623231
G02 X104.431605 Y104.279638 Z2 I103.228119 J-103.228720
G03 X105.978780 Y105.874905 Z2 I-24.567013 J25.374291
G02 X106.546831 Y106.444621 Z2 I6.567480 J-5.980243
G02 X107.000000 Y106.750000 Z2 I1.246671 J-1.361070
G00 Z0.000000

(End cutting path id: path11)


(Start cutting path id: path11)
(Change tool to Default tool)

G00 Z0.000000
G00 X107.000000 Y106.750000

G01 Z2 F100.0(Penetrate)
G02 X108.455828 Y105.087565 Z2 I-11.880890 J-11.873004 F75.000000
G02 X110.224630 Y102.500000 Z2 I-23.144653 J-17.719509
G03 X110.800452 Y101.554778 Z2 I360.339848 J218.868264
G02 X111.256170 Y100.625000 Z2 I-4.770680 J-2.914854
G03 X111.528584 Y99.923591 Z2 I47.231901 J17.940382
G03 X111.750000 Y99.500000 Z2 I2.144695 J0.851393
G00 Z0.000000

(End cutting path id: path11)


(Start cutting path id: path11)
(Change tool to Default tool)

G00 Z0.000000
G00 X111.624990 Y99.624998

G01 Z2 F100.0(Penetrate)
G02 X111.343672 Y99.436881 Z2 I-2.039651 J2.745779 F75.000000
G02 X110.749800 Y99.137827 Z2 I-2.329886 J3.887572
G03 X109.056387 Y98.429518 Z2 I114.171053 J-275.336579
G02 X107.124990 Y97.623648 Z2 I-102.903859 J243.908328
G03 X106.542694 Y97.381667 Z2 I47.651464 J-115.488879
G02 X106.000180 Y97.184027 Z2 I-2.371694 J5.666786
G03 X105.402352 Y96.927351 Z2 I0.940448 J-3.014957
G03 X105.124990 Y96.749998 Z2 I1.333137 J-2.390447
G00 Z0.000000

(End cutting path id: path11)


(Start cutting path id: path11)
(Change tool to Default tool)

G00 Z0.000000
G00 X105.000000 Y96.875000

G01 Z2 F100.0(Penetrate)
G01 X104.000000 Y96.300056 Z2 F75.000000
G01 X99.875000 Y94.625000 Z2
G00 Z0.000000

(End cutting path id: path11)


(Start cutting path id: path11)
(Change tool to Default tool)

G00 Z0.000000
G00 X101.750000 Y101.624998

G01 Z2 F100.0(Penetrate)
G02 X102.018974 Y101.325633 Z2 I-11.982369 J-11.036451 F75.000000
G02 X102.409430 Y100.874418 Z2 I-35.683258 J-31.272834
G02 X103.543782 Y99.450693 Z2 I-20.172726 J-17.236364
G02 X104.575710 Y97.749998 Z2 I-8.594847 J-6.378500
G02 X104.771703 Y97.333079 Z2 I-16.074168 J-7.810972
G03 X105.019770 Y96.874998 Z2 I3.401568 J1.545859
G02 X105.315361 Y96.320948 Z2 I-3.489481 J-2.217545
G02 X105.518810 Y95.749998 Z2 I-3.869016 J-1.700387
G02 X105.957121 Y93.653910 Z2 I-16.035910 J-4.447127
G02 X106.160690 Y92.128084 Z2 I-83.540965 J-11.922149
G03 X106.223865 Y91.682649 Z2 I12.915516 J1.604578
G02 X106.249990 Y91.499998 Z2 I-5.657644 J-0.902422
G00 Z0.000000

(End cutting path id: path11)


(Start cutting path id: path11)
(Change tool to Default tool)

G00 Z0.000000
G00 X97.375000 Y104.624998

G01 Z2 F100.0(Penetrate)
G03 X97.680463 Y104.410935 Z2 I2.490471 J3.228862 F75.000000
G03 X98.250193 Y104.080439 Z2 I4.429727 J6.979936
G02 X100.641772 Y102.505187 Z2 I-6.929264 J-13.123244
G02 X101.625000 Y101.624998 Z2 I-8.116776 J-10.056222
G00 Z0.000000

(End cutting path id: path11)


(Start cutting path id: path11)
(Change tool to Default tool)

G00 Z0.000000
G00 X91.500000 Y105.750000

G01 Z2 F100.0(Penetrate)
G02 X91.650088 Y105.720181 Z2 I-1.109792 J-5.978562 F75.000000
G03 X92.250579 Y105.636189 Z2 I0.901498 J4.256579
G03 X92.778804 Y105.626640 Z2 I0.357336 J5.152243
G02 X93.500000 Y105.603779 Z2 I0.184400 J-5.569887
G02 X96.098150 Y105.077097 Z2 I-1.235374 J-12.765918
G02 X97.250000 Y104.499998 Z2 I-1.201630 J-3.836426
G00 Z0.000000

(End cutting path id: path11)


(Start cutting path id: path11)
(Change tool to Default tool)

G00 Z0.000000
G00 X91.500000 Y113.000000

G01 Z2 F100.0(Penetrate)
G01 X92.250579 Y113.000000 Z2 F75.000000
G01 X94.000000 Y112.894386 Z2
G01 X97.375000 Y112.213638 Z2
G01 X99.249807 Y111.652296 Z2
G01 X100.125000 Y111.250000 Z2
G00 Z0.000000

(End cutting path id: path11)


(Start cutting path id: path11)
(Change tool to Default tool)

G00 Z0.000000
G00 X104.750000 Y122.750000

G01 Z2 F100.0(Penetrate)
G02 X104.263261 Y121.120434 Z2 I-8.480493 J1.645582 F75.000000
G03 X103.400080 Y119.000000 Z2 I468.896618 J-192.113218
G02 X101.993672 Y115.750572 Z2 I-68.009724 J27.506708
G03 X100.718170 Y112.500000 Z2 I27.029718 J-12.481806
G02 X100.455435 Y111.812661 Z2 I-7.018977 J2.289118
G02 X100.162040 Y111.250000 Z2 I-4.423464 J1.948754
G03 X99.900485 Y110.694312 Z2 I2.470010 J-1.502002
G02 X99.648245 Y110.000000 Z2 I-23.311680 J8.076024
G02 X98.715387 Y107.787508 Z2 I-31.550975 J11.999998
G03 X97.843075 Y105.625000 Z2 I20.675541 J-9.597289
G02 X97.594836 Y105.040786 Z2 I-4.317398 J1.489660
G02 X97.290606 Y104.500000 Z2 I-6.727280 J3.428604
G03 X97.062741 Y103.970607 Z2 I1.672673 J-1.033701
G02 X96.881173 Y103.375000 Z2 I-8.241192 J2.186803
G02 X96.171644 Y101.660837 Z2 I-14.614947 J5.045514
G03 X95.500000 Y99.875000 Z2 I9.263663 J-4.503235
G00 Z0.000000

(End cutting path id: path11)


(Start cutting path id: path11)
(Change tool to Default tool)

G00 Z0.000000
G00 X115.500000 Y115.625003

G01 Z2 F100.0(Penetrate)
G03 X112.927149 Y112.991745 Z2 I127.522945 J-127.171097 F75.000000
G02 X110.000000 Y110.000003 Z2 I-138.552510 J132.633263
G03 X108.774807 Y108.749611 Z2 I60.810961 J-60.810871
G03 X107.678140 Y107.603976 Z2 I387.092819 J-371.645121
G03 X107.207553 Y107.100863 Z2 I24.730153 J-23.603019
G02 X106.875000 Y106.750003 Z2 I-10.679040 J9.788793
G03 X106.495509 Y107.110555 Z2 I-12.083627 J-12.338351
G03 X105.875000 Y107.655770 Z2 I-11.781862 J-12.783234
G03 X104.324464 Y108.869271 Z2 I-19.110564 J-22.820938
G03 X102.500000 Y110.052665 Z2 I-11.548363 J-15.806263
G03 X101.778763 Y110.443283 Z2 I-8.682093 J-15.169471
G02 X101.125190 Y110.782603 Z2 I28.086917 J54.897983
G02 X100.554217 Y111.139082 Z2 I2.142676 J4.067435
G02 X100.250000 Y111.375003 Z2 I4.025391 J5.504783
G00 Z0.000000

(End cutting path id: path11)


(Start cutting path id: path11)
(Change tool to Default tool)

G00 Z0.000000
G00 X115.500000 Y121.250000

G01 Z2 F100.0(Penetrate)
G03 X115.587453 Y119.692706 Z2 I13.909194 J-0.000000 F75.000000
G02 X115.603780 Y117.625000 Z2 I-9.868081 J-1.111836
G02 X115.500088 Y116.962230 Z2 I-5.690685 J0.550829
G03 X115.413190 Y116.375095 Z2 I4.334227 J-0.941475
G01 X115.575520 Y115.711613 Z2
G01 X117.250000 Y115.798133 Z2
G02 X119.749687 Y115.846321 Z2 I1.404935 J-8.021136
G03 X121.500000 Y115.875003 Z2 I0.781051 J5.757063
G00 Z0.000000

(End cutting path id: path11)


(Start cutting path id: path11)
(Change tool to Default tool)

G00 Z0.000000
G00 X125.625000 Y109.875000

G01 Z2 F100.0(Penetrate)
G03 X125.398247 Y109.352935 Z2 I2.586157 J-1.433543 F75.000000
G03 X125.271320 Y108.750000 Z2 I2.773374 J-0.898667
G03 X125.210188 Y107.556185 Z2 I11.804499 J-1.202946
G02 X124.971450 Y106.375095 Z2 I-3.052541 J0.002349
G02 X124.654094 Y105.872354 Z2 I-1.668940 J0.701986
G02 X124.252220 Y105.446953 Z2 I-7.545212 J6.725385
G03 X123.869899 Y104.938005 Z2 I1.593351 J-1.594996
G02 X123.462670 Y104.449944 Z2 I-1.454042 J0.799303
G02 X122.484879 Y103.969766 Z2 I-1.531991 J1.883976
G03 X121.375000 Y103.606289 Z2 I1.547582 J-6.601804
G02 X118.387803 Y102.356384 Z2 I-98.776310 J231.874873
G03 X115.375000 Y101.089893 Z2 I76.848098 J-187.027472
G03 X113.913987 Y100.457941 Z2 I141.916005 J-330.100949
G02 X112.625190 Y99.947144 Z2 I-8.354177 J19.197235
G03 X112.041364 Y99.684722 Z2 I1.382538 J-3.856458
G03 X111.750000 Y99.500000 Z2 I1.286312 J-2.351065
G02 X111.889369 Y99.276826 Z2 I-4.031718 J-2.672849
G02 X112.123260 Y98.749420 Z2 I-2.194105 J-1.288595
G02 X112.721975 Y96.726952 Z2 I-62.861893 J-19.708960
G02 X113.214310 Y94.250000 Z2 I-16.105932 J-4.488728
G02 X113.311674 Y93.053873 Z2 I-15.087971 J-1.830181
G03 X113.390530 Y92.128086 Z2 I10.737537 J0.448339
G03 X113.526732 Y91.688161 Z2 I1.333317 J0.171750
G03 X113.625000 Y91.500000 Z2 I10.596529 J5.414380
G00 Z0.000000

(End cutting path id: path11)


(Start cutting path id: path11)
(Change tool to Default tool)

G00 Z0.000000
G00 X123.625000 Y104.374998

G01 Z2 F100.0(Penetrate)
G03 X125.989913 Y102.944819 Z2 I14.365091 J21.083418 F75.000000
G03 X128.750000 Y102.124998 Z2 I3.392008 J6.363764
G00 Z0.000000

(End cutting path id: path11)


(Start cutting path id: path11)
(Change tool to Default tool)

G00 Z0.000000
G00 X130.500000 Y95.250000

G01 Z2 F100.0(Penetrate)
G02 X132.186884 Y94.534933 Z2 I-29.948065 J-72.996423 F75.000000
G03 X134.125000 Y93.697338 Z2 I91.606840 J209.308593
G02 X135.029754 Y93.291103 Z2 I-10.399847 J-24.372861
G03 X135.746910 Y92.995659 Z2 I3.313077 J7.023979
G03 X136.189293 Y92.894610 Z2 I0.653900 J1.843823
G03 X136.375000 Y92.875000 Z2 I3.229224 J29.692308
G00 Z0.000000

(End cutting path id: path11)


(Start cutting path id: path11)
(Change tool to Default tool)

G00 Z0.000000
G00 X124.875000 Y124.125000

G01 Z2 F100.0(Penetrate)
G01 X124.625000 Y123.875000 Z2 F75.000000
G00 Z0.000000

(End cutting path id: path11)


(Start cutting path id: path11)
(Change tool to Default tool)

G00 Z0.000000
G00 X94.625000 Y129.749997

G01 Z2 F100.0(Penetrate)
G02 X94.286297 Y129.121241 Z2 I-2.040957 J0.693833 F75.000000
G02 X93.754437 Y128.499997 Z2 I-6.800273 J5.283564
G03 X92.385922 Y126.679931 Z2 I7.494099 J-7.059373
G02 X91.625000 Y125.624997 Z2 I-6.162314 J3.642972
G00 Z0.000000

(End cutting path id: path11)


(Footer)
M5
M2
(Using default footer. To add your own footer create file "footer" in the output dir.)
(end)
%