%
(Header)
(Generated by gcodetools from Inkscape.)
(Using default header. To add your own header create file "header" in the output dir.)
M3
(Header end.)
G21 (All units in mm)

(Start cutting path id: path17)
(Change tool to Default tool)

G00 Z0.000000
G00 X22.625000 Y46.000000

G01 Z2 F100.0(Penetrate)
G01 X23.000000 Y46.000000 Z2 F75.000000
G00 Z0.000000

(End cutting path id: path17)


(Start cutting path id: path17)
(Change tool to Default tool)

G00 Z0.000000
G00 X17.500000 Y45.750000

G01 Z2 F100.0(Penetrate)
G01 X16.530864 Y41.250000 Z2 F75.000000
G01 X16.163484 Y39.875000 Z2
G01 X16.021123 Y38.375000 Z2
G01 X15.785686 Y36.375000 Z2
G01 X15.646219 Y34.750000 Z2
G01 X15.481095 Y32.375000 Z2
G01 X15.379919 Y30.000000 Z2
G01 X15.227624 Y28.659820 Z2
G01 X14.125000 Y28.034050 Z2
G01 X12.750000 Y26.625000 Z2
G00 Z0.000000

(End cutting path id: path17)


(Start cutting path id: path17)
(Change tool to Default tool)

G00 Z0.000000
G00 X15.375000 Y28.250000

G01 Z2 F100.0(Penetrate)
G03 X15.470870 Y26.180319 Z2 I22.441865 J0.002471 F75.000000
G02 X15.626736 Y23.625000 Z2 I-40.411813 J-3.747402
G03 X15.669026 Y23.118377 Z2 I4.715400 J0.138537
G03 X15.750000 Y22.625000 Z2 I9.719635 J1.341874
G02 X15.950092 Y21.572137 Z2 I-1578.414086 J-300.516350
G02 X16.114198 Y20.375000 Z2 I-11.589436 J-2.198519
G01 X16.119698 Y18.909240 Z2
G01 X15.396221 Y18.323210 Z2
G03 X14.955579 Y17.859552 Z2 I2.101764 J-2.438647
G02 X14.475021 Y17.250000 Z2 I-42.750304 J33.209228
G03 X12.735213 Y14.915060 Z2 I33.035859 J-26.431301
G03 X11.340569 Y12.375000 Z2 I11.490507 J-7.961872
G01 X11.150175 Y11.186050 Z2
G01 X12.125002 Y11.170050 Z2
G03 X14.517745 Y12.484358 Z2 I-5.228301 J12.353494
G02 X16.875002 Y14.039840 Z2 I38.303065 J-55.482515
G02 X17.857810 Y14.623673 Z2 I11.581236 J-18.376387
G03 X18.733412 Y15.223200 Z2 I-2.859153 J5.114927
G03 X19.062200 Y15.616826 Z2 I-0.893920 J1.080801
G02 X19.426796 Y16.049680 Z2 I1.319956 J-0.741830
G01 X20.750002 Y16.155780 Z2
G02 X22.058842 Y15.937840 Z2 I-22.991440 J-142.114258
G03 X23.375002 Y15.733710 Z2 I7.142240 J41.705588
G03 X24.533655 Y15.604273 Z2 I2.986436 J21.482562
G03 X25.750002 Y15.511200 Z2 I6.423833 J75.956412
G03 X28.911817 Y15.389212 Z2 I3.626170 J52.950364
G03 X32.000002 Y15.375010 Z2 I3.255003 J372.022195
G02 X32.735243 Y15.330156 Z2 I-0.002751 J-6.093452
G03 X33.375002 Y15.313710 Z2 I0.405531 J3.323742
G03 X34.112877 Y15.449582 Z2 I-0.234044 J3.342516
G02 X35.125002 Y15.625050 Z2 I1.217878 J-4.018133
G03 X35.956764 Y15.698514 Z2 I-0.522614 J10.662357
G02 X36.750002 Y15.749860 Z2 I0.806352 J-6.304285
G02 X37.231735 Y15.742241 Z2 I0.027477 J-13.495472
G03 X37.750002 Y15.788060 Z2 I0.072043 J2.139110
G03 X38.295119 Y15.917872 Z2 I-2.460990 J11.543848
G02 X38.875002 Y15.999580 Z2 I0.635919 J-2.414553
G03 X39.448615 Y16.019102 Z2 I-0.559818 J24.885933
G03 X40.000002 Y16.098180 Z2 I-0.131085 J2.875884
G03 X40.702539 Y16.295738 Z2 I-2.487326 J10.193131
G02 X41.500002 Y16.489960 Z2 I1.783527 J-5.588760
G03 X43.018928 Y16.773327 Z2 I-8.362105 J49.035806
G03 X44.500002 Y17.109270 Z2 I-6.535715 J32.246843
G03 X45.185923 Y17.284712 Z2 I-20.192342 J80.374241
G02 X45.746916 Y17.416850 Z2 I3.109355 J-11.943837
G02 X46.180427 Y17.482905 Z2 I0.799189 J-3.789427
G02 X46.375002 Y17.500050 Z2 I1.381711 J-14.567905
G00 Z0.000000

(End cutting path id: path17)


(Start cutting path id: path17)
(Change tool to Default tool)

G00 Z0.000000
G00 X43.375000 Y16.750000

G01 Z2 F100.0(Penetrate)
G01 X43.837868 Y16.121910 Z2 F75.000000
G01 X43.872008 Y15.250000 Z2
G01 X42.500000 Y13.875000 Z2
G00 Z0.000000

(End cutting path id: path17)


(Start cutting path id: path17)
(Change tool to Default tool)

G00 Z0.000000
G00 X40.125000 Y16.000000

G01 Z2 F100.0(Penetrate)
G02 X39.760410 Y14.724971 Z2 I-4.581801 J0.620508 F75.000000
G02 X38.500000 Y13.776230 Z2 I-1.492099 J0.670664
G01 X37.375000 Y14.056810 Z2
G03 X36.516184 Y13.594612 Z2 I0.268028 J-1.527013
G02 X35.875000 Y13.000000 Z2 I-4.821257 J4.555865
G00 Z0.000000

(End cutting path id: path17)


(Start cutting path id: path17)
(Change tool to Default tool)

G00 Z0.000000
G00 X37.750000 Y15.625000

G01 Z2 F100.0(Penetrate)
G02 X37.741379 Y15.097129 Z2 I-16.725373 J0.009156 F75.000000
G02 X37.625000 Y14.375000 Z2 I-2.870856 J0.092226
G00 Z0.000000

(End cutting path id: path17)


(Start cutting path id: path17)
(Change tool to Default tool)

G00 Z0.000000
G00 X33.375000 Y15.125000

G01 Z2 F100.0(Penetrate)
G02 X32.690358 Y13.959522 Z2 I-2.698988 J0.801650 F75.000000
G02 X31.250000 Y12.750000 Z2 I-6.824347 J6.664378
G00 Z0.000000

(End cutting path id: path17)


(Start cutting path id: path17)
(Change tool to Default tool)

G00 Z0.000000
G00 X27.250000 Y12.875000

G01 Z2 F100.0(Penetrate)
G01 X29.375000 Y13.875000 Z2 F75.000000
G00 Z0.000000

(End cutting path id: path17)


(Start cutting path id: path17)
(Change tool to Default tool)

G00 Z0.000000
G00 X36.000000 Y18.875000

G01 Z2 F100.0(Penetrate)
G01 X42.875000 Y22.231290 Z2 F75.000000
G01 X45.624420 Y23.797650 Z2
G01 X46.375000 Y24.125000 Z2
G00 Z0.000000

(End cutting path id: path17)


(Start cutting path id: path17)
(Change tool to Default tool)

G00 Z0.000000
G00 X35.625000 Y22.750000

G01 Z2 F100.0(Penetrate)
G02 X33.556036 Y21.459998 Z2 I-2.282371 J1.356420 F75.000000
G03 X31.250000 Y20.750000 Z2 I0.447939 J-5.554820
G00 Z0.000000

(End cutting path id: path17)


(Start cutting path id: path17)
(Change tool to Default tool)

G00 Z0.000000
G00 X30.250000 Y30.375020

G01 Z2 F100.0(Penetrate)
G01 X29.000000 Y29.000000 Z2 F75.000000
G00 Z0.000000

(End cutting path id: path17)


(Start cutting path id: path17)
(Change tool to Default tool)

G00 Z0.000000
G00 X21.750000 Y31.875000

G01 Z2 F100.0(Penetrate)
G03 X22.785516 Y34.162996 Z2 I-10.695128 J6.218798 F75.000000
G02 X23.722704 Y36.500000 Z2 I20.572741 J-6.893686
G02 X25.490898 Y39.724639 Z2 I26.804641 J-12.600914
G02 X27.578318 Y42.750000 Z2 I38.581065 J-24.387115
G02 X28.367764 Y43.752912 Z2 I22.558878 J-16.945144
G03 X29.107542 Y44.749900 Z2 I-9.375012 J7.729335
G01 X29.768326 Y45.573490 Z2
G01 X30.774403 Y45.108310 Z2
G02 X31.214188 Y44.575974 Z2 I-4.283284 J-3.986426
G03 X31.651331 Y44.000000 Z2 I16.420570 J12.008745
G03 X32.257370 Y43.249998 Z2 I29.967819 J23.595627
G02 X32.843267 Y42.500100 Z2 I-12.617135 J-10.461630
G02 X33.127286 Y42.048738 Z2 I-2.963608 J-2.179892
G03 X33.443577 Y41.607640 Z2 I1.806998 J0.961764
G03 X34.051759 Y41.027469 Z2 I5.678706 J5.344015
G02 X34.694637 Y40.375000 Z2 I-3.512296 J-4.103618
G02 X35.124096 Y39.671282 Z2 I-2.192108 J-1.820681
G03 X35.491703 Y39.114870 Z2 I1.703441 J0.725780
G03 X35.967548 Y38.729954 Z2 I1.760643 J1.689979
G02 X36.625000 Y38.312890 Z2 I-18.837848 J-30.422332
G01 X37.374905 Y38.152100 Z2
G03 X38.193387 Y38.818940 Z2 I-0.548024 J1.508371
G02 X38.896702 Y39.748070 Z2 I5.177751 J-3.188598
G02 X39.953508 Y40.530325 Z2 I2.565645 J-2.361135
G02 X41.125000 Y41.000000 Z2 I4.126716 J-8.597258
G00 Z0.000000

(End cutting path id: path17)


(Start cutting path id: path17)
(Change tool to Default tool)

G00 Z0.000000
G00 X37.500000 Y37.875020

G01 Z2 F100.0(Penetrate)
G03 X38.506622 Y36.308564 Z2 I2.900284 J0.757093 F75.000000
G02 X39.125000 Y35.750020 Z2 I-5.184672 J-6.361663
G00 Z0.000000

(End cutting path id: path17)


(Start cutting path id: path17)
(Change tool to Default tool)

G00 Z0.000000
G00 X39.500000 Y35.000020

G01 Z2 F100.0(Penetrate)
G03 X39.387791 Y34.739299 Z2 I1.447960 J-0.777679 F75.000000
G03 X39.189816 Y34.124830 Z2 I37.028087 J-12.269163
G02 X37.716155 Y31.941018 Z2 I-4.393160 J1.375426
G03 X35.500000 Y30.003110 Z2 I29.600040 J-36.086182
G02 X30.889671 Y25.878283 Z2 I-104.444189 J112.098625
G02 X26.125000 Y21.931160 Z2 I-112.890037 J131.423044
G02 X24.350513 Y20.681373 Z2 I-11.227270 J14.056199
G03 X22.625000 Y19.375020 Z2 I6.009089 J-9.729943
G00 Z0.000000

(End cutting path id: path17)


(Start cutting path id: path17)
(Change tool to Default tool)

G00 Z0.000000
G00 X16.125000 Y18.750000

G01 Z2 F100.0(Penetrate)
G02 X16.520128 Y18.220229 Z2 I-3.471916 J-3.001755 F75.000000
G03 X17.100019 Y17.388500 Z2 I10.661416 J6.815245
G03 X18.435384 Y16.560103 Z2 I1.746389 J1.324662
G02 X19.375000 Y16.125000 Z2 I-0.400197 J-2.096349
G00 Z0.000000

(End cutting path id: path17)


(Start cutting path id: path17)
(Change tool to Default tool)

G00 Z0.000000
G00 X10.875000 Y11.000000

G01 Z2 F100.0(Penetrate)
G01 X10.125000 Y9.875000 Z2 F75.000000
G00 Z0.000000

(End cutting path id: path17)


(Start cutting path id: path17)
(Change tool to Default tool)

G00 Z0.000000
G00 X12.625000 Y29.875020

G01 Z2 F100.0(Penetrate)
G02 X13.893249 Y31.573365 Z2 I5.305868 J-2.639480 F75.000000
G02 X15.375000 Y32.375020 Z2 I2.287090 J-2.457141
G00 Z0.000000

(End cutting path id: path17)


(Start cutting path id: path17)
(Change tool to Default tool)

G00 Z0.000000
G00 X12.250000 Y34.375020

G01 Z2 F100.0(Penetrate)
G03 X13.130423 Y35.214929 Z2 I-2.398582 J3.395678 F75.000000
G02 X14.000483 Y36.053460 Z2 I3.372443 J-2.628598
G02 X14.951439 Y36.370005 Z2 I0.980273 J-1.358221
G02 X15.500000 Y36.375020 Z2 I0.574181 J-32.800280
G00 Z0.000000

(End cutting path id: path17)


(Start cutting path id: path17)
(Change tool to Default tool)

G00 Z0.000000
G00 X13.250000 Y38.375000

G01 Z2 F100.0(Penetrate)
G03 X14.824579 Y39.382672 Z2 I-2.159738 J5.108832 F75.000000
G02 X16.000000 Y39.875000 Z2 I1.279287 J-1.404959
G00 Z0.000000

(End cutting path id: path17)


(Start cutting path id: path17)
(Change tool to Default tool)

G00 Z0.000000
G00 X14.625000 Y43.875000

G01 Z2 F100.0(Penetrate)
G01 X12.750000 Y42.000000 Z2 F75.000000
G00 Z0.000000

(End cutting path id: path17)


(Start cutting path id: path17)
(Change tool to Default tool)

G00 Z0.000000
G00 X20.500000 Y40.125000

G01 Z2 F100.0(Penetrate)
G01 X19.250000 Y37.500000 Z2 F75.000000
G00 Z0.000000

(End cutting path id: path17)


(Start cutting path id: path17)
(Change tool to Default tool)

G00 Z0.000000
G00 X33.250000 Y41.625000

G01 Z2 F100.0(Penetrate)
G03 X32.202102 Y40.158345 Z2 I5.603915 J-5.111576 F75.000000
G02 X30.970196 Y38.250000 Z2 I-13.853597 J7.591203
G02 X28.248783 Y34.785636 Z2 I-85.120839 J64.065138
G03 X25.625097 Y31.250000 Z2 I35.385570 J-28.999837
G03 X24.511618 Y29.351880 Z2 I15.309868 J-10.256759
G03 X23.750000 Y27.500000 Z2 I11.082551 J-5.640449
G00 Z0.000000

(End cutting path id: path17)


(Start cutting path id: path17)
(Change tool to Default tool)

G00 Z0.000000
G00 X35.375000 Y39.000000

G01 Z2 F100.0(Penetrate)
G01 X34.778454 Y38.249420 Z2 F75.000000
G01 X33.350983 Y36.000000 Z2
G01 X30.761669 Y31.875000 Z2
G01 X30.400173 Y30.455340 Z2
G01 X31.250000 Y30.445040 Z2
G01 X32.750000 Y31.340010 Z2
G01 X36.625000 Y34.000020 Z2
G01 X38.125000 Y34.955270 Z2
G01 X39.125000 Y35.625020 Z2
G03 X39.840930 Y35.002906 Z2 I5.447516 J5.546016
G03 X40.625000 Y34.411480 Z2 I36.866204 J48.059051
G02 X42.959844 Y32.524683 Z2 I-21.536960 J-29.039254
G03 X45.375000 Y30.499540 Z2 I44.467199 J50.578235
G01 X46.259838 Y29.501470 Z2
G01 X45.980904 Y28.951220 Z2
G02 X45.462320 Y28.572637 Z2 I-2.087219 J2.314611
G03 X44.750000 Y27.998190 Z2 I1.528357 J-2.624041
G02 X42.724485 Y26.380409 Z2 I-6.156689 J5.631479
G02 X40.250000 Y25.125020 Z2 I-14.175302 J24.874393
G00 Z0.000000

(End cutting path id: path17)


(Footer)
M5
M2
(Using default footer. To add your own footer create file "footer" in the output dir.)
(end)
%