%
(Header)
(Generated by gcodetools from Inkscape.)
(Using default header. To add your own header create file "header" in the output dir.)
M3
(Header end.)
G21 (All units in mm)

(Start cutting path id: path10)
(Change tool to Default tool)

G00 Z0.000000
G00 X89.875000 Y135.875000

G01 Z2 F100.0(Penetrate)
G01 X87.910492 Y131.375000 Z2 F75.000000
G01 X87.527393 Y129.876831 Z2
G01 X88.488907 Y128.834396 Z2
G01 X90.682388 Y126.391106 Z2
G01 X91.335262 Y125.608894 Z2
G01 X91.375000 Y123.750000 Z2
G01 X91.375000 Y120.250000 Z2
G01 X91.375000 Y114.500000 Z2
G01 X91.375000 Y113.125000 Z2
G01 X91.375000 Y111.375000 Z2
G01 X91.375000 Y107.250000 Z2
G01 X91.375000 Y105.750000 Z2
G01 X91.375000 Y104.250000 Z2
G01 X91.375000 Y100.125000 Z2
G00 Z0.000000

(End cutting path id: path10)


(Start cutting path id: path10)
(Change tool to Default tool)

G00 Z0.000000
G00 X86.375000 Y104.750000

G01 Z2 F100.0(Penetrate)
G02 X86.583661 Y104.859896 Z2 I2.614751 J-4.711615 F75.000000
G02 X87.003086 Y105.025078 Z2 I1.149064 J-2.302584
G02 X88.943108 Y105.500048 Z2 I5.979871 J-20.225373
G02 X90.746914 Y105.738811 Z2 I2.852234 J-14.614958
G02 X91.192795 Y105.751137 Z2 I0.366723 J-5.195174
G03 X91.375000 Y105.750001 Z2 I0.154423 J10.158883
G00 Z0.000000

(End cutting path id: path10)


(Start cutting path id: path10)
(Change tool to Default tool)

G00 Z0.000000
G00 X86.000000 Y104.750001

G01 Z2 F100.0(Penetrate)
G02 X85.793086 Y104.604998 Z2 I-9.872377 J13.867367 F75.000000
G02 X85.371914 Y104.346547 Z2 I-2.626375 J3.807550
G03 X83.832222 Y103.483390 Z2 I30.068555 J-55.440893
G03 X82.125000 Y102.298131 Z2 I6.364152 J-10.988937
G03 X81.709206 Y101.937159 Z2 I6.693000 J-8.129449
G03 X81.250095 Y101.499520 Z2 I10.509470 J-11.484730
G03 X80.802404 Y101.041395 Z2 I14.964547 J-15.071534
G03 X80.429882 Y100.625001 Z2 I7.002166 J-6.639238
G03 X79.647354 Y99.636923 Z2 I15.504392 J-13.082918
G03 X78.883583 Y98.500001 Z2 I11.649006 J-8.650676
G03 X78.392965 Y97.549788 Z2 I6.761641 J-4.092965
G02 X78.040606 Y96.875001 Z2 I-4.833831 J2.094731
G03 X77.817787 Y96.372057 Z2 I1.719396 J-1.062572
G03 X77.687595 Y95.875001 Z2 I10.131872 J-2.919387
G02 X77.160101 Y93.771904 Z2 I-75.654571 J17.857809
G03 X76.886189 Y92.128087 Z2 I8.527148 J-2.265623
G03 X76.873861 Y91.682205 Z2 I5.188060 J-0.366551
G02 X76.875000 Y91.500000 Z2 I-10.117372 J-0.154339
G00 Z0.000000

(End cutting path id: path10)


(Start cutting path id: path10)
(Change tool to Default tool)

G00 Z0.000000
G00 X78.125000 Y97.000000

G01 Z2 F100.0(Penetrate)
G03 X78.423830 Y96.791211 Z2 I2.561010 J3.347209 F75.000000
G03 X79.000191 Y96.495468 Z2 I1.882328 J2.958896
G02 X80.797829 Y95.738111 Z2 I-21.195185 J-52.820324
G03 X82.875000 Y95.000000 Z2 I5.986681 J13.555724
G00 Z0.000000

(End cutting path id: path10)


(Start cutting path id: path10)
(Change tool to Default tool)

G00 Z0.000000
G00 X71.500000 Y99.625000

G01 Z2 F100.0(Penetrate)
G03 X71.759893 Y99.445031 Z2 I2.841839 J3.826248 F75.000000
G03 X72.250580 Y99.191742 Z2 I1.560897 J2.421929
G01 X73.375000 Y98.750000 Z2
G02 X75.403310 Y97.912943 Z2 I-37.264397 J-93.172939
G03 X77.124807 Y97.283951 Z2 I6.900585 J16.216026
G02 X77.677926 Y97.061772 Z2 I-1.047956 J-3.408500
G02 X78.000000 Y96.875000 Z2 I-1.396658 J-2.779508
G00 Z0.000000

(End cutting path id: path10)


(Start cutting path id: path10)
(Change tool to Default tool)

G00 Z0.000000
G00 X83.500000 Y111.375000

G01 Z2 F100.0(Penetrate)
G02 X83.757110 Y111.547950 Z2 I2.468848 J-3.392643 F75.000000
G02 X84.250580 Y111.772762 Z2 I1.121954 J-1.808727
G02 X86.186538 Y112.343854 Z2 I23.114995 J-74.791133
G02 X88.625000 Y112.839314 Z2 I4.583322 J-16.309021
G02 X89.818221 Y112.962900 Z2 I3.198561 J-25.060035
G02 X90.746914 Y113.000000 Z2 I0.933326 J-11.720972
G02 X91.192664 Y113.000026 Z2 I0.257043 J-658.607282
G03 X91.375000 Y113.000000 Z2 I0.191064 J649.015163
G00 Z0.000000

(End cutting path id: path10)


(Start cutting path id: path10)
(Change tool to Default tool)

G00 Z0.000000
G00 X83.375000 Y111.500000

G01 Z2 F100.0(Penetrate)
G01 X82.499809 Y110.994020 Z2 F75.000000
G01 X80.875000 Y110.196568 Z2
G01 X77.125000 Y107.519386 Z2
G01 X76.126833 Y106.623167 Z2
G01 X74.682871 Y105.000000 Z2
G01 X72.064331 Y101.000000 Z2
G01 X71.396606 Y99.500000 Z2
G01 X71.062693 Y98.625000 Z2
G01 X70.610533 Y97.125000 Z2
G01 X69.853878 Y93.250000 Z2
G01 X69.750483 Y92.128086 Z2
G01 X69.750000 Y91.500000 Z2
G00 Z0.000000

(End cutting path id: path10)


(Start cutting path id: path10)
(Change tool to Default tool)

G00 Z0.000000
G00 X60.000000 Y104.500000

G01 Z2 F100.0(Penetrate)
G02 X59.185818 Y104.271054 Z2 I-0.928546 J1.739937 F75.000000
G03 X57.625000 Y103.886959 Z2 I0.255720 J-4.402479
G03 X55.691573 Y102.803170 Z2 I5.292051 J-11.707227
G02 X54.125000 Y102.250000 Z2 I-1.832133 J2.693740
G00 Z0.000000

(End cutting path id: path10)


(Start cutting path id: path10)
(Change tool to Default tool)

G00 Z0.000000
G00 X52.750000 Y95.375000

G01 Z2 F100.0(Penetrate)
G02 X48.998241 Y93.452534 Z2 I-8.468582 J11.904652 F75.000000
G02 X46.625000 Y92.875000 Z2 I-4.385135 J12.854791
G00 Z0.000000

(End cutting path id: path10)


(Start cutting path id: path10)
(Change tool to Default tool)

G00 Z0.000000
G00 X46.500000 Y92.875000

G01 Z2 F100.0(Penetrate)
G01 X46.625000 Y92.875000 Z2 F75.000000
G00 Z0.000000

(End cutting path id: path10)


(Start cutting path id: path10)
(Change tool to Default tool)

G00 Z0.000000
G00 X46.500000 Y109.625000

G01 Z2 F100.0(Penetrate)
G01 X46.875000 Y109.625000 Z2 F75.000000
G00 Z0.000000

(End cutting path id: path10)


(Start cutting path id: path10)
(Change tool to Default tool)

G00 Z0.000000
G00 X57.375000 Y109.875000

G01 Z2 F100.0(Penetrate)
G02 X58.364668 Y108.096921 Z2 I-5.587094 J-4.274206 F75.000000
G03 X59.578414 Y105.625000 Z2 I13.760329 J5.222558
G02 X59.863438 Y105.022590 Z2 I-2.630584 J-1.613265
G03 X60.195409 Y104.463734 Z2 I1.528527 J0.529948
G03 X60.725947 Y103.978705 Z2 I2.896919 J2.636056
G03 X61.375000 Y103.566551 Z2 I2.802901 J3.696823
G03 X64.530124 Y102.199927 Z2 I10.788008 J20.580845
G02 X67.875000 Y100.950039 Z2 I-25.599924 J-73.609596
G02 X69.171773 Y100.420310 Z2 I-35.673134 J-89.179751
G03 X70.375000 Y99.967690 Z2 I7.009150 J16.807218
G02 X71.027219 Y99.699982 Z2 I-1.730614 J-5.144665
G02 X71.375000 Y99.500000 Z2 I-1.307996 J-2.677084
G00 Z0.000000

(End cutting path id: path10)


(Start cutting path id: path10)
(Change tool to Default tool)

G00 Z0.000000
G00 X66.875000 Y115.750000

G01 Z2 F100.0(Penetrate)
G03 X69.517477 Y112.990198 Z2 I72.651014 J66.917487 F75.000000
G03 X72.750000 Y109.750000 Z2 I1367.993584 J1361.520864
G02 X73.876645 Y108.621176 Z2 I-583.645114 J-583.645115
G03 X75.000000 Y107.571953 Z2 I15.111458 J15.053173
G02 X75.517804 Y107.098053 Z2 I-8.886218 J-10.229311
G02 X76.000000 Y106.625000 Z2 I-26.737018 J-27.736065
G02 X76.641737 Y105.983559 Z2 I-558.438125 J-559.335277
G03 X77.500000 Y105.125000 Z2 I2496.852944 J2495.112210
G03 X78.912203 Y103.767903 Z2 I34.808335 J34.808426
G02 X80.250000 Y102.498169 Z2 I-45.687926 J-49.476620
G02 X80.728136 Y102.023995 Z2 I-28.543847 J-29.260528
G03 X81.250000 Y101.500000 Z2 I128.816907 J127.771048
G01 X82.250000 Y100.500000 Z2
G03 X83.601053 Y99.209452 Z2 I28.847647 J28.847647
G02 X85.000000 Y97.875000 Z2 I-29.336386 J-32.154736
G00 Z0.000000

(End cutting path id: path10)


(Start cutting path id: path10)
(Change tool to Default tool)

G00 Z0.000000
G00 X78.875000 Y122.625000

G01 Z2 F100.0(Penetrate)
G03 X80.157613 Y119.206421 Z2 I23.454105 J6.849818 F75.000000
G02 X81.998650 Y115.000000 Z2 I-98.424968 J-45.584059
G03 X82.543247 Y113.727056 Z2 I49.718992 J20.518039
G02 X83.012539 Y112.500000 Z2 I-11.589251 J-5.135623
G02 X83.177484 Y111.980935 Z2 I-44.908185 J-14.556338
G03 X83.397957 Y111.500000 Z2 I1.979706 J0.616546
G02 X83.714118 Y110.894221 Z2 I-3.780821 J-2.358632
G02 X84.076485 Y110.000000 Z2 I-23.024470 J-9.850793
G03 X84.964300 Y107.911527 Z2 I29.265422 J11.207859
G02 X85.762444 Y105.875000 Z2 I-15.327901 J-7.181890
G02 X85.940566 Y105.235261 Z2 I-8.481512 J-2.706164
G03 X86.172550 Y104.750000 Z2 I1.244944 J0.297078
G02 X86.461759 Y104.290617 Z2 I-2.246536 J-1.735055
G02 X86.689430 Y103.750000 Z2 I-3.883762 J-1.953827
G03 X87.375230 Y101.892918 Z2 I41.282944 J14.190163
G03 X88.250000 Y100.000000 Z2 I17.182133 J6.791756
G00 Z0.000000

(End cutting path id: path10)


(Start cutting path id: path10)
(Change tool to Default tool)

G00 Z0.000000
G00 X61.000000 Y115.500000

G01 Z2 F100.0(Penetrate)
G02 X59.297954 Y114.654042 Z2 I-5.316819 J8.562091 F75.000000
G03 X57.409819 Y112.998167 Z2 I1.302257 J-3.389340
G03 X57.185006 Y111.931485 Z2 I1.674875 J-0.910026
G02 X57.254340 Y110.875000 Z2 I-31.508592 J-2.598324
G01 X57.080343 Y109.878473 Z2
G01 X56.250000 Y109.750095 Z2
G02 X55.456009 Y109.780004 Z2 I-0.061672 J8.916833
G02 X54.625000 Y109.853781 Z2 I5.412169 J65.678364
G03 X52.175961 Y109.923461 Z2 I-1.748184 J-18.370346
G02 X49.625000 Y109.875001 Z2 I-2.550961 J67.117725
G02 X47.916450 Y109.881377 Z2 I-0.000000 J228.903204
G03 X46.875000 Y109.625001 Z2 I-0.016253 J-2.177449
G03 X47.599852 Y108.561581 Z2 I4.668129 J2.403158
G03 X48.625000 Y107.535687 Z2 I8.531392 J7.500040
G02 X50.381024 Y105.908962 Z2 I-31.245775 J-35.490489
G03 X52.125000 Y104.271218 Z2 I45.099415 J46.277354
G03 X53.158840 Y103.408553 Z2 I11.269095 J12.454348
G02 X53.853491 Y102.500001 Z2 I-1.341659 J-1.745623
G01 X53.381558 Y101.375001 Z2
G03 X52.468750 Y100.192520 Z2 I10.619776 J-9.141421
G03 X51.854745 Y98.750001 Z2 I3.221183 J-2.223023
G03 X51.949926 Y97.503453 Z2 I2.240030 J-0.455869
G03 X52.402006 Y96.375001 Z2 I20.475151 J7.547971
G02 X52.593467 Y95.862277 Z2 I-4.876563 J-2.113111
G03 X52.823013 Y95.375001 Z2 I1.916986 J0.605348
G03 X53.199273 Y94.882669 Z2 I3.340363 J2.162897
G02 X53.596451 Y94.375001 Z2 I-3.607288 J-3.231392
G03 X54.387885 Y93.326784 Z2 I10.992129 J7.476491
G03 X55.248264 Y92.375096 Z2 I12.650683 J10.572159
G03 X55.816224 Y91.804689 Z2 I31.033411 J30.332309
G03 X56.379919 Y91.518521 Z2 I0.730827 J0.741316
G03 X56.912321 Y91.487175 Z2 I0.418650 J2.573633
G02 X57.500000 Y91.500000 Z2 I0.587679 J-13.458230
G01 X65.750000 Y91.500000 Z2
G01 X67.125000 Y91.500000 Z2
G01 X72.375000 Y91.500000 Z2
G01 X82.625000 Y91.500000 Z2
G00 Z0.000000

(End cutting path id: path10)


(Start cutting path id: path10)
(Change tool to Default tool)

G00 Z0.000000
G00 X57.875000 Y125.125000

G01 Z2 F100.0(Penetrate)
G01 X58.001833 Y124.125000 Z2 F75.000000
G01 X58.726370 Y122.000000 Z2
G01 X60.493731 Y117.500000 Z2
G01 X60.873746 Y116.250095 Z2
G01 X61.189237 Y115.503473 Z2
G01 X62.375000 Y115.410683 Z2
G01 X65.375000 Y115.624997 Z2
G01 X66.835842 Y115.914735 Z2
G01 X66.771219 Y117.500000 Z2
G01 X66.822433 Y120.250000 Z2
G01 X67.000000 Y121.500000 Z2
G00 Z0.000000

(End cutting path id: path10)


(Start cutting path id: path10)
(Change tool to Default tool)

G00 Z0.000000
G00 X57.500000 Y125.500000

G01 Z2 F100.0(Penetrate)
G03 X58.377471 Y125.073427 Z2 I1.497057 J1.963706 F75.000000
G02 X59.250000 Y124.806519 Z2 I-2.648613 J-10.217998
G02 X61.431041 Y123.864173 Z2 I-5.854222 J-16.544645
G03 X63.625000 Y122.821953 Z2 I17.326507 J33.643375
G02 X64.758767 Y122.293137 Z2 I-9.989591 J-22.897198
G03 X65.875000 Y121.846741 Z2 I3.306310 J6.648784
G03 X66.505221 Y121.668046 Z2 I4.182121 J13.548829
G02 X67.000000 Y121.500000 Z2 I-0.882541 J-3.410881
G03 X67.653832 Y123.069027 Z2 I-6.659682 J3.695912
G02 X69.125000 Y124.991322 Z2 I3.212002 J-0.934101
G02 X71.222979 Y125.262240 Z2 I1.353204 J-2.220365
G03 X72.875000 Y125.375000 Z2 I0.675607 J2.259915
G00 Z0.000000

(End cutting path id: path10)


(Start cutting path id: path10)
(Change tool to Default tool)

G00 Z0.000000
G00 X73.125000 Y135.000000

G01 Z2 F100.0(Penetrate)
G03 X72.844394 Y131.710906 Z2 I16.509115 J-3.064977 F75.000000
G02 X72.875000 Y127.125000 Z2 I-343.553240 J-4.585906
G02 X72.833807 Y126.089864 Z2 I-13.026652 J0.000000
G03 X73.003473 Y125.412807 Z2 I1.089246 J-0.086829
G01 X74.000000 Y124.840469 Z2
G02 X75.565877 Y124.010039 Z2 I-17.706598 J-35.279480
G02 X77.125000 Y123.119118 Z2 I-48.308963 J-86.351020
G01 X78.549576 Y122.830343 Z2
G01 X78.787518 Y124.250000 Z2
G02 X79.657488 Y126.488296 Z2 I5.268479 J-0.759510
G03 X80.375000 Y128.125000 Z2 I-4.012254 J2.734554
G00 Z0.000000

(End cutting path id: path10)


(Start cutting path id: path10)
(Change tool to Default tool)

G00 Z0.000000
G00 X73.125000 Y135.500000

G01 Z2 F100.0(Penetrate)
G03 X73.819868 Y134.799316 Z2 I1.526590 J0.819025 F75.000000
G02 X74.870081 Y133.999519 Z2 I-2.119141 J-3.872061
G02 X76.870203 Y131.805425 Z2 I-34.768999 J-33.703887
G03 X78.875481 Y129.625000 Z2 I32.089341 J27.499392
G02 X79.580738 Y128.791110 Z2 I-5.078669 J-5.010431
G03 X80.379921 Y128.308929 Z2 I0.965839 J0.697427
G01 X81.375000 Y128.766590 Z2
G03 X82.560263 Y130.018106 Z2 I-5.934842 J6.807680
G02 X83.750000 Y130.801601 Z2 I1.754459 J-1.369090
G02 X84.605201 Y130.836923 Z2 I0.508364 J-1.937758
G02 X85.375000 Y130.685379 Z2 I-3.334511 J-18.969316
G02 X86.503358 Y130.347975 Z2 I-1.656661 J-7.595709
G03 X87.375000 Y130.125000 Z2 I1.393124 J3.630753
G00 Z0.000000

(End cutting path id: path10)


(Footer)
M5
M2
(Using default footer. To add your own footer create file "footer" in the output dir.)
(end)
%