%
(Header)
(Generated by gcodetools from Inkscape.)
(Using default header. To add your own header create file "header" in the output dir.)
M3
(Header end.)
G21 (All units in mm)

(Start cutting path id: path8)
(Change tool to Default tool)

G00 Z0.000000
G00 X172.500000 Y172.000000

G01 Z2 F100.0(Penetrate)
G02 X171.476020 Y171.406825 Z2 I-1.753268 J1.846190 F75.000000
G03 X170.500000 Y171.044464 Z2 I2.296197 J-7.680456
G03 X169.046074 Y170.307266 Z2 I6.821543 J-15.256012
G02 X167.625000 Y169.527393 Z2 I-24.867339 J43.628253
G02 X164.832568 Y168.054486 Z2 I-1847.972935 J3500.122086
G03 X163.375000 Y166.875000 Z2 I2.251512 J-4.272690
G01 X164.000000 Y165.875000 Z2
G01 X163.875000 Y165.750000 Z2
G01 X163.750000 Y165.625000 Z2
G01 X163.625000 Y165.625000 Z2
G00 Z0.000000

(End cutting path id: path8)


(Start cutting path id: path8)
(Change tool to Default tool)

G00 Z0.000000
G00 X164.250000 Y166.125000

G01 Z2 F100.0(Penetrate)
G03 X165.302854 Y165.965310 Z2 I2.896567 J15.546800 F75.000000
G02 X166.157220 Y165.471933 Z2 I-0.145335 J-1.238100
G02 X166.684823 Y163.927071 Z2 I-2.138075 J-1.592723
G03 X167.000000 Y163.000000 Z2 I1.605853 J0.028832
G00 Z0.000000

(End cutting path id: path8)


(Start cutting path id: path8)
(Change tool to Default tool)

G00 Z0.000000
G00 X160.625000 Y158.000000

G01 Z2 F100.0(Penetrate)
G03 X156.936381 Y151.921436 Z2 I41.166967 J-29.139559 F75.000000
G02 X152.500000 Y146.250000 Z2 I-17.048066 J8.764691
G00 Z0.000000

(End cutting path id: path8)


(Start cutting path id: path8)
(Change tool to Default tool)

G00 Z0.000000
G00 X153.500000 Y154.125000

G01 Z2 F100.0(Penetrate)
G02 X153.060287 Y153.702237 Z2 I-10.592760 J10.577409 F75.000000
G03 X152.606190 Y153.125000 Z2 I1.574430 J-1.705794
G03 X152.380001 Y152.434646 Z2 I1.671309 J-0.929822
G02 X152.150170 Y151.625000 Z2 I-2.774524 J0.350150
G02 X151.423327 Y150.231270 Z2 I-13.481190 J6.144166
G03 X150.626450 Y148.875000 Z2 I264.017580 J-156.035991
G03 X148.836347 Y145.497442 Z2 I39.978887 J-23.351941
G02 X147.250000 Y143.125000 Z2 I-9.013542 J4.310373
G00 Z0.000000

(End cutting path id: path8)


(Start cutting path id: path8)
(Change tool to Default tool)

G00 Z0.000000
G00 X144.625000 Y145.125000

G01 Z2 F100.0(Penetrate)
G03 X144.131148 Y144.574391 Z2 I20.056570 J-18.485895 F75.000000
G02 X143.620080 Y144.053047 Z2 I-4.753091 J4.148238
G03 X141.611315 Y142.126127 Z2 I34.468155 J-37.942683
G03 X139.875000 Y139.875000 Z2 I8.309159 J-8.204111
G00 Z0.000000

(End cutting path id: path8)


(Start cutting path id: path8)
(Change tool to Default tool)

G00 Z0.000000
G00 X142.875000 Y147.500000

G01 Z2 F100.0(Penetrate)
G02 X145.097115 Y149.078273 Z2 I7.935869 J-8.819794 F75.000000
G03 X148.500000 Y151.085167 Z2 I-31.299185 J56.959234
G03 X149.689957 Y151.854836 Z2 I-34.796564 J55.102369
G02 X150.875000 Y152.569735 Z2 I9.061944 J-13.681787
G02 X151.840905 Y152.923756 Z2 I1.659535 J-3.033161
G02 X152.375000 Y153.000000 Z2 I0.899625 J-4.393112
G00 Z0.000000

(End cutting path id: path8)


(Start cutting path id: path8)
(Change tool to Default tool)

G00 Z0.000000
G00 X148.000000 Y159.375000

G01 Z2 F100.0(Penetrate)
G02 X148.637976 Y159.386668 Z2 I0.347120 J-1.532281 F75.000000
G02 X149.250000 Y159.125000 Z2 I-0.285103 J-1.513411
G00 Z0.000000

(End cutting path id: path8)


(Start cutting path id: path8)
(Change tool to Default tool)

G00 Z0.000000
G00 X143.000000 Y157.250000

G01 Z2 F100.0(Penetrate)
G02 X144.099976 Y158.400132 Z2 I3.027220 J-1.794135 F75.000000
G02 X145.625000 Y158.625000 Z2 I1.005620 J-1.536294
G00 Z0.000000

(End cutting path id: path8)


(Start cutting path id: path8)
(Change tool to Default tool)

G00 Z0.000000
G00 X147.625000 Y167.250000

G01 Z2 F100.0(Penetrate)
G02 X149.490096 Y167.509890 Z2 I1.798516 J-6.084662 F75.000000
G03 X151.375000 Y167.500000 Z2 I1.884904 J179.615956
G00 Z0.000000

(End cutting path id: path8)


(Start cutting path id: path8)
(Change tool to Default tool)

G00 Z0.000000
G00 X148.875000 Y169.750000

G01 Z2 F100.0(Penetrate)
G03 X148.199793 Y169.198623 Z2 I7.854900 J-10.308091 F75.000000
G03 X147.664740 Y168.500000 Z2 I1.466416 J-1.677283
G01 X147.210260 Y167.377991 Z2
G02 X146.155798 Y167.062091 Z2 I-1.024997 J1.503570
G03 X144.875000 Y166.983700 Z2 I-0.134495 J-8.304993
G03 X142.483635 Y166.604290 Z2 I8.841762 J-63.454228
G03 X140.125000 Y166.108797 Z2 I6.856420 J-38.499294
G01 X138.200420 Y166.259163 Z2
G02 X138.114623 Y166.838915 Z2 I1.117031 J0.461534
G02 X138.234820 Y167.375000 Z2 I2.235507 J-0.219714
G02 X138.991214 Y168.491554 Z2 I2.545353 J-0.909832
G02 X139.999960 Y169.250000 Z2 I5.322105 J-6.028443
G00 Z0.000000

(End cutting path id: path8)


(Start cutting path id: path8)
(Change tool to Default tool)

G00 Z0.000000
G00 X143.375000 Y168.625000

G01 Z2 F100.0(Penetrate)
G01 X144.875000 Y170.000000 Z2 F75.000000
G00 Z0.000000

(End cutting path id: path8)


(Start cutting path id: path8)
(Change tool to Default tool)

G00 Z0.000000
G00 X136.625000 Y165.250000

G01 Z2 F100.0(Penetrate)
G03 X137.161560 Y165.347407 Z2 I-0.256740 J2.940745 F75.000000
G02 X138.250000 Y165.625000 Z2 I6.747822 J-24.185469
G00 Z0.000000

(End cutting path id: path8)


(Start cutting path id: path8)
(Change tool to Default tool)

G00 Z0.000000
G00 X136.500000 Y165.250000

G01 Z2 F100.0(Penetrate)
G01 X136.625000 Y165.250000 Z2 F75.000000
G00 Z0.000000

(End cutting path id: path8)


(Start cutting path id: path8)
(Change tool to Default tool)

G00 Z0.000000
G00 X136.625000 Y159.250000

G01 Z2 F100.0(Penetrate)
G03 X137.943487 Y159.773462 Z2 I-8.238774 J22.673911 F75.000000
G02 X140.750000 Y160.833719 Z2 I12.887497 J-29.868791
G03 X144.879994 Y162.346225 Z2 I-18.948047 J58.133713
G02 X149.000000 Y163.820507 Z2 I19.037400 J-46.707630
G02 X151.433656 Y164.383414 Z2 I5.068529 J-16.370885
G02 X153.875000 Y164.625000 Z2 I3.386066 J-21.761552
G00 Z0.000000

(End cutting path id: path8)


(Start cutting path id: path8)
(Change tool to Default tool)

G00 Z0.000000
G00 X155.124960 Y167.875000

G01 Z2 F100.0(Penetrate)
G01 X156.124960 Y167.497492 Z2 F75.000000
G01 X157.624960 Y167.374615 Z2
G01 X161.749960 Y166.858700 Z2
G01 X163.249960 Y166.875000 Z2
G00 Z0.000000

(End cutting path id: path8)


(Start cutting path id: path8)
(Change tool to Default tool)

G00 Z0.000000
G00 X156.625000 Y169.625000

G01 Z2 F100.0(Penetrate)
G03 X156.033003 Y169.129732 Z2 I5.172477 J-6.784143 F75.000000
G03 X155.579190 Y168.625000 Z2 I2.378776 J-2.595176
G03 X155.337537 Y168.255992 Z2 I3.169917 J-2.339522
G02 X154.861880 Y167.789255 Z2 I-1.077524 J0.622375
G02 X154.009888 Y167.535256 Z2 I-1.007196 J1.822527
G02 X153.125000 Y167.500095 Z2 I-0.946132 J12.658617
G01 X151.700420 Y167.628473 Z2
G01 X151.502890 Y168.250578 Z2
G02 X151.521885 Y168.714268 Z2 I3.258365 J0.098755
G02 X151.626160 Y169.125000 Z2 I1.547960 J-0.174387
G02 X152.338900 Y170.103324 Z2 I2.317894 J-0.939869
G02 X153.500000 Y170.875000 Z2 I4.067360 J-4.860582
G00 Z0.000000

(End cutting path id: path8)


(Start cutting path id: path8)
(Change tool to Default tool)

G00 Z0.000000
G00 X171.750000 Y171.250000

G01 Z2 F100.0(Penetrate)
G02 X171.685275 Y170.787780 Z2 I-21.513643 J2.776953 F75.000000
G02 X171.520550 Y170.125000 Z2 I-3.608171 J0.544899
G02 X171.111003 Y169.270643 Z2 I-4.080858 J1.430873
G03 X170.586800 Y168.375000 Z2 I16.172764 J-10.066836
G02 X169.338623 Y166.171567 Z2 I-84.513836 J46.419250
G03 X168.095680 Y164.000095 Z2 I124.802388 J-72.877907
G02 X167.504366 Y163.304275 Z2 I-2.074380 J1.163666
G03 X167.075420 Y162.733892 Z2 I0.889793 J-1.115634
G03 X166.990507 Y162.299676 Z2 I1.034497 J-0.427711
G03 X167.011220 Y161.750000 Z2 I8.635689 J0.050183
G03 X167.320565 Y158.867069 Z2 I38.712002 J2.695816
G02 X167.714340 Y155.875000 Z2 I-111.388594 J-16.181401
G02 X167.737905 Y155.170222 Z2 I-4.176021 J-0.492414
G03 X167.768540 Y154.627508 Z2 I2.543768 J-0.128633
G01 X168.143540 Y154.116512 Z2
G01 X169.000020 Y154.368923 Z2
G03 X169.462860 Y154.652552 Z2 I-3.425841 J6.109925
G02 X170.000020 Y155.000000 Z2 I12.335835 J-18.482416
G00 Z0.000000

(End cutting path id: path8)


(Start cutting path id: path8)
(Change tool to Default tool)

G00 Z0.000000
G00 X168.125000 Y154.000000

G01 Z2 F100.0(Penetrate)
G03 X167.884608 Y153.062308 Z2 I1.801870 J-0.961597 F75.000000
G03 X167.875000 Y151.375000 Z2 I140.355505 J-1.642927
G03 X167.904997 Y150.635302 Z2 I9.206048 J0.002880
G03 X168.000000 Y150.125000 Z2 I2.508400 J0.202994
G03 X169.292935 Y150.889448 Z2 I-1.546895 J4.091928
G03 X170.750000 Y152.250000 Z2 I-14.491634 J16.980110
G00 Z0.000000

(End cutting path id: path8)


(Start cutting path id: path8)
(Change tool to Default tool)

G00 Z0.000000
G00 X170.625000 Y149.000000

G01 Z2 F100.0(Penetrate)
G01 X168.978780 Y147.403069 Z2 F75.000000
G01 X167.875000 Y146.875000 Z2
G00 Z0.000000

(End cutting path id: path8)


(Start cutting path id: path8)
(Change tool to Default tool)

G00 Z0.000000
G00 X168.000000 Y150.125000

G01 Z2 F100.0(Penetrate)
G03 X167.785749 Y149.357002 Z2 I1.625008 J-0.867219 F75.000000
G03 X167.750000 Y148.000000 Z2 I24.598253 J-1.326986
G03 X167.766775 Y147.462689 Z2 I8.967520 J0.011050
G02 X167.726800 Y146.750000 Z2 I-3.046029 J-0.186613
G02 X167.519304 Y145.625242 Z2 I-62.389108 J10.928044
G03 X167.285730 Y144.125000 Z2 I20.143682 J-3.904495
G03 X167.267159 Y143.389446 Z2 I3.969973 J-0.468246
G02 X167.236530 Y142.750000 Z2 I-2.788581 J-0.186888
G02 X167.094038 Y142.198571 Z2 I-3.119655 J0.512008
G03 X166.971100 Y141.750000 Z2 I2.900602 J-1.036090
G03 X166.675942 Y139.655477 Z2 I20.000697 J-3.886535
G03 X166.625030 Y138.500000 Z2 I13.086629 J-1.155477
G01 X167.750000 Y138.854168 Z2
G01 X169.875000 Y140.125000 Z2
G00 Z0.000000

(End cutting path id: path8)


(Start cutting path id: path8)
(Change tool to Default tool)

G00 Z0.000000
G00 X167.500000 Y142.750000

G01 Z2 F100.0(Penetrate)
G03 X168.439632 Y143.162852 Z2 I-3.851391 J10.041294 F75.000000
G02 X170.000000 Y143.875000 Z2 I11.387232 J-22.884738
G00 Z0.000000

(End cutting path id: path8)


(Start cutting path id: path8)
(Change tool to Default tool)

G00 Z0.000000
G00 X164.000000 Y144.125000

G01 Z2 F100.0(Penetrate)
G01 X164.875000 Y146.500000 Z2 F75.000000
G00 Z0.000000

(End cutting path id: path8)


(Start cutting path id: path8)
(Change tool to Default tool)

G00 Z0.000000
G00 X160.875000 Y151.500000

G01 Z2 F100.0(Penetrate)
G02 X160.157067 Y149.097969 Z2 I-4.713476 J0.100486 F75.000000
G02 X158.735630 Y147.000000 Z2 I-29.891446 J18.721828
G02 X156.601362 Y144.123053 Z2 I-211.203229 J154.451352
G03 X154.453700 Y141.250000 Z2 I447.881637 J-337.039300
G03 X153.022880 Y139.077960 Z2 I18.584824 J-13.799947
G02 X151.875000 Y137.500000 Z2 I-8.235154 J4.784137
G02 X149.969273 Y139.385053 Z2 I14.600637 J16.666611
G02 X147.888500 Y142.000000 Z2 I21.399569 J19.163455
G02 X147.565291 Y142.571627 Z2 I2.706876 J1.907708
G03 X147.215280 Y143.063175 Z2 I-1.366138 J-0.602383
G03 X146.694976 Y143.452063 Z2 I-2.075840 J-2.234812
G02 X146.125000 Y143.880497 Z2 I1.665270 J2.808786
G02 X145.108248 Y144.850938 Z2 I59.219614 J63.063530
G02 X144.108890 Y145.870178 Z2 I19.859695 J20.471850
G02 X143.400400 Y146.738738 Z2 I6.188446 J5.771193
G03 X142.811340 Y147.436340 Z2 I-4.473505 J-3.179957
G03 X142.418016 Y147.699009 Z2 I-0.852983 J-0.851451
G02 X142.052470 Y147.938660 Z2 I0.443662 J1.075344
G01 X141.767070 Y148.623264 Z2
G01 X142.875000 Y149.765818 Z2
G03 X144.937280 Y151.343842 Z2 I-83.551439 J111.327797
G02 X147.000000 Y152.921682 Z2 I84.182820 J-107.915479
G02 X149.643993 Y154.841902 Z2 I63.790944 J-85.054723
G03 X152.250000 Y156.807581 Z2 I-28.046055 J39.892488
G03 X157.788027 Y161.534690 Z2 I-85.240959 J105.471303
G02 X165.000000 Y163.375000 Z2 I5.358134 J-5.946320
G00 Z0.000000

(End cutting path id: path8)


(Start cutting path id: path8)
(Change tool to Default tool)

G00 Z0.000000
G00 X166.500000 Y138.375000

G01 Z2 F100.0(Penetrate)
G01 X166.000000 Y136.500000 Z2 F75.000000
G00 Z0.000000

(End cutting path id: path8)


(Start cutting path id: path8)
(Change tool to Default tool)

G00 Z0.000000
G00 X161.625000 Y137.625000

G01 Z2 F100.0(Penetrate)
G03 X161.223913 Y136.774369 Z2 I5.330164 J-3.033138 F75.000000
G03 X161.125000 Y136.500000 Z2 I7.637136 J-2.908284
G00 Z0.000000

(End cutting path id: path8)


(Start cutting path id: path8)
(Change tool to Default tool)

G00 Z0.000000
G00 X151.875000 Y137.500000

G01 Z2 F100.0(Penetrate)
G01 X151.875000 Y136.500000 Z2 F75.000000
G00 Z0.000000

(End cutting path id: path8)


(Start cutting path id: path8)
(Change tool to Default tool)

G00 Z0.000000
G00 X136.500000 Y152.125000

G01 Z2 F100.0(Penetrate)
G02 X136.699425 Y152.026466 Z2 I-3.111268 J-6.547991 F75.000000
G02 X137.250580 Y151.694733 Z2 I-2.176105 J-4.239203
G02 X138.621056 Y150.654103 Z2 I-12.286953 J-17.604269
G03 X140.125000 Y149.428528 Z2 I107.082046 J129.868402
G03 X140.921158 Y148.936845 Z2 I2.358280 J2.928212
G03 X141.625000 Y148.750000 Z2 I0.899462 J1.969159
G00 Z0.000000

(End cutting path id: path8)


(Start cutting path id: path8)
(Change tool to Default tool)

G00 Z0.000000
G00 X136.625000 Y153.875000

G01 Z2 F100.0(Penetrate)
G03 X137.783629 Y154.438339 Z2 I-1.775379 J5.124610 F75.000000
G02 X140.500000 Y155.750000 Z2 I6.717855 J-10.443721
G00 Z0.000000

(End cutting path id: path8)


(Start cutting path id: path8)
(Change tool to Default tool)

G00 Z0.000000
G00 X136.500000 Y153.875000

G01 Z2 F100.0(Penetrate)
G01 X136.625000 Y153.875000 Z2 F75.000000
G00 Z0.000000

(End cutting path id: path8)


(Start cutting path id: path8)
(Change tool to Default tool)

G00 Z0.000000
G00 X136.500000 Y159.250000

G01 Z2 F100.0(Penetrate)
G01 X136.625000 Y159.250000 Z2 F75.000000
G00 Z0.000000

(End cutting path id: path8)


(Footer)
M5
M2
(Using default footer. To add your own footer create file "footer" in the output dir.)
(end)
%