%
(Header)
(Generated by gcodetools from Inkscape.)
(Using default header. To add your own header create file "header" in the output dir.)
M3
(Header end.)
G21 (All units in mm)

(Start cutting path id: path15)
(Change tool to Default tool)

G00 Z0.000000
G00 X100.500000 Y91.000000

G01 Z2 F100.0(Penetrate)
G03 X102.789640 Y91.003823 Z2 I-0.000004 J685.657927 F75.000000
G02 X105.000000 Y90.999905 Z2 I0.721964 J-216.198655
G01 X106.100310 Y90.606483 Z2
G02 X106.233506 Y88.999966 Z2 I-2.039856 J-0.977905
G03 X105.748260 Y87.250000 Z2 I78.604803 J-22.738504
G02 X105.509785 Y86.387953 Z2 I-41.168037 J10.924630
G02 X105.229170 Y85.750000 Z2 I-2.506322 J0.721757
G03 X104.905484 Y85.097579 Z2 I3.541001 J-2.163305
G02 X104.467590 Y84.125000 Z2 I-9.863858 J3.856235
G02 X103.728379 Y82.872173 Z2 I-10.860850 J5.563776
G02 X102.899400 Y81.750000 Z2 I-13.289847 J8.950291
G02 X102.466392 Y81.243208 Z2 I-9.506548 J7.684115
G02 X101.999520 Y80.750100 Z2 I-10.609871 J9.577790
G02 X101.541127 Y80.302156 Z2 I-15.058239 J14.950979
G02 X101.125000 Y79.929880 Z2 I-6.639871 J7.003283
G02 X99.679836 Y78.806600 Z2 I-14.696538 J17.416657
G02 X98.250579 Y78.034340 Z2 I-3.783294 J5.293190
G03 X97.763873 Y77.798321 Z2 I1.204939 J-3.104598
G03 X97.500000 Y77.625000 Z2 I1.659337 J-2.813793
G01 X97.863715 Y76.749810 Z2
G01 X99.325424 Y73.125000 Z2
G01 X99.783566 Y72.000190 Z2
G01 X100.250000 Y71.125000 Z2
G02 X100.567727 Y71.306391 Z2 I1.517862 J-2.289749
G02 X101.125190 Y71.538870 Z2 I2.315506 J-4.767751
G03 X101.768869 Y71.825088 Z2 I-1.456100 J4.141537
G03 X102.500000 Y72.233990 Z2 I-17.868447 J32.807510
G03 X104.454005 Y73.492374 Z2 I-11.346695 J19.765294
G03 X106.125000 Y74.879920 Z2 I-9.083687 J12.639258
G03 X106.564995 Y75.312528 Z2 I-15.097528 J15.795383
G02 X107.000000 Y75.750000 Z2 I77.575994 J-76.703516
G02 X107.596167 Y76.342269 Z2 I90.575735 J-90.575735
G03 X108.213830 Y77.000000 Z2 I-8.348969 J8.459241
G03 X109.746849 Y79.020959 Z2 I-14.278094 J12.422718
G03 X111.030860 Y81.250000 Z2 I-18.137280 J11.932090
G03 X111.288550 Y81.794097 Z2 I-12.802210 J6.396332
G03 X111.464790 Y82.250000 Z2 I-4.258077 J1.908075
G02 X111.594285 Y82.594062 Z2 I4.021610 J-1.317216
G02 X111.868730 Y83.125000 Z2 I3.734687 J-1.594082
G03 X112.175106 Y83.770499 Z2 I-2.834677 J1.740892
G03 X112.457370 Y84.625000 Z2 I-25.743089 J8.977493
G03 X112.971432 Y86.784050 Z2 I-15.412144 J4.810298
G03 X113.303050 Y89.000000 Z2 I-67.346731 J11.211262
G03 X113.331608 Y89.883805 Z2 I-4.395813 J0.584406
G02 X113.503470 Y90.606483 Z2 I1.249743 J0.084571
G01 X114.002410 Y90.960262 Z2
G02 X115.069799 Y91.057717 Z2 I0.825894 J-3.151612
G03 X116.625000 Y91.000000 Z2 I1.555201 J20.923649
G03 X120.676258 Y91.000384 Z2 I-0.532103 J21352.524392
G02 X124.625000 Y91.000000 Z2 I1.361596 J-6877.880351
G02 X125.608238 Y90.937678 Z2 I-0.003022 J-7.834936
G02 X126.625000 Y90.575230 Z2 I-0.316683 J-2.495751
G02 X128.019563 Y89.453635 Z2 I-4.005351 J-6.407931
G02 X129.200040 Y88.125095 Z2 I-13.147568 J-12.871030
G03 X129.648677 Y87.621375 Z2 I5.309156 J4.276930
G03 X130.119500 Y87.161266 Z2 I11.856702 J11.661869
G02 X130.527215 Y86.545888 Z2 I-1.101044 J-1.172244
G03 X130.791760 Y85.875000 Z2 I15.361578 J5.669785
G03 X131.272436 Y84.802657 Z2 I22.800565 J9.576400
G02 X131.486400 Y83.625000 Z2 I-2.059056 J-0.982368
G02 X131.052964 Y82.198644 Z2 I-3.573280 J0.306803
G02 X130.119600 Y81.046870 Z2 I-3.692493 J2.038215
G01 X129.196570 Y80.123070 Z2
G01 X129.474150 Y79.250000 Z2
G03 X130.484915 Y78.094448 Z2 I5.739474 J4.000500
G02 X131.624900 Y77.000000 Z2 I-23.396681 J-25.511088
G02 X132.685937 Y75.766254 Z2 I-7.942751 J-7.903988
G03 X133.679400 Y74.500000 Z2 I23.383296 J17.322958
G01 X134.447240 Y73.143520 Z2
G01 X132.500000 Y72.873170 Z2
G03 X129.667598 Y72.828596 Z2 I-0.862309 J-35.218769
G02 X126.875000 Y72.750000 Z2 I-2.808816 J50.148833
G03 X126.209280 Y72.716170 Z2 I0.002092 J-6.608233
G02 X125.653550 Y72.806500 Z2 I-0.109687 J1.079831
G01 X125.192420 Y73.874980 Z2
G03 X125.053303 Y74.443683 Z2 I-5.964151 J-1.157594
G03 X124.866900 Y74.999980 Z2 I-7.990180 J-2.367956
G02 X124.512944 Y75.981001 Z2 I39.782344 J14.907983
G03 X124.152100 Y76.999980 Z2 I-80.402768 J-27.899092
G01 X123.596550 Y78.003740 Z2
G03 X122.501028 Y78.683586 Z2 I-6.155633 J-8.696752
G03 X121.375000 Y79.201460 Z2 I-4.616179 J-8.553974
G02 X118.374058 Y80.389587 Z2 I59.668799 J155.093922
G03 X115.375000 Y81.600000 Z2 I-197.366668 J-484.697609
G02 X114.069972 Y82.124956 Z2 I135.102066 J337.745479
G03 X112.875000 Y82.597010 Z2 I-29.503439 J-72.937300
G02 X112.222390 Y82.901415 Z2 I1.895719 J4.915962
G02 X111.875000 Y83.124980 Z2 I1.492286 J2.700499
G00 Z0.000000

(End cutting path id: path15)


(Start cutting path id: path15)
(Change tool to Default tool)

G00 Z0.000000
G00 X105.250000 Y85.750000

G01 Z2 F100.0(Penetrate)
G03 X105.550997 Y85.550464 Z2 I2.064814 J2.787937 F75.000000
G03 X106.125190 Y85.287037 Z2 I1.558787 J2.640203
G02 X106.655569 Y85.095924 Z2 I-4.780455 J-14.098325
G02 X107.250000 Y84.856289 Z2 I-6.206853 J-16.253570
G03 X109.278390 Y84.032214 Z2 I27.223458 J64.099790
G03 X110.999420 Y83.404419 Z2 I16.244519 J41.859659
G02 X111.493223 Y83.171939 Z2 I-0.799512 J-2.338894
G02 X111.750000 Y83.000000 Z2 I-2.052895 J-3.343538
G00 Z0.000000

(End cutting path id: path15)


(Start cutting path id: path15)
(Change tool to Default tool)

G00 Z0.000000
G00 X107.125000 Y75.874990

G01 Z2 F100.0(Penetrate)
G02 X107.411306 Y75.558724 Z2 I-12.236928 J-11.365452 F75.000000
G03 X107.896410 Y75.052840 Z2 I6.336217 J5.590412
G02 X108.845415 Y74.138045 Z2 I-210.527277 J-219.349783
G02 X109.875000 Y73.124990 Z2 I-62.076182 J-64.118822
G03 X112.310823 Y70.732121 Z2 I135.714339 J135.714339
G03 X114.748070 Y68.386180 Z2 I906.504028 J939.346747
G02 X115.529640 Y67.559057 Z2 I-8.096418 J-8.433342
G02 X116.176500 Y66.714300 Z2 I-7.361817 J-6.307239
G02 X116.370082 Y66.102028 Z2 I-0.920236 J-0.627690
G02 X116.375000 Y65.374990 Z2 I-51.359536 J-0.710930
G02 X116.273253 Y63.551335 Z2 I-16.489121 J0.005313
G02 X116.053050 Y61.749990 Z2 I-85.954563 J9.593251
G01 X116.128450 Y60.449930 Z2
G01 X116.999980 Y60.102710 Z2
G02 X117.859314 Y59.819824 Z2 I-6.130907 J-20.070741
G03 X118.749980 Y59.509830 Z2 I33.840490 J95.795093
G02 X121.197280 Y58.622883 Z2 I-24.251139 J-70.734531
G03 X123.624980 Y57.910770 Z2 I5.667527 J14.827198
G01 X124.549080 Y57.889670 Z2
G01 X124.655550 Y58.750010 Z2
G03 X124.508347 Y59.414154 Z2 I-5.650315 J-0.903971
G03 X124.249980 Y60.250010 Z2 I-18.955926 J-5.401500
G03 X123.376770 Y62.820131 Z2 I-232.440400 J-77.539246
G02 X122.499590 Y65.375010 Z2 I547.327041 J189.344712
G02 X122.229930 Y66.205506 Z2 I28.641344 J9.758798
G03 X121.822700 Y66.794670 Z2 I-1.138451 J-0.351577
G01 X120.499980 Y66.928540 Z2
G03 X117.718715 Y67.003514 Z2 I-1.797132 J-15.042249
G03 X116.374980 Y66.875040 Z2 I1.446727 J-22.223099
G00 Z0.000000

(End cutting path id: path15)


(Start cutting path id: path15)
(Change tool to Default tool)

G00 Z0.000000
G00 X116.000020 Y60.375030

G01 Z2 F100.0(Penetrate)
G03 X115.800314 Y60.082675 Z2 I3.725204 J-2.759045 F75.000000
G03 X115.578240 Y59.624450 Z2 I1.967087 J-1.236256
G02 X115.062969 Y58.246304 Z2 I-42.476744 J15.096114
G02 X114.284450 Y57.054240 Z2 I-3.264170 J1.281528
G02 X112.953865 Y56.546196 Z2 I-1.229419 J1.223444
G02 X111.375020 Y56.696980 Z2 I1.255409 J21.486609
G03 X110.649568 Y56.791111 Z2 I-15.833405 J-119.182361
G02 X110.250020 Y56.875030 Z2 I0.316903 J2.501932
G00 Z0.000000

(End cutting path id: path15)


(Start cutting path id: path15)
(Change tool to Default tool)

G00 Z0.000000
G00 X104.625020 Y59.500030

G01 Z2 F100.0(Penetrate)
G03 X104.182523 Y58.290321 Z2 I4.068843 J-2.174119 F75.000000
G02 X103.586340 Y56.500030 Z2 I-8.339988 J1.782878
G02 X103.222350 Y55.813495 Z2 I-6.394159 J2.950328
G03 X102.863060 Y55.125030 Z2 I5.391175 J-3.251479
G03 X102.676670 Y54.568754 Z2 I2.796195 J-1.246278
G02 X102.428260 Y54.046910 Z2 I-1.308018 J0.302601
G02 X102.031583 Y53.642972 Z2 I-1.945070 J1.513365
G03 X101.608720 Y53.244630 Z2 I2.397435 J-2.968632
G03 X100.437517 Y51.906898 Z2 I32.980064 J-30.056081
G02 X98.750020 Y51.137280 Z2 I-1.653329 J1.390311
G02 X97.579143 Y51.483863 Z2 I0.035844 J2.272200
G03 X96.500020 Y51.937140 Z2 I-1.925145 J-3.072038
G03 X96.036325 Y52.026330 Z2 I-1.207523 J-5.027905
G02 X95.551814 Y52.232280 Z2 I0.148646 J1.022598
G02 X95.222892 Y52.616443 Z2 I0.767650 J0.990159
G03 X94.970699 Y53.000130 Z2 I-2.624903 J-1.450593
G03 X94.454997 Y53.620322 Z2 I-8.977876 J-6.940779
G03 X93.875020 Y54.250030 Z2 I-21.143796 J-18.892029
G02 X93.182910 Y55.078289 Z2 I6.184839 J5.871470
G02 X92.622609 Y55.999930 Z2 I5.032537 J3.690612
G02 X92.425209 Y56.433342 Z2 I6.603559 J3.269282
G03 X92.189353 Y56.807610 Z2 I-1.226317 J-0.511351
G03 X91.786618 Y57.143744 Z2 I-1.347218 J-1.204819
G02 X91.625000 Y57.250000 Z2 I1.593118 J2.599220
G00 Z0.000000

(End cutting path id: path15)


(Start cutting path id: path15)
(Change tool to Default tool)

G00 Z0.000000
G00 X91.500000 Y57.375000

G01 Z2 F100.0(Penetrate)
G01 X91.625000 Y57.250000 Z2 F75.000000
G00 Z0.000000

(End cutting path id: path15)


(Start cutting path id: path15)
(Change tool to Default tool)

G00 Z0.000000
G00 X95.250000 Y52.000000

G01 Z2 F100.0(Penetrate)
G01 X93.857639 Y48.875000 Z2 F75.000000
G01 X93.115741 Y47.250580 Z2
G01 X92.875000 Y46.500000 Z2
G00 Z0.000000

(End cutting path id: path15)


(Start cutting path id: path15)
(Change tool to Default tool)

G00 Z0.000000
G00 X102.500000 Y54.000000

G01 Z2 F100.0(Penetrate)
G02 X104.244346 Y52.293799 Z2 I-77.533397 J-81.011598 F75.000000
G03 X106.625000 Y50.087480 Z2 I30.349966 J30.360553
G02 X107.395089 Y49.288653 Z2 I-3.846360 J-4.478596
G03 X108.057970 Y48.513120 Z2 I11.641872 J9.279730
G03 X108.701920 Y48.037256 Z2 I1.540176 J1.410565
G03 X109.125000 Y47.875000 Z2 I1.258819 J2.649637
G00 Z0.000000

(End cutting path id: path15)


(Start cutting path id: path15)
(Change tool to Default tool)

G00 Z0.000000
G00 X91.624980 Y69.250040

G01 Z2 F100.0(Penetrate)
G01 X92.253066 Y69.339340 Z2 F75.000000
G01 X93.874980 Y69.480640 Z2
G01 X97.374980 Y70.110560 Z2
G01 X99.249787 Y70.691100 Z2
G01 X100.124980 Y71.125030 Z2
G02 X100.350161 Y70.766166 Z2 I-2.221004 J-1.643724
G02 X100.613120 Y70.125030 Z2 I-3.253489 J-1.708896
G03 X101.034249 Y68.982747 Z2 I9.975698 J3.029003
G02 X101.549940 Y67.750030 Z2 I-39.709128 J-17.336010
G03 X102.796726 Y64.817111 Z2 I69.918535 J27.990942
G02 X103.969700 Y61.875030 Z2 I-33.023764 J-14.871069
G02 X104.221059 Y60.784588 Z2 I-4.853348 J-1.692943
G03 X104.626520 Y59.653480 Z2 I2.654462 J0.313302
G03 X105.144493 Y59.240469 Z2 I0.868344 J0.557713
G02 X105.749980 Y58.977750 Z2 I-1.779697 J-4.930753
G03 X106.842284 Y58.421867 Z2 I170.753882 J334.178410
G03 X107.999980 Y57.900490 Z2 I6.246308 J12.323671
G03 X108.733144 Y57.646649 Z2 I3.257796 J8.223718
G02 X109.373920 Y57.400010 Z2 I-1.257648 J-4.223105
G01 X109.943460 Y56.868180 Z2
G02 X110.023393 Y56.246282 Z2 I-1.171108 J-0.466609
G02 X109.928060 Y55.500030 Z2 I-104.716672 J12.998253
G03 X109.681316 Y52.581758 Z2 I31.390496 J-4.123674
G03 X109.625010 Y49.625030 Z2 I77.602907 J-2.956728
G03 X109.625102 Y48.793415 Z2 I3751.240527 J-0.000000
G02 X109.561810 Y48.250030 Z2 I-2.359729 J-0.000523
G02 X109.496512 Y48.039787 Z2 I-1.558098 J0.368654
G03 X109.401220 Y47.625030 Z2 I1.381477 J-0.535727
G03 X109.473082 Y46.691902 Z2 I2.953713 J-0.241859
G02 X109.500020 Y46.500030 Z2 I-0.983420 J-0.235893
G00 Z0.000000

(End cutting path id: path15)


(Start cutting path id: path15)
(Change tool to Default tool)

G00 Z0.000000
G00 X125.624980 Y72.625040

G01 Z2 F100.0(Penetrate)
G03 X125.879376 Y70.885680 Z2 I6.077918 J0.000662 F75.000000
G02 X125.418380 Y68.537650 Z2 I-2.462547 J-0.735790
G02 X124.169289 Y67.734940 Z2 I-1.829489 J1.473648
G03 X122.874980 Y67.374460 Z2 I7.552153 J-29.620008
G03 X122.224470 Y67.099778 Z2 I0.966441 J-3.196372
G03 X121.874980 Y66.875040 Z2 I1.525398 J-2.756262
G00 Z0.000000

(End cutting path id: path15)


(Start cutting path id: path15)
(Change tool to Default tool)

G00 Z0.000000
G00 X123.750000 Y78.000000

G01 Z2 F100.0(Penetrate)
G02 X124.449351 Y78.432927 Z2 I5.085227 J-7.433360 F75.000000
G02 X125.375000 Y78.843940 Z2 I2.721185 J-4.880581
G02 X126.576151 Y79.202685 Z2 I5.459791 J-16.090264
G03 X127.875000 Y79.652390 Z2 I-2.155993 J8.327528
G02 X128.471951 Y79.868582 Z2 I1.938062 J-4.419138
G02 X129.000000 Y80.000000 Z2 I2.005469 J-6.931576
G00 Z0.000000

(End cutting path id: path15)


(Start cutting path id: path15)
(Change tool to Default tool)

G00 Z0.000000
G00 X130.375000 Y87.125000

G01 Z2 F100.0(Penetrate)
G02 X131.878588 Y87.860254 Z2 I5.649872 J-9.648899 F75.000000
G03 X134.250000 Y88.857544 Z2 I-26.210814 J65.643627
G03 X134.979580 Y89.181546 Z2 I-98.510703 J222.807568
G03 X135.624420 Y89.470680 Z2 I-74.309169 J166.591314
G02 X136.183711 Y89.690280 Z2 I2.505466 J-5.559063
G02 X136.375000 Y89.750000 Z2 I1.437769 J-4.269084
G00 Z0.000000

(End cutting path id: path15)


(Start cutting path id: path15)
(Change tool to Default tool)

G00 Z0.000000
G00 X106.250000 Y90.750000

G01 Z2 F100.0(Penetrate)
G02 X106.592192 Y90.898780 Z2 I1.098049 J-2.057596 F75.000000
G02 X107.125190 Y90.997780 Z2 I0.602199 J-1.757844
G02 X107.712775 Y91.004622 Z2 I0.427384 J-11.469494
G03 X108.375000 Y91.000000 Z2 I0.662225 J47.439658
G03 X110.512032 Y91.007805 Z2 I0.000000 J292.582588
G02 X112.375000 Y90.999420 Z2 I0.576364 J-78.908303
G02 X113.009494 Y90.900765 Z2 I-0.037971 J-2.333887
G02 X113.375000 Y90.750000 Z2 I-0.576303 J-1.915595
G00 Z0.000000

(End cutting path id: path15)


(Start cutting path id: path15)
(Change tool to Default tool)

G00 Z0.000000
G00 X99.875000 Y87.875000

G01 Z2 F100.0(Penetrate)
G01 X102.875000 Y86.623650 Z2 F75.000000
G01 X104.249810 Y86.087963 Z2
G01 X105.125000 Y85.625000 Z2
G00 Z0.000000

(End cutting path id: path15)


(Start cutting path id: path15)
(Change tool to Default tool)

G00 Z0.000000
G00 X98.000000 Y84.625000

G01 Z2 F100.0(Penetrate)
G01 X100.875000 Y81.853780 Z2 F75.000000
G01 X102.000000 Y80.750000 Z2
G01 X102.875000 Y79.875000 Z2
G01 X105.500000 Y77.375000 Z2
G01 X106.371910 Y76.503090 Z2
G01 X107.000000 Y75.875000 Z2
G00 Z0.000000

(End cutting path id: path15)


(Start cutting path id: path15)
(Change tool to Default tool)

G00 Z0.000000
G00 X97.375000 Y77.750000

G01 Z2 F100.0(Penetrate)
G02 X97.048272 Y77.519043 Z2 I-2.960353 J3.841339 F75.000000
G02 X96.375000 Y77.179980 Z2 I-1.907052 J2.948817
G02 X94.891604 Y76.759294 Z2 I-3.280337 J8.741251
G02 X93.250000 Y76.506270 Z2 I-3.924155 J20.007819
G03 X92.711823 Y76.436218 Z2 I1.750184 J-15.548159
G02 X92.253086 Y76.386190 Z2 I-0.884637 J5.983544
G02 X91.761973 Y76.373803 Z2 I-0.382434 J5.420639
G03 X91.625000 Y76.374990 Z2 I-0.120847 J-6.041325
G00 Z0.000000

(End cutting path id: path15)


(Start cutting path id: path15)
(Change tool to Default tool)

G00 Z0.000000
G00 X95.250000 Y83.000000

G01 Z2 F100.0(Penetrate)
G01 X97.029224 Y78.625000 Z2 F75.000000
G01 X97.500000 Y77.625000 Z2
G00 Z0.000000

(End cutting path id: path15)


(Footer)
M5
M2
(Using default footer. To add your own footer create file "footer" in the output dir.)
(end)
%