%
(Header)
(Generated by gcodetools from Inkscape.)
(Using default header. To add your own header create file "header" in the output dir.)
M3
(Header end.)
G21 (All units in mm)

(Start cutting path id: path14)
(Change tool to Default tool)

G00 Z0.000000
G00 X88.250000 Y82.500000

G01 Z2 F100.0(Penetrate)
G03 X87.285556 Y80.479895 Z2 I22.271009 J-11.872963 F75.000000
G03 X86.554398 Y78.500000 Z2 I20.545973 J-8.712399
G02 X86.365651 Y77.987826 Z2 I-5.582587 J1.766439
G02 X86.108700 Y77.500000 Z2 I-2.987993 J1.262269
G03 X85.839251 Y76.957534 Z2 I2.346611 J-1.503740
G03 X85.637539 Y76.375000 Z2 I15.397717 J-5.657905
G02 X85.034201 Y74.820018 Z2 I-14.278916 J4.645728
G03 X84.339893 Y73.250000 Z2 I83.904798 J-38.043681
G03 X84.045520 Y72.538808 Z2 I24.185847 J-10.427400
G03 X83.802467 Y71.875000 Z2 I12.240401 J-4.858220
G02 X83.516637 Y71.257311 Z2 I-2.958536 J0.994060
G02 X83.250000 Y70.875000 Z2 I-3.010110 J1.815216
G03 X82.971929 Y71.060390 Z2 I-1.962425 J-2.642253
G03 X82.374809 Y71.357350 Z2 I-2.255435 J-3.786355
G02 X81.650792 Y71.690171 Z2 I3.323937 J8.184794
G02 X80.875000 Y72.107640 Z2 I11.417553 J22.147069
G02 X79.027166 Y73.270612 Z2 I10.609864 J18.907387
G02 X77.375000 Y74.553530 Z2 I12.488084 J17.787696
G02 X76.813378 Y75.067833 Z2 I7.496054 J8.749537
G02 X76.250000 Y75.625000 Z2 I51.743420 J52.883632
G03 X75.763440 Y76.107947 Z2 I-68.675848 J-68.703147
G02 X75.261189 Y76.625000 Z2 I11.618394 J11.788235
G02 X73.869770 Y78.320252 Z2 I12.998245 J12.087263
G02 X72.653839 Y80.250000 Z2 I14.637795 J10.571208
G02 X72.208749 Y81.068726 Z2 I367.834322 J200.498708
G02 X71.877991 Y81.875000 Z2 I3.568946 J1.935072
G03 X71.588513 Y82.554435 Z2 I-2.938358 J-0.850526
G03 X71.375000 Y82.875000 Z2 I-2.615660 J-1.510773
G02 X71.048112 Y82.663321 Z2 I-1.810383 J2.437464
G02 X70.375000 Y82.347030 Z2 I-2.553705 J4.560263
G03 X68.927081 Y81.749851 Z2 I12.184319 J-31.595987
G02 X67.375000 Y81.071950 Z2 I-135.583575 J308.308098
G02 X65.370385 Y80.210808 Z2 I-122.825190 J283.155613
G03 X63.375000 Y79.336800 Z2 I40.097933 J-94.259481
G02 X62.010706 Y78.749364 Z2 I-18.083047 J40.119126
G02 X60.625000 Y78.395830 Z2 I-1.948053 J4.743090
G02 X60.177186 Y78.353788 Z2 I-1.521976 J13.805329
G02 X59.750000 Y78.343630 Z2 I-0.308180 J3.972846
G02 X59.110761 Y78.419876 Z2 I0.109175 J3.633115
G03 X58.500000 Y78.535670 Z2 I-3.196712 J-15.192507
G02 X57.048047 Y78.925010 Z2 I1.324598 J7.841810
G02 X55.625000 Y79.510010 Z2 I8.044512 J21.592072
G03 X54.885301 Y79.780962 Z2 I-2.240213 J-4.970612
G02 X54.261188 Y80.037880 Z2 I0.833235 J2.910637
G02 X53.645935 Y80.512984 Z2 I1.209284 J2.201931
G03 X52.999904 Y81.146200 Z2 I-8.756602 J-8.287656
G02 X52.310940 Y81.780366 Z2 I51.153720 J56.265280
G02 X51.742284 Y82.499980 Z2 I2.066410 J2.217414
G02 X51.553233 Y83.025663 Z2 I1.421746 J0.808136
G02 X51.542438 Y83.624980 Z2 I1.905181 J0.334073
G02 X51.856664 Y84.733660 Z2 I4.130557 J-0.571829
G02 X52.416474 Y85.874980 Z2 I14.117689 J-6.216678
G03 X52.689631 Y86.434920 Z2 I-6.315650 J3.427577
G02 X53.034240 Y86.920795 Z2 I1.332519 J-0.579950
G02 X53.536289 Y87.342791 Z2 I4.598345 J-4.961012
G03 X54.015432 Y87.876910 Z2 I-1.155686 J1.518706
G02 X55.001808 Y89.492402 Z2 I133.321968 J-80.293924
G02 X56.375000 Y90.746509 Z2 I2.896711 J-1.792926
G02 X57.270777 Y90.914592 Z2 I0.742188 J-1.484387
G03 X58.125000 Y90.874980 Z2 I0.854223 J9.190663
G01 X60.250000 Y90.874980 Z2
G03 X63.061949 Y90.937468 Z2 I0.000000 J63.300100
G02 X65.875000 Y90.999980 Z2 I2.813051 J-63.262387
G03 X67.271828 Y91.007890 Z2 I0.000000 J123.335247
G02 X68.625000 Y90.998180 Z2 I0.414200 J-36.570177
G02 X69.142827 Y90.943991 Z2 I-0.085329 J-3.316666
G03 X69.625000 Y90.890056 Z2 I0.618049 J3.343028
G03 X70.192218 Y90.934917 Z2 I0.095838 J2.396599
G02 X70.750000 Y90.998081 Z2 I0.649306 J-3.239426
G02 X72.591456 Y91.012005 Z2 I1.266338 J-45.700692
G03 X74.500000 Y91.000000 Z2 I1.908544 J151.705273
G03 X75.222464 Y91.011054 Z2 I-0.000000 J23.614923
G02 X75.875000 Y90.992700 Z2 I0.170159 J-5.559309
G01 X76.487846 Y90.799604 Z2
G02 X76.971667 Y89.849192 Z2 I-0.683566 J-0.946333
G03 X77.076872 Y88.625028 Z2 I6.894444 J-0.024091
G03 X77.527930 Y86.614993 Z2 I22.157968 J3.916687
G03 X77.875000 Y85.750028 Z2 I3.916050 J1.069214
G02 X77.547664 Y85.524856 Z2 I-2.388698 J3.121967
G02 X76.999807 Y85.244047 Z2 I-2.062168 J3.348447
G03 X75.427130 Y84.577560 Z2 I59.144615 J-141.749410
G03 X73.625000 Y83.778867 Z2 I36.167790 J-84.039610
G02 X72.980493 Y83.499468 Z2 I-7.712851 J16.908621
G02 X72.375193 Y83.290250 Z2 I-2.124128 J5.165221
G03 X71.778851 Y83.049384 Z2 I0.808583 J-2.860557
G03 X71.500000 Y82.875000 Z2 I1.167792 J-2.177521
G02 X71.296369 Y83.197123 Z2 I2.359329 J1.716881
G02 X71.067419 Y83.750191 Z2 I2.487226 J1.353544
G03 X70.777717 Y84.724335 Z2 I-197.874064 J-58.315824
G02 X70.447048 Y85.875000 Z2 I49.035872 J14.714399
G02 X69.908626 Y88.480352 Z2 I19.947303 J5.480622
G02 X69.750000 Y90.750000 Z2 I16.183498 J2.271432
G00 Z0.000000

(End cutting path id: path14)


(Start cutting path id: path14)
(Change tool to Default tool)

G00 Z0.000000
G00 X76.875000 Y90.500000

G01 Z2 F100.0(Penetrate)
G02 X77.235158 Y90.770111 Z2 I2.486047 J-2.939650 F75.000000
G02 X77.875000 Y90.992672 Z2 I0.755293 J-1.140375
G02 X80.027030 Y91.044711 Z2 I1.506761 J-17.787194
G03 X82.500000 Y91.000000 Z2 I2.472970 J68.368122
G00 Z0.000000

(End cutting path id: path14)


(Start cutting path id: path14)
(Change tool to Default tool)

G00 Z0.000000
G00 X85.125000 Y84.375000

G01 Z2 F100.0(Penetrate)
G01 X82.375000 Y81.625000 Z2 F75.000000
G01 X81.250000 Y80.500000 Z2
G01 X80.375000 Y79.625000 Z2
G01 X77.750000 Y77.000000 Z2
G02 X76.886630 Y76.141997 Z2 I-138.000058 J137.999815
G03 X76.254919 Y75.500000 Z2 I22.112620 J-22.390143
G03 X75.819345 Y75.014482 Z2 I7.416633 J-7.091853
G02 X75.363811 Y74.500000 Z2 I-10.409251 J8.757665
G02 X74.031809 Y73.138200 Z2 I-28.592795 J26.634821
G03 X72.625000 Y71.750000 Z2 I103.548764 J-106.343772
G03 X70.693515 Y69.793281 Z2 I149.762687 J-149.762925
G02 X68.750000 Y67.880400 Z2 I-46.674202 J45.477929
G02 X67.932878 Y67.320050 Z2 I-2.196711 J2.327369
G03 X67.251640 Y66.717110 Z2 I0.712459 J-1.491301
G03 X67.022791 Y65.957137 Z2 I1.232414 J-0.785558
G02 X66.964409 Y65.125000 Z2 I-7.941440 J0.139044
G03 X66.868886 Y63.507445 Z2 I12.652113 J-1.558756
G02 X66.874909 Y61.875000 Z2 I-884.451878 J-4.079533
G01 X66.746531 Y60.914260 Z2
G02 X65.990362 Y60.406836 Z2 I-0.980151 J0.643494
G03 X64.750004 Y60.053050 Z2 I1.440272 J-7.400744
G03 X60.676147 Y58.468444 Z2 I104.150824 J-273.790016
G02 X58.375004 Y57.875000 Z2 I-3.492457 J8.784187
G02 X58.378314 Y58.388852 Z2 I4.199364 J0.229884
G02 X58.486018 Y59.125000 Z2 I4.781155 J-0.323564
G02 X58.800815 Y60.253256 Z2 I11.635592 J-2.638421
G02 X59.196957 Y61.375000 Z2 I30.882052 J-10.275138
G03 X59.693870 Y62.805515 Z2 I-30.275350 J11.318209
G02 X60.166671 Y64.250000 Z2 I133.356328 J-42.849838
G02 X60.472068 Y65.127204 Z2 I33.191461 J-11.063800
G03 X60.709881 Y66.000000 Z2 I-5.172634 J1.878195
G01 X60.950428 Y66.799580 Z2
G01 X62.625004 Y66.928050 Z2
G03 X64.499740 Y66.775532 Z2 I2.468677 J18.746489
G03 X66.125004 Y66.750000 Z2 I1.625264 J51.715350
G01 X67.125004 Y66.750000 Z2
G00 Z0.000000

(End cutting path id: path14)


(Start cutting path id: path14)
(Change tool to Default tool)

G00 Z0.000000
G00 X66.750000 Y60.750000

G01 Z2 F100.0(Penetrate)
G02 X67.505077 Y59.706861 Z2 I-3.118830 J-3.052419 F75.000000
G02 X68.116030 Y58.250100 Z2 I-8.627181 J-4.474660
G03 X68.408626 Y57.704216 Z2 I1.678500 J0.548323
G03 X68.876928 Y57.219810 Z2 I2.643850 J2.087388
G03 X69.431180 Y56.824144 Z2 I2.679683 J3.167689
G03 X70.000000 Y56.640430 Z2 I0.684976 J1.148385
G03 X71.843078 Y56.819495 Z2 I0.439961 J5.046323
G03 X72.875000 Y57.125000 Z2 I-20.799815 J72.152242
G00 Z0.000000

(End cutting path id: path14)


(Start cutting path id: path14)
(Change tool to Default tool)

G00 Z0.000000
G00 X79.000000 Y59.875000

G01 Z2 F100.0(Penetrate)
G02 X79.336337 Y58.877510 Z2 I-1.204741 J-0.961667 F75.000000
G03 X79.434895 Y57.375000 Z2 I8.492516 J-0.197414
G03 X79.774350 Y56.042859 Z2 I7.140274 J1.110210
G02 X80.071953 Y54.875000 Z2 I-5.962676 J-2.141352
G02 X80.172248 Y54.202518 Z2 I-54.002677 J-8.397777
G02 X80.250000 Y53.625000 Z2 I-36.038552 J-5.145899
G00 Z0.000000

(End cutting path id: path14)


(Start cutting path id: path14)
(Change tool to Default tool)

G00 Z0.000000
G00 X73.250000 Y47.375000

G01 Z2 F100.0(Penetrate)
G01 X73.250000 Y46.500000 Z2 F75.000000
G00 Z0.000000

(End cutting path id: path14)


(Start cutting path id: path14)
(Change tool to Default tool)

G00 Z0.000000
G00 X83.125000 Y70.750000

G01 Z2 F100.0(Penetrate)
G03 X83.069048 Y70.486473 Z2 I3.968553 J-0.980312 F75.000000
G02 X82.922550 Y69.874810 Z2 I-5.266515 J0.937993
G02 X82.368597 Y68.408279 Z2 I-11.161858 J3.378278
G03 X81.696953 Y66.875000 Z2 I48.935980 J-22.349888
G03 X80.577795 Y64.189880 Z2 I557.830675 J-234.079554
G03 X79.466339 Y61.500000 Z2 I2014.827165 J-834.099607
G03 X79.236097 Y60.610385 Z2 I3.089772 J-1.274269
G02 X78.925060 Y59.945510 Z2 I-1.151263 J0.133384
G02 X78.240622 Y59.548663 Z2 I-1.018073 J0.967213
G03 X77.375000 Y59.199940 Z2 I0.777422 J-3.178480
G02 X75.723135 Y58.298102 Z2 I-17.951173 J30.916786
G02 X74.000000 Y57.564430 Z2 I-6.028648 J11.768799
G01 X73.147377 Y56.983310 Z2
G03 X73.096070 Y56.412932 Z2 I1.569939 J-0.428718
G02 X73.124997 Y55.750000 Z2 I-7.592229 J-0.663389
G01 X73.124997 Y49.750000 Z2
G02 X73.123868 Y49.016240 Z2 I-238.397232 J0.000000
G03 X73.125092 Y48.375000 Z2 I64.290747 J-0.197881
G01 X73.325421 Y47.529710 Z2
G01 X74.749997 Y48.252320 Z2
G03 X76.389419 Y49.906976 Z2 I-34.798187 J36.117296
G03 X77.978778 Y51.625000 Z2 I-77.051578 J72.875276
G03 X78.847155 Y52.635393 Z2 I-19.353115 J17.511306
G02 X79.749997 Y53.339120 Z2 I1.993882 J-1.627025
G01 X81.124997 Y52.814530 Z2
G03 X82.192133 Y52.095809 Z2 I5.944685 J7.674903
G03 X83.374997 Y51.577840 Z2 I2.860059 J4.921787
G03 X84.769406 Y51.486135 Z2 I0.890077 J2.886848
G03 X85.999997 Y51.806620 Z2 I-1.221033 J7.211341
G02 X86.593639 Y51.993094 Z2 I2.784712 J-7.826996
G03 X86.999997 Y52.125000 Z2 I-1.199780 J4.387993
G00 Z0.000000

(End cutting path id: path14)


(Start cutting path id: path14)
(Change tool to Default tool)

G00 Z0.000000
G00 X83.375000 Y71.000000

G01 Z2 F100.0(Penetrate)
G03 X83.727121 Y70.783792 Z2 I1.545290 J2.121855 F75.000000
G03 X84.375000 Y70.517940 Z2 I1.931857 J3.785552
G03 X86.525807 Y69.919541 Z2 I9.488684 J29.940399
G03 X89.000000 Y69.509360 Z2 I4.099775 J17.062457
G02 X89.976929 Y69.414488 Z2 I-11.371626 J-122.175276
G03 X90.746914 Y69.375000 Z2 I0.782988 J7.740779
G03 X91.192981 Y69.374894 Z2 I0.260827 J158.552772
G02 X91.375000 Y69.375000 Z2 I0.182020 J-155.795688
G00 Z0.000000

(End cutting path id: path14)


(Start cutting path id: path14)
(Change tool to Default tool)

G00 Z0.000000
G00 X86.000000 Y77.375000

G01 Z2 F100.0(Penetrate)
G03 X85.736131 Y77.548353 Z2 I-1.926425 J-2.644795 F75.000000
G03 X85.249420 Y77.784340 Z2 I-1.687344 J-2.860166
G02 X83.766022 Y78.537096 Z2 I3.022224 J7.793645
G02 X82.250000 Y79.662520 Z2 I7.345287 J11.478406
G02 X81.785108 Y80.091496 Z2 I5.512085 J6.439984
G02 X81.250000 Y80.625000 Z2 I199.085775 J200.219317
G03 X80.801231 Y81.071274 Z2 I-85.275843 J-85.303646
G02 X80.386284 Y81.500000 Z2 I9.651400 J9.756399
G02 X79.092195 Y83.210914 Z2 I7.899115 J7.319544
G02 X78.270834 Y84.874420 Z2 I8.892906 J5.425423
G03 X78.040519 Y85.357842 Z2 I-3.326077 J-1.288054
G03 X77.875000 Y85.625000 Z2 I-3.905625 J-2.234901
G01 X78.875000 Y86.074169 Z2
G01 X82.875000 Y87.750000 Z2
G00 Z0.000000

(End cutting path id: path14)


(Start cutting path id: path14)
(Change tool to Default tool)

G00 Z0.000000
G00 X91.375004 Y82.625000

G01 Z2 F100.0(Penetrate)
G01 X91.375004 Y80.500000 Z2 F75.000000
G01 X91.375004 Y76.125000 Z2
G01 X91.375004 Y62.875000 Z2
G03 X91.433418 Y59.975531 Z2 I71.988527 J0.000000
G02 X91.367704 Y57.251830 Z2 I-21.147106 J-0.852430
G02 X91.119805 Y56.616571 Z2 I-1.214132 J0.107795
G03 X90.754373 Y56.120080 Z2 I11.600749 J-8.921229
G02 X89.676709 Y54.738928 Z2 I-14.577764 J10.263507
G02 X88.250127 Y53.323780 Z2 I-9.803743 J8.456326
G02 X87.660580 Y52.832853 Z2 I-26.655785 J31.411087
G03 X87.298158 Y52.245080 Z2 I0.667930 J-0.817468
G03 X87.340600 Y51.625478 Z2 I1.068002 J-0.238097
G03 X87.599084 Y51.000000 Z2 I8.873903 J3.301060
G03 X88.595517 Y48.977974 Z2 I33.933022 J15.465316
G02 X89.467241 Y47.250580 Z2 I-41.214263 J-21.882287
G02 X89.691306 Y46.691233 Z2 I-4.144493 J-1.984768
G02 X89.750032 Y46.500000 Z2 I-5.449374 J-1.778082
G00 Z0.000000

(End cutting path id: path14)


(Start cutting path id: path14)
(Change tool to Default tool)

G00 Z0.000000
G00 X86.125000 Y77.500000

G01 Z2 F100.0(Penetrate)
G01 X87.000191 Y77.074170 Z2 F75.000000
G01 X90.746914 Y76.386190 Z2
G01 X91.375000 Y76.374990 Z2
G00 Z0.000000

(End cutting path id: path14)


(Start cutting path id: path14)
(Change tool to Default tool)

G00 Z0.000000
G00 X59.625000 Y78.250000

G01 Z2 F100.0(Penetrate)
G02 X59.094195 Y76.221169 Z2 I-4.144422 J0.000457 F75.000000
G03 X57.863811 Y73.625000 Z2 I18.137382 J-10.185355
G02 X57.573595 Y72.987610 Z2 I-6.061932 J2.375354
G03 X57.284240 Y72.375000 Z2 I7.545138 J-3.938441
G03 X57.158123 Y71.916452 Z2 I1.649908 J-0.700402
G03 X57.130402 Y71.375000 Z2 I3.194115 J-0.434964
G03 X57.338810 Y69.717400 Z2 I9.083827 J0.300198
G03 X57.967690 Y68.257230 Z2 I4.119462 J0.908698
G03 X59.404502 Y67.440786 Z2 I1.546907 J1.049808
G02 X60.875000 Y67.000000 Z2 I-0.196342 J-3.328255
G00 Z0.000000

(End cutting path id: path14)


(Start cutting path id: path14)
(Change tool to Default tool)

G00 Z0.000000
G00 X53.875000 Y79.875000

G01 Z2 F100.0(Penetrate)
G02 X52.991454 Y78.798063 Z2 I-3.000772 J1.560999 F75.000000
G03 X51.750000 Y77.780770 Z2 I49.479938 J-61.649001
G03 X50.051738 Y76.343444 Z2 I124.395309 J-148.700345
G03 X48.375000 Y74.881270 Z2 I80.045707 J-93.484325
G03 X47.741349 Y74.307980 Z2 I30.697039 J-34.565959
G03 X47.200039 Y73.752610 Z2 I4.910051 J-5.327228
G02 X46.811832 Y73.322823 Z2 I-13.966408 J12.225015
G02 X46.625000 Y73.125000 Z2 I-15.038432 J14.015729
G00 Z0.000000

(End cutting path id: path14)


(Start cutting path id: path14)
(Change tool to Default tool)

G00 Z0.000000
G00 X46.500000 Y73.125000

G01 Z2 F100.0(Penetrate)
G01 X46.625000 Y73.125000 Z2 F75.000000
G00 Z0.000000

(End cutting path id: path14)


(Start cutting path id: path14)
(Change tool to Default tool)

G00 Z0.000000
G00 X46.750000 Y73.250000

G01 Z2 F100.0(Penetrate)
G03 X47.784277 Y72.842228 Z2 I1.119359 J1.323591 F75.000000
G03 X49.875000 Y72.745080 Z2 I19.241457 J391.551116
G03 X51.995380 Y72.661884 Z2 I10.140669 J231.387901
G03 X54.125000 Y72.625000 Z2 I2.129620 J61.462311
G03 X55.159379 Y72.633387 Z2 I-0.000000 J63.788633
G02 X56.125000 Y72.620000 Z2 I0.260347 J-16.053093
G02 X56.735627 Y72.559771 Z2 I-0.246682 J-5.626489
G03 X57.250000 Y72.499920 Z2 I1.066017 J6.921341
G00 Z0.000000

(End cutting path id: path14)


(Start cutting path id: path14)
(Change tool to Default tool)

G00 Z0.000000
G00 X46.500000 Y90.000000

G01 Z2 F100.0(Penetrate)
G02 X46.694223 Y89.924632 Z2 I-663.287491 J-1709.574477 F75.000000
G02 X47.250579 Y89.696564 Z2 I-5.780287 J-14.893243
G02 X47.946120 Y89.373498 Z2 I-5.640698 J-13.054321
G03 X48.750000 Y89.000000 Z2 I7.354353 J14.776928
G03 X51.198668 Y87.945322 Z2 I381.748369 J882.943436
G02 X52.875000 Y86.875000 Z2 I-2.417401 J-5.634010
G00 Z0.000000

(End cutting path id: path14)


(Footer)
M5
M2
(Using default footer. To add your own footer create file "footer" in the output dir.)
(end)
%