%
(Header)
(Generated by gcodetools from Inkscape.)
(Using default header. To add your own header create file "header" in the output dir.)
M3
(Header end.)
G21 (All units in mm)

(Start cutting path id: path19)
(Change tool to Default tool)

G00 Z0.000000
G00 X109.125000 Y46.250000

G01 Z2 F100.0(Penetrate)
G01 X109.875000 Y46.250000 Z2 F75.000000
G00 Z0.000000

(End cutting path id: path19)


(Start cutting path id: path19)
(Change tool to Default tool)

G00 Z0.000000
G00 X92.375000 Y45.875000

G01 Z2 F100.0(Penetrate)
G02 X91.889099 Y44.999065 Z2 I-2.222541 J0.660157 F75.000000
G02 X91.625000 Y44.750000 Z2 I-1.504499 J1.330758
G00 Z0.000000

(End cutting path id: path19)


(Start cutting path id: path19)
(Change tool to Default tool)

G00 Z0.000000
G00 X91.500000 Y26.749950

G01 Z2 F100.0(Penetrate)
G03 X91.685943 Y26.604099 Z2 I3.119472 J3.785513 F75.000000
G02 X92.050154 Y26.119360 Z2 I-0.644022 J-0.863084
G02 X92.348642 Y24.464222 Z2 I-4.383882 J-1.645074
G02 X92.052754 Y22.753040 Z2 I-5.160151 J0.011092
G02 X91.800184 Y22.326519 Z2 I-1.209690 J0.428291
G03 X91.624996 Y22.124950 Z2 I7.375880 J-6.587460
G00 Z0.000000

(End cutting path id: path19)


(Start cutting path id: path19)
(Change tool to Default tool)

G00 Z0.000000
G00 X91.625000 Y15.000050

G01 Z2 F100.0(Penetrate)
G01 X93.625000 Y14.993050 Z2 F75.000000
G01 X94.500000 Y14.822430 Z2
G01 X95.875000 Y15.123260 Z2
G01 X100.125000 Y15.500190 Z2
G01 X101.500000 Y15.624610 Z2
G01 X102.750000 Y15.250190 Z2
G00 Z0.000000

(End cutting path id: path19)


(Start cutting path id: path19)
(Change tool to Default tool)

G00 Z0.000000
G00 X94.500000 Y14.625000

G01 Z2 F100.0(Penetrate)
G03 X94.337654 Y13.544167 Z2 I15.589572 J-2.894226 F75.000000
G03 X94.250000 Y12.250000 Z2 I13.716613 J-1.579084
G00 Z0.000000

(End cutting path id: path19)


(Start cutting path id: path19)
(Change tool to Default tool)

G00 Z0.000000
G00 X91.500000 Y15.000000

G01 Z2 F100.0(Penetrate)
G01 X91.625000 Y15.000000 Z2 F75.000000
G00 Z0.000000

(End cutting path id: path19)


(Start cutting path id: path19)
(Change tool to Default tool)

G00 Z0.000000
G00 X91.500000 Y5.375000

G01 Z2 F100.0(Penetrate)
G01 X91.625000 Y5.250000 Z2 F75.000000
G00 Z0.000000

(End cutting path id: path19)


(Start cutting path id: path19)
(Change tool to Default tool)

G00 Z0.000000
G00 X91.625000 Y5.250050

G01 Z2 F100.0(Penetrate)
G02 X91.775632 Y5.319908 Z2 I6.277311 J-13.338222 F75.000000
G03 X92.224537 Y5.643670 Z2 I-0.589928 J1.291042
G03 X92.512179 Y6.126464 Z2 I-0.975545 J0.908301
G03 X92.681038 Y6.750050 Z2 I-5.065462 J1.706313
G03 X93.129901 Y9.980088 Z2 I-24.248519 J5.015906
G02 X93.857157 Y11.849200 Z2 I3.396788 J-0.245622
G01 X94.377315 Y12.009890 Z2
G02 X94.868262 Y11.656348 Z2 I-0.453946 J-1.148021
G03 X95.500000 Y11.081550 Z2 I2.457157 J2.066009
G03 X98.054948 Y10.483222 Z2 I2.037993 J2.948363
G03 X100.500000 Y11.249080 Z2 I-1.168406 J8.016134
G02 X101.418508 Y11.691789 Z2 I17.187609 J-34.485731
G03 X102.049580 Y12.177330 Z2 I-0.770644 J1.654511
G03 X102.518023 Y13.652671 Z2 I-1.572385 J1.311295
G02 X102.878380 Y15.369550 Z2 I3.087636 J0.248191
G02 X103.299397 Y15.794060 Z2 I0.928911 J-0.500236
G02 X103.875000 Y16.007770 Z2 I1.010747 J-1.840316
G02 X104.523761 Y16.134000 Z2 I4.130062 J-19.496275
G02 X105.250000 Y16.260180 Z2 I18.088743 J-101.957975
G03 X107.300571 Y16.701945 Z2 I-4.021727 J23.647931
G02 X109.125000 Y16.996870 Z2 I2.448995 J-9.359188
G02 X110.197053 Y16.911917 Z2 I0.242377 J-3.748146
G03 X111.000000 Y16.750050 Z2 I3.800424 J16.779670
G00 Z0.000000

(End cutting path id: path19)


(Start cutting path id: path19)
(Change tool to Default tool)

G00 Z0.000000
G00 X111.500000 Y14.375000

G01 Z2 F100.0(Penetrate)
G03 X111.339208 Y14.093285 Z2 I2.091135 J-1.380281 F75.000000
G03 X111.118830 Y13.375000 Z2 I2.170727 J-1.058955
G02 X110.942763 Y12.659690 Z2 I-3.658796 J0.521257
G02 X110.566450 Y11.875000 Z2 I-3.875771 J1.376120
G02 X109.309681 Y10.501425 Z2 I-4.240982 J2.618600
G02 X107.625000 Y9.709590 Z2 I-2.770381 J3.706118
G02 X105.926418 Y9.501958 Z2 I-1.746324 J7.234589
G02 X104.250000 Y9.864490 Z2 I-0.025278 J3.940421
G02 X102.864209 Y11.074225 Z2 I1.369313 J2.967195
G03 X102.125000 Y12.125000 Z2 I-11.973193 J-7.637610
G00 Z0.000000

(End cutting path id: path19)


(Start cutting path id: path19)
(Change tool to Default tool)

G00 Z0.000000
G00 X117.875000 Y19.250050

G01 Z2 F100.0(Penetrate)
G03 X119.187024 Y17.407856 Z2 I70.426678 J48.770077 F75.000000
G02 X120.375000 Y15.625050 Z2 I-19.520169 J-14.294510
G00 Z0.000000

(End cutting path id: path19)


(Start cutting path id: path19)
(Change tool to Default tool)

G00 Z0.000000
G00 X126.500000 Y21.625000

G01 Z2 F100.0(Penetrate)
G03 X126.814314 Y21.497480 Z2 I2.019845 J4.527420 F75.000000
G02 X127.500000 Y21.173900 Z2 I-1.455608 J-3.972821
G02 X128.148924 Y20.747276 Z2 I-3.858170 J-6.575384
G03 X128.875000 Y20.258100 Z2 I6.526366 J8.903533
G03 X130.463872 Y19.354108 Z2 I13.364452 J21.641285
G03 X132.125000 Y18.601370 Z2 I7.560674 J14.475508
G03 X134.065797 Y17.862815 Z2 I62.700189 J161.845978
G03 X135.746910 Y17.343650 Z2 I5.302735 J14.189456
G03 X136.193277 Y17.266947 Z2 I0.761076 J3.091882
G03 X136.375000 Y17.250050 Z2 I1.436164 J14.459724
G00 Z0.000000

(End cutting path id: path19)


(Start cutting path id: path19)
(Change tool to Default tool)

G00 Z0.000000
G00 X133.000000 Y25.000000

G01 Z2 F100.0(Penetrate)
G02 X134.552050 Y24.208324 Z2 I-1.274599 J-4.416009 F75.000000
G03 X135.746910 Y23.444730 Z2 I4.659329 J5.974196
G03 X136.189488 Y23.287494 Z2 I0.806467 J1.568499
G03 X136.375000 Y23.250000 Z2 I2.325960 J11.030804
G00 Z0.000000

(End cutting path id: path19)


(Start cutting path id: path19)
(Change tool to Default tool)

G00 Z0.000000
G00 X125.750000 Y22.625000

G01 Z2 F100.0(Penetrate)
G03 X125.182892 Y22.611672 Z2 I-0.224591 J-2.515477 F75.000000
G03 X124.375000 Y22.425250 Z2 I0.620490 J-4.532787
G03 X123.667380 Y22.121385 Z2 I1.375540 J-4.179125
G02 X122.875000 Y21.732640 Z2 I-5.628116 J10.469873
G02 X120.903453 Y20.907217 Z2 I-19.343988 J43.436430
G03 X119.000100 Y20.123070 Z2 I22.418343 J-57.117901
G03 X118.357160 Y19.715420 Z2 I0.961730 J-2.227670
G02 X117.738810 Y19.366800 Z2 I-1.130081 J1.281739
G02 X117.155565 Y19.268741 Z2 I-0.645838 J2.057809
G03 X116.625000 Y19.211130 Z2 I0.097962 J-3.374074
G03 X114.730708 Y18.686033 Z2 I2.208472 J-11.646474
G02 X112.625000 Y17.981870 Z2 I-12.516774 J33.929267
G03 X111.628215 Y17.478335 Z2 I0.919348 J-3.058292
G03 X111.196470 Y16.750000 Z2 I0.664591 J-0.886091
G03 X111.220683 Y16.338734 Z2 I1.017111 J-0.146464
G02 X111.296880 Y16.000000 Z2 I-4.262052 J-1.136671
G02 X111.396078 Y15.208768 Z2 I-6.865992 J-1.262637
G03 X111.617280 Y14.511190 Z2 I1.539014 J0.104161
G03 X112.059386 Y13.986465 Z2 I1.917173 J1.166701
G02 X112.620080 Y13.374520 Z2 I-2.442589 J-2.800860
G03 X113.714677 Y12.048653 Z2 I11.523027 J8.398309
G03 X115.125000 Y10.973090 Z2 I3.860932 J3.600196
G03 X117.003153 Y10.353152 Z2 I2.812900 J5.366932
G03 X118.999900 Y10.750680 Z2 I0.456216 J2.921972
G03 X119.855339 Y11.562128 Z2 I-1.465538 J2.401619
G03 X120.328030 Y12.625000 Z2 I-2.647865 J1.814132
G03 X120.465519 Y13.496129 Z2 I-5.383782 J1.296129
G03 X120.500000 Y14.375000 Z2 I-11.661133 J0.897615
G03 X120.500204 Y15.116844 Z2 I-276.660051 J0.446988
G02 X120.500000 Y15.500000 Z2 I359.587450 J0.383363
G02 X120.905671 Y15.407036 Z2 I-2.243226 J-10.720428
G02 X121.500000 Y15.207850 Z2 I-0.959185 J-3.848281
G02 X122.148525 Y14.923869 Z2 I-13.541234 J-31.806538
G03 X122.875000 Y14.678530 Z2 I1.620129 J3.599116
G03 X124.633841 Y14.646275 Z2 I0.955065 J4.108782
G03 X126.170330 Y15.625480 Z2 I-0.473105 J2.437428
G03 X126.835777 Y18.016849 Z2 I-2.879647 J2.089592
G03 X126.485920 Y20.250000 Z2 I-15.990754 J-1.361217
G02 X126.331793 Y21.049892 Z2 I11.171140 J2.567297
G03 X126.115160 Y22.000000 Z2 I-6.945746 J-1.083943
G02 X126.168266 Y23.024269 Z2 I1.450078 J0.438328
G02 X126.631850 Y23.581400 Z2 I1.142448 J-0.479184
G02 X128.655591 Y24.752091 Z2 I11.562417 J-17.653081
G03 X130.875000 Y25.992380 Z2 I-14.163498 J27.950469
G03 X132.307382 Y26.881562 Z2 I-82.098021 J133.849926
G03 X133.750000 Y27.814430 Z2 I-34.895686 J55.545721
G03 X134.258716 Y28.161959 Z2 I-13.975788 J21.003980
G02 X134.750000 Y28.449650 Z2 I2.000637 J-2.853123
G02 X135.077657 Y28.584319 Z2 I1.325460 J-2.758983
G02 X135.499810 Y28.707850 Z2 I1.513655 J-4.389635
G02 X136.223228 Y28.763780 Z2 I0.534846 J-2.211455
G02 X136.375000 Y28.749950 Z2 I-0.799871 J-9.617615
G00 Z0.000000

(End cutting path id: path19)


(Footer)
M5
M2
(Using default footer. To add your own footer create file "footer" in the output dir.)
(end)
%