%
(Header)
(Generated by gcodetools from Inkscape.)
(Using default header. To add your own header create file "header" in the output dir.)
M3
(Header end.)
G21 (All units in mm)

(Start cutting path id: path5)
(Change tool to Default tool)

G00 Z0.000000
G00 X10.250000 Y172.625000

G01 Z2 F100.0(Penetrate)
G01 X11.224922 Y171.739872 Z2 F75.000000
G01 X12.500000 Y171.116512 Z2
G01 X16.750000 Y168.413483 Z2
G01 X18.342592 Y167.310860 Z2
G01 X19.016108 Y166.721643 Z2
G01 X19.875000 Y166.809413 Z2
G01 X22.125000 Y167.343749 Z2
G01 X24.500000 Y167.603780 Z2
G01 X27.750000 Y167.750577 Z2
G01 X28.875000 Y167.814237 Z2
G01 X30.000000 Y167.625579 Z2
G01 X32.249422 Y167.575909 Z2
G01 X32.917244 Y168.250580 Z2
G01 X32.611496 Y169.125000 Z2
G01 X31.375000 Y170.750000 Z2
G00 Z0.000000

(End cutting path id: path5)


(Start cutting path id: path5)
(Change tool to Default tool)

G00 Z0.000000
G00 X27.375000 Y170.250000

G01 Z2 F100.0(Penetrate)
G02 X28.333313 Y169.021976 Z2 I-5.612262 J-5.367572 F75.000000
G02 X28.750000 Y168.000000 Z2 I-2.680937 J-1.689025
G00 Z0.000000

(End cutting path id: path5)


(Start cutting path id: path5)
(Change tool to Default tool)

G00 Z0.000000
G00 X31.750000 Y161.125000

G01 Z2 F100.0(Penetrate)
G03 X35.184828 Y159.660913 Z2 I8.108622 J14.262077 F75.000000
G02 X38.625000 Y158.134163 Z2 I-4.173851 J-14.043979
G02 X41.059955 Y156.286389 Z2 I-7.750857 J-12.742155
G03 X43.375000 Y154.274595 Z2 I28.801604 J30.805166
G02 X44.477286 Y153.383990 Z2 I-850.478168 J-1053.748663
G02 X45.499905 Y152.504919 Z2 I-14.157010 J-17.503129
G02 X46.103472 Y151.664652 Z2 I-1.690060 J-1.850883
G02 X46.375000 Y150.375000 Z2 I-2.926909 J-1.289652
G00 Z0.000000

(End cutting path id: path5)


(Start cutting path id: path5)
(Change tool to Default tool)

G00 Z0.000000
G00 X39.500000 Y147.125000

G01 Z2 F100.0(Penetrate)
G02 X38.729669 Y145.819977 Z2 I-2.672400 J0.697601 F75.000000
G03 X37.375000 Y144.500000 Z2 I50.976069 J-53.670959
G02 X36.308088 Y143.646942 Z2 I-4.369530 J4.371215
G02 X35.000000 Y143.750000 Z2 I-0.585175 J0.925664
G00 Z0.000000

(End cutting path id: path5)


(Start cutting path id: path5)
(Change tool to Default tool)

G00 Z0.000000
G00 X35.625000 Y143.000000

G01 Z2 F100.0(Penetrate)
G02 X33.676033 Y140.382356 Z2 I-14.742755 J8.942347 F75.000000
G03 X31.179880 Y137.375095 Z2 I34.542346 J-31.211181
G01 X29.999905 Y136.504822 Z2
G02 X29.253762 Y136.791451 Z2 I-0.000071 J1.114294
G02 X28.850792 Y137.178627 Z2 I5.881513 J6.524738
G02 X28.181896 Y138.172811 Z2 I2.376845 J2.321275
G02 X27.875000 Y139.500000 Z2 I3.418760 J1.489623
G00 Z0.000000

(End cutting path id: path5)


(Start cutting path id: path5)
(Change tool to Default tool)

G00 Z0.000000
G00 X25.000000 Y145.375000

G01 Z2 F100.0(Penetrate)
G03 X25.143964 Y144.494844 Z2 I3.163885 J0.065654 F75.000000
G03 X25.625000 Y143.625000 Z2 I2.368120 J0.741672
G00 Z0.000000

(End cutting path id: path5)


(Start cutting path id: path5)
(Change tool to Default tool)

G00 Z0.000000
G00 X20.500000 Y145.125000

G01 Z2 F100.0(Penetrate)
G03 X20.860267 Y142.247853 Z2 I11.668807 J0.000000 F75.000000
G03 X21.847609 Y139.500000 Z2 I14.789647 J3.762819
G02 X22.405693 Y138.295040 Z2 I-85.575271 J-40.366352
G03 X22.926119 Y137.250580 Z2 I14.947001 J6.795804
G02 X23.182091 Y136.694582 Z2 I-4.055528 J-2.204014
G02 X23.250000 Y136.500000 Z2 I-3.283858 J-1.255213
G00 Z0.000000

(End cutting path id: path5)


(Start cutting path id: path5)
(Change tool to Default tool)

G00 Z0.000000
G00 X13.500000 Y142.750000

G01 Z2 F100.0(Penetrate)
G03 X14.664408 Y141.517417 Z2 I5.500954 J4.030397 F75.000000
G03 X15.500000 Y141.000000 Z2 I2.326009 J2.822924
G00 Z0.000000

(End cutting path id: path5)


(Start cutting path id: path5)
(Change tool to Default tool)

G00 Z0.000000
G00 X12.124999 Y147.375000

G01 Z2 F100.0(Penetrate)
G03 X13.578895 Y145.953960 Z2 I9.727571 J8.498210 F75.000000
G03 X15.124999 Y145.375000 Z2 I1.599563 J1.917705
G00 Z0.000000

(End cutting path id: path5)


(Start cutting path id: path5)
(Change tool to Default tool)

G00 Z0.000000
G00 X14.875000 Y149.500000

G01 Z2 F100.0(Penetrate)
G03 X14.974398 Y148.080429 Z2 I14.444541 J0.298136 F75.000000
G02 X15.121914 Y146.500000 Z2 I-30.190813 J-3.615089
G03 X15.165316 Y145.951622 Z2 I22.841922 J1.531929
G03 X15.231096 Y145.375000 Z2 I12.792188 J1.167254
G03 X15.316869 Y144.834954 Z2 I12.691458 J1.738899
G02 X15.391204 Y144.375000 Z2 I-12.307604 J-2.225056
G03 X15.509573 Y143.591071 Z2 I47.474869 J6.767556
G02 X15.615644 Y142.750000 Z2 I-12.811716 J-2.042961
G02 X15.682596 Y141.745754 Z2 I-19.128891 J-1.779666
G03 X15.792921 Y141.000000 Z2 I3.543162 J0.143127
G03 X15.976568 Y140.487217 Z2 I2.916130 J0.755097
G02 X16.148920 Y140.000000 Z2 I-2.486014 J-1.153518
G03 X16.629285 Y138.147134 Z2 I114.797450 J28.773149
G02 X16.863329 Y136.895061 Z2 I-8.000958 J-2.143489
G02 X16.874794 Y136.638952 Z2 I-2.021890 J-0.218822
G03 X16.874999 Y136.500000 Z2 I3.506483 J-0.064300
G00 Z0.000000

(End cutting path id: path5)


(Start cutting path id: path5)
(Change tool to Default tool)

G00 Z0.000000
G00 X22.375000 Y151.000000

G01 Z2 F100.0(Penetrate)
G03 X22.432932 Y150.129358 Z2 I1.543928 J-0.334517 F75.000000
G03 X22.875000 Y149.375000 Z2 I2.249704 J0.811661
G00 Z0.000000

(End cutting path id: path5)


(Start cutting path id: path5)
(Change tool to Default tool)

G00 Z0.000000
G00 X28.875000 Y154.000000

G01 Z2 F100.0(Penetrate)
G01 X29.750000 Y153.125000 Z2 F75.000000
G00 Z0.000000

(End cutting path id: path5)


(Start cutting path id: path5)
(Change tool to Default tool)

G00 Z0.000000
G00 X29.250000 Y159.000000

G01 Z2 F100.0(Penetrate)
G03 X30.963015 Y157.646651 Z2 I7.196199 J7.347856 F75.000000
G02 X32.750000 Y156.416859 Z2 I-14.297935 J-22.689234
G02 X35.651298 Y154.057005 Z2 I-28.305665 J-37.763529
G02 X38.375000 Y151.500000 Z2 I-39.388251 J-44.685183
G03 X39.447225 Y150.485192 Z2 I19.109969 J19.117352
G02 X40.500000 Y149.500483 Z2 I-22.454160 J-25.061379
G01 X41.500000 Y148.813370 Z2
G01 X42.750000 Y149.408081 Z2
G02 X44.385657 Y150.698452 Z2 I101.167096 J-126.556200
G03 X45.875000 Y152.000000 Z2 I-10.719749 J13.769350
G00 Z0.000000

(End cutting path id: path5)


(Start cutting path id: path5)
(Change tool to Default tool)

G00 Z0.000000
G00 X44.250000 Y160.000000

G01 Z2 F100.0(Penetrate)
G01 X44.875000 Y159.750000 Z2 F75.000000
G00 Z0.000000

(End cutting path id: path5)


(Start cutting path id: path5)
(Change tool to Default tool)

G00 Z0.000000
G00 X38.625000 Y162.375000

G01 Z2 F100.0(Penetrate)
G01 X40.250000 Y161.625000 Z2 F75.000000
G00 Z0.000000

(End cutting path id: path5)


(Start cutting path id: path5)
(Change tool to Default tool)

G00 Z0.000000
G00 X37.500000 Y166.875000

G01 Z2 F100.0(Penetrate)
G02 X39.468546 Y166.460499 Z2 I-1.630395 J-12.624822 F75.000000
G03 X41.125000 Y166.500000 Z2 I0.766670 J2.601123
G00 Z0.000000

(End cutting path id: path5)


(Start cutting path id: path5)
(Change tool to Default tool)

G00 Z0.000000
G00 X39.250000 Y170.500000

G01 Z2 F100.0(Penetrate)
G02 X40.262120 Y169.171529 Z2 I-15.402151 J-12.784203 F75.000000
G02 X40.976852 Y167.625000 Z2 I-3.980398 J-2.777971
G02 X41.120920 Y166.893444 Z2 I-5.814379 J-1.525011
G03 X41.518517 Y166.217302 Z2 I1.000218 J0.133194
G03 X43.503216 Y165.446536 Z2 I2.387087 J3.206026
G02 X45.499809 Y165.095005 Z2 I-1.390767 J-13.744922
G03 X46.164309 Y165.004626 Z2 I0.732108 J2.894722
G03 X46.375000 Y164.999995 Z2 I3.578821 J158.016963
G00 Z0.000000

(End cutting path id: path5)


(Start cutting path id: path5)
(Change tool to Default tool)

G00 Z0.000000
G00 X43.000000 Y170.500000

G01 Z2 F100.0(Penetrate)
G02 X43.822953 Y168.789094 Z2 I-22.880811 J-12.059138 F75.000000
G03 X45.000000 Y167.250000 Z2 I3.716103 J1.622320
G00 Z0.000000

(End cutting path id: path5)


(Start cutting path id: path5)
(Change tool to Default tool)

G00 Z0.000000
G00 X35.875000 Y170.500000

G01 Z2 F100.0(Penetrate)
G03 X37.227606 Y168.853729 Z2 I3.508142 J1.503555 F75.000000
G02 X37.299576 Y167.111111 Z2 I-0.614657 J-0.898181
G01 X36.000000 Y167.108700 Z2
G03 X34.217910 Y167.296059 Z2 I-3.674978 J-26.386129
G02 X32.625000 Y167.500000 Z2 I1.015224 J14.252313
G00 Z0.000000

(End cutting path id: path5)


(Start cutting path id: path5)
(Change tool to Default tool)

G00 Z0.000000
G00 X18.625000 Y166.500000

G01 Z2 F100.0(Penetrate)
G01 X17.749905 Y166.120081 Z2 F75.000000
G01 X16.927277 Y165.731482 Z2
G01 X16.262732 Y164.250193 Z2
G01 X15.750000 Y163.375000 Z2
G00 Z0.000000

(End cutting path id: path5)


(Start cutting path id: path5)
(Change tool to Default tool)

G00 Z0.000000
G00 X19.625000 Y158.500000

G01 Z2 F100.0(Penetrate)
G02 X21.828603 Y155.880269 Z2 I-28.022333 J-25.807809 F75.000000
G03 X24.021219 Y153.250000 Z2 I33.543998 J25.733557
G03 X27.433337 Y149.706041 Z2 I58.780036 J53.178746
G02 X30.802952 Y146.125000 Z2 I-40.425022 J-41.414175
G02 X32.094145 Y144.492868 Z2 I-18.232908 J-15.751006
G03 X33.625000 Y143.114101 Z2 I3.975766 J2.875079
G01 X34.837193 Y143.625580 Z2
G03 X34.489295 Y145.057153 Z2 I-1.367431 J0.425749
G02 X33.243345 Y146.625000 Z2 I6.666131 J6.576493
G03 X32.087023 Y148.431492 Z2 I-180.492528 J-114.258668
G02 X30.950134 Y150.250000 Z2 I57.439578 J37.174500
G03 X30.426049 Y151.080476 Z2 I-21.128008 J-12.752564
G02 X30.030670 Y151.875000 Z2 I3.066771 J2.021755
G02 X29.815476 Y152.698307 Z2 I4.724154 J1.674569
G02 X29.750000 Y153.125000 Z2 I11.557411 J1.991838
G02 X30.156630 Y153.079171 Z2 I-0.544887 J-6.661570
G02 X30.875000 Y152.870564 Z2 I-0.382200 J-2.657372
G02 X31.992581 Y152.242387 Z2 I-2.933699 J-6.527531
G03 X33.250000 Y151.414833 Z2 I21.638523 J31.509376
G02 X35.700381 Y149.830451 Z2 I-67.121047 J-106.495409
G03 X38.125000 Y148.256653 Z2 I81.291263 J122.584085
G02 X38.850325 Y147.698612 Z2 I-2.733604 J-4.303458
G03 X39.521221 Y147.263405 Z2 I1.601629 J1.734285
G01 X40.611496 Y147.569733 Z2
G03 X41.089393 Y148.233585 Z2 I-1.024787 J1.241671
G03 X41.250000 Y148.750000 Z2 I-3.851712 J1.481077
G00 Z0.000000

(End cutting path id: path5)


(Start cutting path id: path5)
(Change tool to Default tool)

G00 Z0.000000
G00 X39.125000 Y143.750000

G01 Z2 F100.0(Penetrate)
G01 X43.250000 Y139.750000 Z2 F75.000000
G00 Z0.000000

(End cutting path id: path5)


(Start cutting path id: path5)
(Change tool to Default tool)

G00 Z0.000000
G00 X34.250000 Y142.875000

G01 Z2 F100.0(Penetrate)
G01 X34.875000 Y142.250000 Z2 F75.000000
G00 Z0.000000

(End cutting path id: path5)


(Start cutting path id: path5)
(Change tool to Default tool)

G00 Z0.000000
G00 X12.875000 Y156.625000

G01 Z2 F100.0(Penetrate)
G03 X13.656830 Y156.134514 Z2 I1.205077 J1.052525 F75.000000
G03 X14.625000 Y156.000000 Z2 I0.999888 J3.645247
G00 Z0.000000

(End cutting path id: path5)


(Start cutting path id: path5)
(Change tool to Default tool)

G00 Z0.000000
G00 X10.875000 Y155.250000

G01 Z2 F100.0(Penetrate)
G01 X13.125000 Y153.125000 Z2 F75.000000
G00 Z0.000000

(End cutting path id: path5)


(Start cutting path id: path5)
(Change tool to Default tool)

G00 Z0.000000
G00 X11.000000 Y171.500000

G01 Z2 F100.0(Penetrate)
G03 X11.827003 Y168.936123 Z2 I5.073503 J0.221190 F75.000000
G02 X13.322338 Y166.500000 Z2 I-39.897301 J-26.166647
G02 X13.924059 Y165.425359 Z2 I-52.766134 J-30.250999
G03 X14.519290 Y164.375095 Z2 I34.619058 J18.926338
G03 X15.105163 Y163.684319 Z2 I2.275241 J1.335880
G03 X15.750000 Y163.375000 Z2 I0.934196 J1.120711
G02 X15.709200 Y162.888561 Z2 I-5.984036 J0.256979
G02 X15.625000 Y162.250000 Z2 I-47.961250 J5.999296
G02 X15.283605 Y159.952497 Z2 I-117.931084 J16.349713
G03 X14.928048 Y157.500000 Z2 I92.053588 J-14.597736
G03 X14.838957 Y156.730441 Z2 I24.885863 J-3.270953
G03 X14.802469 Y156.000000 Z2 I7.293029 J-0.730441
G03 X14.818357 Y155.235594 Z2 I18.396203 J-0.000000
G02 X14.785689 Y154.375000 Z2 I-5.417044 J-0.225286
G03 X14.757659 Y152.617466 Z2 I8.613942 J-1.016370
G02 X14.870089 Y150.875000 Z2 I-41.189839 J-3.532575
G01 X14.746536 Y149.789738 Z2
G01 X13.999912 Y149.519096 Z2
G02 X12.798413 Y150.151078 Z2 I0.154894 J1.752590
G02 X12.000000 Y151.250000 Z2 I8.426580 J6.961768
G00 Z0.000000

(End cutting path id: path5)


(Footer)
M5
M2
(Using default footer. To add your own footer create file "footer" in the output dir.)
(end)
%