%
(Header)
(Generated by gcodetools from Inkscape.)
(Using default header. To add your own header create file "header" in the output dir.)
M3
(Header end.)
G21 (All units in mm)

(Start cutting path id: path9)
(Change tool to Default tool)

G00 Z0.000000
G00 X17.250000 Y135.875000

G01 Z2 F100.0(Penetrate)
G03 X17.470831 Y134.885547 Z2 I6.828659 J1.004688 F75.000000
G03 X17.791666 Y133.875000 Z2 I35.423979 J10.690411
G03 X19.124575 Y130.378027 Z2 I41.868593 J13.956156
G03 X21.029514 Y127.125000 Z2 I14.089562 J6.066431
G03 X21.655666 Y126.351494 Z2 I14.339678 J10.967768
G03 X22.375000 Y125.712482 Z2 I2.687728 J2.301184
G01 X23.244598 Y125.418980 Z2
G01 X23.900560 Y126.002026 Z2
G03 X24.397840 Y126.904453 Z2 I-18.882765 J10.993526
G02 X24.913580 Y127.875000 Z2 I58.183284 J-30.295765
G02 X25.760151 Y129.316899 Z2 I21.571897 J-11.695873
G03 X26.584587 Y130.750000 Z2 I-16.269524 J10.313241
G03 X26.808049 Y131.243430 Z2 I-4.463166 J2.318569
G02 X27.065008 Y131.714314 Z2 I1.955415 J-0.761508
G02 X27.385351 Y132.105250 Z2 I3.481893 J-2.526436
G03 X27.706501 Y132.501831 Z2 I-2.906307 J2.681842
G02 X28.894704 Y134.107329 Z2 I38.801970 J-27.474272
G03 X29.625000 Y135.750000 Z2 I-2.994104 J2.314787
G00 Z0.000000

(End cutting path id: path9)


(Start cutting path id: path9)
(Change tool to Default tool)

G00 Z0.000000
G00 X23.750000 Y135.875000

G01 Z2 F100.0(Penetrate)
G03 X25.382070 Y133.264473 Z2 I11.508500 J5.379535 F75.000000
G03 X26.875000 Y131.750000 Z2 I8.446360 J6.833132
G00 Z0.000000

(End cutting path id: path9)


(Start cutting path id: path9)
(Change tool to Default tool)

G00 Z0.000000
G00 X23.250000 Y125.250000

G01 Z2 F100.0(Penetrate)
G02 X22.987395 Y124.394114 Z2 I-4.176132 J0.813103 F75.000000
G02 X22.500000 Y123.625000 Z2 I-2.600775 J1.109144
G00 Z0.000000

(End cutting path id: path9)


(Start cutting path id: path9)
(Change tool to Default tool)

G00 Z0.000000
G00 X21.375000 Y124.875000

G01 Z2 F100.0(Penetrate)
G03 X22.016903 Y124.025495 Z2 I2.015911 J0.855994 F75.000000
G02 X22.371143 Y123.473862 Z2 I-0.650245 J-0.807122
G01 X22.151909 Y122.375000 Z2
G03 X21.278301 Y120.301369 Z2 I180.711349 J-77.353406
G03 X20.446470 Y118.250095 Z2 I131.948145 J-54.701815
G01 X19.374905 Y117.128471 Z2
G02 X18.692860 Y117.158939 Z2 I-0.263586 J1.748676
G02 X17.875000 Y117.380304 Z2 I3.941382 J16.183471
G02 X16.640074 Y117.821682 Z2 I3.504014 J11.752125
G02 X15.823591 Y118.423803 Z2 I0.829138 J1.978961
G02 X15.468176 Y119.257873 Z2 I1.200252 J1.004213
G02 X15.376833 Y120.625000 Z2 I16.134367 J1.764614
G02 X15.909344 Y123.382157 Z2 I6.570613 J0.160970
G02 X18.000000 Y125.454571 Z2 I3.611972 J-1.553030
G02 X19.611278 Y125.554853 Z2 I0.949603 J-2.262994
G02 X21.125000 Y125.125000 Z2 I-57.407609 J-205.040343
G00 Z0.000000

(End cutting path id: path9)


(Start cutting path id: path9)
(Change tool to Default tool)

G00 Z0.000000
G00 X22.000000 Y126.000000

G01 Z2 F100.0(Penetrate)
G01 X21.125000 Y125.125000 Z2 F75.000000
G01 X21.375000 Y124.875000 Z2
G01 X22.250000 Y125.750000 Z2
G00 Z0.000000

(End cutting path id: path9)


(Start cutting path id: path9)
(Change tool to Default tool)

G00 Z0.000000
G00 X19.625000 Y116.875000

G01 Z2 F100.0(Penetrate)
G02 X19.586624 Y116.487364 Z2 I-9.753564 J0.769888 F75.000000
G02 X19.481867 Y115.750000 Z2 I-16.407671 J1.954906
G02 X19.341051 Y115.159277 Z2 I-4.263231 J0.704118
G03 X19.142651 Y114.500000 Z2 I27.313440 J-8.579089
G02 X18.648606 Y112.806862 Z2 I-234.405770 J67.479167
G03 X18.161266 Y111.125000 Z2 I153.009700 J-45.247983
G03 X17.985544 Y110.487621 Z2 I42.195107 J-11.975851
G03 X17.831308 Y109.875000 Z2 I20.568634 J-5.504185
G02 X17.438936 Y108.940340 Z2 I-2.991395 J0.706104
G02 X17.000000 Y108.375000 Z2 I-3.122235 J1.971069
G00 Z0.000000

(End cutting path id: path9)


(Start cutting path id: path9)
(Change tool to Default tool)

G00 Z0.000000
G00 X11.375000 Y110.250000

G01 Z2 F100.0(Penetrate)
G02 X10.094343 Y109.271408 Z2 I-6.822074 J7.600592 F75.000000
G03 X8.933063 Y106.625000 Z2 I1.422413 J-2.202170
G03 X9.747110 Y104.630186 Z2 I4.927136 J0.847167
G03 X11.250000 Y103.097607 Z2 I5.189314 J3.585609
G01 X12.174961 Y102.123554 Z2
G01 X11.250000 Y100.988811 Z2
G03 X9.921642 Y99.230640 Z2 I4.491890 J-4.774670
G03 X9.537616 Y97.000000 Z2 I3.317887 J-1.719583
G03 X10.178058 Y95.138399 Z2 I5.053830 J0.697692
G03 X11.375096 Y93.866993 Z2 I3.316280 J1.923088
G01 X12.152199 Y93.004917 Z2
G01 X11.000000 Y92.296875 Z2
G02 X10.390298 Y92.156641 Z2 I-3.657178 J14.504916
G03 X9.875000 Y91.981869 Z2 I0.456069 J-2.191718
G03 X9.419566 Y91.725343 Z2 I1.769593 J-3.674270
G02 X8.875000 Y91.518421 Z2 I-0.748418 J1.149605
G02 X7.537987 Y91.456487 Z2 I-0.968507 J6.445310
G03 X6.000000 Y91.500000 Z2 I-1.537987 J-27.158429
G00 Z0.000000

(End cutting path id: path9)


(Start cutting path id: path9)
(Change tool to Default tool)

G00 Z0.000000
G00 X12.375000 Y93.125004

G01 Z2 F100.0(Penetrate)
G01 X14.000000 Y93.251350 Z2 F75.000000
G01 X15.250000 Y93.375000 Z2
G00 Z0.000000

(End cutting path id: path9)


(Start cutting path id: path9)
(Change tool to Default tool)

G00 Z0.000000
G00 X12.375000 Y102.125000

G01 Z2 F100.0(Penetrate)
G02 X12.900758 Y102.098652 Z2 I-0.052124 J-6.298928 F75.000000
G02 X13.500000 Y102.035690 Z2 I-2.156508 J-23.407641
G03 X15.042940 Y101.900850 Z2 I2.993054 J25.353642
G02 X15.875000 Y101.625004 Z2 I-0.095658 J-1.681376
G00 Z0.000000

(End cutting path id: path9)


(Start cutting path id: path9)
(Change tool to Default tool)

G00 Z0.000000
G00 X15.625000 Y118.500000

G01 Z2 F100.0(Penetrate)
G02 X15.195277 Y118.346991 Z2 I-0.735155 J1.384730 F75.000000
G02 X14.500000 Y118.322048 Z2 I-0.424814 J2.138785
G03 X12.997098 Y118.341886 Z2 I-0.840321 J-6.722628
G03 X11.500000 Y117.991802 Z2 I0.572257 J-5.823327
G03 X9.612287 Y116.555804 Z2 I1.472378 J-3.894298
G03 X9.037520 Y114.250000 Z2 I2.538707 J-1.857361
G03 X9.703112 Y112.566277 Z2 I3.873894 J0.557969
G03 X10.733411 Y111.250000 Z2 I12.632131 J8.826276
G02 X11.106997 Y110.702519 Z2 I-2.091284 J-1.828240
G03 X11.527971 Y110.199942 Z2 I1.344547 J0.698634
G03 X12.060438 Y109.975356 Z2 I0.694687 J0.903518
G02 X12.625000 Y109.884548 Z2 I-2.442720 J-16.987055
G02 X13.318340 Y109.721256 Z2 I-1.132026 J-6.360213
G02 X14.000000 Y109.491995 Z2 I-2.675552 J-9.083213
G02 X14.766334 Y109.196090 Z2 I-24.022375 J-63.353442
G03 X15.500000 Y108.947338 Z2 I2.974263 J7.565933
G03 X16.335326 Y108.721487 Z2 I7.864540 J27.429904
G02 X16.924576 Y108.340181 Z2 I-0.270379 J-1.063780
G01 X17.020736 Y106.875000 Z2
G02 X16.710038 Y104.822229 Z2 I-23.704998 J2.537980
G03 X16.343653 Y102.875000 Z2 I124.815624 J-24.493038
G02 X16.165501 Y102.250752 Z2 I-3.206460 J0.577536
G03 X15.996140 Y101.625000 Z2 I2.660862 J-1.055963
G03 X15.932899 Y100.884357 Z2 I5.599010 J-0.851103
G02 X15.886091 Y99.875000 Z2 I-18.825473 J0.367248
G02 X15.648501 Y97.350870 Z2 I-61.140708 J4.481764
G03 X15.500095 Y94.875000 Z2 I22.550922 J-2.594110
G02 X15.437313 Y94.042730 Z2 I-5.953394 J0.030590
G03 X15.404515 Y93.250000 Z2 I3.777509 J-0.553332
G02 X15.488722 Y91.877182 Z2 I-464.896493 J-29.205062
G02 X15.500000 Y91.500000 Z2 I-6.301409 J-0.377182
G00 Z0.000000

(End cutting path id: path9)


(Start cutting path id: path9)
(Change tool to Default tool)

G00 Z0.000000
G00 X43.875000 Y91.500000

G01 Z2 F100.0(Penetrate)
G03 X44.907985 Y91.947853 Z2 I-1.030473 J3.792044 F75.000000
G02 X46.105133 Y92.533855 Z2 I3.590034 J-5.818274
G01 X46.375000 Y92.625000 Z2
G00 Z0.000000

(End cutting path id: path9)


(Start cutting path id: path9)
(Change tool to Default tool)

G00 Z0.000000
G00 X46.375000 Y109.750000

G01 Z2 F100.0(Penetrate)
G01 X46.375000 Y109.250000 Z2 F75.000000
G00 Z0.000000

(End cutting path id: path9)


(Footer)
M5
M2
(Using default footer. To add your own footer create file "footer" in the output dir.)
(end)
%