%
(Header)
(Generated by gcodetools from Inkscape.)
(Using default header. To add your own header create file "header" in the output dir.)
M3
(Header end.)
G21 (All units in mm)

(Start cutting path id: path7)
(Change tool to Default tool)

G00 Z0.000000
G00 X91.500000 Y176.125000

G01 Z2 F100.0(Penetrate)
G03 X91.683043 Y175.971080 Z2 I3.685660 J4.197217 F75.000000
G02 X92.010899 Y175.600792 Z2 I-0.925577 J-1.149801
G02 X92.239699 Y175.032553 Z2 I-1.505972 J-0.936558
G03 X92.421779 Y174.250000 Z2 I20.259836 J4.301485
G03 X93.027225 Y171.958109 Z2 I111.914524 J28.338396
G02 X93.609182 Y169.750000 Z2 I-101.545619 J-27.943556
G03 X94.109250 Y168.755643 Z2 I2.482626 J0.625605
G02 X94.420621 Y167.875095 Z2 I-1.068672 J-0.873220
G01 X93.624904 Y167.039738 Z2
G02 X92.993660 Y166.978631 Z2 I-0.516728 J2.046883
G03 X92.253086 Y166.990158 Z2 I-0.519116 J-9.555733
G02 X91.791518 Y166.992768 Z2 I-0.185435 J8.021295
G02 X91.625000 Y167.000000 Z2 I0.319358 J9.273892
G00 Z0.000000

(End cutting path id: path7)


(Start cutting path id: path7)
(Change tool to Default tool)

G00 Z0.000000
G00 X91.500000 Y167.000000

G01 Z2 F100.0(Penetrate)
G01 X91.625000 Y167.000000 Z2 F75.000000
G00 Z0.000000

(End cutting path id: path7)


(Start cutting path id: path7)
(Change tool to Default tool)

G00 Z0.000000
G00 X91.875000 Y166.875000

G01 Z2 F100.0(Penetrate)
G01 X91.625000 Y165.625000 Z2 F75.000000
G00 Z0.000000

(End cutting path id: path7)


(Start cutting path id: path7)
(Change tool to Default tool)

G00 Z0.000000
G00 X94.500000 Y167.500000

G01 Z2 F100.0(Penetrate)
G03 X95.026956 Y167.111595 Z2 I2.004734 J2.168192 F75.000000
G03 X95.875000 Y166.875578 Z2 I0.881095 J1.524318
G03 X96.518871 Y166.875444 Z2 I0.325548 J17.340843
G02 X97.250000 Y166.873178 Z2 I0.312765 J-17.038197
G02 X99.472777 Y166.696009 Z2 I-0.496223 J-20.257771
G03 X101.250000 Y166.464902 Z2 I22.801232 J168.393712
G01 X102.799580 Y166.923814 Z2
G03 X102.927881 Y167.710801 Z2 I-1.310059 J0.617528
G02 X102.874980 Y168.625011 Z2 I7.650466 J0.901332
G02 X102.892404 Y169.291003 Z2 I13.567874 J-0.021751
G02 X103.039240 Y169.875011 Z2 I1.547108 J-0.078522
G02 X103.396559 Y170.449338 Z2 I2.672702 J-1.264511
G03 X103.786730 Y171.000011 Z2 I-4.828616 J3.834805
G02 X104.627761 Y172.034699 Z2 I4.680782 J-2.945551
G02 X105.874980 Y172.701206 Z2 I1.797315 J-1.863075
G02 X107.714981 Y172.424199 Z2 I0.555966 J-2.556577
G02 X109.066430 Y171.125011 Z2 I-1.839908 J-3.266420
G02 X109.377670 Y170.505696 Z2 I-3.405697 J-2.099413
G02 X109.567110 Y169.875011 Z2 I-3.514146 J-1.399346
G01 X110.131830 Y168.907032 Z2
G01 X111.093150 Y169.626941 Z2
G02 X112.609939 Y170.927068 Z2 I4.170778 J-3.330984
G02 X114.749980 Y171.337299 Z2 I1.666921 J-2.908714
G02 X117.012426 Y170.325399 Z2 I-0.635075 J-4.455108
G02 X118.513680 Y168.375011 Z2 I-3.709837 J-4.408506
G02 X118.962458 Y166.601239 Z2 I-4.314910 J-2.035364
G02 X118.999980 Y165.250011 Z2 I-24.907999 J-1.367795
G03 X119.570708 Y165.294513 Z2 I-0.103433 J5.008469
G02 X120.249980 Y165.363822 Z2 I1.379842 J-10.160032
G02 X120.994571 Y165.390456 Z2 I0.780169 J-11.389282
G02 X121.749980 Y165.337492 Z2 I0.016153 J-5.183153
G02 X123.037558 Y165.012790 Z2 I-0.912912 J-6.335311
G02 X124.249980 Y164.460853 Z2 I-3.005904 J-8.210585
G02 X126.041602 Y162.552954 Z2 I-2.048103 J-3.718447
G02 X126.749980 Y160.875011 Z2 I-20.026189 J-9.442962
G01 X127.874980 Y161.255798 Z2
G01 X129.499980 Y162.211431 Z2
G01 X132.999980 Y163.849933 Z2
G01 X135.624400 Y164.831512 Z2
G01 X136.375000 Y165.000000 Z2
G00 Z0.000000

(End cutting path id: path7)


(Start cutting path id: path7)
(Change tool to Default tool)

G00 Z0.000000
G00 X131.625000 Y155.750000

G01 Z2 F100.0(Penetrate)
G03 X132.677352 Y154.828079 Z2 I2.975484 J2.334868 F75.000000
G02 X134.500000 Y153.703318 Z2 I-27.931594 J-47.301643
G03 X135.035648 Y153.418895 Z2 I1.951371 J3.028376
G03 X135.499810 Y153.278069 Z2 I0.873802 J2.044701
G03 X136.235144 Y153.240958 Z2 I0.504420 J2.691123
G02 X136.375000 Y153.249999 Z2 I0.297264 J-3.512159
G00 Z0.000000

(End cutting path id: path7)


(Start cutting path id: path7)
(Change tool to Default tool)

G00 Z0.000000
G00 X125.625000 Y159.375000

G01 Z2 F100.0(Penetrate)
G02 X125.818970 Y159.103103 Z2 I-5.162191 J-3.887818 F75.000000
G03 X126.276330 Y158.620564 Z2 I1.679417 J1.133767
G03 X126.790679 Y158.314195 Z2 I1.642047 J2.171818
G02 X127.375000 Y158.027391 Z2 I-4.610347 J-10.131526
G02 X128.927441 Y157.156087 Z2 I-16.030277 J-30.380542
G03 X130.375000 Y156.333527 Z2 I20.671805 J34.693681
G03 X130.815047 Y156.110305 Z2 I4.402957 J8.134383
G03 X131.244600 Y156.010223 Z2 I0.445186 J0.938878
G01 X132.380400 Y156.844618 Z2
G02 X134.261780 Y158.006295 Z2 I11.744614 J-16.916524
G02 X135.746910 Y158.771894 Z2 I17.049251 J-31.249364
G02 X136.187857 Y158.944637 Z2 I1.309885 J-2.694481
G02 X136.375000 Y159.000000 Z2 I4.267766 J-14.082300
G00 Z0.000000

(End cutting path id: path7)


(Start cutting path id: path7)
(Change tool to Default tool)

G00 Z0.000000
G00 X118.000000 Y162.625000

G01 Z2 F100.0(Penetrate)
G01 X118.750580 Y162.008778 Z2 F75.000000
G01 X120.125000 Y161.424576 Z2
G01 X124.125000 Y159.699749 Z2
G01 X125.361980 Y159.469618 Z2
G01 X126.044560 Y160.001928 Z2
G01 X126.625000 Y160.750000 Z2
G00 Z0.000000

(End cutting path id: path7)


(Start cutting path id: path7)
(Change tool to Default tool)

G00 Z0.000000
G00 X109.750000 Y165.625000

G01 Z2 F100.0(Penetrate)
G02 X110.226514 Y165.145861 Z2 I-6.855523 J-7.294495 F75.000000
G03 X111.126830 Y164.496141 Z2 I2.079598 J1.933051
G03 X112.554167 Y164.014583 Z2 I3.044641 J6.668213
G02 X114.250000 Y163.541666 Z2 I-3.925040 J-17.351812
G02 X115.111153 Y163.245267 Z2 I-14.350263 J-43.092139
G03 X116.000000 Y162.969522 Z2 I3.829908 J10.775048
G02 X116.805792 Y162.678048 Z2 I-1.268528 J-4.766462
G03 X117.608310 Y162.602045 Z2 I0.508814 J1.097678
G01 X118.237370 Y163.625000 Z2
G02 X118.562055 Y164.368305 Z2 I4.454198 J-1.503084
G03 X118.875000 Y165.125000 Z2 I-3.397280 J1.848067
G00 Z0.000000

(End cutting path id: path7)


(Start cutting path id: path7)
(Change tool to Default tool)

G00 Z0.000000
G00 X110.000000 Y168.750000

G01 Z2 F100.0(Penetrate)
G02 X109.950679 Y167.616144 Z2 I-13.089492 J0.001374 F75.000000
G02 X109.864200 Y166.625000 Z2 I-2559.700721 J222.838418
G02 X109.817818 Y166.241182 Z2 I-5.844585 J0.511566
G02 X109.554490 Y165.704765 Z2 I-0.989197 J0.152756
G02 X108.821850 Y165.325442 Z2 I-0.913712 J0.867593
G02 X108.000000 Y165.322531 Z2 I-0.421204 J2.900536
G02 X105.806833 Y165.643079 Z2 I18.905412 J137.012637
G02 X103.875000 Y166.088638 Z2 I2.058227 J13.334704
G02 X103.220315 Y166.445444 Z2 I0.558267 J1.803360
G02 X102.875000 Y166.750000 Z2 I5.923383 J7.064168
G00 Z0.000000

(End cutting path id: path7)


(Start cutting path id: path7)
(Change tool to Default tool)

G00 Z0.000000
G00 X94.500000 Y168.250000

G01 Z2 F100.0(Penetrate)
G03 X94.759011 Y168.553827 Z2 I-7.129732 J6.340384 F75.000000
G03 X95.094136 Y169.125191 Z2 I-1.666078 J1.361175
G03 X95.277663 Y169.640079 Z2 I-7.590640 J2.995769
G02 X95.544946 Y170.250000 Z2 I3.052102 J-0.973982
G02 X96.618857 Y171.546399 Z2 I4.210045 J-2.394516
G02 X98.125000 Y172.385513 Z2 I2.866022 J-3.373020
G02 X100.525072 Y172.264992 Z2 I1.041126 J-3.224827
G02 X102.196950 Y170.875000 Z2 I-1.572244 J-3.591550
G03 X102.602811 Y170.328045 Z2 I6.689517 J4.539813
G03 X103.000000 Y169.875000 Z2 I5.963049 J4.827229
G00 Z0.000000

(End cutting path id: path7)


(Start cutting path id: path7)
(Change tool to Default tool)

G00 Z0.000000
G00 X91.500000 Y138.000000

G01 Z2 F100.0(Penetrate)
G02 X92.042196 Y137.282858 Z2 I-1.361586 J-1.592964 F75.000000
G02 X92.250000 Y136.500000 Z2 I-2.153169 J-0.990552
G00 Z0.000000

(End cutting path id: path7)


(Start cutting path id: path7)
(Change tool to Default tool)

G00 Z0.000000
G00 X109.375000 Y136.500000

G01 Z2 F100.0(Penetrate)
G01 X109.875000 Y136.500000 Z2 F75.000000
G00 Z0.000000

(End cutting path id: path7)


(Footer)
M5
M2
(Using default footer. To add your own footer create file "footer" in the output dir.)
(end)
%