%
(Header)
(Generated by gcodetools from Inkscape.)
(Using default header. To add your own header create file "header" in the output dir.)
M3
(Header end.)
G21 (All units in mm)

(Start cutting path id: path6)
(Change tool to Default tool)

G00 Z0.000000
G00 X91.375000 Y179.000000

G01 Z2 F100.0(Penetrate)
G01 X91.375000 Y177.000000 Z2 F75.000000
G01 X91.375000 Y175.625000 Z2
G00 Z0.000000

(End cutting path id: path6)


(Start cutting path id: path6)
(Change tool to Default tool)

G00 Z0.000000
G00 X87.500000 Y169.124999

G01 Z2 F100.0(Penetrate)
G01 X87.125000 Y167.124999 Z2 F75.000000
G03 X87.933495 Y167.037685 Z2 I0.748484 J3.143829
G03 X88.750000 Y167.249999 Z2 I-0.033526 J1.805123
G00 Z0.000000

(End cutting path id: path6)


(Start cutting path id: path6)
(Change tool to Default tool)

G00 Z0.000000
G00 X87.125000 Y167.124999

G01 Z2 F100.0(Penetrate)
G02 X85.625187 Y166.758923 Z2 I-1.464302 J2.743842 F75.000000
G03 X83.250000 Y166.645736 Z2 I-0.230082 J-20.149582
G03 X82.317386 Y166.542433 Z2 I13.610633 J-127.136983
G03 X81.500000 Y166.447627 Z2 I31.551187 J-275.596191
G02 X80.607519 Y166.626610 Z2 I-0.171478 J1.459565
G02 X80.250000 Y166.874999 Z2 I1.132833 J2.012038
G00 Z0.000000

(End cutting path id: path6)


(Start cutting path id: path6)
(Change tool to Default tool)

G00 Z0.000000
G00 X80.125000 Y170.750000

G01 Z2 F100.0(Penetrate)
G03 X80.457520 Y171.059806 Z2 I-3.631923 J4.231550 F75.000000
G03 X80.938080 Y171.626831 Z2 I-3.437491 J3.400468
G02 X81.663016 Y172.453292 Z2 I4.748383 J-3.433906
G02 X82.625000 Y173.125965 Z2 I2.759113 J-2.921583
G02 X84.039125 Y173.481567 Z2 I1.512404 J-3.024808
G02 X85.500000 Y173.185184 Z2 I0.095321 J-3.278687
G02 X87.048113 Y171.543577 Z2 I-1.249706 J-2.729307
G02 X87.632328 Y169.625000 Z2 I-12.440152 J-4.836319
G03 X87.824618 Y169.155592 Z2 I1.476580 J0.330784
G03 X88.129242 Y168.753086 Z2 I2.366435 J1.474435
G03 X88.564215 Y168.306907 Z2 I6.740095 J6.135709
G02 X88.750000 Y168.125000 Z2 I-8.229819 J-8.591069
G00 Z0.000000

(End cutting path id: path6)


(Start cutting path id: path6)
(Change tool to Default tool)

G00 Z0.000000
G00 X91.375000 Y167.000000

G01 Z2 F100.0(Penetrate)
G01 X90.746914 Y167.000000 Z2 F75.000000
G03 X90.293069 Y166.997952 Z2 I-0.000000 J-50.289086
G02 X89.750000 Y167.000578 Z2 I-0.176811 J19.591001
G01 X88.771896 Y168.000000 Z2
G02 X88.921549 Y168.964357 Z2 I6.690220 J-0.544428
G03 X89.156250 Y170.125000 Z2 I-21.220873 J4.895254
G02 X89.640308 Y172.811646 Z2 I227.014524 J-39.514671
G03 X90.114967 Y175.500000 Z2 I-142.411745 J26.530485
G02 X90.382765 Y176.802804 Z2 I17.547187 J-2.927992
G02 X90.663677 Y177.367672 Z2 I1.395411 J-0.341661
G02 X91.196135 Y177.789683 Z2 I1.219890 J-0.992246
G02 X91.375000 Y177.875000 Z2 I5.876957 J-12.090680
G00 Z0.000000

(End cutting path id: path6)


(Start cutting path id: path6)
(Change tool to Default tool)

G00 Z0.000000
G00 X91.375000 Y165.874999

G01 Z2 F100.0(Penetrate)
G01 X91.375000 Y163.749999 Z2 F75.000000
G01 X91.375000 Y159.374999 Z2
G01 X91.375000 Y157.874999 Z2
G00 Z0.000000

(End cutting path id: path6)


(Start cutting path id: path6)
(Change tool to Default tool)

G00 Z0.000000
G00 X91.375000 Y139.000000

G01 Z2 F100.0(Penetrate)
G02 X90.922334 Y137.868068 Z2 I-2.026131 J0.153782 F75.000000
G03 X90.343269 Y136.769867 Z2 I2.421244 J-1.978454
G01 X90.250000 Y136.500000 Z2
G00 Z0.000000

(End cutting path id: path6)


(Start cutting path id: path6)
(Change tool to Default tool)

G00 Z0.000000
G00 X72.875000 Y136.500000

G01 Z2 F100.0(Penetrate)
G01 X73.250000 Y136.500000 Z2 F75.000000
G00 Z0.000000

(End cutting path id: path6)


(Start cutting path id: path6)
(Change tool to Default tool)

G00 Z0.000000
G00 X57.125000 Y159.500000

G01 Z2 F100.0(Penetrate)
G02 X56.942796 Y159.131278 Z2 I-4.324627 J1.907638 F75.000000
G02 X56.369598 Y158.495756 Z2 I-1.635185 J0.898573
G02 X55.380176 Y157.916654 Z2 I-4.298492 J6.209379
G03 X54.250000 Y157.321953 Z2 I9.077127 J-18.621521
G03 X51.653710 Y155.751460 Z2 I25.964090 J-45.854317
G02 X49.125000 Y154.173033 Z2 I-54.643908 J84.727207
G02 X48.403016 Y153.866295 Z2 I-1.437657 J2.380833
G03 X47.776138 Y153.554590 Z2 I0.450766 J-1.692765
G03 X46.942028 Y152.772649 Z2 I3.890549 J-4.985962
G02 X46.625000 Y152.500000 Z2 I-1.174641 J1.045200
G00 Z0.000000

(End cutting path id: path6)


(Start cutting path id: path6)
(Change tool to Default tool)

G00 Z0.000000
G00 X48.625000 Y158.000000

G01 Z2 F100.0(Penetrate)
G02 X49.389988 Y157.551855 Z2 I-5.114218 J-9.607000 F75.000000
G02 X50.123071 Y157.009548 Z2 I-3.720633 J-5.796147
G02 X50.789688 Y156.318355 Z2 I-3.099573 J-3.656424
G03 X51.250000 Y155.750000 Z2 I20.848172 J16.414369
G00 Z0.000000

(End cutting path id: path6)


(Start cutting path id: path6)
(Change tool to Default tool)

G00 Z0.000000
G00 X46.500000 Y164.750000

G01 Z2 F100.0(Penetrate)
G01 X47.250579 Y164.552565 Z2 F75.000000
G01 X49.500000 Y163.775366 Z2
G01 X53.250000 Y162.155865 Z2
G01 X55.125000 Y161.130690 Z2
G01 X56.250000 Y160.750000 Z2
G00 Z0.000000

(End cutting path id: path6)


(Start cutting path id: path6)
(Change tool to Default tool)

G00 Z0.000000
G00 X63.250000 Y166.500000

G01 Z2 F100.0(Penetrate)
G02 X63.507708 Y167.811858 Z2 I4.456934 J-0.194302 F75.000000
G02 X64.269869 Y169.250000 Z2 I5.377131 J-1.928646
G02 X65.709650 Y170.675948 Z2 I5.139266 J-3.749276
G02 X67.500000 Y171.613716 Z2 I4.268282 J-5.970916
G02 X69.081807 Y171.879515 Z2 I1.530071 J-4.265986
G02 X70.625000 Y171.568286 Z2 I-0.048182 J-4.220386
G02 X71.513083 Y171.080729 Z2 I-1.657682 J-4.072061
G02 X72.249807 Y170.521316 Z2 I-8.398401 J-11.825168
G03 X72.768936 Y170.130265 Z2 I5.728173 J7.064181
G02 X73.125000 Y169.874999 Z2 I-10.346716 J-14.808316
G00 Z0.000000

(End cutting path id: path6)


(Start cutting path id: path6)
(Change tool to Default tool)

G00 Z0.000000
G00 X73.500000 Y165.500000

G01 Z2 F100.0(Penetrate)
G02 X73.419950 Y166.507243 Z2 I4.773133 J0.886145 F75.000000
G03 X73.339314 Y168.250000 Z2 I-12.260992 J0.305939
G02 X73.242755 Y169.094390 Z2 I117.506499 J13.865040
G02 X73.269964 Y169.750000 Z2 I2.157217 J0.238840
G02 X73.469348 Y170.310231 Z2 I1.969680 J-0.385405
G03 X73.701292 Y170.875000 Z2 I-2.672598 J1.427618
G02 X74.445008 Y172.507683 Z2 I6.221038 J-1.848064
G02 X76.000000 Y173.753761 Z2 I2.601596 J-1.653271
G02 X78.041412 Y173.403102 Z2 I0.712010 J-1.972443
G02 X79.280479 Y171.875000 Z2 I-3.095721 J-3.776578
G03 X79.662282 Y171.235759 Z2 I5.519522 J2.863036
G02 X80.001930 Y170.625000 Z2 I-3.183995 J-2.170464
G02 X80.152718 Y169.806232 Z2 I-1.637535 J-0.724845
G03 X80.125000 Y168.750000 Z2 I20.110788 J-1.056232
G03 X80.170674 Y167.988333 Z2 I6.373721 J0.000000
G02 X80.121500 Y167.125000 Z2 I-2.442265 J-0.293960
G02 X79.586271 Y166.351394 Z2 I-1.259846 J0.299684
G02 X78.999971 Y166.069735 Z2 I-1.250887 J1.852792
G02 X77.361202 Y165.697394 Z2 I-3.188050 J10.238940
G03 X75.374971 Y165.385128 Z2 I13.251709 J-90.763185
G02 X74.269365 Y165.341164 Z2 I-0.724743 J4.301977
G03 X73.374971 Y165.313658 Z2 I-0.331343 J-3.780873
G03 X72.382471 Y164.890322 Z2 I0.318199 J-2.121122
G02 X71.624971 Y164.464216 Z2 I-1.837426 J2.380073
G02 X69.634156 Y163.810344 Z2 I-7.525482 J19.554883
G03 X67.374971 Y163.125000 Z2 I11.458260 J-41.837599
G03 X66.495005 Y162.826554 Z2 I28.072746 J-84.218869
G02 X65.749971 Y162.638697 Z2 I-1.472062 J4.266821
G01 X64.009068 Y164.250000 Z2
G03 X63.425358 Y165.337488 Z2 I-133.613878 J-71.016997
G02 X63.125000 Y166.375000 Z2 I2.226506 J1.206802
G02 X62.507934 Y166.442348 Z2 I0.815018 J10.328052
G03 X61.750000 Y166.499517 Z2 I-0.829301 J-5.941834
G03 X60.612815 Y166.492175 Z2 I-0.369164 J-30.893648
G03 X59.500000 Y166.287617 Z2 I0.089983 J-3.618699
G03 X58.517996 Y165.850808 Z2 I2.239685 J-6.357349
G03 X57.625096 Y165.226852 Z2 I2.338091 J-4.296741
G03 X56.565188 Y163.777256 Z2 I2.742566 J-3.117582
G03 X56.250579 Y162.250000 Z2 I3.421415 J-1.500831
G03 X56.431417 Y161.198282 Z2 I3.283603 J0.023194
G03 X57.271218 Y159.820505 Z2 I3.591202 J1.244125
G01 X58.750000 Y159.699749 Z2
G03 X60.488027 Y160.418642 Z2 I-3.716800 J11.446304
G02 X62.375000 Y161.274981 Z2 I10.581251 J-20.808988
G02 X63.046140 Y161.532853 Z2 I9.054691 J-22.563532
G03 X63.623072 Y161.801697 Z2 I-1.307661 J3.559667
G03 X64.234369 Y162.356394 Z2 I-0.953499 J1.664978
G03 X64.500000 Y162.750000 Z2 I-8.261179 J5.861611
G00 Z0.000000

(End cutting path id: path6)


(Footer)
M5
M2
(Using default footer. To add your own footer create file "footer" in the output dir.)
(end)
%