%
(Header)
(Generated by gcodetools from Inkscape.)
(Using default header. To add your own header create file "header" in the output dir.)
M3
(Header end.)
G21 (All units in mm)

(Start cutting path id: path13)
(Change tool to Default tool)

G00 Z0.000000
G00 X43.375000 Y91.125000

G01 Z2 F100.0(Penetrate)
G02 X44.550932 Y90.854015 Z2 I-0.326590 J-4.104192 F75.000000
G03 X45.979939 Y90.329380 Z2 I12.793351 J32.638159
G03 X46.242895 Y90.269522 Z2 I0.411930 J1.202091
G02 X46.375000 Y90.250000 Z2 I-0.268066 J-2.270763
G00 Z0.000000

(End cutting path id: path13)


(Start cutting path id: path13)
(Change tool to Default tool)

G00 Z0.000000
G00 X46.375000 Y73.000000

G01 Z2 F100.0(Penetrate)
G01 X46.375000 Y72.875000 Z2 F75.000000
G00 Z0.000000

(End cutting path id: path13)


(Start cutting path id: path13)
(Change tool to Default tool)

G00 Z0.000000
G00 X20.249996 Y62.749990

G01 Z2 F100.0(Penetrate)
G02 X20.575362 Y62.580102 Z2 I-2.434108 J-5.058282 F75.000000
G02 X21.161453 Y61.988320 Z2 I-0.750363 J-1.329264
G02 X22.108842 Y60.104873 Z2 I-24.173688 J-13.339562
G02 X22.837379 Y58.124990 Z2 I-12.762870 J-5.820328
G02 X22.926052 Y57.435323 Z2 I-2.245692 J-0.639272
G03 X23.075420 Y56.638490 Z2 I1.972906 J-0.042592
G03 X23.614477 Y56.013715 Z2 I1.213181 J0.501797
G02 X24.342203 Y55.249890 Z2 I-1.014134 J-1.694784
G03 X25.211765 Y53.744173 Z2 I23.325205 J12.466517
G02 X25.992473 Y52.249990 Z2 I-9.537555 J-5.934408
G02 X26.147416 Y51.717000 Z2 I-2.069922 J-0.890754
G03 X26.367183 Y51.171870 Z2 I1.307499 J0.210249
G03 X26.789159 Y50.716022 Z2 I1.830110 J1.270891
G02 X27.220964 Y50.248060 Z2 I-1.427227 J-1.750152
G03 X28.421630 Y48.522082 Z2 I216.270435 J149.166598
G02 X29.293880 Y47.128080 Z2 I-12.781599 J-8.967548
G02 X29.461201 Y46.685337 Z2 I-1.431226 J-0.793878
G02 X29.499996 Y46.499990 Z2 I-9.345140 J-2.052740
G00 Z0.000000

(End cutting path id: path13)


(Start cutting path id: path13)
(Change tool to Default tool)

G00 Z0.000000
G00 X26.249996 Y51.124990

G01 Z2 F100.0(Penetrate)
G02 X25.842206 Y50.762734 Z2 I-4.865069 J5.065939 F75.000000
G03 X25.278063 Y50.113800 Z2 I1.634722 J-1.990808
G03 X24.382661 Y48.384333 Z2 I11.850289 J-7.231811
G02 X23.597315 Y46.895050 Z2 I-9.952105 J4.296347
G03 X23.445703 Y46.631347 Z2 I3.119258 J-1.968797
G02 X23.374996 Y46.499990 Z2 I-4.986155 J2.599267
G00 Z0.000000

(End cutting path id: path13)


(Start cutting path id: path13)
(Change tool to Default tool)

G00 Z0.000000
G00 X20.374996 Y53.999990

G01 Z2 F100.0(Penetrate)
G02 X20.314625 Y53.620761 Z2 I-7.957481 J1.072360 F75.000000
G02 X20.113712 Y52.874990 Z2 I-4.672805 J0.858921
G02 X19.355814 Y51.095528 Z2 I-15.673441 J5.624413
G03 X18.541662 Y49.124990 Z2 I13.859587 J-6.879713
G03 X18.193046 Y48.028429 Z2 I36.290143 J-12.140979
G03 X17.928043 Y47.128080 Z2 I68.825367 J-20.746774
G03 X17.800508 Y46.678961 Z2 I74.076521 J-21.278003
G02 X17.749996 Y46.499990 Z2 I-62.869058 J17.647177
G00 Z0.000000

(End cutting path id: path13)


(Start cutting path id: path13)
(Change tool to Default tool)

G00 Z0.000000
G00 X15.499996 Y60.374990

G01 Z2 F100.0(Penetrate)
G02 X15.416826 Y59.999737 Z2 I-15.766976 J3.297705 F75.000000
G02 X15.200131 Y59.374990 Z2 I-3.106163 J0.727426
G02 X14.865537 Y58.727468 Z2 I-8.410154 J3.935571
G03 X14.554972 Y57.999990 Z2 I3.058100 J-1.735552
G03 X14.371049 Y56.003920 Z2 I4.859783 J-1.454301
G03 X15.380398 Y54.223660 Z2 I2.559586 J0.274938
G03 X17.214504 Y53.619732 Z2 I1.803975 J2.391587
G03 X18.999996 Y53.842770 Z2 I-0.079402 J7.893896
G02 X19.703435 Y53.978549 Z2 I1.770347 J-7.281673
G03 X20.374996 Y54.170320 Z2 I-0.368582 J2.562488
G03 X20.964038 Y54.580195 Z2 I-0.746189 J1.700570
G02 X21.499996 Y55.124990 Z2 I31.287022 J-30.243467
G02 X22.438512 Y56.017673 Z2 I18.750019 J-18.773008
G02 X22.999996 Y56.499990 Z2 I9.460315 J-10.445139
G00 Z0.000000

(End cutting path id: path13)


(Start cutting path id: path13)
(Change tool to Default tool)

G00 Z0.000000
G00 X17.375000 Y70.875000

G01 Z2 F100.0(Penetrate)
G03 X17.924492 Y70.323632 Z2 I112.689183 J111.756363 F75.000000
G02 X18.577547 Y69.375000 Z2 I-2.232977 J-2.236323
G02 X19.072696 Y67.966667 Z2 I-8.363937 J-3.731846
G03 X19.583334 Y66.250000 Z2 I26.553805 J6.964388
G03 X19.775973 Y65.681371 Z2 I58.130234 J19.376315
G02 X19.937115 Y65.125000 Z2 I-5.520504 J-1.900426
G02 X20.131048 Y64.050637 Z2 I-9.895948 J-2.340998
G02 X19.964695 Y63.000480 Z2 I-1.895644 J-0.237970
G02 X19.098541 Y62.176551 Z2 I-1.491155 J0.700339
G03 X17.874996 Y61.631460 Z2 I8.476230 J-20.672028
G03 X16.605625 Y60.919176 Z2 I5.078269 J-10.537271
G02 X15.624996 Y60.542630 Z2 I-1.386886 J2.146646
G02 X14.947071 Y60.542625 Z2 I-0.338978 J2.105438
G03 X14.124996 Y60.583130 Z2 I-0.593764 J-3.688299
G02 X12.906616 Y60.634708 Z2 I-0.360656 J5.896710
G02 X11.749996 Y60.923310 Z2 I0.877072 J5.976982
G02 X9.375617 Y63.223713 Z2 I1.345963 J3.764815
G02 X9.441065 Y66.499990 Z2 I3.962272 J1.559641
G02 X10.447168 Y67.910274 Z2 I3.899173 J-1.717669
G02 X11.598375 Y68.968160 Z2 I164.439241 J-177.789765
G03 X12.088855 Y69.666165 Z2 I-1.327954 J1.454469
G03 X12.249996 Y70.124990 Z2 I-3.977323 J1.654556
G00 Z0.000000

(End cutting path id: path13)


(Start cutting path id: path13)
(Change tool to Default tool)

G00 Z0.000000
G00 X12.875001 Y80.125000

G01 Z2 F100.0(Penetrate)
G03 X12.479021 Y80.456285 Z2 I-3.513582 J-3.797434 F75.000000
G03 X11.875001 Y80.772570 Z2 I-1.255364 J-1.662511
G02 X10.704626 Y81.329200 Z2 I1.612964 J4.900166
G02 X9.673515 Y82.625000 Z2 I1.383528 J2.159062
G02 X10.026002 Y85.466306 Z2 I2.995457 J1.070907
G02 X12.250000 Y87.298035 Z2 I4.163144 J-2.788690
G02 X13.061218 Y87.544400 Z2 I1.602946 J-3.819341
G02 X13.875000 Y87.624905 Z2 I0.835125 J-4.288557
G02 X14.629005 Y87.625866 Z2 I0.510608 J-104.778978
G03 X15.375000 Y87.625000 Z2 I0.745998 J321.144143
G00 Z0.000000

(End cutting path id: path13)


(Start cutting path id: path13)
(Change tool to Default tool)

G00 Z0.000000
G00 X15.500000 Y89.125000

G01 Z2 F100.0(Penetrate)
G02 X15.488072 Y88.268036 Z2 I-30.789211 J-0.000000 F75.000000
G03 X15.482640 Y87.500000 Z2 I18.488259 J-0.514788
G03 X15.642270 Y85.016584 Z2 I24.650719 J0.337672
G02 X15.877991 Y82.375000 Z2 I-51.295514 J-5.908646
G02 X15.819419 Y81.240544 Z2 I-4.944377 J-0.313463
G02 X15.646895 Y80.757330 Z2 I-1.441313 J0.242193
G01 X15.223380 Y80.314240 Z2
G02 X14.648962 Y80.152945 Z2 I-0.679690 J1.317090
G02 X14.250001 Y80.129920 Z2 I-1.056039 J14.830382
G02 X13.517383 Y80.128232 Z2 I-0.386425 J8.728960
G03 X12.875001 Y79.998460 Z2 I-0.054851 J-1.383290
G03 X12.380314 Y79.700072 Z2 I1.175523 J-2.508112
G02 X11.750001 Y79.362850 Z2 I-1.387406 J1.835568
G02 X10.686518 Y78.996746 Z2 I-49.299122 J141.479727
G03 X9.500001 Y78.442030 Z2 I1.928741 J-5.671820
G03 X7.658931 Y76.845638 Z2 I3.800798 J-6.243167
G03 X6.888504 Y74.500000 Z2 I2.624020 J-2.161204
G03 X7.676484 Y72.457763 Z2 I3.538794 J0.192277
G03 X9.375001 Y71.095100 Z2 I4.007532 J3.255358
G03 X10.329743 Y70.723929 Z2 I2.470195 J4.940439
G03 X11.250001 Y70.516200 Z2 I2.315662 J8.116321
G02 X11.874061 Y70.335673 Z2 I-0.465898 J-2.779462
G03 X12.500001 Y70.170430 Z2 I0.903521 J2.154387
G03 X13.364117 Y70.199777 Z2 I0.336969 J2.814584
G02 X14.625001 Y70.408860 Z2 I5.230037 J-27.633459
G02 X15.941569 Y70.571307 Z2 I4.971225 J-34.873503
G03 X16.624905 Y70.681710 Z2 I-0.638743 J6.123409
G01 X17.373362 Y71.053720 Z2
G03 X17.625174 Y72.012875 Z2 I-1.144728 J0.813164
G03 X17.520738 Y73.000000 Z2 I-396.132358 J-41.410938
G03 X17.167677 Y75.071482 Z2 I-16.816821 J-1.800414
G02 X16.649596 Y77.500000 Z2 I58.115291 J13.667373
G02 X16.520662 Y78.265676 Z2 I16.899023 J3.239358
G03 X16.392265 Y78.875000 Z2 I-4.861673 J-0.706264
G03 X15.946682 Y79.708872 Z2 I-2.090318 J-0.580985
G02 X15.625001 Y80.125000 Z2 I3.811829 J3.279067
G00 Z0.000000

(End cutting path id: path13)


(Start cutting path id: path13)
(Change tool to Default tool)

G00 Z0.000000
G00 X17.500000 Y90.250000

G01 Z2 F100.0(Penetrate)
G02 X18.908176 Y90.690990 Z2 I1.677820 J-2.888846 F75.000000
G02 X20.375000 Y90.750000 Z2 I1.459858 J-18.027766
G02 X21.330245 Y90.693410 Z2 I-0.003116 J-8.143235
G03 X22.375000 Y90.625481 Z2 I1.162214 J9.806756
G03 X24.148987 Y90.619856 Z2 I1.209195 J101.618135
G02 X26.000000 Y90.625000 Z2 I1.851013 J-333.054767
G00 Z0.000000

(End cutting path id: path13)


(Start cutting path id: path13)
(Change tool to Default tool)

G00 Z0.000000
G00 X5.750000 Y91.000000

G01 Z2 F100.0(Penetrate)
G01 X7.000000 Y91.000000 Z2 F75.000000
G01 X9.250000 Y90.781445 Z2
G01 X13.000000 Y89.703606 Z2
G01 X14.375000 Y89.365452 Z2
G01 X15.210262 Y89.330342 Z2
G01 X15.500000 Y90.750000 Z2
G00 Z0.000000

(End cutting path id: path13)


(Footer)
M5
M2
(Using default footer. To add your own footer create file "footer" in the output dir.)
(end)
%