%
(Header)
(Generated by gcodetools from Inkscape.)
(Using default header. To add your own header create file "header" in the output dir.)
M3
(Header end.)
G21 (All units in mm)

(Start cutting path id: path12)
(Change tool to Default tool)

G00 Z0.000000
G00 X151.375000 Y136.250000

G01 Z2 F100.0(Penetrate)
G02 X152.343200 Y136.080757 Z2 I-0.077122 J-3.295243 F75.000000
G02 X153.463930 Y135.414448 Z2 I-0.974947 J-2.915546
G02 X153.832351 Y134.801037 Z2 I-0.882980 J-0.947671
G03 X154.173030 Y134.000000 Z2 I2.989868 J0.798620
G03 X155.851067 Y131.318471 Z2 I85.086301 J51.379187
G02 X157.525080 Y128.625000 Z2 I-70.085167 J-45.425407
G02 X158.194613 Y127.364550 Z2 I-12.567291 J-7.483619
G03 X158.826200 Y126.390434 Z2 I3.881591 J1.824893
G03 X160.224469 Y126.141373 Z2 I0.852018 J0.733780
G03 X161.500000 Y127.010513 Z2 I-4.132242 J7.434928
G03 X162.180891 Y127.616516 Z2 I-7.568504 J9.189316
G02 X162.875000 Y128.030285 Z2 I1.238643 J-1.288781
G02 X163.515545 Y128.119777 Z2 I0.579798 J-1.812831
G03 X164.125000 Y128.120075 Z2 I0.300127 J9.398662
G02 X165.479263 Y127.948301 Z2 I0.141799 J-4.306445
G02 X166.738330 Y127.226463 Z2 I-0.875800 J-2.986598
G02 X167.597690 Y124.936034 Z2 I-1.905365 J-2.021314
G02 X166.955060 Y122.749996 Z2 I-6.039092 J0.587837
G01 X166.651520 Y121.539734 Z2
G01 X167.750000 Y121.249996 Z2
G02 X170.062074 Y120.725126 Z2 I-0.011406 J-5.405073
G02 X171.829570 Y118.874996 Z2 I-1.545210 J-3.245536
G02 X172.009213 Y116.398298 Z2 I-3.570093 J-1.503814
G02 X170.972420 Y114.124996 Z2 I-6.983428 J1.811878
G01 X170.017070 Y112.513113 Z2
G01 X171.250000 Y111.648821 Z2
G02 X172.768714 Y110.500370 Z2 I-2.403438 J-4.756713
G02 X173.736500 Y108.874996 Z2 I-3.391839 J-3.120389
G02 X173.977210 Y107.358405 Z2 I-4.220605 J-1.447283
G02 X173.650500 Y105.874996 Z2 I-3.798995 J0.059018
G02 X172.286013 Y104.125907 Z2 I-4.188541 J1.860764
G03 X171.125040 Y103.124996 Z2 I9.918972 J-12.678946
G02 X172.011260 Y101.739157 Z2 I-10.489388 J-7.684059
G02 X172.137000 Y98.874996 Z2 I-2.814744 J-1.558411
G02 X170.801311 Y97.052365 Z2 I-4.850569 J2.153935
G02 X168.875040 Y96.126827 Z2 I-2.597441 J2.938619
G01 X167.787080 Y95.373165 Z2
G01 X169.000040 Y94.456592 Z2
G02 X171.369072 Y93.679247 Z2 I-29.439406 J-93.718005
G03 X173.750040 Y92.874996 Z2 I101.749006 J297.299091
G03 X174.732093 Y92.576398 Z2 I6.106444 J18.319123
G02 X175.622720 Y92.215370 Z2 I-1.096746 J-3.984653
G02 X176.350444 Y91.791398 Z2 I-7.824954 J-14.267624
G03 X177.375040 Y91.499996 Z2 I1.026104 J1.660887
G00 Z0.000000

(End cutting path id: path12)


(Start cutting path id: path12)
(Change tool to Default tool)

G00 Z0.000000
G00 X175.250000 Y91.500000

G01 Z2 F100.0(Penetrate)
G01 X176.250000 Y91.500000 Z2 F75.000000
G00 Z0.000000

(End cutting path id: path12)


(Start cutting path id: path12)
(Change tool to Default tool)

G00 Z0.000000
G00 X167.750030 Y94.999995

G01 Z2 F100.0(Penetrate)
G03 X167.576347 Y94.514603 Z2 I1.556917 J-0.830865 F75.000000
G03 X167.500030 Y93.749995 Z2 I3.868302 J-0.772216
G01 X167.299610 Y91.628466 Z2
G02 X166.462693 Y91.396836 Z2 I-0.692555 J0.874540
G03 X164.875000 Y91.500000 Z2 I-1.587693 J-12.165669
G01 X157.750000 Y91.500000 Z2
G00 Z0.000000

(End cutting path id: path12)


(Start cutting path id: path12)
(Change tool to Default tool)

G00 Z0.000000
G00 X167.125030 Y103.374995

G01 Z2 F100.0(Penetrate)
G03 X166.857363 Y102.705111 Z2 I2.193980 J-1.265073 F75.000000
G03 X166.771250 Y101.499995 Z2 I3.555674 J-0.859709
G03 X167.018494 Y99.415881 Z2 I44.531155 J4.226123
G02 X167.245590 Y97.124995 Z2 I-26.673726 J-3.800873
G03 X167.410328 Y96.266253 Z2 I3.279925 J0.184035
G03 X167.750030 Y95.624995 Z2 I2.105634 J0.704839
G00 Z0.000000

(End cutting path id: path12)


(Start cutting path id: path12)
(Change tool to Default tool)

G00 Z0.000000
G00 X165.375000 Y110.750000

G01 Z2 F100.0(Penetrate)
G02 X165.377588 Y109.785009 Z2 I-8.799977 J-0.506098 F75.000000
G03 X165.433000 Y108.875000 Z2 I4.040669 J-0.210647
G03 X165.803276 Y106.997067 Z2 I44.963726 J7.890126
G02 X166.250030 Y104.875000 Z2 I-130.064908 J-28.490322
G03 X166.601477 Y103.910740 Z2 I3.362278 J0.679284
G03 X167.250130 Y103.342785 Z2 I1.097580 J0.599144
G03 X168.144070 Y103.220858 Z2 I0.705415 J1.833890
G02 X168.750030 Y103.249995 Z2 I0.605960 J-6.286423
G02 X170.075922 Y103.234201 Z2 I-0.000000 J-55.659925
G02 X171.125030 Y103.124995 Z2 I-0.157409 J-6.606042
G00 Z0.000000

(End cutting path id: path12)


(Start cutting path id: path12)
(Change tool to Default tool)

G00 Z0.000000
G00 X162.625000 Y118.625000

G01 Z2 F100.0(Penetrate)
G03 X162.790817 Y117.897336 Z2 I9.723865 J1.833111 F75.000000
G03 X163.026910 Y117.125000 Z2 I11.180064 J2.995343
G02 X163.770072 Y114.801863 Z2 I-52.551440 J-18.091420
G02 X164.517650 Y112.250000 Z2 I-475.071317 J-140.559435
G01 X165.377320 Y111.058353 Z2
G03 X166.125135 Y111.164044 Z2 I0.201509 J1.272650
G02 X166.750000 Y111.418016 Z2 I2.762099 J-5.900095
G02 X168.301905 Y111.951399 Z2 I83.945855 J-241.720277
G02 X169.750000 Y112.250000 Z2 I1.917155 J-5.636796
G00 Z0.000000

(End cutting path id: path12)


(Start cutting path id: path12)
(Change tool to Default tool)

G00 Z0.000000
G00 X159.375000 Y125.750000

G01 Z2 F100.0(Penetrate)
G02 X159.487495 Y125.354094 Z2 I-3.897047 J-1.321261 F75.000000
G03 X159.652490 Y124.750000 Z2 I7.665960 J1.769214
G03 X160.588032 Y122.541727 Z2 I12.141978 J3.841683
G02 X161.724920 Y120.125000 Z2 I-21.252502 J-11.473469
G01 X162.526620 Y118.821663 Z2
G01 X163.537620 Y119.380402 Z2
G03 X163.808569 Y119.886285 Z2 I-1.777111 J1.277316
G02 X164.081120 Y120.304976 Z2 I1.086627 J-0.409295
G02 X164.563189 Y120.608614 Z2 I0.936754 J-0.952733
G03 X165.125000 Y120.843267 Z2 I-2.140925 J5.915735
G02 X165.766138 Y121.138174 Z2 I11.716971 J-24.628749
G02 X166.375000 Y121.375000 Z2 I2.810189 J-6.323694
G00 Z0.000000

(End cutting path id: path12)


(Start cutting path id: path12)
(Change tool to Default tool)

G00 Z0.000000
G00 X158.250000 Y133.125000

G01 Z2 F100.0(Penetrate)
G02 X159.460198 Y135.034717 Z2 I13.246258 J-7.055915 F75.000000
G02 X160.625000 Y136.000000 Z2 I2.566976 J-1.912134
G00 Z0.000000

(End cutting path id: path12)


(Start cutting path id: path12)
(Change tool to Default tool)

G00 Z0.000000
G00 X165.750000 Y135.875000

G01 Z2 F100.0(Penetrate)
G02 X164.226179 Y131.284268 Z2 I-20.389402 J4.219670 F75.000000
G03 X163.000000 Y128.375000 Z2 I37.619365 J-17.568594
G00 Z0.000000

(End cutting path id: path12)


(Start cutting path id: path12)
(Change tool to Default tool)

G00 Z0.000000
G00 X136.625030 Y109.374995

G01 Z2 F100.0(Penetrate)
G01 X136.875030 Y109.374995 Z2 F75.000000
G00 Z0.000000

(End cutting path id: path12)


(Start cutting path id: path12)
(Change tool to Default tool)

G00 Z0.000000
G00 X136.500000 Y92.625000

G01 Z2 F100.0(Penetrate)
G01 X136.769870 Y92.533470 Z2 F75.000000
G02 X137.972881 Y91.925005 Z2 I-2.440969 J-6.319590
G03 X139.250000 Y91.500000 Z2 I1.482495 J2.323480
G00 Z0.000000

(End cutting path id: path12)


(Footer)
M5
M2
(Using default footer. To add your own footer create file "footer" in the output dir.)
(end)
%