%
(Header)
(Generated by gcodetools from Inkscape.)
(Using default header. To add your own header create file "header" in the output dir.)
M3
(Header end.)
G21 (All units in mm)

(Start cutting path id: path30)
(Change tool to Default tool)

G00 Z0.000000
G00 X128.126930 Y53.275540

G01 Z2 F100.0(Penetrate)
G03 X128.468452 Y50.184910 Z2 I14.220222 J0.007184 F75
G02 X128.671620 Y47.164430 Z2 I-9.728390 J-2.171438
G02 X127.489272 Y45.366270 Z2 I-2.251219 J0.192453
G02 X126.275070 Y44.757020 Z2 I-11.597427 J21.598492
G00 Z0.000000

(End cutting path id: path30)


(Start cutting path id: path30)
(Change tool to Default tool)

G00 Z0.000000
G00 X126.089890 Y44.757020

G01 Z2 F100.0(Penetrate)
G01 X126.275070 Y44.757020 Z2 F75
G00 Z0.000000

(End cutting path id: path30)


(Footer)
M5
G00 X0.0000 Y0.0000
M2
(Using default footer. To add your own footer create file "footer" in the output dir.)
(end)
%