%
(Header)
(Generated by gcodetools from Inkscape.)
(Using default header. To add your own header create file "header" in the output dir.)
M3
(Header end.)
G21 (All units in mm)

(Start cutting path id: path11)
(Change tool to Default tool)

G00 Z0.000000
G00 X45.301212 Y128.714278

G01 Z3 F100.0(Penetrate)
G01 X46.050240 Y128.340622 Z3 F75
G01 X47.338249 Y128.343222 Z3
G01 X49.375286 Y128.343937 Z3
G01 X51.227138 Y128.343937 Z3
G00 Z0.000000

(End cutting path id: path11)


(Start cutting path id: path11)
(Change tool to Default tool)

G00 Z0.000000
G00 X46.041953 Y128.158752

G01 Z3 F100.0(Penetrate)
G02 X43.618979 Y125.381528 Z3 I-1545.311558 J1345.753311 F75
G03 X41.236426 Y122.232826 Z3 I21.096892 J-18.439311
G02 X40.468629 Y121.201654 Z3 I-8.585016 J5.590857
G03 X40.142176 Y120.010604 Z3 I1.117350 J-0.946517
G03 X41.412556 Y117.458752 Z3 I4.847297 J0.820973
G02 X43.015118 Y114.825419 Z3 I-5.396061 J-5.088171
G02 X43.400764 Y113.657090 Z3 I-31.332227 J-10.990044
G02 X43.699418 Y112.603339 Z3 I-21.693437 J-6.717561
G01 X44.245542 Y111.577534 Z3
G01 X44.871400 Y111.768435 Z3
G03 X47.313738 Y114.873658 Z3 I-5.160286 J6.571789
G02 X50.253345 Y119.825419 Z3 I24.320499 J-11.089410
G03 X50.912786 Y120.782499 Z3 I-11.522535 J8.644903
G03 X51.227138 Y121.492085 Z3 I-2.256680 J1.424150
G00 Z0.000000

(End cutting path id: path11)


(Start cutting path id: path11)
(Change tool to Default tool)

G00 Z0.000000
G00 X44.190101 Y111.306900

G01 Z3 F100.0(Penetrate)
G02 X43.722276 Y109.158744 Z3 I-8.266044 J0.675159 F75
G03 X43.261459 Y107.418011 Z3 I9.570046 J-3.464798
G02 X42.706141 Y105.766103 Z3 I-5.595461 J0.961719
G03 X42.136488 Y104.484769 Z3 I10.371096 J-5.378057
G01 X42.044468 Y104.208992 Z3
G01 X41.967878 Y103.899493 Z3
G00 Z0.000000

(End cutting path id: path11)


(Footer)
M5
;G00 X0.0000 Y0.0000
M2
(Using default footer. To add your own footer create file "footer" in the output dir.)
(end)
%