%
(Header)
(Generated by gcodetools from Inkscape.)
(Using default header. To add your own header create file "header" in the output dir.)
M3
(Header end.)
G21 (All units in mm)

(Start cutting path id: path15)
(Change tool to Default tool)

G00 Z0.000000
G00 X126.339370 Y126.756465

G01 Z2 F100.0(Penetrate)
G03 X127.278822 Y126.269333 Z2 I7.090899 J12.525606 F75
G02 X129.060990 Y124.888038 Z2 I-2.230228 J-4.717812
G02 X129.512496 Y124.035511 Z2 I-1.807690 J-1.503194
G03 X129.902180 Y123.052761 Z2 I5.240118 J1.509197
G03 X130.933426 Y121.467536 Z2 I8.247299 J4.237123
G02 X132.127260 Y119.904613 Z2 I-28.767814 J-23.211615
G02 X134.433284 Y116.492697 Z2 I-53.247087 J-38.473546
G02 X136.365230 Y112.867576 Z2 I-23.699175 J-14.957429
G02 X137.396572 Y110.533510 Z2 I-5316.883980 J-2350.740607
G02 X138.334250 Y108.237947 Z2 I-40.426591 J-17.852498
G03 X138.926632 Y107.271099 Z2 I2.810270 J1.056937
G03 X140.043070 Y106.756465 Z2 I1.168199 J1.065961
G03 X140.028762 Y108.860510 Z2 I-154.711223 J0.000000
G02 X140.511460 Y112.126835 Z2 I10.340910 J0.140648
G02 X141.646564 Y114.112126 Z2 I5.171542 J-1.639718
G03 X142.555360 Y116.015724 Z2 I-2.778319 J2.495129
G03 X142.414859 Y117.057696 Z2 I-1.796531 J0.288211
G03 X141.940650 Y118.052761 Z2 I-28.530008 J-12.985749
G02 X140.937244 Y120.132052 Z2 I81.336235 J40.532284
G03 X139.911470 Y122.126693 Z2 I-26.683721 J-12.461421
G03 X137.166880 Y123.689440 Z2 I-2.675532 J-1.507449
G02 X133.931960 Y123.825653 Z2 I-0.564183 J25.082392
G02 X130.627034 Y124.630081 Z2 I1.374434 J12.837967
G03 X129.487520 Y124.904613 Z2 I-1.584533 J-4.074818
G00 Z0.000000

(End cutting path id: path15)


(Start cutting path id: path15)
(Change tool to Default tool)

G00 Z0.000000
G00 X138.931960 Y106.756465

G01 Z2 F100.0(Penetrate)
G01 X139.302330 Y104.904613 Z2 F75
G01 X140.043070 Y106.756465 Z2
G00 Z0.000000

(End cutting path id: path15)


(Start cutting path id: path15)
(Change tool to Default tool)

G00 Z0.000000
G00 X126.154180 Y106.571280

G01 Z2 F100.0(Penetrate)
G02 X126.983119 Y105.252952 Z2 I-4.821741 J-3.951591 F75
G02 X127.450480 Y103.978687 Z2 I-7.283822 J-3.394321
G00 Z0.000000

(End cutting path id: path15)


(Start cutting path id: path15)
(Change tool to Default tool)

G00 Z0.000000
G00 X140.598630 Y105.645354

G01 Z2 F100.0(Penetrate)
G02 X140.874158 Y104.364039 Z2 I-25.989971 J-6.259033 F75
G03 X140.969000 Y103.978687 Z2 I3.610132 J0.684176
G00 Z0.000000

(End cutting path id: path15)


(Start cutting path id: path15)
(Change tool to Default tool)

G00 Z0.000000
G00 X139.117150 Y104.719428

G01 Z2 F100.0(Penetrate)
G01 X139.302330 Y103.978687 Z2 F75
G00 Z0.000000

(End cutting path id: path15)


(Footer)
M5
;G00 X0.0000 Y0.0000
M2
(Using default footer. To add your own footer create file "footer" in the output dir.)
(end)
%