%
(Header)
(Generated by gcodetools from Inkscape.)
(Using default header. To add your own header create file "header" in the output dir.)
M3
(Header end.)
G21 (All units in mm)

(Start cutting path id: path23)
(Change tool to Default tool)

G00 Z0.000000
G00 X85.794051 Y60.403330

G01 Z2 F100.0(Penetrate)
G03 X86.242316 Y62.022949 Z2 I-20.282881 J6.485572 F75
G02 X86.876155 Y63.551480 Z2 I4.977264 J-1.168249
G02 X88.891728 Y66.189738 Z2 I14.599188 J-9.064414
G03 X90.664735 Y69.107040 Z2 I-6.198626 J5.764678
G03 X91.327769 Y71.190465 Z2 I-29.454622 J10.520921
G03 X91.703401 Y73.366300 Z2 I-10.420524 J2.919322
G03 X91.725915 Y75.127929 Z2 I-15.708468 J1.081714
G02 X92.248527 Y76.815230 Z2 I2.619563 J0.113221
G02 X93.824518 Y78.067365 Z2 I3.184902 J-2.390783
G02 X94.682940 Y78.366300 Z2 I2.275314 J-5.151798
G00 Z0.000000

(End cutting path id: path23)


(Start cutting path id: path23)
(Change tool to Default tool)

G00 Z0.000000
G00 X81.164421 Y78.181110

G01 Z2 F100.0(Penetrate)
G03 X81.211227 Y77.235569 Z2 I9.552743 J-0.001056 F75
G02 X80.974092 Y76.441710 Z2 I-1.086110 J-0.107913
G01 X79.204116 Y76.750360 Z2
G01 X77.855093 Y77.741010 Z2
G01 X77.170508 Y76.514300 Z2
G03 X77.363167 Y74.231543 Z2 I5.142382 J-0.715503
G02 X77.831088 Y71.884820 Z2 I-10.405986 J-3.294895
G00 Z0.000000

(End cutting path id: path23)


(Start cutting path id: path23)
(Change tool to Default tool)

G00 Z0.000000
G00 X97.831088 Y77.995930

G01 Z2 F100.0(Penetrate)
G03 X96.491443 Y75.072730 Z2 I14.043416 J-8.204391 F75
G02 X95.213061 Y72.070000 Z2 I-21.515780 J7.386627
G02 X93.447269 Y68.768360 Z2 I-98.987382 J50.817673
G02 X91.317455 Y65.773700 Z2 I-14.589284 J8.121262
G02 X90.389444 Y64.799912 Z2 I-15.277566 J13.630301
G03 X89.517902 Y63.736670 Z2 I4.488183 J-4.567795
G03 X88.872358 Y62.307569 Z2 I4.255836 J-2.782768
G03 X88.455230 Y60.773700 Z2 I194.453333 J-53.704292
G02 X87.940812 Y59.745736 Z2 I-2.761851 J0.739402
G02 X87.275532 Y59.292220 Z2 I-1.050219 J0.825885
G00 Z0.000000

(End cutting path id: path23)


(Start cutting path id: path23)
(Change tool to Default tool)

G00 Z0.000000
G00 X80.423680 Y72.255190

G01 Z2 F100.0(Penetrate)
G01 X80.608866 Y72.255190 Z2 F75
G00 Z0.000000

(End cutting path id: path23)


(Start cutting path id: path23)
(Change tool to Default tool)

G00 Z0.000000
G00 X100.979240 Y70.958890

G01 Z2 F100.0(Penetrate)
G01 X100.979240 Y70.588520 Z2 F75
G00 Z0.000000

(End cutting path id: path23)


(Start cutting path id: path23)
(Change tool to Default tool)

G00 Z0.000000
G00 X76.164421 Y56.329260

G01 Z2 F100.0(Penetrate)
G02 X77.471726 Y55.229157 Z2 I-5.737431 J-8.144879 F75
G02 X78.571828 Y53.921850 Z2 I-7.044176 J-7.044216
G00 Z0.000000

(End cutting path id: path23)


(Start cutting path id: path23)
(Change tool to Default tool)

G00 Z0.000000
G00 X100.238500 Y55.032960

G01 Z2 F100.0(Penetrate)
G01 X100.053310 Y54.477410 Z2 F75
G01 X100.979240 Y54.477410 Z2
G00 Z0.000000

(End cutting path id: path23)


(Start cutting path id: path23)
(Change tool to Default tool)

G00 Z0.000000
G00 X100.238500 Y54.292220

G01 Z2 F100.0(Penetrate)
G01 X100.238500 Y53.921850 Z2 F75
G00 Z0.000000

(End cutting path id: path23)


(Footer)
M5
;G00 X0.0000 Y0.0000
M2
(Using default footer. To add your own footer create file "footer" in the output dir.)
(end)
%