%
(Header)
(Generated by gcodetools from Inkscape.)
(Using default header. To add your own header create file "header" in the output dir.)
M3
(Header end.)
G21 (All units in mm)

(Start cutting path id: path25)
(Change tool to Default tool)

G00 Z0.000000
G00 X127.820850 Y78.248180

G01 Z2 F100.0(Penetrate)
G02 X127.325307 Y76.228503 Z2 I-11.201428 J1.677722 F75
G02 X126.593280 Y74.930850 Z2 I-3.909856 J1.350313
G01 X126.339370 Y74.729660 Z2
G00 Z0.000000

(End cutting path id: path25)


(Start cutting path id: path25)
(Change tool to Default tool)

G00 Z0.000000
G00 X138.376400 Y78.248180

G01 Z2 F100.0(Penetrate)
G02 X136.065810 Y73.029742 Z2 I-118.022077 J49.136377 F75
G02 X133.609460 Y67.877810 Z2 I-449.208418 J211.013108
G02 X131.763327 Y64.167379 Z2 I-169.087627 J81.815412
G02 X129.302330 Y60.840770 Z2 I-11.268011 J5.762363
G03 X129.848002 Y60.150570 Z2 I6.276786 J4.401621
G03 X130.413440 Y59.544480 Z2 I12.744196 J11.322611
G03 X129.366899 Y58.041576 Z2 I5.545248 J-4.977237
G03 X128.756780 Y56.581510 Z2 I7.852740 J-4.138943
G03 X128.475810 Y55.629955 Z2 I24.307570 J-7.694658
G03 X128.272670 Y54.737950 Z2 I10.088232 J-2.766573
G03 X128.197687 Y54.089343 Z2 I4.930959 J-0.898686
G02 X128.191170 Y53.988920 Z2 I-3.374794 J0.168593
G00 Z0.000000

(End cutting path id: path25)


(Start cutting path id: path25)
(Change tool to Default tool)

G00 Z0.000000
G00 X141.524500 Y78.248180

G01 Z2 F100.0(Penetrate)
G03 X142.238191 Y75.804912 Z2 I21.823019 J5.048744 F75
G03 X143.457660 Y73.433370 Z2 I9.412134 J3.340505
G03 X144.933711 Y71.769187 Z2 I7.835393 J5.462937
G02 X145.885790 Y69.914850 Z2 I-1.929170 J-2.162083
G02 X145.074382 Y67.317402 Z2 I-3.400538 J-0.363178
G03 X143.463520 Y64.914850 Z2 I9.047486 J-7.807457
G02 X143.053022 Y64.170706 Z2 I-10.898104 J5.526507
G02 X142.442280 Y63.561820 Z2 I-1.507498 J0.901349
G02 X141.233538 Y63.493711 Z2 I-0.669858 J1.128149
G03 X140.043020 Y63.891040 Z2 I-2.553029 J-5.667410
G03 X138.383331 Y64.046734 Z2 I-1.437261 J-6.397196
G03 X136.709690 Y63.981640 Z2 I5.747134 J-169.314742
G03 X135.746325 Y63.895987 Z2 I0.472847 J-10.778660
G03 X134.857840 Y63.671860 Z2 I0.538091 J-4.006239
G03 X134.225581 Y63.353252 Z2 I1.179695 J-3.127682
G03 X133.561540 Y62.900680 Z2 I8.591485 J-13.319387
G03 X132.956510 Y62.417522 Z2 I4.497068 J-6.251810
G03 X132.450430 Y61.949040 Z2 I10.073629 J-11.389679
G02 X131.339621 Y60.915454 Z2 I-26.230485 J27.076562
G03 X130.228210 Y59.729670 Z2 I6.127229 J-6.856669
G00 Z0.000000

(End cutting path id: path25)


(Start cutting path id: path25)
(Change tool to Default tool)

G00 Z0.000000
G00 X129.857840 Y61.025970

G01 Z2 F100.0(Penetrate)
G01 X130.228210 Y61.025970 Z2 F75
G00 Z0.000000

(End cutting path id: path25)


(Start cutting path id: path25)
(Change tool to Default tool)

G00 Z0.000000
G00 X129.302280 Y60.655600

G01 Z2 F100.0(Penetrate)
G03 X127.635651 Y58.836121 Z2 I328.484078 J-302.562052 F75
G02 X126.339320 Y57.692640 Z2 I-5.865655 J5.343172
G00 Z0.000000

(End cutting path id: path25)


(Start cutting path id: path25)
(Change tool to Default tool)

G00 Z0.000000
G00 X129.857840 Y60.655600

G01 Z2 F100.0(Penetrate)
G01 X130.043020 Y60.470410 Z2 F75
G00 Z0.000000

(End cutting path id: path25)


(Start cutting path id: path25)
(Change tool to Default tool)

G00 Z0.000000
G00 X126.154130 Y57.692640

G01 Z2 F100.0(Penetrate)
G01 X126.339320 Y57.692640 Z2 F75
G00 Z0.000000

(End cutting path id: path25)


(Footer)
M5
;G00 X0.0000 Y0.0000
M2
(Using default footer. To add your own footer create file "footer" in the output dir.)
(end)
%