%
(Header)
(Generated by gcodetools from Inkscape.)
(Using default header. To add your own header create file "header" in the output dir.)
M3
(Header end.)
G21 (All units in mm)

(Start cutting path id: path17)
(Change tool to Default tool)

G00 Z0.000000
G00 X63.986926 Y103.679782

G01 Z2 F100.0(Penetrate)
G01 X62.143219 Y103.072643 Z2 F75
G01 X61.427341 Y102.366053 Z2
G01 X60.999815 Y100.531634 Z2
G01 X59.804256 Y93.679782 Z2
G01 X59.365156 Y90.346734 Z2
G01 X59.542482 Y89.050153 Z2
G02 X60.412304 Y89.278012 Z2 I3.325145 J-10.919144
G03 X61.764704 Y89.605708 Z2 I-7.154991 J32.483178
G00 Z0.000000

(End cutting path id: path17)


(Start cutting path id: path17)
(Change tool to Default tool)

G00 Z0.000000
G00 X52.505445 Y103.124227

G01 Z2 F100.0(Penetrate)
G02 X51.958270 Y101.483669 Z2 I-8.920507 J2.063729 F75
G02 X51.394334 Y100.531634 Z2 I-4.288181 J1.897052
G00 Z0.000000

(End cutting path id: path17)


(Start cutting path id: path17)
(Change tool to Default tool)

G00 Z0.000000
G00 X55.283222 Y103.124227

G01 Z2 F100.0(Penetrate)
G03 X54.734269 Y101.041923 Z2 I9.983295 J-3.745386 F75
G03 X54.542482 Y99.420523 Z2 I20.748607 J-3.276283
G03 X58.179283 Y101.138536 Z2 I-2.907791 J10.863716
G02 X61.209148 Y102.198301 Z2 I3.325964 J-4.647850
G00 Z0.000000

(End cutting path id: path17)


(Start cutting path id: path17)
(Change tool to Default tool)

G00 Z0.000000
G00 X68.986926 Y103.124227

G01 Z2 F100.0(Penetrate)
G03 X65.246936 Y98.241501 Z2 I20.282160 J-19.409105 F75
G03 X63.819031 Y92.198301 Z2 I8.659285 J-5.236336
G03 X64.575981 Y88.949947 Z2 I11.189282 J0.895020
G02 X65.527564 Y85.902004 Z2 I-19.685493 J-7.818422
G02 X65.858734 Y84.437107 Z2 I-151.266168 J-34.966729
G02 X66.148849 Y82.939040 Z2 I-28.431928 J-6.283235
G02 X65.999793 Y80.100228 Z2 I-6.495937 J-1.082242
G02 X65.653593 Y78.864970 Z2 I-190.078619 J52.606389
G00 Z0.000000

(End cutting path id: path17)


(Start cutting path id: path17)
(Change tool to Default tool)

G00 Z0.000000
G00 X54.357297 Y99.235338

G01 Z2 F100.0(Penetrate)
G01 X54.118671 Y96.827930 Z2 F75
G01 X53.989641 Y90.716819 Z2
G01 X54.253130 Y88.310269 Z2
G01 X54.542482 Y87.198301 Z2
G02 X56.706487 Y87.650884 Z2 I7.457154 J-30.256211
G03 X59.357297 Y88.864967 Z2 I-0.967576 J5.613500
G00 Z0.000000

(End cutting path id: path17)


(Start cutting path id: path17)
(Change tool to Default tool)

G00 Z0.000000
G00 X51.394334 Y97.198301

G01 Z2 F100.0(Penetrate)
G01 X53.986926 Y98.124227 Z2 F75
G00 Z0.000000

(End cutting path id: path17)


(Start cutting path id: path17)
(Change tool to Default tool)

G00 Z0.000000
G00 X76.023963 Y93.679782

G01 Z2 F100.0(Penetrate)
G01 X76.023963 Y93.494597 Z2 F75
G00 Z0.000000

(End cutting path id: path17)


(Start cutting path id: path17)
(Change tool to Default tool)

G00 Z0.000000
G00 X70.838778 Y86.642745

G01 Z2 F100.0(Penetrate)
G01 X73.748872 Y88.520746 Z2 F75
G01 X75.094177 Y89.611424 Z2
G01 X76.023963 Y90.161264 Z2
G00 Z0.000000

(End cutting path id: path17)


(Start cutting path id: path17)
(Change tool to Default tool)

G00 Z0.000000
G00 X59.357297 Y88.309412

G01 Z2 F100.0(Penetrate)
G03 X59.557304 Y86.150358 Z2 I12.113451 J0.033353 F75
G02 X60.230354 Y81.827930 Z2 I-78.173259 J-14.386067
G02 X60.363135 Y80.742026 Z2 I-102.850420 J-13.127301
G02 X60.451833 Y79.795470 Z2 I-20.561509 J-2.404172
G02 X60.470158 Y79.107771 Z2 I-7.830649 J-0.552759
G03 X60.468403 Y78.864970 Z2 I12.186406 J-0.209508
G00 Z0.000000

(End cutting path id: path17)


(Start cutting path id: path17)
(Change tool to Default tool)

G00 Z0.000000
G00 X54.727662 Y87.198301

G01 Z2 F100.0(Penetrate)
G02 X54.031977 Y86.769440 Z2 I-2.863406 J3.866237 F75
G02 X53.246180 Y86.460418 Z2 I-2.054621 J4.071004
G02 X52.131313 Y86.153313 Z2 I-12.216640 J42.172315
G03 X51.394329 Y85.902004 Z2 I1.349631 J-5.164179
G00 Z0.000000

(End cutting path id: path17)


(Start cutting path id: path17)
(Change tool to Default tool)

G00 Z0.000000
G00 X54.542477 Y86.642745

G01 Z2 F100.0(Penetrate)
G02 X55.133632 Y84.020241 Z2 I-41.373019 J-10.704025 F75
G03 X56.357606 Y79.795470 Z2 I23.572850 J4.539693
G03 X56.636729 Y79.140549 Z2 I11.371226 J4.459404
G03 X56.764699 Y78.864970 Z2 I50.930674 J23.483019
G00 Z0.000000

(End cutting path id: path17)


(Start cutting path id: path17)
(Change tool to Default tool)

G00 Z0.000000
G00 X63.246180 Y86.087190

G01 Z2 F100.0(Penetrate)
G01 X63.986921 Y81.642750 Z2 F75
G00 Z0.000000

(End cutting path id: path17)


(Start cutting path id: path17)
(Change tool to Default tool)

G00 Z0.000000
G00 X76.023958 Y85.716819

G01 Z2 F100.0(Penetrate)
G03 X75.148962 Y85.089804 Z2 I2.758174 J-4.773045 F75
G03 X73.628840 Y82.939040 Z2 I3.712392 J-4.236434
G03 X73.389337 Y82.294406 Z2 I13.551086 J-5.401491
G03 X73.199455 Y81.642750 Z2 I6.600993 J-2.276913
G03 X73.153702 Y79.439562 Z2 I5.042428 J-1.206783
G02 X73.246175 Y78.864970 Z2 I-8.447292 J-1.654211
G00 Z0.000000

(End cutting path id: path17)


(Start cutting path id: path17)
(Change tool to Default tool)

G00 Z0.000000
G00 X51.209138 Y84.050153

G01 Z2 F100.0(Penetrate)
G01 X51.938591 Y83.119655 Z2 F75
G01 X53.290614 Y79.614000 Z2
G01 X53.431361 Y78.864970 Z2
G00 Z0.000000

(End cutting path id: path17)


(Start cutting path id: path17)
(Change tool to Default tool)

G00 Z0.000000
G00 X69.357287 Y78.864970

G01 Z2 F100.0(Penetrate)
G03 X69.458930 Y79.135472 Z2 I-6.928508 J2.757776 F75
G02 X69.715797 Y79.795320 Z2 I10.707575 J-3.788350
G02 X70.894707 Y81.160118 Z2 I2.719422 J-1.157463
G02 X72.875805 Y81.827930 Z2 I2.461834 J-4.030731
G00 Z0.000000

(End cutting path id: path17)


(Footer)
M5
;G00 X0.0000 Y0.0000
M2
(Using default footer. To add your own footer create file "footer" in the output dir.)
(end)
%