%
(Header)
(Generated by gcodetools from Inkscape.)
(Using default header. To add your own header create file "header" in the output dir.)
M3
(Header end.)
G21 (All units in mm)

(Start cutting path id: path9)
(Change tool to Default tool)

G00 Z0.000000
G00 X101.304880 Y143.933958

G01 Z3 F100.0(Penetrate)
G02 X102.943606 Y144.550805 Z3 I31.711833 J-81.761049 F75
G03 X105.378950 Y145.665212 Z3 I-5.809813 J15.914556
G03 X106.249582 Y146.280544 Z3 I-2.429685 J4.361349
G02 X107.230800 Y146.722310 Z3 I1.206716 J-1.369681
G02 X109.023577 Y146.376995 Z3 I0.364954 J-2.931713
G03 X110.749320 Y145.511176 Z3 I11.843797 J21.454181
G03 X111.514511 Y145.260016 Z3 I1.535948 J3.388251
G02 X112.230800 Y145.019920 Z3 I-0.683638 J-3.228049
G02 X112.866071 Y144.650388 Z3 I-1.759958 J-3.756408
G02 X113.499660 Y144.139863 Z3 I-3.749043 J-5.301182
G02 X114.149902 Y142.894014 Z3 I-1.387702 J-1.516893
G03 X114.431020 Y141.341365 Z3 I16.683350 J2.218864
G03 X115.117438 Y139.192736 Z3 I13.224320 J3.040790
G03 X116.116400 Y137.267291 Z3 I11.645379 J4.820005
G02 X116.745465 Y136.236045 Z3 I-29.989808 J-19.001421
G03 X117.601170 Y135.193961 Z3 I3.724123 J2.185683
G02 X118.306518 Y134.326048 Z3 I-2.305171 J-2.593972
G02 X118.522810 Y133.562873 Z3 I-1.421841 J-0.815202
G02 X118.349254 Y131.863242 Z3 I-6.415869 J-0.203528
G03 X117.999550 Y130.045925 Z3 I19.946227 J-4.780536
G01 X117.388550 Y128.992829 Z3
G01 X112.849800 Y129.231312 Z3
G01 X112.786400 Y128.933958 Z3
G00 Z0.000000

(End cutting path id: path9)


(Start cutting path id: path9)
(Change tool to Default tool)

G00 Z0.000000
G00 X101.119730 Y143.933958

G01 Z3 F100.0(Penetrate)
G01 X101.304920 Y143.933958 Z3 F75
G00 Z0.000000

(End cutting path id: path9)


(Start cutting path id: path9)
(Change tool to Default tool)

G00 Z0.000000
G00 X101.119730 Y139.119143

G01 Z3 F100.0(Penetrate)
G03 X102.866437 Y138.672521 Z3 I79.581305 J307.597995 F75
G03 X107.230840 Y137.709678 Z3 I18.035350 J71.378187
G02 X110.416234 Y136.986341 Z3 I-8.306991 J-43.957419
G02 X113.527140 Y136.130174 Z3 I-47.332236 J-178.062757
G02 X114.501201 Y135.848944 Z3 I-36.987032 J-129.934598
G03 X115.378990 Y135.654351 Z3 I1.896072 J6.475897
G03 X116.336973 Y135.655443 Z3 I0.475441 J3.114461
G03 X116.860470 Y135.785810 Z3 I-0.458149 J2.955983
G00 Z0.000000

(End cutting path id: path9)


(Start cutting path id: path9)
(Change tool to Default tool)

G00 Z0.000000
G00 X121.860470 Y128.933958

G01 Z3 F100.0(Penetrate)
G03 X121.963304 Y129.142541 Z3 I-4.736717 J2.464900 F75
G02 X122.309430 Y129.675699 Z3 I2.070945 J-0.965525
G02 X125.011998 Y131.966355 Z3 I8.811229 J-7.656085
G02 X125.934540 Y132.452477 Z3 I4.150727 J-6.758634
G00 Z0.000000

(End cutting path id: path9)


(Start cutting path id: path9)
(Change tool to Default tool)

G00 Z0.000000
G00 X125.934540 Y129.489514

G01 Z3 F100.0(Penetrate)
G02 X124.860958 Y129.018107 Z3 I-1.643010 J2.283601 F75
G02 X124.082690 Y128.933958 Z3 I-0.825548 J3.994161
G00 Z0.000000

(End cutting path id: path9)


(Start cutting path id: path9)
(Change tool to Default tool)

G00 Z0.000000
G00 X101.119730 Y128.933958

G01 Z3 F100.0(Penetrate)
G01 X104.267880 Y128.933958 Z3 F75
G00 Z0.000000

(End cutting path id: path9)


(Footer)
M5
;G00 X0.0000 Y0.0000
M2
(Using default footer. To add your own footer create file "footer" in the output dir.)
(end)
%