%
(Header)
(Generated by gcodetools from Inkscape.)
(Using default header. To add your own header create file "header" in the output dir.)
M3
(Header end.)
G21 (All units in mm)

(Start cutting path id: path8)
(Change tool to Default tool)

G00 Z0.000000
G00 X74.628876 Y75.074420

G01 Z2 F100.0(Penetrate)
G01 X74.739228 Y74.964060 Z2 F75
G00 Z0.000000

(End cutting path id: path8)


(Start cutting path id: path8)
(Change tool to Default tool)

G00 Z0.000000
G00 X69.663020 Y74.743360

G01 Z2 F100.0(Penetrate)
G01 X69.883724 Y74.743360 Z2 F75
G00 Z0.000000

(End cutting path id: path8)


(Start cutting path id: path8)
(Change tool to Default tool)

G00 Z0.000000
G00 X73.415000 Y74.743360

G01 Z2 F100.0(Penetrate)
G01 X73.525352 Y74.743360 Z2 F75
G00 Z0.000000

(End cutting path id: path8)


(Start cutting path id: path8)
(Change tool to Default tool)

G00 Z0.000000
G00 X70.435486 Y73.198430

G01 Z2 F100.0(Penetrate)
G02 X70.620982 Y72.550385 Z2 I-4.475604 J-1.631665 F75
G03 X70.766543 Y71.984550 Z2 I6.525842 J1.377132
G00 Z0.000000

(End cutting path id: path8)


(Start cutting path id: path8)
(Change tool to Default tool)

G00 Z0.000000
G00 X74.739228 Y71.763850

G01 Z2 F100.0(Penetrate)
G01 X74.739228 Y71.653490 Z2 F75
G00 Z0.000000

(End cutting path id: path8)


(Start cutting path id: path8)
(Change tool to Default tool)

G00 Z0.000000
G00 X72.311476 Y70.549970

G01 Z2 F100.0(Penetrate)
G02 X74.125715 Y70.394941 Z2 I-0.001165 J-10.706799 F75
G03 X74.739228 Y70.329260 Z2 I0.821386 J4.774185
G00 Z0.000000

(End cutting path id: path8)


(Start cutting path id: path8)
(Change tool to Default tool)

G00 Z0.000000
G00 X72.752886 Y68.784330

G01 Z2 F100.0(Penetrate)
G02 X74.152651 Y68.683045 Z2 I0.426964 J-3.822393 F75
G03 X74.739228 Y68.563630 Z2 I1.380357 J5.280070
G00 Z0.000000

(End cutting path id: path8)


(Start cutting path id: path8)
(Change tool to Default tool)

G00 Z0.000000
G00 X74.739228 Y66.466930

G01 Z2 F100.0(Penetrate)
G01 X74.739228 Y66.356580 Z2 F75
G00 Z0.000000

(End cutting path id: path8)


(Footer)
M5
;G00 X0.0000 Y0.0000
M2
(Using default footer. To add your own footer create file "footer" in the output dir.)
(end)
%