%
(Header)
(Generated by gcodetools from Inkscape.)
(Using default header. To add your own header create file "header" in the output dir.)
M3
(Header end.)
G21 (All units in mm)

(Start cutting path id: path6)
(Change tool to Default tool)

G00 Z0.000000
G00 X91.426867 Y124.719079

G01 Z2 F100.0(Penetrate)
G01 X91.090701 Y123.505203 Z2 F75
G01 X91.095801 Y122.843089 Z2
G01 X91.095801 Y122.180975 Z2
G01 X91.100101 Y121.629213 Z2
G01 X91.185001 Y120.967183 Z2
G01 X91.537173 Y120.194633 Z2
G00 Z0.000000

(End cutting path id: path6)


(Start cutting path id: path6)
(Change tool to Default tool)

G00 Z0.000000
G00 X95.840915 Y123.725908

G01 Z2 F100.0(Penetrate)
G01 X95.737290 Y123.171422 Z2 F75
G01 X95.524248 Y122.512032 Z2
G01 X95.289153 Y121.187804 Z2
G00 Z0.000000

(End cutting path id: path6)


(Start cutting path id: path6)
(Change tool to Default tool)

G00 Z0.000000
G00 X86.019555 Y122.070623

G01 Z2 F100.0(Penetrate)
G01 X86.019555 Y120.746394 Z2 F75
G00 Z0.000000

(End cutting path id: path6)


(Start cutting path id: path6)
(Change tool to Default tool)

G00 Z0.000000
G00 X92.309640 Y117.766881

G01 Z2 F100.0(Penetrate)
G03 X93.327975 Y117.404538 Z2 I2.922473 J6.601227 F75
G03 X94.406335 Y117.341820 Z2 I0.687162 J2.513001
G03 X95.503362 Y117.595652 Z2 I-1.103940 J7.268580
G02 X96.723734 Y117.435820 Z2 I0.437876 J-1.395563
G00 Z0.000000

(End cutting path id: path6)


(Start cutting path id: path6)
(Change tool to Default tool)

G00 Z0.000000
G00 X98.158315 Y117.766878

G01 Z2 F100.0(Penetrate)
G01 X99.813600 Y116.442649 Z2 F75
G00 Z0.000000

(End cutting path id: path6)


(Start cutting path id: path6)
(Change tool to Default tool)

G00 Z0.000000
G00 X89.330126 Y116.442649

G01 Z2 F100.0(Penetrate)
G02 X90.464684 Y116.529847 Z2 I0.771136 J-2.608847 F75
G03 X91.757878 Y116.442649 Z2 I1.299631 J9.641290
G00 Z0.000000

(End cutting path id: path6)


(Start cutting path id: path6)
(Change tool to Default tool)

G00 Z0.000000
G00 X85.467793 Y110.704326

G01 Z2 F100.0(Penetrate)
G03 X85.738728 Y111.183528 Z2 I-1.125349 J0.952450 F75
G02 X86.101383 Y111.906707 Z2 I2.784043 J-0.943605
G02 X86.453669 Y112.241410 Z2 I0.968625 J-0.666762
G03 X86.817055 Y112.603392 Z2 I-0.585183 J0.950841
G01 X87.249779 Y113.895179 Z2
G02 X87.831761 Y114.237064 Z2 I2.519935 J-3.623328
G03 X88.336785 Y114.566233 Z2 I-1.078449 J2.206597
G02 X88.859231 Y114.911062 Z2 I1.724683 J-2.044854
G02 X89.109421 Y115.008068 Z2 I0.627530 J-1.247339
G00 Z0.000000

(End cutting path id: path6)


(Start cutting path id: path6)
(Change tool to Default tool)

G00 Z0.000000
G00 X95.620211 Y114.677011

G01 Z2 F100.0(Penetrate)
G01 X95.730563 Y114.677011 Z2 F75
G00 Z0.000000

(End cutting path id: path6)


(Start cutting path id: path6)
(Change tool to Default tool)

G00 Z0.000000
G00 X97.165144 Y114.345954

G01 Z2 F100.0(Penetrate)
G01 X98.379020 Y114.125250 Z2 F75
G00 Z0.000000

(End cutting path id: path6)


(Start cutting path id: path6)
(Change tool to Default tool)

G00 Z0.000000
G00 X94.185630 Y114.125250

G01 Z2 F100.0(Penetrate)
G01 X94.185630 Y114.014900 Z2 F75
G00 Z0.000000

(End cutting path id: path6)


(Start cutting path id: path6)
(Change tool to Default tool)

G00 Z0.000000
G00 X92.530344 Y114.014900

G01 Z2 F100.0(Penetrate)
G01 X92.199287 Y113.683843 Z2 F75
G00 Z0.000000

(End cutting path id: path6)


(Start cutting path id: path6)
(Change tool to Default tool)

G00 Z0.000000
G00 X100.365364 Y113.794195

G01 Z2 F100.0(Penetrate)
G01 X99.703248 Y113.242434 Z2 F75
G01 X100.052014 Y112.896220 Z2
G01 X101.137824 Y112.580319 Z2
G00 Z0.000000

(End cutting path id: path6)


(Start cutting path id: path6)
(Change tool to Default tool)

G00 Z0.000000
G00 X100.475714 Y112.359615

G01 Z2 F100.0(Penetrate)
G01 X99.703248 Y113.242434 Z2 F75
G00 Z0.000000

(End cutting path id: path6)


(Start cutting path id: path6)
(Change tool to Default tool)

G00 Z0.000000
G00 X78.294889 Y112.359615

G01 Z2 F100.0(Penetrate)
G01 X79.177708 Y112.801024 Z2 F75
G00 Z0.000000

(End cutting path id: path6)


(Start cutting path id: path6)
(Change tool to Default tool)

G00 Z0.000000
G00 X90.875059 Y112.580319

G01 Z2 F100.0(Penetrate)
G01 X90.654354 Y112.359615 Z2 F75
G00 Z0.000000

(End cutting path id: path6)


(Start cutting path id: path6)
(Change tool to Default tool)

G00 Z0.000000
G00 X89.219773 Y111.476796

G01 Z2 F100.0(Penetrate)
G02 X88.838124 Y110.508982 Z2 I-5.256645 J1.513755 F75
G02 X88.447307 Y109.821510 Z2 I-7.651276 J3.894807
G00 Z0.000000

(End cutting path id: path6)


(Start cutting path id: path6)
(Change tool to Default tool)

G00 Z0.000000
G00 X78.184537 Y110.483625

G01 Z2 F100.0(Penetrate)
G01 X77.963832 Y108.938691 Z2 F75
G00 Z0.000000

(End cutting path id: path6)


(Start cutting path id: path6)
(Change tool to Default tool)

G00 Z0.000000
G00 X84.364269 Y108.938691

G01 Z2 F100.0(Penetrate)
G01 X85.688498 Y109.490453 Z2 F75
G00 Z0.000000

(End cutting path id: path6)


(Start cutting path id: path6)
(Change tool to Default tool)

G00 Z0.000000
G00 X103.565584 Y108.276577

G01 Z2 F100.0(Penetrate)
G01 X103.675934 Y108.276577 Z2 F75
G00 Z0.000000

(End cutting path id: path6)


(Start cutting path id: path6)
(Change tool to Default tool)

G00 Z0.000000
G00 X104.779454 Y108.166225

G01 Z2 F100.0(Penetrate)
G01 X104.889814 Y108.166225 Z2 F75
G00 Z0.000000

(End cutting path id: path6)


(Start cutting path id: path6)
(Change tool to Default tool)

G00 Z0.000000
G00 X85.357487 Y107.945520

G01 Z2 F100.0(Penetrate)
G01 X84.143611 Y106.400587 Z2 F75
G00 Z0.000000

(End cutting path id: path6)


(Start cutting path id: path6)
(Change tool to Default tool)

G00 Z0.000000
G00 X77.963878 Y107.393758

G01 Z2 F100.0(Penetrate)
G01 X77.963878 Y107.283406 Z2 F75
G00 Z0.000000

(End cutting path id: path6)


(Start cutting path id: path6)
(Change tool to Default tool)

G00 Z0.000000
G00 X97.606599 Y106.621292

G01 Z2 F100.0(Penetrate)
G01 X97.606599 Y106.400587 Z2 F75
G00 Z0.000000

(End cutting path id: path6)


(Start cutting path id: path6)
(Change tool to Default tool)

G00 Z0.000000
G00 X95.509904 Y106.400587

G01 Z2 F100.0(Penetrate)
G01 X96.061666 Y106.400587 Z2 F75
G00 Z0.000000

(End cutting path id: path6)


(Footer)
M5
;G00 X0.0000 Y0.0000
M2
(Using default footer. To add your own footer create file "footer" in the output dir.)
(end)
%