%
(Header)
(Generated by gcodetools from Inkscape.)
(Using default header. To add your own header create file "header" in the output dir.)
M3
(Header end.)
G21 (All units in mm)

(Start cutting path id: path9)
(Change tool to Default tool)

G00 Z0.000000
G00 X75.659544 Y73.793120

G01 Z2 F100.0(Penetrate)
G01 X75.990601 Y73.682770 Z2 F75
G00 Z0.000000

(End cutting path id: path9)


(Start cutting path id: path9)
(Change tool to Default tool)

G00 Z0.000000
G00 X76.100953 Y73.793120

G01 Z2 F100.0(Penetrate)
G01 X75.990601 Y73.682770 Z2 F75
G00 Z0.000000

(End cutting path id: path9)


(Start cutting path id: path9)
(Change tool to Default tool)

G00 Z0.000000
G00 X98.612836 Y73.793120

G01 Z2 F100.0(Penetrate)
G03 X99.695495 Y73.549960 Z2 I1.689686 J4.991429 F75
G02 X101.150940 Y73.238210 Z2 I-0.898510 J-7.748144
G02 X101.756066 Y73.025819 Z2 I-3.124772 J-9.871060
G03 X102.364820 Y72.794420 Z2 I22.228552 J57.561425
G02 X103.823861 Y72.090403 Z2 I-3.103252 J-8.295246
G03 X105.233980 Y71.475720 Z2 I3.054489 J5.082385
G00 Z0.000000

(End cutting path id: path9)


(Start cutting path id: path9)
(Change tool to Default tool)

G00 Z0.000000
G00 X80.073638 Y73.351710

G01 Z2 F100.0(Penetrate)
G02 X80.623474 Y72.825281 Z2 I-9.502715 J-10.475594 F75
G03 X81.177162 Y72.358540 Z2 I2.857940 J2.828548
G00 Z0.000000

(End cutting path id: path9)


(Start cutting path id: path9)
(Change tool to Default tool)

G00 Z0.000000
G00 X95.302265 Y72.910300

G01 Z2 F100.0(Penetrate)
G01 X95.191912 Y72.799950 Z2 F75
G00 Z0.000000

(End cutting path id: path9)


(Start cutting path id: path9)
(Change tool to Default tool)

G00 Z0.000000
G00 X77.094125 Y72.799950

G01 Z2 F100.0(Penetrate)
G01 X76.983772 Y72.468890 Z2 F75
G00 Z0.000000

(End cutting path id: path9)


(Start cutting path id: path9)
(Change tool to Default tool)

G00 Z0.000000
G00 X85.149847 Y72.137840

G01 Z2 F100.0(Penetrate)
G01 X85.260200 Y72.137840 Z2 F75
G00 Z0.000000

(End cutting path id: path9)


(Start cutting path id: path9)
(Change tool to Default tool)

G00 Z0.000000
G00 X102.806230 Y68.165150

G01 Z2 F100.0(Penetrate)
G02 X99.649713 Y69.424471 Z2 I63.902705 J164.759158 F75
G02 X97.509312 Y70.703250 Z2 I3.180032 J7.753366
G01 X98.283907 Y71.536600 Z2
G02 X100.185291 Y71.273250 Z2 I0.631523 J-2.436069
G02 X101.813050 Y70.261840 Z2 I-17.870880 J-30.576885
G00 Z0.000000

(End cutting path id: path9)


(Start cutting path id: path9)
(Change tool to Default tool)

G00 Z0.000000
G00 X95.522969 Y70.923960

G01 Z2 F100.0(Penetrate)
G02 X96.722225 Y70.896041 Z2 I0.541773 J-2.499102 F75
G02 X97.398960 Y70.703250 Z2 I-5.170700 J-19.434337
G00 Z0.000000

(End cutting path id: path9)


(Start cutting path id: path9)
(Change tool to Default tool)

G00 Z0.000000
G00 X74.997430 Y70.372200

G01 Z2 F100.0(Penetrate)
G01 X75.551916 Y70.438500 Z2 F75
G01 X77.535534 Y70.119360 Z2
G01 X82.611743 Y69.047940 Z2
G00 Z0.000000

(End cutting path id: path9)


(Start cutting path id: path9)
(Change tool to Default tool)

G00 Z0.000000
G00 X74.887077 Y70.372170

G01 Z2 F100.0(Penetrate)
G01 X74.997430 Y70.372170 Z2 F75
G00 Z0.000000

(End cutting path id: path9)


(Start cutting path id: path9)
(Change tool to Default tool)

G00 Z0.000000
G00 X93.867684 Y70.261810

G01 Z2 F100.0(Penetrate)
G01 X93.646979 Y69.047940 Z2 F75
G00 Z0.000000

(End cutting path id: path9)


(Start cutting path id: path9)
(Change tool to Default tool)

G00 Z0.000000
G00 X85.260200 Y69.930760

G01 Z2 F100.0(Penetrate)
G01 X85.149847 Y69.820410 Z2 F75
G00 Z0.000000

(End cutting path id: path9)


(Start cutting path id: path9)
(Change tool to Default tool)

G00 Z0.000000
G00 X74.887077 Y68.937590

G01 Z2 F100.0(Penetrate)
G02 X75.048074 Y68.910946 Z2 I-0.672137 J-4.561207 F75
G02 X75.549702 Y68.794710 Z2 I-1.011832 J-5.507172
G02 X77.109364 Y68.243348 Z2 I-3.388550 J-12.066969
G03 X78.859762 Y67.585260 Z2 I7.988407 J18.590827
G03 X81.581061 Y66.789579 Z2 I15.107696 J46.618269
G02 X84.267028 Y65.847720 Z2 I-4.405969 J-16.865631
G00 Z0.000000

(End cutting path id: path9)


(Start cutting path id: path9)
(Change tool to Default tool)

G00 Z0.000000
G00 X95.964379 Y68.937590

G01 Z2 F100.0(Penetrate)
G02 X99.173056 Y67.375169 Z2 I-7.780287 J-20.054014 F75
G03 X102.475170 Y65.958070 Z2 I7.036569 J11.840732
G00 Z0.000000

(End cutting path id: path9)


(Start cutting path id: path9)
(Change tool to Default tool)

G00 Z0.000000
G00 X91.881341 Y68.275470

G01 Z2 F100.0(Penetrate)
G01 X92.212398 Y68.165120 Z2 F75
G00 Z0.000000

(End cutting path id: path9)


(Start cutting path id: path9)
(Change tool to Default tool)

G00 Z0.000000
G00 X85.370552 Y67.613360

G01 Z2 F100.0(Penetrate)
G01 X85.260200 Y67.503010 Z2 F75
G00 Z0.000000

(End cutting path id: path9)


(Start cutting path id: path9)
(Change tool to Default tool)

G00 Z0.000000
G00 X74.887077 Y67.171950

G01 Z2 F100.0(Penetrate)
G02 X75.048967 Y67.118659 Z2 I-8.283955 J-25.437906 F75
G02 X75.549702 Y66.951240 Z2 I-56.775889 J-170.644144
G02 X77.069062 Y66.410116 Z2 I-14.170257 J-42.190653
G03 X78.749410 Y65.811020 Z2 I17.682046 J46.938613
G02 X82.208167 Y64.611352 Z2 I-63.688951 J-189.207149
G03 X85.811961 Y63.971730 Z2 I3.694737 J10.344928
G00 Z0.000000

(End cutting path id: path9)


(Start cutting path id: path9)
(Change tool to Default tool)

G00 Z0.000000
G00 X94.640150 Y67.171950

G01 Z2 F100.0(Penetrate)
G02 X97.993033 Y66.125616 Z2 I-1.652817 J-11.191472 F75
G02 X100.930240 Y64.192430 Z2 I-6.303135 J-12.774671
G00 Z0.000000

(End cutting path id: path9)


(Start cutting path id: path9)
(Change tool to Default tool)

G00 Z0.000000
G00 X91.108875 Y66.620190

G01 Z2 F100.0(Penetrate)
G01 X91.555223 Y66.541390 Z2 F75
G03 X91.985804 Y66.512980 Z2 I0.503035 J4.346808
G03 X92.212398 Y66.509790 Z2 I0.755717 J45.634660
G02 X92.799163 Y66.358617 Z2 I-0.014696 J-1.271367
G02 X93.426274 Y65.295920 Z2 I-0.563042 J-1.048639
G00 Z0.000000

(End cutting path id: path9)


(Start cutting path id: path9)
(Change tool to Default tool)

G00 Z0.000000
G00 X93.536627 Y65.847680

G01 Z2 F100.0(Penetrate)
G01 X94.640150 Y65.651920 Z2 F75
G01 X96.074731 Y64.992110 Z2
G01 X99.606007 Y62.978520 Z2
G00 Z0.000000

(End cutting path id: path9)


(Start cutting path id: path9)
(Change tool to Default tool)

G00 Z0.000000
G00 X89.894999 Y65.737330

G01 Z2 F100.0(Penetrate)
G01 X90.005351 Y65.737330 Z2 F75
G00 Z0.000000

(End cutting path id: path9)


(Start cutting path id: path9)
(Change tool to Default tool)

G00 Z0.000000
G00 X74.887077 Y65.185570

G01 Z2 F100.0(Penetrate)
G03 X74.996785 Y65.185094 Z2 I0.065539 J2.463952 F75
G02 X75.235845 Y65.175570 Z2 I0.037146 J-2.072606
G02 X76.375958 Y64.927042 Z2 I-0.493322 J-5.002476
G02 X77.973197 Y64.224550 Z2 I-3.403435 J-9.905353
G01 X78.416991 Y63.088840 Z2
G01 X78.149795 Y62.277380 Z2
G01 X77.316447 Y62.331680 Z2
G02 X76.957987 Y62.558227 Z2 I0.824684 J1.701746
G03 X76.621210 Y62.746270 Z2 I-0.727059 J-0.906532
G01 X75.549192 Y62.647370 Z2
G00 Z0.000000

(End cutting path id: path9)


(Start cutting path id: path9)
(Change tool to Default tool)

G00 Z0.000000
G00 X91.219227 Y65.075120

G01 Z2 F100.0(Penetrate)
G01 X91.550284 Y64.854420 Z2 F75
G00 Z0.000000

(End cutting path id: path9)


(Start cutting path id: path9)
(Change tool to Default tool)

G00 Z0.000000
G00 X89.453589 Y64.192300

G01 Z2 F100.0(Penetrate)
G01 X89.563942 Y64.192300 Z2 F75
G00 Z0.000000

(End cutting path id: path9)


(Start cutting path id: path9)
(Change tool to Default tool)

G00 Z0.000000
G00 X78.639058 Y63.861250

G01 Z2 F100.0(Penetrate)
G02 X80.497650 Y63.264331 Z2 I-75.892788 J-239.494848 F75
G02 X83.053152 Y62.426750 Z2 I-200.464146 J-615.943650
G03 X84.249489 Y62.127866 Z2 I2.614831 J7.922619
G02 X85.480904 Y61.874910 Z2 I-3.366746 J-19.513441
G00 Z0.000000

(End cutting path id: path9)


(Start cutting path id: path9)
(Change tool to Default tool)

G00 Z0.000000
G00 X95.302265 Y63.530190

G01 Z2 F100.0(Penetrate)
G01 X95.081816 Y62.580100 Z2 F75
G01 X97.509312 Y61.102440 Z2
G00 Z0.000000

(End cutting path id: path9)


(Start cutting path id: path9)
(Change tool to Default tool)

G00 Z0.000000
G00 X96.957550 Y59.778210

G01 Z2 F100.0(Penetrate)
G02 X95.898755 Y60.343006 Z2 I2.877279 J6.668726 F75
G03 X94.860855 Y60.904210 Z2 I-4.153214 J-6.440664
G03 X94.421847 Y61.053726 Z2 I-1.044409 J-2.347321
G02 X94.009541 Y61.202570 Z2 I0.476643 J1.965805
G02 X93.574926 Y61.456960 Z2 I1.485679 J3.036683
G03 X93.095133 Y61.730070 Z2 I-1.812360 J-2.625907
G01 X92.132189 Y62.432630 Z2
G01 X92.875023 Y63.192580 Z2
G02 X93.866465 Y62.987473 Z2 I-0.013226 J-2.562692
G03 X94.860855 Y62.757720 Z2 I1.143996 J2.684534
G00 Z0.000000

(End cutting path id: path9)


(Start cutting path id: path9)
(Change tool to Default tool)

G00 Z0.000000
G00 X93.757332 Y60.992090

G01 Z2 F100.0(Penetrate)
G02 X93.688008 Y60.645132 Z2 I-2.614130 J0.341912 F75
G02 X93.573070 Y60.329460 Z2 I-1.913739 J0.518043
G03 X93.428355 Y60.016173 Z2 I120.175394 J-55.702018
G02 X93.226091 Y59.684290 Z2 I-1.526338 J0.702642
G01 X92.762116 Y59.396660 Z2
G02 X91.548363 Y59.709339 Z2 I-0.160904 J1.887509
G02 X90.465153 Y60.463830 Z2 I19.216736 J28.743974
G01 X90.335642 Y61.212880 Z2
G03 X90.428114 Y61.531472 Z2 I-5.808694 J1.858707
G02 X90.492655 Y61.764550 Z2 I7.880981 J-2.056817
G02 X90.590848 Y62.074763 Z2 I7.249452 J-2.124052
G02 X90.766664 Y62.391590 Z2 I0.965813 J-0.328759
G01 X91.881341 Y62.647370 Z2
G00 Z0.000000

(End cutting path id: path9)


(Start cutting path id: path9)
(Change tool to Default tool)

G00 Z0.000000
G00 X78.308001 Y62.205960

G01 Z2 F100.0(Penetrate)
G01 X78.546246 Y61.988320 Z2 F75
G03 X79.197764 Y61.672439 Z2 I1.049833 J1.335494
G03 X79.963286 Y61.506300 Z2 I3.998834 J16.578771
G02 X80.265597 Y61.410374 Z2 I-0.259081 J-1.340826
G03 X80.735753 Y61.217810 Z2 I2.991730 J6.634235
G03 X81.124057 Y61.129178 Z2 I0.534777 J1.447987
G02 X81.508219 Y61.082000 Z2 I-0.676211 J-7.093972
G02 X82.023220 Y60.913627 Z2 I-0.242336 J-1.613032
G03 X82.501390 Y60.690070 Z2 I2.693416 J5.137830
G03 X82.962392 Y60.566994 Z2 I0.697764 J1.688682
G02 X83.384209 Y60.483920 Z2 I-0.432078 J-3.306354
G02 X84.430100 Y60.180306 Z2 I-5.919859 J-22.346014
G03 X85.591257 Y59.888560 Z2 I3.011892 J9.530821
G00 Z0.000000

(End cutting path id: path9)


(Start cutting path id: path9)
(Change tool to Default tool)

G00 Z0.000000
G00 X82.501390 Y60.661030

G01 Z2 F100.0(Penetrate)
G01 X82.280686 Y60.109270 Z2 F75
G00 Z0.000000

(End cutting path id: path9)


(Start cutting path id: path9)
(Change tool to Default tool)

G00 Z0.000000
G00 X93.095217 Y59.226450

G01 Z2 F100.0(Penetrate)
G03 X93.579474 Y58.541346 Z2 I19.805255 J13.485396 F75
G02 X93.749838 Y58.235410 Z2 I-1.135016 J-0.832449
G01 X93.742638 Y57.858880 Z2
G01 X92.653761 Y57.857880 Z2
G02 X91.477729 Y58.394859 Z2 I1.803429 J5.505969
G03 X90.227711 Y59.070900 Z2 I-8.239672 J-13.741694
G01 X89.591227 Y59.779850 Z2
G01 X90.005304 Y60.550700 Z2
G00 Z0.000000

(End cutting path id: path9)


(Start cutting path id: path9)
(Change tool to Default tool)

G00 Z0.000000
G00 X87.908609 Y60.109290

G01 Z2 F100.0(Penetrate)
G02 X87.231525 Y59.088860 Z2 I-2.139139 J0.684533 F75
G03 X86.584381 Y58.454000 Z2 I4.409340 J-5.141915
G00 Z0.000000

(End cutting path id: path9)


(Start cutting path id: path9)
(Change tool to Default tool)

G00 Z0.000000
G00 X81.618525 Y58.564350

G01 Z2 F100.0(Penetrate)
G01 X83.935924 Y58.012590 Z2 F75
G00 Z0.000000

(End cutting path id: path9)


(Start cutting path id: path9)
(Change tool to Default tool)

G00 Z0.000000
G00 X95.522922 Y58.343650

G01 Z2 F100.0(Penetrate)
G01 X94.765102 Y57.446610 Z2 F75
G01 X95.633275 Y56.136600 Z2
G00 Z0.000000

(End cutting path id: path9)


(Start cutting path id: path9)
(Change tool to Default tool)

G00 Z0.000000
G00 X93.867637 Y57.902240

G01 Z2 F100.0(Penetrate)
G01 X94.640103 Y57.571180 Z2 F75
G00 Z0.000000

(End cutting path id: path9)


(Start cutting path id: path9)
(Change tool to Default tool)

G00 Z0.000000
G00 X85.260153 Y57.019420

G01 Z2 F100.0(Penetrate)
G01 X85.370505 Y57.019420 Z2 F75
G00 Z0.000000

(End cutting path id: path9)


(Start cutting path id: path9)
(Change tool to Default tool)

G00 Z0.000000
G00 X87.136143 Y56.246950

G01 Z2 F100.0(Penetrate)
G03 X88.025385 Y56.576577 Z2 I0.013316 J1.328354 F75
G02 X89.012133 Y56.889910 Z2 I0.851367 J-0.970724
G02 X89.691190 Y56.749291 Z2 I-0.367838 J-3.486215
G02 X90.336361 Y56.541230 Z2 I-11.642620 J-37.206694
G02 X91.620832 Y56.078964 Z2 I-8.674247 J-26.118303
G02 X92.874466 Y55.474490 Z2 I-3.189649 J-8.217299
G00 Z0.000000

(End cutting path id: path9)


(Start cutting path id: path9)
(Change tool to Default tool)

G00 Z0.000000
G00 X88.018962 Y56.026250

G01 Z2 F100.0(Penetrate)
G03 X89.270703 Y55.177918 Z2 I2.755232 J2.717773 F75
G02 X89.900401 Y54.690530 Z2 I-0.602349 J-1.428702
G01 X90.458293 Y54.093130 Z2
G01 X90.998475 Y54.104930 Z2
G02 X91.467944 Y54.047383 Z2 I0.034466 J-1.662561
G02 X92.543409 Y53.598470 Z2 I-1.169058 J-4.313431
G00 Z0.000000

(End cutting path id: path9)


(Start cutting path id: path9)
(Change tool to Default tool)

G00 Z0.000000
G00 X85.260200 Y55.364280

G01 Z2 F100.0(Penetrate)
G02 X87.311566 Y54.533783 Z2 I-27.266831 J-70.299043 F75
G03 X89.012180 Y54.031620 Z2 I3.078047 J7.293335
G03 X89.899576 Y54.036177 Z2 I0.431179 J2.440261
G03 X90.226056 Y54.150400 Z2 I-0.211112 J1.127106
G00 Z0.000000

(End cutting path id: path9)


(Footer)
M5
;G00 X0.0000 Y0.0000
M2
(Using default footer. To add your own footer create file "footer" in the output dir.)
(end)
%