%
(Header)
(Generated by gcodetools from Inkscape.)
(Using default header. To add your own header create file "header" in the output dir.)
M3
(Header end.)
G21 (All units in mm)

(Start cutting path id: path5)
(Change tool to Default tool)

G00 Z0.000000
G00 X70.456949 Y96.776758

G01 Z2 F100.0(Penetrate)
G03 X70.919534 Y96.889711 Z2 I-0.202950 J1.834867 F75
G03 X71.560472 Y97.222937 Z2 I-1.179540 J3.051777
G03 X72.137794 Y97.658727 Z2 I-3.561617 J5.318625
G02 X72.332939 Y97.798880 Z2 I0.968435 J-1.142492
G02 X72.887273 Y97.999587 Z2 I0.784852 J-1.301827
G02 X73.544090 Y98.082254 Z2 I1.857177 J-12.105208
G02 X73.940415 Y98.100727 Z2 I0.377028 J-3.828153
G03 X74.098577 Y98.100984 Z2 I0.059746 J11.909470
G00 Z0.000000

(End cutting path id: path5)


(Start cutting path id: path5)
(Change tool to Default tool)

G00 Z0.000000
G00 X74.098577 Y95.342175

G01 Z2 F100.0(Penetrate)
G01 X74.098577 Y95.231822 Z2 F75
G00 Z0.000000

(End cutting path id: path5)


(Start cutting path id: path5)
(Change tool to Default tool)

G00 Z0.000000
G00 X69.684482 Y94.900765

G01 Z2 F100.0(Penetrate)
G01 X70.236244 Y95.231822 Z2 F75
G00 Z0.000000

(End cutting path id: path5)


(Start cutting path id: path5)
(Change tool to Default tool)

G00 Z0.000000
G00 X69.353425 Y92.914423

G01 Z2 F100.0(Penetrate)
G01 X68.912016 Y92.141956 Z2 F75
G00 Z0.000000

(End cutting path id: path5)


(Start cutting path id: path5)
(Change tool to Default tool)

G00 Z0.000000
G00 X74.098577 Y90.155614

G01 Z2 F100.0(Penetrate)
G01 X74.098577 Y89.824557 Z2 F75
G00 Z0.000000

(End cutting path id: path5)


(Start cutting path id: path5)
(Change tool to Default tool)

G00 Z0.000000
G00 X68.801663 Y89.934909

G01 Z2 F100.0(Penetrate)
G01 X68.691311 Y88.721033 Z2 F75
G00 Z0.000000

(End cutting path id: path5)


(Start cutting path id: path5)
(Change tool to Default tool)

G00 Z0.000000
G00 X69.794835 Y87.838214

G01 Z2 F100.0(Penetrate)
G01 X69.905187 Y87.727862 Z2 F75
G00 Z0.000000

(End cutting path id: path5)


(Start cutting path id: path5)
(Change tool to Default tool)

G00 Z0.000000
G00 X68.691311 Y85.851871

G01 Z2 F100.0(Penetrate)
G01 X69.684482 Y85.851871 Z2 F75
G00 Z0.000000

(End cutting path id: path5)


(Start cutting path id: path5)
(Change tool to Default tool)

G00 Z0.000000
G00 X70.898358 Y84.637995

G01 Z2 F100.0(Penetrate)
G01 X71.008711 Y84.637995 Z2 F75
G00 Z0.000000

(End cutting path id: path5)


(Start cutting path id: path5)
(Change tool to Default tool)

G00 Z0.000000
G00 X69.684482 Y83.865529

G01 Z2 F100.0(Penetrate)
G01 X69.794835 Y82.430947 Z2 F75
G00 Z0.000000

(End cutting path id: path5)


(Start cutting path id: path5)
(Change tool to Default tool)

G00 Z0.000000
G00 X68.249901 Y78.678967

G01 Z2 F100.0(Penetrate)
G01 X68.470606 Y78.458267 Z2 F75
G00 Z0.000000

(End cutting path id: path5)


(Start cutting path id: path5)
(Change tool to Default tool)

G00 Z0.000000
G00 X72.553644 Y75.478747

G01 Z2 F100.0(Penetrate)
G01 X72.774348 Y74.154517 Z2 F75
G00 Z0.000000

(End cutting path id: path5)


(Start cutting path id: path5)
(Change tool to Default tool)

G00 Z0.000000
G00 X74.098577 Y74.375227

G01 Z2 F100.0(Penetrate)
G01 X73.988224 Y74.154517 Z2 F75
G00 Z0.000000

(End cutting path id: path5)


(Start cutting path id: path5)
(Change tool to Default tool)

G00 Z0.000000
G00 X69.243073 Y74.154517

G01 Z2 F100.0(Penetrate)
G01 X69.353425 Y74.154517 Z2 F75
G00 Z0.000000

(End cutting path id: path5)


(Footer)
M5
;G00 X0.0000 Y0.0000
M2
(Using default footer. To add your own footer create file "footer" in the output dir.)
(end)
%