%
(Header)
(Generated by gcodetools from Inkscape.)
(Using default header. To add your own header create file "header" in the output dir.)
M3
(Header end.)
G21 (All units in mm)

(Start cutting path id: path12)
(Change tool to Default tool)

G00 Z0.000000
G00 X54.357297 Y128.714278

G01 Z-1.000000 F100.0(Penetrate)
G01 X51.394334 Y128.529093 Z-1.000000 F400.000000
G00 Z0.000000

(End cutting path id: path12)


(Start cutting path id: path12)
(Change tool to Default tool)

G00 Z0.000000
G00 X51.209148 Y128.529093

G01 Z-1.000000 F100.0(Penetrate)
G01 X51.394334 Y128.529093 Z-1.000000 F400.000000
G00 Z0.000000

(End cutting path id: path12)


(Start cutting path id: path12)
(Change tool to Default tool)

G00 Z0.000000
G00 X51.394334 Y122.047612

G01 Z-1.000000 F100.0(Penetrate)
G03 X52.873176 Y123.674185 Z-1.000000 I-4.655073 J5.717835 F400.000000
G02 X54.926713 Y126.306871 Z-1.000000 I18.732384 J-12.494318
G03 X55.682512 Y127.180854 Z-1.000000 I-18.106587 J16.421909
G02 X56.410909 Y127.921955 Z-1.000000 I4.594030 J-3.786776
G02 X57.419337 Y128.437500 Z-1.000000 I1.585308 J-1.856895
G02 X57.875815 Y128.529093 Z-1.000000 I1.358214 J-5.585709
G00 Z0.000000

(End cutting path id: path12)


(Start cutting path id: path12)
(Change tool to Default tool)

G00 Z0.000000
G00 X76.023963 Y127.603167

G01 Z-1.000000 F100.0(Penetrate)
G02 X74.413069 Y126.715222 Z-1.000000 I-8.244226 J13.051325 F400.000000
G03 X70.838778 Y124.740942 Z-1.000000 I14.512274 J-30.496063
G03 X65.213533 Y121.033927 Z-1.000000 I102.883022 J-162.242363
G03 X59.944288 Y116.489341 Z-1.000000 I17.663207 J-25.806722
G02 X58.007580 Y114.439164 Z-1.000000 I-110.904026 J102.826135
G03 X56.321031 Y112.232797 Z-1.000000 I8.824691 J-8.493382
G03 X55.940321 Y111.580472 Z-1.000000 I30.149655 J-18.033199
G02 X55.555570 Y110.936501 Z-1.000000 I-15.511019 J8.830391
G03 X55.104927 Y110.210618 Z-1.000000 I90.941659 J-56.961198
G03 X54.683228 Y109.455019 Z-1.000000 I8.659384 J-5.328273
G03 X53.155829 Y105.537241 Z-1.000000 I19.851934 J-9.996174
G03 X52.690630 Y103.899464 Z-1.000000 I3292.407959 J-936.070250
G00 Z0.000000

(End cutting path id: path12)


(Start cutting path id: path12)
(Change tool to Default tool)

G00 Z0.000000
G00 X76.023963 Y124.825390

G01 Z-1.000000 F100.0(Penetrate)
G02 X75.753021 Y124.646707 Z-1.000000 I-50074.873283 J75929.674857 F400.000000
G02 X75.093465 Y124.242114 Z-1.000000 I-6.499592 J9.855557
G03 X73.868712 Y123.528188 Z-1.000000 I34.045601 J-59.813388
G02 X72.505445 Y122.715050 Z-1.000000 I-1654.120553 J2771.665892
G03 X68.809207 Y120.395749 Z-1.000000 I48.984360 J-82.170681
G03 X65.476553 Y117.833934 Z-1.000000 I16.049899 J-24.327867
G03 X64.773155 Y117.020353 Z-1.000000 I2.750983 J-3.089278
G02 X64.265704 Y116.338878 Z-1.000000 I-6.169677 J4.064494
G02 X63.492875 Y115.644937 Z-1.000000 I-2.821488 J2.364923
G02 X62.690630 Y115.119171 Z-1.000000 I-26.711399 J39.882935
G03 X61.941368 Y114.612555 Z-1.000000 I10.008500 J-15.609498
G02 X61.209148 Y114.214965 Z-1.000000 I-1.994429 J2.799991
G02 X60.050915 Y114.171328 Z-1.000000 I-0.641130 J1.624174
G02 X58.616556 Y115.010575 Z-1.000000 I1.085188 J3.500054
G00 Z0.000000

(End cutting path id: path12)


(Start cutting path id: path12)
(Change tool to Default tool)

G00 Z0.000000
G00 X76.023963 Y120.380945

G01 Z-1.000000 F100.0(Penetrate)
G01 X74.357297 Y120.380945 Z-1.000000 F400.000000
G01 X76.023963 Y122.047612 Z-1.000000
G00 Z0.000000

(End cutting path id: path12)


(Start cutting path id: path12)
(Change tool to Default tool)

G00 Z0.000000
G00 X74.357297 Y120.380945

G01 Z-1.000000 F100.0(Penetrate)
G02 X73.139070 Y119.523260 Z-1.000000 I-10.855591 J14.124908 F400.000000
G03 X71.949889 Y118.744857 Z-1.000000 I48.206746 J-74.943940
G03 X71.224043 Y118.247224 Z-1.000000 I18.160658 J-27.267267
G02 X70.468408 Y117.861227 Z-1.000000 I-1.726363 J2.446939
G02 X69.675080 Y117.659682 Z-1.000000 I-1.632976 J4.765630
G03 X68.986926 Y117.466993 Z-1.000000 I0.565228 J-3.343770
G02 X65.663275 Y116.287828 Z-1.000000 I-17.314180 J43.528907
G02 X64.357297 Y116.306871 Z-1.000000 I-0.624050 J1.994211
G00 Z0.000000

(End cutting path id: path12)


(Start cutting path id: path12)
(Change tool to Default tool)

G00 Z0.000000
G00 X70.468408 Y117.417982

G01 Z-1.000000 F100.0(Penetrate)
G03 X70.328624 Y117.087729 Z-1.000000 I6.384972 J-2.897243 F400.000000
G02 X69.958291 Y116.306013 Z-1.000000 I-5.958414 J2.344178
G02 X69.193815 Y115.171062 Z-1.000000 I-7.224468 J4.041289
G03 X68.203318 Y113.899464 Z-1.000000 I45.732778 J-36.644597
G03 X66.027001 Y110.839544 Z-1.000000 I50.260010 J-38.050480
G03 X64.126815 Y107.603167 Z-1.000000 I27.145171 J-18.113869
G02 X63.273243 Y106.104515 Z-1.000000 I-17.305715 J8.864233
G03 X62.799512 Y104.828961 Z-1.000000 I2.807659 J-1.768490
G01 X63.442230 Y103.982339 Z-1.000000
G03 X64.121128 Y104.190607 Z-1.000000 I-0.095325 J1.521376
G02 X64.727667 Y104.517747 Z-1.000000 I4.592986 J-7.789860
G02 X66.436412 Y105.197724 Z-1.000000 I5.215811 J-10.620061
G03 X68.206747 Y106.092536 Z-1.000000 I-1.767935 J5.696422
G03 X70.386231 Y108.561010 Z-1.000000 I-4.632596 J6.286647
G02 X72.135074 Y111.306871 Z-1.000000 I25.259427 J-14.157917
G00 Z0.000000

(End cutting path id: path12)


(Start cutting path id: path12)
(Change tool to Default tool)

G00 Z0.000000
G00 X76.023963 Y111.306871

G01 Z-1.000000 F100.0(Penetrate)
G01 X74.357297 Y110.751316 Z-1.000000 F400.000000
G03 X74.199549 Y111.023188 Z-1.000000 I-3.902513 J-2.082648
G02 X74.070231 Y111.336592 Z-1.000000 I0.848499 J0.533493
G02 X74.093157 Y112.982690 Z-1.000000 I3.444215 J0.775240
G03 X74.270563 Y114.269834 Z-1.000000 I-5.618947 J1.430253
G03 X74.125197 Y115.198817 Z-1.000000 I-2.626730 J0.064839
G02 X74.003072 Y115.936358 Z-1.000000 I2.074143 J0.722328
G01 X74.747529 Y117.173926 Z-1.000000
G02 X75.722054 Y117.250752 Z-1.000000 I0.678477 J-2.387104
G03 X76.023963 Y117.232796 Z-1.000000 I0.299981 J2.496672
G00 Z0.000000

(End cutting path id: path12)


(Start cutting path id: path12)
(Change tool to Default tool)

G00 Z0.000000
G00 X58.246185 Y114.455018

G01 Z-1.000000 F100.0(Penetrate)
G01 X59.542482 Y113.899463 Z-1.000000 F400.000000
G00 Z0.000000

(End cutting path id: path12)


(Start cutting path id: path12)
(Change tool to Default tool)

G00 Z0.000000
G00 X61.023963 Y113.714277

G01 Z-1.000000 F100.0(Penetrate)
G01 X60.552856 Y112.602309 Z-1.000000 F400.000000
G01 X59.278707 Y110.566129 Z-1.000000
G01 X56.639390 Y106.677240 Z-1.000000
G01 X55.928370 Y104.829961 Z-1.000000
G01 X55.653593 Y103.899463 Z-1.000000
G00 Z0.000000

(End cutting path id: path12)


(Start cutting path id: path12)
(Change tool to Default tool)

G00 Z0.000000
G00 X74.357297 Y110.751315

G01 Z-1.000000 F100.0(Penetrate)
G02 X74.174793 Y109.541214 Z-1.000000 I-5.777700 J0.252561 F400.000000
G02 X73.696431 Y108.529092 Z-1.000000 I-2.931105 J0.766232
G02 X71.790388 Y106.356848 Z-1.000000 I-12.613818 J9.145681
G03 X70.218350 Y104.484739 Z-1.000000 I7.346212 J-7.764813
G03 X69.988467 Y104.061489 Z-1.000000 I2.330119 J-1.539628
G02 X69.912852 Y103.899463 Z-1.000000 I-3.224018 J1.405945
G00 Z0.000000

(End cutting path id: path12)


(Footer)
M5
G00 X0.0000 Y0.0000
M2
(Using default footer. To add your own footer create file "footer" in the output dir.)
(end)
%