%
(Header)
(Generated by gcodetools from Inkscape.)
(Using default header. To add your own header create file "header" in the output dir.)
M3
(Header end.)
G21 (All units in mm)

(Start cutting path id: path14)
(Change tool to Default tool)

G00 Z0.000000
G00 X114.744170 Y128.793502

G01 Z-1.000000 F100.0(Penetrate)
G03 X115.939621 Y128.529290 Z-1.000000 I1.806073 J5.335169 F400.000000
G03 X117.892320 Y128.423132 Z-1.000000 I1.952699 J17.906177
G00 Z0.000000

(End cutting path id: path14)


(Start cutting path id: path14)
(Change tool to Default tool)

G00 Z0.000000
G00 X101.040470 Y128.608317

G01 Z-1.000000 F100.0(Penetrate)
G01 X104.744170 Y128.142783 Z-1.000000 F400.000000
G01 X107.707130 Y126.795617 Z-1.000000
G01 X109.188610 Y125.640210 Z-1.000000
G01 X110.670100 Y124.918617 Z-1.000000
G01 X111.886090 Y124.600401 Z-1.000000
G01 X112.328620 Y125.645497 Z-1.000000
G01 X112.521950 Y128.237947 Z-1.000000
G00 Z0.000000

(End cutting path id: path14)


(Start cutting path id: path14)
(Change tool to Default tool)

G00 Z0.000000
G00 X117.336760 Y122.497206

G01 Z-1.000000 F100.0(Penetrate)
G01 X121.966390 Y126.464683 Z-1.000000 F400.000000
G01 X124.188610 Y128.111347 Z-1.000000
G01 X125.855280 Y128.608317 Z-1.000000
G00 Z0.000000

(End cutting path id: path14)


(Start cutting path id: path14)
(Change tool to Default tool)

G00 Z0.000000
G00 X120.670100 Y128.237947

G01 Z-1.000000 F100.0(Penetrate)
G01 X115.484910 Y123.978687 Z-1.000000 F400.000000
G00 Z0.000000

(End cutting path id: path14)


(Start cutting path id: path14)
(Change tool to Default tool)

G00 Z0.000000
G00 X101.040470 Y127.312021

G01 Z-1.000000 F100.0(Penetrate)
G02 X101.932805 Y127.133181 Z-1.000000 I-0.485161 J-4.736360 F400.000000
G02 X103.243400 Y126.453396 Z-1.000000 I-1.161288 J-3.842187
G02 X103.651753 Y126.035277 Z-1.000000 I-1.349485 J-1.726432
G03 X104.258060 Y125.448595 Z-1.000000 I2.097800 J1.561338
G03 X104.841938 Y125.191988 Z-1.000000 I0.948949 J1.366641
G03 X105.484910 Y125.052933 Z-1.000000 I8.767028 J38.981639
G02 X106.210864 Y124.901056 Z-1.000000 I-50.930463 J-245.251790
G02 X106.927670 Y124.582825 Z-1.000000 I-0.387752 J-1.839811
G02 X107.492900 Y124.020879 Z-1.000000 I-1.520762 J-2.094891
G03 X108.096790 Y123.351829 Z-1.000000 I3.619248 J2.659697
G03 X109.610484 Y122.148805 Z-1.000000 I10.069277 J11.115769
G02 X111.225650 Y120.830539 Z-1.000000 I-7.680970 J-11.059477
G00 Z0.000000

(End cutting path id: path14)


(Start cutting path id: path14)
(Change tool to Default tool)

G00 Z0.000000
G00 X125.855280 Y127.312021

G01 Z-1.000000 F100.0(Penetrate)
G02 X125.744623 Y126.089430 Z-1.000000 I-6.817152 J0.000717 F400.000000
G02 X125.237570 Y124.534243 Z-1.000000 I-5.989220 J1.092473
G03 X124.724942 Y123.307897 Z-1.000000 I11.089557 J-5.355888
G02 X123.783950 Y122.053390 Z-1.000000 I-2.486716 J0.885091
G02 X122.825543 Y121.741392 Z-1.000000 I-0.964670 J1.335276
G02 X121.781210 Y121.787901 Z-1.000000 I-0.041151 J10.824232
G01 X120.050240 Y121.012153 Z-1.000000
G03 X120.018717 Y119.385622 Z-1.000000 I24.021863 J-1.279131
G03 X120.326450 Y117.867576 Z-1.000000 I4.197154 J0.060619
G03 X121.425909 Y116.121699 Z-1.000000 I5.445395 J2.210085
G02 X122.633260 Y114.349058 Z-1.000000 I-5.661821 J-5.153770
G02 X123.060288 Y113.243877 Z-1.000000 I-6.001121 J-2.953849
G03 X123.536750 Y112.205424 Z-1.000000 I3.670699 J1.055654
G02 X124.548355 Y110.398873 Z-1.000000 I-12.408667 J-8.134922
G03 X125.282580 Y108.978687 Z-1.000000 I19.804149 J9.338707
G02 X125.742975 Y107.620027 Z-1.000000 I-3.361325 J-1.896352
G02 X125.855280 Y106.015724 Z-1.000000 I-11.402792 J-1.604303
G00 Z0.000000

(End cutting path id: path14)


(Start cutting path id: path14)
(Change tool to Default tool)

G00 Z0.000000
G00 X109.003430 Y125.645354

G01 Z-1.000000 F100.0(Penetrate)
G02 X107.926072 Y125.071211 Z-1.000000 I-2.633009 J3.642860 F400.000000
G03 X107.151580 Y124.719428 Z-1.000000 I2.019973 J-5.475670
G00 Z0.000000

(End cutting path id: path14)


(Start cutting path id: path14)
(Change tool to Default tool)

G00 Z0.000000
G00 X104.003430 Y125.460169

G01 Z-1.000000 F100.0(Penetrate)
G02 X103.364355 Y125.077839 Z-1.000000 I-2.290001 J3.102516 F400.000000
G03 X102.713990 Y124.156014 Z-1.000000 I0.491228 J-1.036905
G03 X103.394596 Y122.738989 Z-1.000000 I1.500664 J-0.151183
G02 X104.753460 Y121.386095 Z-1.000000 I-2.520232 J-3.890229
G03 X105.652377 Y120.297197 Z-1.000000 I5.340543 J3.493282
G03 X106.410840 Y119.719428 Z-1.000000 I2.798712 J2.887276
G02 X106.077975 Y119.056884 Z-1.000000 I-2.382829 J0.782256
G02 X104.003430 Y118.978687 Z-1.000000 I-1.067095 J0.752081
G00 Z0.000000

(End cutting path id: path14)


(Start cutting path id: path14)
(Change tool to Default tool)

G00 Z0.000000
G00 X101.040470 Y124.904613

G01 Z-1.000000 F100.0(Penetrate)
G03 X101.424448 Y124.728750 Z-1.000000 I10.249533 J21.871583 F400.000000
G03 X102.521950 Y124.349058 Z-1.000000 I2.708503 J6.052937
G00 Z0.000000

(End cutting path id: path14)


(Start cutting path id: path14)
(Change tool to Default tool)

G00 Z0.000000
G00 X106.410840 Y119.719428

G01 Z-1.000000 F100.0(Penetrate)
G02 X107.372977 Y119.176363 Z-1.000000 I-0.826349 J-2.587857 F400.000000
G03 X109.558980 Y117.312021 Z-1.000000 I75.750158 J86.605824
G00 Z0.000000

(End cutting path id: path14)


(Start cutting path id: path14)
(Change tool to Default tool)

G00 Z0.000000
G00 X106.040470 Y118.423132

G01 Z-1.000000 F100.0(Penetrate)
G02 X106.906484 Y115.818237 Z-1.000000 I-4.415352 J-2.914317 F400.000000
G02 X106.410840 Y113.608317 Z-1.000000 I-4.102754 J-0.240370
G03 X108.758855 Y112.744938 Z-1.000000 I52.600820 J139.426839
G02 X110.662810 Y111.746462 Z-1.000000 I-2.615792 J-7.302479
G02 X111.136050 Y111.332086 Z-1.000000 I-1.889117 J-2.634895
G03 X111.812640 Y110.772526 Z-1.000000 I2.558914 J2.405275
G03 X112.685436 Y110.632851 Z-1.000000 I0.598416 J0.942574
G02 X113.575050 Y110.558334 Z-1.000000 I0.336689 J-1.328013
G01 X114.405090 Y109.349058 Z-1.000000
G02 X114.785496 Y108.699069 Z-1.000000 I-10.111899 J-6.354295
G02 X115.095250 Y108.052761 Z-1.000000 I-6.170656 J-3.354774
G02 X115.845914 Y106.221162 Z-1.000000 I-131.838022 J-55.102245
G02 X116.449700 Y104.563964 Z-1.000000 I-25.074338 J-10.074209
G02 X116.564802 Y104.122919 Z-1.000000 I-3.521294 J-1.154514
G03 X116.596020 Y103.978687 Z-1.000000 I3.729930 J0.731821
G00 Z0.000000

(End cutting path id: path14)


(Start cutting path id: path14)
(Change tool to Default tool)

G00 Z0.000000
G00 X101.040470 Y114.904613

G01 Z-1.000000 F100.0(Penetrate)
G01 X101.970960 Y114.559249 Z-1.000000 F400.000000
G01 X106.410840 Y113.608317 Z-1.000000
G00 Z0.000000

(End cutting path id: path14)


(Start cutting path id: path14)
(Change tool to Default tool)

G00 Z0.000000
G00 X117.707130 Y113.793502

G01 Z-1.000000 F100.0(Penetrate)
G02 X118.727706 Y112.005502 Z-1.000000 I-7.612353 J-5.530340 F400.000000
G02 X119.003430 Y110.830539 Z-1.000000 I-3.117403 J-1.351381
G02 X119.705092 Y110.300054 Z-1.000000 I-0.395144 J-1.251929
G02 X120.087960 Y109.534100 Z-1.000000 I-3.031254 J-1.993862
G03 X121.161545 Y106.856112 Z-1.000000 I37.698112 J13.558701
G02 X121.959250 Y104.727716 Z-1.000000 I-17.708501 J-7.850679
G02 X122.107242 Y104.172917 Z-1.000000 I-6.998003 J-2.163843
G03 X122.151580 Y103.978687 Z-1.000000 I32.852022 J7.397198
G00 Z0.000000

(End cutting path id: path14)


(Start cutting path id: path14)
(Change tool to Default tool)

G00 Z0.000000
G00 X123.262690 Y112.312021

G01 Z-1.000000 F100.0(Penetrate)
G02 X121.498920 Y111.338183 Z-1.000000 I-3.294887 J3.883397 F400.000000
G02 X119.929360 Y111.015724 Z-1.000000 I-2.348577 J7.450504
G00 Z0.000000

(End cutting path id: path14)


(Start cutting path id: path14)
(Change tool to Default tool)

G00 Z0.000000
G00 X111.596020 Y110.830539

G01 Z-1.000000 F100.0(Penetrate)
G01 X111.313240 Y110.521040 Z-1.000000 F400.000000
G03 X110.783230 Y108.751181 Z-1.000000 I2.031150 J-1.572547
G03 X111.040470 Y107.867576 Z-1.000000 I2.238579 J0.172460
G03 X111.916419 Y108.692516 Z-1.000000 I-0.937364 J1.872851
G03 X112.336760 Y110.274984 Z-1.000000 I-2.712548 J1.567578
G00 Z0.000000

(End cutting path id: path14)


(Start cutting path id: path14)
(Change tool to Default tool)

G00 Z0.000000
G00 X114.558980 Y109.349058

G01 Z-1.000000 F100.0(Penetrate)
G02 X115.857992 Y109.859431 Z-1.000000 I2.573564 J-4.641969 F400.000000
G03 X118.818240 Y110.645354 Z-1.000000 I-21.631904 J87.446403
G00 Z0.000000

(End cutting path id: path14)


(Start cutting path id: path14)
(Change tool to Default tool)

G00 Z0.000000
G00 X104.558980 Y110.460169

G01 Z-1.000000 F100.0(Penetrate)
G01 X105.114540 Y109.719428 Z-1.000000 F400.000000
G00 Z0.000000

(End cutting path id: path14)


(Start cutting path id: path14)
(Change tool to Default tool)

G00 Z0.000000
G00 X106.966390 Y109.719428

G01 Z-1.000000 F100.0(Penetrate)
G01 X107.679700 Y107.602373 Z-1.000000 F400.000000
G02 X106.338200 Y107.570735 Z-1.000000 I-0.709544 J1.629106
G03 X104.559130 Y107.624373 Z-1.000000 I-0.966956 J-2.541102
G03 X103.098577 Y106.870281 Z-1.000000 I1.423785 J-4.549110
G03 X101.810930 Y105.840250 Z-1.000000 I20.111261 J-26.461051
G01 X101.535150 Y105.581477 Z-1.000000
G01 X101.225650 Y105.274979 Z-1.000000
G00 Z0.000000

(End cutting path id: path14)


(Start cutting path id: path14)
(Change tool to Default tool)

G00 Z0.000000
G00 X112.521950 Y108.793497

G01 Z-1.000000 F100.0(Penetrate)
G03 X113.500376 Y109.033163 Z-1.000000 I-2.115766 J10.754523 F400.000000
G03 X114.373800 Y109.349053 Z-1.000000 I-2.156105 J7.326998
G00 Z0.000000

(End cutting path id: path14)


(Start cutting path id: path14)
(Change tool to Default tool)

G00 Z0.000000
G00 X111.040470 Y107.867571

G01 Z-1.000000 F100.0(Penetrate)
G03 X110.501480 Y106.889347 Z-1.000000 I38.179505 J-21.674068 F400.000000
G02 X110.098110 Y106.307500 Z-1.000000 I-2.713574 J1.450462
G03 X109.450073 Y104.931768 Z-1.000000 I2.056618 J-1.809262
G03 X109.373800 Y103.978682 Z-1.000000 I5.975297 J-0.957782
G01 X111.404830 Y104.407779 Z-1.000000
G01 X110.484910 Y106.386090 Z-1.000000
G00 Z0.000000

(End cutting path id: path14)


(Start cutting path id: path14)
(Change tool to Default tool)

G00 Z0.000000
G00 X108.262690 Y107.497201

G01 Z-1.000000 F100.0(Penetrate)
G01 X106.966390 Y107.312016 Z-1.000000 F400.000000
G00 Z0.000000

(End cutting path id: path14)


(Start cutting path id: path14)
(Change tool to Default tool)

G00 Z0.000000
G00 X108.818240 Y107.312016

G01 Z-1.000000 F100.0(Penetrate)
G01 X109.929360 Y106.200905 Z-1.000000 F400.000000
G00 Z0.000000

(End cutting path id: path14)


(Start cutting path id: path14)
(Change tool to Default tool)

G00 Z0.000000
G00 X103.262690 Y106.571275

G01 Z-1.000000 F100.0(Penetrate)
G03 X103.695645 Y106.143504 Z-1.000000 I4.270006 J3.888770 F400.000000
G03 X105.114540 Y105.645349 Z-1.000000 I1.317095 J1.481683
G00 Z0.000000

(End cutting path id: path14)


(Start cutting path id: path14)
(Change tool to Default tool)

G00 Z0.000000
G00 X109.558980 Y106.386090

G01 Z-1.000000 F100.0(Penetrate)
G02 X109.114299 Y106.125556 Z-1.000000 I-1.628988 J2.270610 F400.000000
G02 X107.892320 Y106.015719 Z-1.000000 I-0.762384 J1.629395
G00 Z0.000000

(End cutting path id: path14)


(Start cutting path id: path14)
(Change tool to Default tool)

G00 Z0.000000
G00 X107.892320 Y103.978682

G01 Z-1.000000 F100.0(Penetrate)
G01 X109.373800 Y103.978682 Z-1.000000 F400.000000
G00 Z0.000000

(End cutting path id: path14)


(Footer)
M5
G00 X0.0000 Y0.0000
M2
(Using default footer. To add your own footer create file "footer" in the output dir.)
(end)
%