%
(Header)
(Generated by gcodetools from Inkscape.)
(Using default header. To add your own header create file "header" in the output dir.)
M3
(Header end.)
G21 (All units in mm)

(Start cutting path id: path26)
(Change tool to Default tool)

G00 Z0.000000
G00 X49.300127 Y48.377120

G01 Z-1.000000 F100.0(Penetrate)
G02 X49.060289 Y48.026512 Z-1.000000 I-14.272582 J9.506026 F400.000000
G02 X48.181013 Y47.166700 Z-1.000000 I-2.746412 J1.929087
G02 X46.689629 Y46.204312 Z-1.000000 I-29.225675 J43.653378
G02 X45.040868 Y45.191390 Z-1.000000 I-97.066984 J156.150301
G02 X43.284793 Y44.127926 Z-1.000000 I-475.416316 J783.063009
G02 X41.522349 Y43.080760 Z-1.000000 I-72.710593 J120.369615
G02 X40.786627 Y42.671419 Z-1.000000 I-10.070137 J17.233555
G03 X40.072304 Y42.268150 Z-1.000000 I7.024921 J-13.277743
G02 X38.929430 Y41.707226 Z-1.000000 I-3.863636 J6.427344
G02 X37.633460 Y41.343510 Z-1.000000 I-2.504139 J6.431872
G02 X36.695418 Y41.295859 Z-1.000000 I-0.658326 J3.702763
G03 X35.781608 Y41.316310 Z-1.000000 I-0.653113 J-8.756892
G03 X34.791828 Y41.231588 Z-1.000000 I0.263200 J-8.898902
G02 X33.744571 Y41.154990 Z-1.000000 I-1.084351 J7.627948
G03 X32.514568 Y41.143618 Z-1.000000 I0.647748 J-136.589511
G02 X31.522492 Y41.157990 Z-1.000000 I-0.241588 J17.571865
G01 X30.472823 Y41.583660 Z-1.000000
G01 X31.470337 Y43.559110 Z-1.000000
G02 X33.396145 Y45.314924 Z-1.000000 I9.144024 J-8.095287
G03 X35.315931 Y47.096920 Z-1.000000 I-6.697632 J9.140632
G03 X36.355357 Y48.502823 Z-1.000000 I-9.486634 J8.100947
G02 X37.818645 Y49.460310 Z-1.000000 I1.789801 J-1.138393
G02 X39.352045 Y49.530202 Z-1.000000 I1.086010 J-6.970620
G02 X40.596423 Y49.409110 Z-1.000000 I-1.182004 J-18.601036
G03 X41.309188 Y49.334504 Z-1.000000 I1.774203 J13.508198
G03 X42.077905 Y49.302660 Z-1.000000 I0.819363 J10.485057
G02 X44.483403 Y49.244048 Z-1.000000 I-0.315499 J-62.339481
G02 X46.707534 Y49.064460 Z-1.000000 I-1.319677 J-30.206073
G02 X47.255535 Y48.994135 Z-1.000000 I-3.159256 J-26.788454
G03 X47.818645 Y48.938570 Z-1.000000 I0.984231 J7.093337
G02 X48.632580 Y48.841526 Z-1.000000 I-0.403327 J-6.844690
G03 X49.485312 Y48.772110 Z-1.000000 I0.782123 J4.335538
G03 X50.889150 Y49.171382 Z-1.000000 I-0.045149 J2.826325
G02 X51.151979 Y49.302510 Z-1.000000 I0.998793 J-1.672979
G00 Z0.000000

(End cutting path id: path26)


(Start cutting path id: path26)
(Change tool to Default tool)

G00 Z0.000000
G00 X50.966794 Y45.413630

G01 Z-1.000000 F100.0(Penetrate)
G02 X51.315430 Y43.361628 Z-1.000000 I-8.399234 J-2.482652 F400.000000
G02 X51.124688 Y39.487700 Z-1.000000 I-19.718979 J-0.970748
G02 X50.866732 Y38.748823 Z-1.000000 I-2.067610 J0.307375
G03 X50.590566 Y38.191400 Z-1.000000 I4.196506 J-2.426212
G03 X50.426270 Y37.448587 Z-1.000000 I1.981117 J-0.827762
G02 X50.067158 Y36.399850 Z-1.000000 I-1.934612 J0.076603
G02 X49.454244 Y35.811792 Z-1.000000 I-1.870288 J1.335902
G02 X48.744571 Y35.368610 Z-1.000000 I-11.097151 J16.980214
G02 X47.316993 Y34.584312 Z-1.000000 I-11.845657 J19.870059
G03 X45.781608 Y33.794260 Z-1.000000 I48.195383 J-95.549738
G03 X43.554859 Y32.472038 Z-1.000000 I11.459264 J-21.834645
G02 X41.901007 Y31.644910 Z-1.000000 I-4.128048 J6.187067
G02 X41.515835 Y31.560404 Z-1.000000 I-0.534185 J1.514732
G03 X41.151979 Y31.524740 Z-1.000000 I3.536612 J-37.955575
G03 X41.150347 Y31.914375 Z-1.000000 I-46.511663 J-0.000000
G02 X41.152694 Y32.821320 Z-1.000000 I41.355489 J0.346453
G02 X41.205189 Y33.539742 Z-1.000000 I6.078605 J-0.083030
G02 X41.380174 Y34.302510 Z-1.000000 I4.163964 J-0.553793
G03 X41.881400 Y35.836280 Z-1.000000 I-260.616856 J86.016761
G03 X42.299383 Y37.450660 Z-1.000000 I-13.326396 J4.311666
G03 X42.479745 Y38.413318 Z-1.000000 I-56.070808 J11.003591
G02 X42.768491 Y39.302510 Z-1.000000 I3.361085 J-0.599960
G02 X44.871850 Y41.765328 Z-1.000000 I5.765704 J-2.794585
G02 X47.448275 Y43.523760 Z-1.000000 I93.299872 J-133.934675
G02 X49.775856 Y44.864246 Z-1.000000 I11.179260 J-16.720325
G02 X50.966794 Y45.413630 Z-1.000000 I12.289516 J-25.075316
G00 Z0.000000

(End cutting path id: path26)


(Start cutting path id: path26)
(Change tool to Default tool)

G00 Z0.000000
G00 X47.818645 Y43.746960

G01 Z-1.000000 F100.0(Penetrate)
G01 X48.374201 Y43.191400 Z-1.000000 F400.000000
G00 Z0.000000

(End cutting path id: path26)


(Start cutting path id: path26)
(Change tool to Default tool)

G00 Z0.000000
G00 X30.226053 Y41.524740

G01 Z-1.000000 F100.0(Penetrate)
G01 X28.559386 Y40.413630 Z-1.000000 F400.000000
G00 Z0.000000

(End cutting path id: path26)


(Start cutting path id: path26)
(Change tool to Default tool)

G00 Z0.000000
G00 X41.151979 Y31.524740

G01 Z-1.000000 F100.0(Penetrate)
G01 X40.411238 Y30.228440 Z-1.000000 F400.000000
G00 Z0.000000

(End cutting path id: path26)


(Footer)
M5
G00 X0.0000 Y0.0000
M2
(Using default footer. To add your own footer create file "footer" in the output dir.)
(end)
%