%
(Header)
(Generated by gcodetools from Inkscape.)
(Using default header. To add your own header create file "header" in the output dir.)
M3
(Header end.)
G21 (All units in mm)

(Start cutting path id: path10)
(Change tool to Default tool)

G00 Z0.000000
G00 X126.339370 Y133.193217

G01 Z3 F100.0(Penetrate)
G03 X129.085197 Y135.430678 Z3 I-32.447829 J42.623770 F75
G03 X133.746780 Y139.674699 Z3 I-95.248667 J109.302146
G02 X135.015547 Y140.710140 Z3 I7.450561 J-7.834414
G03 X135.872120 Y141.897064 Z3 I-1.265557 J1.815866
G01 X135.225260 Y143.378402 Z3
G03 X133.749340 Y145.057896 Z3 I-483.567215 J-423.465147
G02 X132.568510 Y146.711736 Z3 I7.436554 J6.558117
G01 X132.277730 Y148.451848 Z3
G01 X133.931960 Y148.748773 Z3
G03 X136.070908 Y148.847882 Z3 I-0.010514 J23.357703
G03 X138.191220 Y149.183873 Z3 I-1.520658 J16.454516
G03 X141.543892 Y150.161717 Z3 I-6.246861 J27.654674
G02 X144.857890 Y151.135318 Z3 I9.804969 J-27.247731
G03 X147.179161 Y151.858632 Z3 I-3.589161 J15.604784
G02 X148.735920 Y152.094395 Z3 I1.286971 J-3.240375
G01 X149.126150 Y150.045069 Z3
G02 X148.155164 Y147.436650 Z3 I-2248.963275 J835.693443
G03 X147.330020 Y144.674699 Z3 I20.284349 J-7.564264
G03 X146.703616 Y141.379915 Z3 I45.670546 J-10.389818
G02 X146.075590 Y138.008032 Z3 I-52.856283 J8.100255
G03 X145.675874 Y135.536197 Z3 I21.890412 J-4.808097
G02 X145.222400 Y133.760490 Z3 I-6.281385 J0.658361
G01 X143.228230 Y134.489514 Z3
G02 X141.621886 Y136.586130 Z3 I46.773153 J37.499402
G03 X139.898610 Y138.669325 Z3 I-18.379033 J-13.449271
G01 X138.558160 Y139.491085 Z3
G03 X136.847920 Y138.495052 Z3 I0.774391 J-3.295971
G02 X135.413440 Y137.091394 Z3 I-14.900514 J13.792890
G02 X132.390168 Y134.511838 Z3 I-70.376890 J79.421158
G02 X129.302330 Y132.008090 Z3 I-199.483079 J242.863788
G03 X127.415785 Y130.480673 Z3 I135.524326 J-169.317693
G02 X126.339370 Y129.674699 Z3 I-9.800570 J11.967323
G00 Z0.000000

(End cutting path id: path10)


(Start cutting path id: path10)
(Change tool to Default tool)

G00 Z0.000000
G00 X126.154180 Y133.193217

G01 Z3 F100.0(Penetrate)
G01 X126.339370 Y133.193217 Z3 F75
G00 Z0.000000

(End cutting path id: path10)


(Footer)
M5
G00 X0.0000 Y0.0000
M2
(Using default footer. To add your own footer create file "footer" in the output dir.)
(end)
%