%
(Header)
(Generated by gcodetools from Inkscape.)
(Using default header. To add your own header create file "header" in the output dir.)
M3
(Header end.)
G21 (All units in mm)

(Start cutting path id: path21)
(Change tool to Default tool)

G00 Z0.000000
G00 X41.703470 Y78.063000

G01 Z-1.000000 F100.0(Penetrate)
G03 X42.243753 Y76.461455 Z-1.000000 I3.403246 J0.256185 F400.000000
G02 X43.000481 Y74.914850 Z-1.000000 I-6.005181 J-3.896663
G03 X45.569831 Y69.398902 Z-1.000000 I28.381334 J9.863757
G03 X49.004424 Y64.359290 Z-1.000000 I43.067595 J25.661217
G03 X49.775296 Y63.374444 Z-1.000000 I97.969766 J75.890122
G02 X50.451899 Y62.507440 Z-1.000000 I-66.354105 J-52.479709
G03 X50.831994 Y62.026715 Z-1.000000 I18.885055 J14.541215
G02 X51.061609 Y61.238720 Z-1.000000 I-0.821411 J-0.666804
G01 X50.035945 Y60.838060 Z-1.000000
G02 X48.587499 Y61.507074 Z-1.000000 I1.795159 J5.789082
G03 X47.073840 Y62.225380 Z-1.000000 I-3.695481 J-5.833359
G03 X44.582378 Y62.725807 Z-1.000000 I-3.265718 J-9.806639
G03 X42.259025 Y62.799940 Z-1.000000 I-2.021530 J-26.911055
G02 X41.266309 Y62.845948 Z-1.000000 I-0.096534 J8.649987
G02 X40.207128 Y63.460800 Z-1.000000 I0.154826 J1.486445
G02 X39.175739 Y65.391332 Z-1.000000 I6.754931 J4.849606
G03 X38.225533 Y67.507440 Z-1.000000 I-17.149176 J-6.429186
G03 X37.680952 Y68.391165 Z-1.000000 I-6.872258 J-3.625260
G02 X37.443496 Y69.359290 Z-1.000000 I1.098171 J0.782536
G02 X37.767257 Y70.048284 Z-1.000000 I1.270789 J-0.176583
G03 X38.252966 Y70.655590 Z-1.000000 I-4.359129 J3.984214
G03 X39.281914 Y72.214495 Z-1.000000 I-30.266089 J21.096024
G02 X40.294434 Y73.803740 Z-1.000000 I87.147102 J-54.404900
G03 X41.291971 Y75.864700 Z-1.000000 I-7.659126 J4.979029
G02 X41.888655 Y76.951890 Z-1.000000 I3.340550 J-1.126064
G00 Z0.000000

(End cutting path id: path21)


(Start cutting path id: path21)
(Change tool to Default tool)

G00 Z0.000000
G00 X50.962729 Y61.951890

G01 Z-1.000000 F100.0(Penetrate)
G01 X49.851618 Y60.840770 Z-1.000000 F400.000000
G00 Z0.000000

(End cutting path id: path21)


(Footer)
M5
G00 X0.0000 Y0.0000
M2
(Using default footer. To add your own footer create file "footer" in the output dir.)
(end)
%