%
(Header)
(Generated by gcodetools from Inkscape.)
(Using default header. To add your own header create file "header" in the output dir.)
M3
(Header end.)
G21 (All units in mm)

(Start cutting path id: path28)
(Change tool to Default tool)

G00 Z0.000000
G00 X79.361672 Y52.905150

G01 Z-1.000000 F100.0(Penetrate)
G02 X81.237120 Y51.299324 Z-1.000000 I-14.779146 J-19.158683 F400.000000
G03 X83.303430 Y49.506810 Z-1.000000 I21.123739 J22.263046
G03 X86.553899 Y47.608010 Z-1.000000 I8.299832 J10.476539
G03 X90.287598 Y47.040100 Z-1.000000 I3.045282 J7.463595
G03 X94.040100 Y48.135701 Z-1.000000 I-0.846171 J9.872268
G03 X97.086437 Y50.500460 Z-1.000000 I-5.069430 J9.675117
G03 X98.064528 Y51.640388 Z-1.000000 I-23.159784 J20.861355
G02 X99.362387 Y52.763550 Z-1.000000 I3.874201 J-3.165348
G02 X100.704244 Y53.238266 Z-1.000000 I1.836241 J-3.056575
G02 X101.028340 Y53.275530 Z-1.000000 I0.918665 J-6.561858
G00 Z0.000000

(End cutting path id: path28)


(Start cutting path id: path28)
(Change tool to Default tool)

G00 Z0.000000
G00 X101.028340 Y40.868120

G01 Z-1.000000 F100.0(Penetrate)
G01 X100.277740 Y39.016270 Z-1.000000 F400.000000
G01 X98.002361 Y35.317710 Z-1.000000
G01 X93.620931 Y34.910760 Z-1.000000
G01 X89.790913 Y35.132520 Z-1.000000
G01 X88.849697 Y39.201450 Z-1.000000
G01 X87.321920 Y40.975860 Z-1.000000
G01 X86.029196 Y41.737890 Z-1.000000
G01 X84.917228 Y42.905150 Z-1.000000
G01 X86.029196 Y43.265520 Z-1.000000
G01 X88.435746 Y43.328420 Z-1.000000
G01 X95.102413 Y43.910410 Z-1.000000
G01 X100.097840 Y44.860920 Z-1.000000
G01 X101.028340 Y44.942220 Z-1.000000
G00 Z0.000000

(End cutting path id: path28)


(Start cutting path id: path28)
(Change tool to Default tool)

G00 Z0.000000
G00 X76.213524 Y44.757040

G01 Z-1.000000 F100.0(Penetrate)
G03 X77.078118 Y44.471766 Z-1.000000 I2.056329 J4.779404 F400.000000
G02 X78.250561 Y44.031440 Z-1.000000 I-1.122173 J-4.769051
G02 X78.647073 Y43.776857 Z-1.000000 I-1.325617 J-2.500715
G03 X79.361672 Y43.385720 Z-1.000000 I1.623001 J2.116843
G03 X82.030708 Y42.911356 Z-1.000000 I2.703002 J7.462681
G03 X84.917228 Y42.905180 Z-1.000000 I2.886520 J674.495239
G00 Z0.000000

(End cutting path id: path28)


(Start cutting path id: path28)
(Change tool to Default tool)

G00 Z0.000000
G00 X78.991302 Y43.460740

G01 Z-1.000000 F100.0(Penetrate)
G02 X78.483988 Y43.147504 Z-1.000000 I-1.298146 J1.535027 F400.000000
G02 X76.398709 Y42.720000 Z-1.000000 I-2.085866 J4.874898
G00 Z0.000000

(End cutting path id: path28)


(Footer)
M5
G00 X0.0000 Y0.0000
M2
(Using default footer. To add your own footer create file "footer" in the output dir.)
(end)
%