%
(Header)
(Generated by gcodetools from Inkscape.)
(Using default header. To add your own header create file "header" in the output dir.)
M3
(Header end.)
G21 (All units in mm)

(Start cutting path id: path18)
(Change tool to Default tool)

G00 Z0.000000
G00 X94.167309 Y103.418779

G01 Z-1.000000 F100.0(Penetrate)
G01 X94.537679 Y103.418779 Z-1.000000 F400.000000
G00 Z0.000000

(End cutting path id: path18)


(Start cutting path id: path18)
(Change tool to Default tool)

G00 Z0.000000
G00 X79.722864 Y102.863224

G01 Z-1.000000 F100.0(Penetrate)
G03 X80.036678 Y101.187172 Z-1.000000 I6.044890 J0.264406 F400.000000
G02 X80.463462 Y99.715075 Z-1.000000 I-16.394452 J-5.550920
G02 X80.603083 Y98.737940 Z-1.000000 I-5.005735 J-1.213802
G02 X80.567200 Y97.863224 Z-1.000000 I-5.034479 J-0.231568
G02 X80.450696 Y97.116432 Z-1.000000 I-13.992496 J1.800436
G02 X80.259701 Y96.381742 Z-1.000000 I-5.133439 J0.942350
G02 X79.629083 Y95.002282 Z-1.000000 I-7.076579 J2.401173
G02 X78.796938 Y93.974335 Z-1.000000 I-3.815049 J2.237571
G03 X77.596147 Y94.256589 Z-1.000000 I-0.878645 J-1.042629
G03 X76.389531 Y93.789150 Z-1.000000 I1.169590 J-4.810159
G00 Z0.000000

(End cutting path id: path18)


(Start cutting path id: path18)
(Change tool to Default tool)

G00 Z0.000000
G00 X88.982123 Y102.678038

G01 Z-1.000000 F100.0(Penetrate)
G02 X89.038280 Y102.028914 Z-1.000000 I-3.261946 J-0.609189 F400.000000
G02 X88.597893 Y100.682583 Z-1.000000 I-2.365188 J0.028466
G02 X87.590056 Y100.058713 Z-1.000000 I-1.249428 J0.892406
G03 X86.613439 Y99.763230 Z-1.000000 I0.592948 J-3.721462
G03 X85.732087 Y99.053409 Z-1.000000 I0.958547 J-2.092261
G02 X85.093235 Y98.418779 Z-1.000000 I-2.502552 J1.880335
G00 Z0.000000

(End cutting path id: path18)


(Start cutting path id: path18)
(Change tool to Default tool)

G00 Z0.000000
G00 X101.019160 Y102.307668

G01 Z-1.000000 F100.0(Penetrate)
G01 X101.019160 Y93.789150 Z-1.000000 F400.000000
G00 Z0.000000

(End cutting path id: path18)


(Start cutting path id: path18)
(Change tool to Default tool)

G00 Z0.000000
G00 X79.908049 Y101.196557

G01 Z-1.000000 F100.0(Penetrate)
G02 X79.586417 Y100.896101 Z-1.000000 I-18.440610 J19.417886 F400.000000
G02 X78.426568 Y100.085446 Z-1.000000 I-3.606155 J3.924471
G00 Z0.000000

(End cutting path id: path18)


(Start cutting path id: path18)
(Change tool to Default tool)

G00 Z0.000000
G00 X93.611753 Y100.085446

G01 Z-1.000000 F100.0(Penetrate)
G02 X92.996006 Y98.907257 Z-1.000000 I-2.043420 J0.317939 F400.000000
G02 X92.130272 Y98.233594 Z-1.000000 I-3.765786 J3.946350
G00 Z0.000000

(End cutting path id: path18)


(Start cutting path id: path18)
(Change tool to Default tool)

G00 Z0.000000
G00 X98.611753 Y99.344705

G01 Z-1.000000 F100.0(Penetrate)
G03 X98.585120 Y98.519219 Z-1.000000 I5.286450 J-0.583734 F400.000000
G02 X98.611753 Y97.863224 Z-1.000000 I-67.030253 J-3.049965
G00 Z0.000000

(End cutting path id: path18)


(Start cutting path id: path18)
(Change tool to Default tool)

G00 Z0.000000
G00 X77.685827 Y96.566927

G01 Z-1.000000 F100.0(Penetrate)
G03 X79.171702 Y97.631242 Z-1.000000 I-62.550492 J88.895190 F400.000000
G02 X80.278420 Y97.863224 Z-1.000000 I0.810768 J-1.112031
G00 Z0.000000

(End cutting path id: path18)


(Start cutting path id: path18)
(Change tool to Default tool)

G00 Z0.000000
G00 X87.315457 Y97.307668

G01 Z-1.000000 F100.0(Penetrate)
G01 X88.426568 Y97.307668 Z-1.000000 F400.000000
G00 Z0.000000

(End cutting path id: path18)


(Start cutting path id: path18)
(Change tool to Default tool)

G00 Z0.000000
G00 X78.796938 Y93.974335

G01 Z-1.000000 F100.0(Penetrate)
G02 X78.645623 Y92.901383 Z-1.000000 I-4.678098 J0.112592 F400.000000
G02 X78.142646 Y91.988023 Z-1.000000 I-2.060895 J0.539739
G02 X76.878947 Y91.081652 Z-1.000000 I-2.890742 J2.696253
G03 X76.389531 Y90.826187 Z-1.000000 I1.998931 J-4.426065
G00 Z0.000000

(End cutting path id: path18)


(Start cutting path id: path18)
(Change tool to Default tool)

G00 Z0.000000
G00 X83.611753 Y93.789150

G01 Z-1.000000 F100.0(Penetrate)
G01 X83.796938 Y93.789150 Z-1.000000 F400.000000
G00 Z0.000000

(End cutting path id: path18)


(Start cutting path id: path18)
(Change tool to Default tool)

G00 Z0.000000
G00 X78.241383 Y91.566927

G01 Z-1.000000 F100.0(Penetrate)
G02 X78.177786 Y91.086420 Z-1.000000 I-40.961666 J5.176988 F400.000000
G03 X78.027620 Y89.900261 Z-1.000000 I51.357399 J-7.104351
G03 X78.317537 Y87.795949 Z-1.000000 I4.243149 J-0.487537
G02 X77.980750 Y85.885057 Z-1.000000 I-1.683337 J-0.688443
G02 X77.080475 Y85.470227 Z-1.000000 I-0.938152 J0.851689
G02 X76.389529 Y85.455816 Z-1.000000 I-1.142202 J38.191806
G00 Z0.000000

(End cutting path id: path18)


(Start cutting path id: path18)
(Change tool to Default tool)

G00 Z0.000000
G00 X76.204344 Y90.826187

G01 Z-1.000000 F100.0(Penetrate)
G01 X76.389529 Y90.826187 Z-1.000000 F400.000000
G00 Z0.000000

(End cutting path id: path18)


(Start cutting path id: path18)
(Change tool to Default tool)

G00 Z0.000000
G00 X87.871010 Y90.826187

G01 Z-1.000000 F100.0(Penetrate)
G01 X88.056196 Y90.826187 Z-1.000000 F400.000000
G00 Z0.000000

(End cutting path id: path18)


(Start cutting path id: path18)
(Change tool to Default tool)

G00 Z0.000000
G00 X99.908047 Y90.455816

G01 Z-1.000000 F100.0(Penetrate)
G03 X100.596770 Y88.924933 Z-1.000000 I14.377504 J5.547875 F400.000000
G02 X100.992578 Y87.678038 Z-1.000000 I-3.436738 J-1.777210
G02 X101.062146 Y86.303003 Z-1.000000 I-7.854568 J-1.086668
G03 X101.018278 Y84.715075 Z-1.000000 I90.650632 J-3.298872
G02 X100.704575 Y83.502427 Z-1.000000 I-2.696445 J0.050650
G02 X100.203088 Y82.678040 Z-1.000000 I-7.228108 J3.832243
G03 X98.619584 Y79.813364 Z-1.000000 I13.406306 J-9.280582
G02 X98.241361 Y78.974330 Z-1.000000 I-22.171473 J9.489786
G00 Z0.000000

(End cutting path id: path18)


(Start cutting path id: path18)
(Change tool to Default tool)

G00 Z0.000000
G00 X86.204346 Y90.085446

G01 Z-1.000000 F100.0(Penetrate)
G01 X86.389531 Y90.085446 Z-1.000000 F400.000000
G00 Z0.000000

(End cutting path id: path18)


(Start cutting path id: path18)
(Change tool to Default tool)

G00 Z0.000000
G00 X78.426568 Y85.826187

G01 Z-1.000000 F100.0(Penetrate)
G02 X78.338278 Y84.417097 Z-1.000000 I-11.308493 J0.001247 F400.000000
G03 X78.252242 Y83.048409 Z-1.000000 I10.934022 J-1.374365
G03 X78.287150 Y82.563692 Z-1.000000 I3.358782 J-0.001727
G03 X78.538308 Y81.995310 Z-1.000000 I1.145356 J0.166431
G03 X79.182095 Y81.548814 Z-1.000000 I1.108484 J0.910910
G02 X79.703574 Y81.273570 Z-1.000000 I-0.615337 J-1.797439
G02 X80.319298 Y80.624428 Z-1.000000 I-1.578817 J-2.114123
G02 X80.735239 Y79.904830 Z-1.000000 I-5.360917 J-3.578719
G02 X80.965473 Y79.240476 Z-1.000000 I-2.507613 J-1.241094
G02 X81.019161 Y78.974330 Z-1.000000 I-15.505519 J-3.266304
G00 Z0.000000

(End cutting path id: path18)


(Start cutting path id: path18)
(Change tool to Default tool)

G00 Z0.000000
G00 X76.204346 Y85.455816

G01 Z-1.000000 F100.0(Penetrate)
G01 X76.389531 Y85.455816 Z-1.000000 F400.000000
G00 Z0.000000

(End cutting path id: path18)


(Start cutting path id: path18)
(Change tool to Default tool)

G00 Z0.000000
G00 X78.241383 Y81.566930

G01 Z-1.000000 F100.0(Penetrate)
G03 X78.066381 Y79.462566 Z-1.000000 I6.838875 J-1.628190 F400.000000
G02 X78.056198 Y78.974330 Z-1.000000 I-2.751930 J-0.186829
G00 Z0.000000

(End cutting path id: path18)


(Start cutting path id: path18)
(Change tool to Default tool)

G00 Z0.000000
G00 X97.130272 Y81.381740

G01 Z-1.000000 F100.0(Penetrate)
G02 X96.145783 Y80.123821 Z-1.000000 I-3.695387 J1.877925 F400.000000
G03 X95.294423 Y79.275980 Z-1.000000 I5.578916 J-6.453439
G01 X95.093235 Y78.974330 Z-1.000000
G00 Z0.000000

(End cutting path id: path18)


(Footer)
M5
G00 X0.0000 Y0.0000
M2
(Using default footer. To add your own footer create file "footer" in the output dir.)
(end)
%