%
(Header)
(Generated by gcodetools from Inkscape.)
(Using default header. To add your own header create file "header" in the output dir.)
M3
(Header end.)
G21 (All units in mm)

(Start cutting path id: path20)
(Change tool to Default tool)

G00 Z0.000000
G00 X141.418600 Y103.388635

G01 Z-1.000000 F100.0(Penetrate)
G02 X142.244910 Y102.200563 Z-1.000000 I-57.990510 J-41.214078 F400.000000
G03 X143.273310 Y101.036955 Z-1.000000 I5.097596 J3.469015
G03 X145.431418 Y99.601786 Z-1.000000 I6.406628 J7.293653
G03 X147.714900 Y98.505234 Z-1.000000 I105.004027 J215.736633
G03 X148.366022 Y98.233190 Z-1.000000 I3.239270 J6.837767
G02 X148.983760 Y97.888235 Z-1.000000 I-0.758764 J-2.084374
G02 X149.367998 Y97.424430 Z-1.000000 I-0.898605 J-1.135510
G02 X149.539310 Y96.906439 Z-1.000000 I-1.489636 J-0.779982
G02 X149.530142 Y94.308403 Z-1.000000 I-8.055468 J-1.270609
G03 X149.164940 Y91.536784 Z-1.000000 I42.454982 J-7.003950
G02 X149.061366 Y90.680390 Z-1.000000 I-19.605354 J1.936642
G02 X148.714980 Y89.979141 Z-1.000000 I-1.243595 J0.178107
G02 X147.796039 Y89.522882 Z-1.000000 I-1.115742 J1.093652
G03 X146.603780 Y89.248689 Z-1.000000 I0.773745 J-6.093654
G03 X144.352003 Y87.986276 Z-1.000000 I2.243824 J-6.641793
G03 X142.695610 Y86.169129 Z-1.000000 I5.835768 J-6.983009
G02 X141.784076 Y85.278413 Z-1.000000 I-2.731031 J1.883084
G03 X141.143390 Y84.597911 Z-1.000000 I1.100949 J-1.678383
G03 X140.940781 Y83.996767 Z-1.000000 I1.418735 J-0.812883
G03 X140.879620 Y83.388635 Z-1.000000 I10.230526 J-1.336052
G03 X140.859637 Y82.317137 Z-1.000000 I10.296423 J-0.727961
G02 X140.540540 Y81.182990 Z-1.000000 I-1.944877 J-0.064764
G02 X139.341072 Y79.513220 Z-1.000000 I-20.891967 J13.741904
G03 X139.011190 Y78.944190 Z-1.000000 I1.873606 J-1.466315
G00 Z0.000000

(End cutting path id: path20)


(Start cutting path id: path20)
(Change tool to Default tool)

G00 Z0.000000
G00 X127.900080 Y103.018265

G01 Z-1.000000 F100.0(Penetrate)
G02 X129.490757 Y94.821727 Z-1.000000 I-53.980845 J-14.728513 F400.000000
G02 X129.534600 Y86.351598 Z-1.000000 I-37.691074 J-4.430276
G02 X129.198568 Y84.026916 Z-1.000000 I-31.656031 J3.389248
G02 X128.730840 Y81.721970 Z-1.000000 I-58.572251 J10.685751
G02 X128.468565 Y80.738210 Z-1.000000 I-12.240135 J2.736442
G03 X128.256450 Y79.874690 Z-1.000000 I7.048623 J-2.189231
G02 X128.130731 Y79.188469 Z-1.000000 I-588.214355 J107.409029
G02 X128.085270 Y78.944190 Z-1.000000 I-55.053385 J10.119237
G00 Z0.000000

(End cutting path id: path20)


(Start cutting path id: path20)
(Change tool to Default tool)

G00 Z0.000000
G00 X139.566750 Y103.018265

G01 Z-1.000000 F100.0(Penetrate)
G01 X140.499960 Y90.796043 Z-1.000000 F400.000000
G01 X140.681140 Y86.166699 Z-1.000000
G01 X141.048230 Y84.870117 Z-1.000000
G00 Z0.000000

(End cutting path id: path20)


(Start cutting path id: path20)
(Change tool to Default tool)

G00 Z0.000000
G00 X127.900080 Y86.721969

G01 Z-1.000000 F100.0(Penetrate)
G02 X127.000366 Y86.212747 Z-1.000000 I-4.442754 J6.800196 F400.000000
G02 X126.418600 Y85.981228 Z-1.000000 I-1.882434 J3.883529
G00 Z0.000000

(End cutting path id: path20)


(Start cutting path id: path20)
(Change tool to Default tool)

G00 Z0.000000
G00 X126.233410 Y85.981228

G01 Z-1.000000 F100.0(Penetrate)
G01 X126.418600 Y85.981228 Z-1.000000 F400.000000
G00 Z0.000000

(End cutting path id: path20)


(Start cutting path id: path20)
(Change tool to Default tool)

G00 Z0.000000
G00 X140.677860 Y80.981230

G01 Z-1.000000 F100.0(Penetrate)
G01 X141.233410 Y78.944190 Z-1.000000 F400.000000
G00 Z0.000000

(End cutting path id: path20)


(Footer)
M5
G00 X0.0000 Y0.0000
M2
(Using default footer. To add your own footer create file "footer" in the output dir.)
(end)
%