%
(Header)
(Generated by gcodetools from Inkscape.)
(Using default header. To add your own header create file "header" in the output dir.)
M3
(Header end.)
G21 (All units in mm)

(Start cutting path id: path22)
(Change tool to Default tool)

G00 Z0.000000
G00 X53.801741 Y78.168960

G01 Z2 F100.0(Penetrate)
G03 X54.687194 Y77.664677 Z2 I1.066901 J0.843824 F75
G03 X55.653593 Y77.613400 Z2 I0.799893 J5.942993
G01 X56.949889 Y78.168960 Z2
G00 Z0.000000

(End cutting path id: path22)


(Start cutting path id: path22)
(Change tool to Default tool)

G00 Z0.000000
G00 X63.986926 Y67.613400

G01 Z2 F100.0(Penetrate)
G01 X63.633274 Y69.729030 Z2 F75
G02 X63.295809 Y70.547939 Z2 I1.927275 J1.273199
G03 X63.032136 Y71.687480 Z2 I-19.494010 J-3.910358
G03 X62.236435 Y74.013617 Z2 I-16.348459 J-4.293152
G02 X61.398906 Y76.317110 Z2 I21.028476 J8.949767
G01 X61.246443 Y77.686850 Z2
G01 X62.875815 Y78.168960 Z2
G00 Z0.000000

(End cutting path id: path22)


(Start cutting path id: path22)
(Change tool to Default tool)

G00 Z0.000000
G00 X65.468408 Y78.168960

G01 Z2 F100.0(Penetrate)
G03 X66.411018 Y70.335109 Z2 I33.024121 J0.000000 F75
G03 X69.688373 Y63.168960 Z2 I20.325841 J4.963283
G03 X72.553523 Y59.992467 Z2 I15.118779 J10.756510
G02 X75.272363 Y57.459650 Z2 I-42.852389 J-48.725354
G02 X75.839729 Y56.689804 Z2 I-2.147063 J-2.176350
G02 X76.023963 Y56.131920 Z2 I-1.646236 J-0.853010
G00 Z0.000000

(End cutting path id: path22)


(Start cutting path id: path22)
(Change tool to Default tool)

G00 Z0.000000
G00 X69.172111 Y78.168960

G01 Z2 F100.0(Penetrate)
G03 X68.738295 Y75.258555 Z2 I5.450706 J-2.299999 F75
G03 X69.527335 Y72.428220 Z2 I8.712721 J0.903778
G03 X70.115598 Y71.286700 Z2 I16.389371 J7.723654
G02 X70.468408 Y70.020810 Z2 I-2.415893 J-1.355431
G00 Z0.000000

(End cutting path id: path22)


(Start cutting path id: path22)
(Change tool to Default tool)

G00 Z0.000000
G00 X73.246185 Y78.168960

G01 Z2 F100.0(Penetrate)
G01 X73.801741 Y76.131920 Z2 F75
G00 Z0.000000

(End cutting path id: path22)


(Start cutting path id: path22)
(Change tool to Default tool)

G00 Z0.000000
G00 X63.801741 Y67.243030

G01 Z2 F100.0(Penetrate)
G02 X63.157155 Y67.402905 Z2 I-0.019508 J1.300709 F75
G02 X62.441144 Y68.169530 Z2 I0.805364 J1.469874
G02 X62.209042 Y68.945634 Z2 I2.590501 J1.197473
G02 X62.135074 Y69.465250 Z2 I38.240308 J5.708657
G02 X61.109547 Y70.091758 Z2 I0.102825 J1.320907
G02 X60.389675 Y71.317110 Z2 I29.509799 J18.160607
G03 X59.075055 Y73.600423 Z2 I-97.892415 J-54.841567
G02 X58.014561 Y75.946740 Z2 I10.127135 J5.990107
G01 X57.834520 Y77.184160 Z2
G01 X59.357297 Y77.621260 Z2
G03 X60.330822 Y77.680395 Z2 I-2.674920 J52.079488
G02 X61.023963 Y77.613260 Z2 I0.146922 J-2.094849
G00 Z0.000000

(End cutting path id: path22)


(Start cutting path id: path22)
(Change tool to Default tool)

G00 Z0.000000
G00 X54.357297 Y77.428080

G01 Z2 F100.0(Penetrate)
G03 X55.313121 Y74.953572 Z2 I8.028201 J1.679183 F75
G03 X56.938601 Y72.242890 Z2 I149.261783 J87.663213
G03 X59.150491 Y68.924034 Z2 I44.117953 J27.006419
G03 X61.531365 Y65.761410 Z2 I84.940952 J61.467425
G02 X62.247896 Y64.712161 Z2 I-7.698757 J-6.026755
G03 X62.875815 Y64.094740 Z2 I1.475863 J0.872949
G00 Z0.000000

(End cutting path id: path22)


(Start cutting path id: path22)
(Change tool to Default tool)

G00 Z0.000000
G00 X57.135074 Y77.428080

G01 Z2 F100.0(Penetrate)
G01 X57.690630 Y77.428080 Z2 F75
G00 Z0.000000

(End cutting path id: path22)


(Start cutting path id: path22)
(Change tool to Default tool)

G00 Z0.000000
G00 X62.320260 Y69.650300

G01 Z2 F100.0(Penetrate)
G01 X63.061000 Y69.650300 Z2 F75
G00 Z0.000000

(End cutting path id: path22)


(Start cutting path id: path22)
(Change tool to Default tool)

G00 Z0.000000
G00 X62.690630 Y64.094740

G01 Z2 F100.0(Penetrate)
G02 X61.908364 Y63.385736 Z2 I-3.242618 J2.791631 F75
G02 X60.468408 Y62.572680 Z2 I-4.829211 J6.871091
G01 X59.024221 Y61.792930 Z2
G03 X59.038449 Y60.811206 Z2 I0.900935 J-0.477909
G02 X59.264276 Y59.651160 Z2 I-1.611721 J-0.915759
G02 X57.620753 Y58.122650 Z2 I-1.748746 J0.232480
G02 X55.468408 Y58.023210 Z2 I-4.755382 J79.585615
G02 X53.383054 Y58.926375 Z2 I-0.086772 J2.658710
G03 X51.794139 Y60.216140 Z2 I-4.592339 J-4.033887
G01 X51.394334 Y60.391040 Z2
G00 Z0.000000

(End cutting path id: path22)


(Start cutting path id: path22)
(Change tool to Default tool)

G00 Z0.000000
G00 X51.209148 Y60.391040

G01 Z2 F100.0(Penetrate)
G01 X51.394334 Y60.391040 Z2 F75
G00 Z0.000000

(End cutting path id: path22)


(Start cutting path id: path22)
(Change tool to Default tool)

G00 Z0.000000
G00 X65.653593 Y60.205850

G01 Z2 F100.0(Penetrate)
G03 X64.084145 Y59.190939 Z2 I21.460263 J-34.906871 F75
G03 X62.690630 Y58.142100 Z2 I10.138359 J-14.920243
G02 X59.048226 Y55.117649 Z2 I-2566.618633 J3087.321706
G02 X57.135074 Y53.909560 Z2 I-5.607707 J6.761575
G00 Z0.000000

(End cutting path id: path22)


(Start cutting path id: path22)
(Change tool to Default tool)

G00 Z0.000000
G00 X70.838778 Y59.650300

G01 Z2 F100.0(Penetrate)
G01 X70.045167 Y58.721520 Z2 F75
G01 X71.026679 Y57.559680 Z2
G01 X73.616556 Y56.687340 Z2
G00 Z0.000000

(End cutting path id: path22)


(Start cutting path id: path22)
(Change tool to Default tool)

G00 Z0.000000
G00 X66.579519 Y53.909560

G01 Z2 F100.0(Penetrate)
G03 X66.022516 Y54.698807 Z2 I-2.354326 J-1.070368 F75
G02 X65.584434 Y56.300250 Z2 I1.130779 J1.169971
G02 X67.110916 Y58.109936 Z2 I2.724176 J-0.749219
G02 X69.727667 Y58.724370 Z2 I2.770295 J-5.918808
G00 Z0.000000

(End cutting path id: path22)


(Start cutting path id: path22)
(Change tool to Default tool)

G00 Z0.000000
G00 X60.653593 Y53.909560

G01 Z2 F100.0(Penetrate)
G01 X62.002758 Y54.411240 Z2 F75
G01 X63.616556 Y55.674680 Z2
G01 X65.283222 Y56.316970 Z2
G00 Z0.000000

(End cutting path id: path22)


(Footer)
M5
G00 X0.0000 Y0.0000
M2
(Using default footer. To add your own footer create file "footer" in the output dir.)
(end)
%