%
(Header)
(Generated by gcodetools from Inkscape.)
(Using default header. To add your own header create file "header" in the output dir.)
M3
(Header end.)
G21 (All units in mm)

(Start cutting path id: path13)
(Change tool to Default tool)

G00 Z0.000000
G00 X76.349606 Y127.867576

G01 Z3 F100.0(Penetrate)
G03 X77.697546 Y128.086807 Z3 I-0.697919 J8.544674 F75
G02 X79.497754 Y128.423132 Z3 I3.885720 J-15.812591
G00 Z0.000000

(End cutting path id: path13)


(Start cutting path id: path13)
(Change tool to Default tool)

G00 Z0.000000
G00 X94.682940 Y128.237947

G01 Z3 F100.0(Penetrate)
G01 X96.164421 Y128.423132 Z3 F75
G00 Z0.000000

(End cutting path id: path13)


(Start cutting path id: path13)
(Change tool to Default tool)

G00 Z0.000000
G00 X87.831088 Y128.237947

G01 Z3 F100.0(Penetrate)
G03 X89.284256 Y127.047770 Z3 I2.405772 J1.455147 F75
G03 X90.979236 Y128.237947 Z3 I0.428945 J1.191155
G00 Z0.000000

(End cutting path id: path13)


(Start cutting path id: path13)
(Change tool to Default tool)

G00 Z0.000000
G00 X99.127384 Y128.237947

G01 Z3 F100.0(Penetrate)
G03 X100.137694 Y125.989425 Z3 I3.026737 J0.008740 F75
G03 X100.979240 Y125.460169 Z3 I1.983942 J2.220898
G00 Z0.000000

(End cutting path id: path13)


(Start cutting path id: path13)
(Change tool to Default tool)

G00 Z0.000000
G00 X76.164421 Y127.867576

G01 Z3 F100.0(Penetrate)
G01 X76.349606 Y127.867576 Z3 F75
G00 Z0.000000

(End cutting path id: path13)


(Start cutting path id: path13)
(Change tool to Default tool)

G00 Z0.000000
G00 X84.127384 Y127.867576

G01 Z3 F100.0(Penetrate)
G02 X84.418680 Y126.171094 Z3 I-5.073670 J-1.744427 F75
G03 X84.550481 Y124.163872 Z3 I17.768263 J0.158790
G02 X84.676876 Y122.681320 Z3 I-19.880118 J-2.441550
G02 X84.439026 Y121.571280 Z3 I-2.213916 J-0.106123
G02 X83.679682 Y120.300656 Z3 I-9.625299 J4.890014
G03 X82.664193 Y118.793502 Z3 I51.964443 J-36.108245
G02 X82.323898 Y118.312914 Z3 I-6.561858 J4.285562
G02 X81.976607 Y117.867576 Z3 I-26.012850 J19.927651
G02 X81.510696 Y117.293109 Z3 I-27.616801 J21.921936
G03 X81.087403 Y116.571280 Z3 I2.002985 J-1.659613
G03 X80.904647 Y115.906862 Z3 I3.206366 J-1.239292
G02 X80.729607 Y115.274984 Z3 I-3.167668 J0.537310
G03 X80.306429 Y114.012531 Z3 I12.654657 J-4.944028
G02 X79.906848 Y112.867576 Z3 I-9.516887 J2.679124
G03 X79.643309 Y112.238897 Z3 I1557.771524 J-653.379470
G03 X79.429025 Y111.571280 Z3 I3.757535 J-1.574248
G03 X79.287541 Y110.929832 Z3 I43.692276 J-9.973526
G02 X79.128099 Y110.274984 Z3 I-11.341051 J2.414476
G03 X78.990575 Y109.581133 Z3 I4.725748 J-1.297218
G03 X78.944342 Y108.793502 Z3 I6.045389 J-0.750027
G03 X78.957648 Y108.148497 Z3 I22.208742 J0.135499
G02 X78.968632 Y107.497206 Z3 I-17.800269 J-0.625948
G03 X79.091670 Y105.214382 Z3 I20.685100 J-0.029861
G02 X79.127383 Y104.563964 Z3 I-5.967556 J-0.653859
G02 X79.127422 Y104.193710 Z3 I-395.135707 J-0.227291
G03 X79.127383 Y103.978687 Z3 I592.209996 J-0.213070
G00 Z0.000000

(End cutting path id: path13)


(Start cutting path id: path13)
(Change tool to Default tool)

G00 Z0.000000
G00 X76.349606 Y125.089798

G01 Z3 F100.0(Penetrate)
G03 X77.373934 Y125.593637 Z3 I-4.324936 J10.085971 F75
G02 X78.942199 Y126.386095 Z3 I10.378976 J-18.591849
G00 Z0.000000

(End cutting path id: path13)


(Start cutting path id: path13)
(Change tool to Default tool)

G00 Z0.000000
G00 X76.164421 Y125.089798

G01 Z3 F100.0(Penetrate)
G01 X76.349606 Y125.089798 Z3 F75
G00 Z0.000000

(End cutting path id: path13)


(Start cutting path id: path13)
(Change tool to Default tool)

G00 Z0.000000
G00 X78.386643 Y123.793502

G01 Z3 F100.0(Penetrate)
G02 X77.171402 Y123.116562 Z3 I-17.117208 J29.299477 F75
G02 X76.349606 Y122.682391 Z3 I-128.871882 J242.933300
G00 Z0.000000

(End cutting path id: path13)


(Start cutting path id: path13)
(Change tool to Default tool)

G00 Z0.000000
G00 X76.164421 Y122.682391

G01 Z3 F100.0(Penetrate)
G01 X76.349606 Y122.682391 Z3 F75
G00 Z0.000000

(End cutting path id: path13)


(Start cutting path id: path13)
(Change tool to Default tool)

G00 Z0.000000
G00 X79.127384 Y121.571280

G01 Z3 F100.0(Penetrate)
G01 X78.201458 Y121.200910 Z3 F75
G03 X78.973637 Y120.319426 Z3 I10.569461 J8.479882
G03 X79.497754 Y119.904613 Z3 I1.748461 J1.670665
G03 X79.410306 Y120.380398 Z3 I-2.289660 J-0.174904
G02 X79.311569 Y121.181190 Z3 I2.360929 J0.697585
G02 X80.019294 Y122.100745 Z3 I1.006117 J-0.042223
G02 X81.349606 Y122.497206 Z3 I18.371915 J-59.216262
G00 Z0.000000

(End cutting path id: path13)


(Start cutting path id: path13)
(Change tool to Default tool)

G00 Z0.000000
G00 X76.349606 Y120.645354

G01 Z3 F100.0(Penetrate)
G01 X78.201458 Y121.200910 Z3 F75
G00 Z0.000000

(End cutting path id: path13)


(Start cutting path id: path13)
(Change tool to Default tool)

G00 Z0.000000
G00 X76.164421 Y120.645354

G01 Z3 F100.0(Penetrate)
G01 X76.349606 Y120.645354 Z3 F75
G00 Z0.000000

(End cutting path id: path13)


(Start cutting path id: path13)
(Change tool to Default tool)

G00 Z0.000000
G00 X79.127384 Y119.904613

G01 Z3 F100.0(Penetrate)
G02 X77.612053 Y118.488578 Z3 I-7.829447 J6.859653 F75
G02 X76.349606 Y117.682391 Z3 I-5.451012 J7.144448
G00 Z0.000000

(End cutting path id: path13)


(Start cutting path id: path13)
(Change tool to Default tool)

G00 Z0.000000
G00 X79.682940 Y119.904613

G01 Z3 F100.0(Penetrate)
G02 X80.171601 Y118.693874 Z3 I-2.229828 J-1.603953 F75
G03 X80.424252 Y117.872148 Z3 I2.761962 J0.399502
G03 X80.779795 Y117.355222 Z3 I1.893033 J0.921299
G02 X81.164421 Y116.941650 Z3 I-71.049511 J-66.462344
G00 Z0.000000

(End cutting path id: path13)


(Start cutting path id: path13)
(Change tool to Default tool)

G00 Z0.000000
G00 X88.201458 Y119.163872

G01 Z3 F100.0(Penetrate)
G01 X88.201458 Y118.978687 Z3 F75
G00 Z0.000000

(End cutting path id: path13)


(Start cutting path id: path13)
(Change tool to Default tool)

G00 Z0.000000
G00 X86.534791 Y118.978687

G01 Z3 F100.0(Penetrate)
G01 X86.534791 Y118.423132 Z3 F75
G00 Z0.000000

(End cutting path id: path13)


(Start cutting path id: path13)
(Change tool to Default tool)

G00 Z0.000000
G00 X76.164421 Y117.682391

G01 Z3 F100.0(Penetrate)
G01 X76.349606 Y117.682391 Z3 F75
G00 Z0.000000

(End cutting path id: path13)


(Start cutting path id: path13)
(Change tool to Default tool)

G00 Z0.000000
G00 X97.460717 Y117.126835

G01 Z3 F100.0(Penetrate)
G03 X97.707042 Y117.315405 Z3 I-2.993926 J4.166066 F75
G02 X98.571828 Y117.635667 Z3 I0.901528 J-1.106649
G02 X99.381220 Y117.309155 Z3 I0.028235 J-1.096467
G02 X99.909564 Y116.569279 Z3 I-2.056929 J-2.027431
G03 X100.408583 Y115.732119 Z3 I5.785864 J2.881561
G03 X100.608870 Y115.460169 Z3 I6.337537 J4.457770
G02 X99.677487 Y114.868324 Z3 I-2.090350 J2.260792
G02 X98.201458 Y114.349058 Z3 I-6.184852 J15.223166
G02 X98.023725 Y114.818624 Z3 I5.807469 J2.466571
G02 X97.792650 Y115.645639 Z3 I8.217599 J2.741860
G03 X97.606926 Y116.453639 Z3 I-132.390609 J-30.005515
G03 X97.038764 Y117.143841 Z3 I-0.981093 J-0.228667
G03 X96.135899 Y117.229482 Z3 I-0.577361 J-1.284772
G03 X95.608866 Y117.085831 Z3 I1.918821 J-8.078474
G03 X94.404496 Y116.542862 Z3 I1.566745 J-5.082433
G03 X93.832317 Y115.459459 Z3 I0.624137 J-1.022421
G03 X94.109890 Y114.764234 Z3 I1.157196 J0.058994
G02 X94.587776 Y114.163877 Z3 I-7.982575 J-6.844533
G02 X94.958835 Y113.631077 Z3 I-9.507914 J-7.017214
G02 X95.161478 Y113.052766 Z3 I-1.061048 J-0.696457
G01 X94.813111 Y112.127555 Z3
G02 X94.203828 Y111.458106 Z3 I-4.275027 J3.278829
G02 X93.572543 Y111.160620 Z3 I-0.783315 J0.843688
G01 X92.434998 Y111.925080 Z3
G01 X91.171851 Y112.493352 Z3
G03 X90.458713 Y111.814729 Z3 I0.594688 J-1.338949
G03 X90.060740 Y110.830544 Z3 I5.695085 J-2.875469
G03 X89.808754 Y109.977836 Z3 I31.145572 J-9.667512
G03 X89.826258 Y109.214603 Z3 I1.257291 J-0.352982
G03 X90.405845 Y108.512440 Z3 I1.193639 J0.394980
G02 X91.534791 Y107.682396 Z3 I-2.772398 J-4.953516
G03 X92.742590 Y109.329008 Z3 I-7.066764 J6.449784
G03 X93.386643 Y110.645359 Z3 I-8.944127 J5.191836
G00 Z0.000000

(End cutting path id: path13)


(Start cutting path id: path13)
(Change tool to Default tool)

G00 Z0.000000
G00 X100.608870 Y115.460174

G01 Z3 F100.0(Penetrate)
G01 X100.979240 Y115.460174 Z3 F75
G00 Z0.000000

(End cutting path id: path13)


(Start cutting path id: path13)
(Change tool to Default tool)

G00 Z0.000000
G00 X91.719977 Y113.052766

G01 Z3 F100.0(Penetrate)
G02 X92.239890 Y114.174748 Z3 I2.604720 J-0.525544 F75
G02 X93.571828 Y115.274989 Z3 I3.226804 J-2.549994
G00 Z0.000000

(End cutting path id: path13)


(Start cutting path id: path13)
(Change tool to Default tool)

G00 Z0.000000
G00 X98.016273 Y114.349063

G01 Z3 F100.0(Penetrate)
G02 X97.158534 Y113.905914 Z3 I-4.611425 J7.873983 F75
G03 X95.608866 Y113.052766 Z3 I4.592885 J-10.176565
G00 Z0.000000

(End cutting path id: path13)


(Start cutting path id: path13)
(Change tool to Default tool)

G00 Z0.000000
G00 X97.831088 Y110.274989

G01 Z3 F100.0(Penetrate)
G02 X98.767575 Y110.825072 Z3 I5.808056 J-8.815713 F75
G02 X99.868125 Y111.200915 Z3 I1.789097 J-3.439615
G00 Z0.000000

(End cutting path id: path13)


(Start cutting path id: path13)
(Change tool to Default tool)

G00 Z0.000000
G00 X89.682940 Y108.978687

G01 Z3 F100.0(Penetrate)
G02 X89.558969 Y108.769057 Z3 I-2.859950 J1.549846 F75
G03 X89.388586 Y108.393411 Z3 I1.194962 J-0.768466
G03 X88.982462 Y106.529127 Z3 I13.976226 J-4.021021
G03 X89.025503 Y105.304704 Z3 I3.311385 J-0.496566
G01 X89.312569 Y104.719428 Z3
G03 X90.612827 Y105.891346 Z3 I-2.677998 J4.278558
G03 X91.534791 Y107.497206 Z3 I-5.162926 J4.031754
G00 Z0.000000

(End cutting path id: path13)


(Start cutting path id: path13)
(Change tool to Default tool)

G00 Z0.000000
G00 X94.682940 Y105.274984

G01 Z3 F100.0(Penetrate)
G03 X95.576052 Y107.018825 Z3 I-192.762421 J99.824255 F75
G02 X96.719977 Y108.793502 Z3 I9.094048 J-4.605848
G00 Z0.000000

(End cutting path id: path13)


(Start cutting path id: path13)
(Change tool to Default tool)

G00 Z0.000000
G00 X79.127384 Y107.682391

G01 Z3 F100.0(Penetrate)
G01 X79.682940 Y107.682391 Z3 F75
G00 Z0.000000

(End cutting path id: path13)


(Start cutting path id: path13)
(Change tool to Default tool)

G00 Z0.000000
G00 X100.238500 Y103.978687

G01 Z3 F100.0(Penetrate)
G02 X100.546703 Y104.473873 Z3 I2.226969 J-1.042559 F75
G02 X100.979240 Y104.904613 Z3 I2.133406 J-1.709762
G00 Z0.000000

(End cutting path id: path13)


(Start cutting path id: path13)
(Change tool to Default tool)

G00 Z0.000000
G00 X89.312569 Y104.719428

G01 Z3 F100.0(Penetrate)
G01 X89.312569 Y103.978687 Z3 F75
G00 Z0.000000

(End cutting path id: path13)


(Start cutting path id: path13)
(Change tool to Default tool)

G00 Z0.000000
G00 X93.942199 Y103.978687

G01 Z3 F100.0(Penetrate)
G01 X94.868125 Y103.978687 Z3 F75
G00 Z0.000000

(End cutting path id: path13)


(Footer)
M5
G00 X0.0000 Y0.0000
M2
(Using default footer. To add your own footer create file "footer" in the output dir.)
(end)
%