%
(Header)
(Generated by gcodetools from Inkscape.)
(Using default header. To add your own header create file "header" in the output dir.)
M3
(Header end.)
G21 (All units in mm)

(Start cutting path id: path29)
(Change tool to Default tool)

G00 Z0.000000
G00 X106.471280 Y53.831100

G01 Z2 F100.0(Penetrate)
G02 X103.757488 Y53.352596 Z2 I-3.333266 J10.969546 F75
G02 X101.286090 Y53.275540 Z2 I-2.918573 J53.936002
G00 Z0.000000

(End cutting path id: path29)


(Start cutting path id: path29)
(Change tool to Default tool)

G00 Z0.000000
G00 X122.397200 Y53.831100

G01 Z2 F100.0(Penetrate)
G01 X120.545350 Y53.146940 Z2 F75
G01 X117.767570 Y51.397970 Z2
G01 X111.656460 Y48.275540 Z2
G02 X112.368542 Y47.523167 Z2 I-32.344130 J-31.325166
G03 X113.330420 Y47.006680 Z2 I1.230879 J1.138407
G02 X116.233193 Y46.349386 Z2 I-3.882534 J-23.884567
G02 X119.063870 Y44.856190 Z2 I-2.245354 J-7.686234
G02 X120.614682 Y43.184578 Z2 I-5.320203 J-6.490913
G03 X122.413780 Y42.057550 Z2 I2.234246 J1.567090
G03 X123.951090 Y42.575267 Z2 I0.277426 J1.717517
G02 X124.985220 Y43.528600 Z2 I7.834053 J-7.460446
G02 X125.638432 Y44.014888 Z2 I6.438772 J-7.967093
G02 X125.915720 Y44.201470 Z2 I11.959624 J-17.474410
G00 Z0.000000

(End cutting path id: path29)


(Start cutting path id: path29)
(Change tool to Default tool)

G00 Z0.000000
G00 X101.100910 Y53.275540

G01 Z2 F100.0(Penetrate)
G01 X101.286090 Y53.275540 Z2 F75
G00 Z0.000000

(End cutting path id: path29)


(Start cutting path id: path29)
(Change tool to Default tool)

G00 Z0.000000
G00 X112.397200 Y46.979240

G01 Z2 F100.0(Penetrate)
G01 X111.656460 Y48.275540 Z2 F75
G00 Z0.000000

(End cutting path id: path29)


(Start cutting path id: path29)
(Change tool to Default tool)

G00 Z0.000000
G00 X101.286090 Y40.868130

G01 Z2 F100.0(Penetrate)
G03 X102.147259 Y41.569048 Z2 I-4.605029 J6.537371 F75
G03 X102.952620 Y42.349610 Z2 I-22.403563 J23.921076
G03 X104.547887 Y44.300039 Z2 I-9.086412 J9.059434
G02 X105.565360 Y45.296000 Z2 I2.858191 J-1.902219
G02 X107.667814 Y46.036609 Z2 I2.653158 J-4.177283
G03 X109.973220 Y46.923370 Z2 I-0.543440 J4.853023
G03 X110.855954 Y47.700729 Z2 I-3.467253 J4.827135
G02 X111.286090 Y48.090360 Z2 I2.498935 J-2.326473
G00 Z0.000000

(End cutting path id: path29)


(Start cutting path id: path29)
(Change tool to Default tool)

G00 Z0.000000
G00 X110.360170 Y47.164430

G01 Z2 F100.0(Penetrate)
G03 X110.816272 Y46.968018 Z2 I0.996579 J1.686449 F75
G03 X112.026830 Y46.979240 Z2 I0.586394 J2.042825
G00 Z0.000000

(End cutting path id: path29)


(Start cutting path id: path29)
(Change tool to Default tool)

G00 Z0.000000
G00 X101.286090 Y45.127390

G01 Z2 F100.0(Penetrate)
G03 X102.412280 Y45.389963 Z2 I-4.561117 J22.109347 F75
G02 X103.693500 Y45.628510 Z2 I2.327365 J-8.940156
G02 X104.807576 Y45.482088 Z2 I0.263172 J-2.309134
G02 X105.174980 Y45.312580 Z2 I-1.290608 J-3.280290
G00 Z0.000000

(End cutting path id: path29)


(Start cutting path id: path29)
(Change tool to Default tool)

G00 Z0.000000
G00 X101.100910 Y45.127390

G01 Z2 F100.0(Penetrate)
G01 X101.286090 Y45.127390 Z2 F75
G00 Z0.000000

(End cutting path id: path29)


(Footer)
M5
G00 X0.0000 Y0.0000
M2
(Using default footer. To add your own footer create file "footer" in the output dir.)
(end)
%