%
(Header)
(Generated by gcodetools from Inkscape.)
(Using default header. To add your own header create file "header" in the output dir.)
M3
(Header end.)
G21 (All units in mm)

(Start cutting path id: path7)
(Change tool to Default tool)

G00 Z0.000000
G00 X51.299145 Y128.886154

G01 F75 F100.0(Penetrate)
G03 X53.560616 Y128.969850 Z2 I-0.000000 J30.594238 F75
G03 X55.188034 Y129.412989 Z2 I-0.326908 J4.410463
G02 X55.771807 Y129.689499 Z2 I9.291302 J-18.861509
G02 X56.299145 Y129.877809 Z2 I1.381795 J-3.037006
G02 X56.869782 Y129.945611 Z2 I0.524664 J-1.980498
G03 X57.780627 Y130.068281 Z2 I0.066236 J2.951103
G03 X58.871207 Y130.610130 Z2 I-1.024165 J3.429766
G02 X60.188034 Y131.383011 Z2 I4.459876 J-6.090454
G02 X61.113243 Y131.770696 Z2 I6.398397 J-13.971905
G03 X61.854701 Y132.115606 Z2 I-2.045570 J5.366808
G03 X62.751033 Y132.654985 Z2 I-7.241301 J13.047930
G03 X63.706553 Y133.295447 Z2 I-22.853927 J35.129315
G02 X64.245426 Y133.665014 Z2 I60.206377 J-87.210550
G03 X64.766938 Y134.110063 Z2 I-1.784080 J2.618677
G03 X65.578349 Y135.204494 Z2 I-4.211267 J3.970240
G02 X66.591498 Y136.849117 Z2 I26.094425 J-14.940752
G02 X68.451548 Y139.595697 Z2 I125.516183 J-82.999477
G03 X69.613188 Y142.775043 Z2 I-5.492676 J3.808750
G03 X69.643394 Y143.726441 Z2 I-7.578466 J0.716791
G02 X69.632618 Y144.626895 Z2 I23.867616 J0.735935
G01 X69.929401 Y145.892327 Z2
G02 X70.652516 Y146.117343 Z2 I0.664976 J-0.862559
G03 X71.484328 Y146.115521 Z2 I0.433681 J8.112603
G03 X74.644547 Y146.753338 Z2 I-0.528178 J10.764935
G02 X75.928772 Y147.034302 Z2 I1.685073 J-4.626654
G00 Z0.000000

(End cutting path id: path7)


(Start cutting path id: path7)
(Change tool to Default tool)

G00 Z0.000000
G00 X75.928772 Y137.960228

G01 Z2 F100.0(Penetrate)
G02 X74.072969 Y137.198698 Z2 I-8.846924 J18.917432 F75
G03 X69.447291 Y135.440937 Z2 I38.003949 J-106.975454
G03 X67.961422 Y134.736866 Z2 I5.365819 J-13.243929
G02 X66.669513 Y134.182221 Z2 I-3.570484 J6.534648
G02 X65.395030 Y134.124945 Z2 I-0.742322 J2.309575
G02 X65.002846 Y134.256521 Z2 I0.443281 J1.971546
G00 Z0.000000

(End cutting path id: path7)


(Start cutting path id: path7)
(Change tool to Default tool)

G00 Z0.000000
G00 X57.410254 Y129.812076

G01 Z2 F100.0(Penetrate)
G01 X57.410254 Y128.886150 Z2 F75
G00 Z0.000000

(End cutting path id: path7)


(Start cutting path id: path7)
(Change tool to Default tool)

G00 Z0.000000
G00 X51.113957 Y128.886150

G01 Z2 F100.0(Penetrate)
G01 X51.299142 Y128.886150 Z2 F75
G00 Z0.000000

(End cutting path id: path7)


(Footer)
M5
G00 X0.0000 Y0.0000
M2
(Using default footer. To add your own footer create file "footer" in the output dir.)
(end)
%