%
(Header)
(Generated by gcodetools from Inkscape.)
(Using default header. To add your own header create file "header" in the output dir.)
M3
(Header end.)
G21 (All units in mm)

(Start cutting path id: path7)
(Change tool to Default tool)

G00 Z0.000000
G00 X97.317224 Y105.604932

G01 Z2 F100.0(Penetrate)
G01 X97.427576 Y105.604932 Z2 F75
G00 Z0.000000

(End cutting path id: path7)


(Start cutting path id: path7)
(Change tool to Default tool)

G00 Z0.000000
G00 X82.861064 Y101.521895

G01 Z2 F100.0(Penetrate)
G03 X83.080180 Y102.230950 Z2 I-2.255269 J1.085318 F75
G02 X83.270969 Y102.956476 Z2 I3.497159 J-0.531789
G03 X83.368893 Y103.286349 Z2 I-2.151512 J0.818158
G03 X83.401160 Y103.618590 Z2 I-1.397958 J0.303454
G03 X83.362949 Y104.057103 Z2 I-3.293500 J-0.066069
G02 X83.341390 Y104.501409 Z2 I2.091213 J0.324146
G02 X83.724912 Y105.326479 Z2 I1.229664 J-0.069919
G02 X83.964592 Y105.494580 Z2 I0.692562 J-0.732543
G00 Z0.000000

(End cutting path id: path7)


(Start cutting path id: path7)
(Change tool to Default tool)

G00 Z0.000000
G00 X95.661942 Y105.273875

G01 Z2 F100.0(Penetrate)
G01 X94.889476 Y104.832466 Z2 F75
G00 Z0.000000

(End cutting path id: path7)


(Start cutting path id: path7)
(Change tool to Default tool)

G00 Z0.000000
G00 X86.502696 Y104.942818

G01 Z2 F100.0(Penetrate)
G01 X85.950934 Y104.501409 Z2 F75
G00 Z0.000000

(End cutting path id: path7)


(Start cutting path id: path7)
(Change tool to Default tool)

G00 Z0.000000
G00 X83.412830 Y104.391056

G01 Z2 F100.0(Penetrate)
G01 X83.743887 Y104.391056 Z2 F75
G00 Z0.000000

(End cutting path id: path7)


(Start cutting path id: path7)
(Change tool to Default tool)

G00 Z0.000000
G00 X94.117009 Y103.177180

G01 Z2 F100.0(Penetrate)
G01 X95.441238 Y103.066828 Z2 F75
G00 Z0.000000

(End cutting path id: path7)


(Start cutting path id: path7)
(Change tool to Default tool)

G00 Z0.000000
G00 X86.171639 Y102.625418

G01 Z2 F100.0(Penetrate)
G01 X85.619877 Y102.184009 Z2 F75
G00 Z0.000000

(End cutting path id: path7)


(Start cutting path id: path7)
(Change tool to Default tool)

G00 Z0.000000
G00 X93.565247 Y101.742600

G01 Z2 F100.0(Penetrate)
G01 X94.999828 Y101.852952 Z2 F75
G00 Z0.000000

(End cutting path id: path7)


(Start cutting path id: path7)
(Change tool to Default tool)

G00 Z0.000000
G00 X81.205783 Y100.970133

G01 Z2 F100.0(Penetrate)
G03 X81.814344 Y100.128004 Z2 I1.918350 J0.745336 F75
G03 X82.750716 Y99.425200 Z2 I8.103809 J9.821825
G00 Z0.000000

(End cutting path id: path7)


(Start cutting path id: path7)
(Change tool to Default tool)

G00 Z0.000000
G00 X102.614144 Y100.970133

G01 Z2 F100.0(Penetrate)
G02 X101.601381 Y100.733660 Z2 I-2.303039 J7.576474 F75
G03 X100.523914 Y100.493727 Z2 I1.622983 J-9.827571
G01 X100.076034 Y99.314848 Z2
G03 X100.076514 Y98.309549 Z2 I551.257105 J-0.239501
G02 X100.075954 Y97.328505 Z2 I-250.278901 J-0.347684
G02 X100.053257 Y96.870239 Z2 I-4.959935 J0.015962
G03 X100.095654 Y96.335504 Z2 I1.534462 J-0.147387
G03 X100.342163 Y95.875789 Z2 I1.069251 J0.277406
G03 X100.627824 Y95.562867 Z2 I16.923209 J15.162047
G00 Z0.000000

(End cutting path id: path7)


(Start cutting path id: path7)
(Change tool to Default tool)

G00 Z0.000000
G00 X86.171669 Y100.639076

G01 Z2 F100.0(Penetrate)
G01 X85.730260 Y100.087314 Z2 F75
G00 Z0.000000

(End cutting path id: path7)


(Start cutting path id: path7)
(Change tool to Default tool)

G00 Z0.000000
G00 X93.123868 Y100.197666

G01 Z2 F100.0(Penetrate)
G01 X94.448096 Y100.197666 Z2 F75
G00 Z0.000000

(End cutting path id: path7)


(Start cutting path id: path7)
(Change tool to Default tool)

G00 Z0.000000
G00 X82.530041 Y99.535552

G01 Z2 F100.0(Penetrate)
G03 X82.128485 Y98.805893 Z2 I12.519622 J-7.365299 F75
G03 X81.867927 Y97.990619 Z2 I2.316411 J-1.189587
G00 Z0.000000

(End cutting path id: path7)


(Start cutting path id: path7)
(Change tool to Default tool)

G00 Z0.000000
G00 X92.792811 Y98.763086

G01 Z2 F100.0(Penetrate)
G01 X95.661972 Y98.763086 Z2 F75
G00 Z0.000000

(End cutting path id: path7)


(Start cutting path id: path7)
(Change tool to Default tool)

G00 Z0.000000
G00 X74.032909 Y98.100972

G01 Z2 F100.0(Penetrate)
G01 X74.584671 Y98.100972 Z2 F75
G00 Z0.000000

(End cutting path id: path7)


(Start cutting path id: path7)
(Change tool to Default tool)

G00 Z0.000000
G00 X76.681366 Y97.769914

G01 Z2 F100.0(Penetrate)
G02 X77.546937 Y97.334393 Z2 I-0.415433 J-1.903542 F75
G02 X78.138511 Y96.556038 Z2 I-1.590796 J-1.823040
G03 X78.370875 Y96.103883 Z2 I8.115788 J3.884952
G03 X78.667708 Y95.673220 Z2 I2.283594 J1.256331
G00 Z0.000000

(End cutting path id: path7)


(Start cutting path id: path7)
(Change tool to Default tool)

G00 Z0.000000
G00 X92.682459 Y97.218153

G01 Z2 F100.0(Penetrate)
G01 X93.029098 Y97.201803 Z2 F75
G02 X93.768946 Y96.642915 Z2 I-0.249737 J-1.099743
G03 X94.668801 Y95.893923 Z2 I1.397288 J0.763684
G00 Z0.000000

(End cutting path id: path7)


(Start cutting path id: path7)
(Change tool to Default tool)

G00 Z0.000000
G00 X98.862191 Y96.556037

G01 Z2 F100.0(Penetrate)
G01 X99.965715 Y96.445685 Z2 F75
G00 Z0.000000

(End cutting path id: path7)


(Start cutting path id: path7)
(Change tool to Default tool)

G00 Z0.000000
G00 X93.565277 Y96.445685

G01 Z2 F100.0(Penetrate)
G02 X93.145694 Y96.199398 Z2 I-1.359765 J1.835994 F75
G02 X92.351401 Y95.893923 Z2 I-3.075563 J6.811648
G00 Z0.000000

(End cutting path id: path7)


(Start cutting path id: path7)
(Change tool to Default tool)

G00 Z0.000000
G00 X74.032875 Y95.231810

G01 Z2 F100.0(Penetrate)
G01 X74.363932 Y95.231810 Z2 F75
G00 Z0.000000

(End cutting path id: path7)


(Start cutting path id: path7)
(Change tool to Default tool)

G00 Z0.000000
G00 X87.826921 Y93.797229

G01 Z2 F100.0(Penetrate)
G02 X88.931943 Y93.906193 Z2 I0.765326 J-2.103704 F75
G02 X90.033968 Y93.708839 Z2 I-3.415755 J-22.249076
G02 X90.533028 Y93.581645 Z2 I-1.088794 J-5.314665
G03 X91.027139 Y93.435345 Z2 I8.219774 J26.853754
G03 X92.537243 Y93.054779 Z2 I6.733491 J23.532433
G02 X94.117005 Y92.693701 Z2 I-17.918928 J-82.033998
G00 Z0.000000

(End cutting path id: path7)


(Start cutting path id: path7)
(Change tool to Default tool)

G00 Z0.000000
G00 X75.246751 Y93.907582

G01 Z2 F100.0(Penetrate)
G02 X75.659142 Y93.153301 Z2 I-1.024124 J-1.049798 F75
G02 X75.639966 Y92.362649 Z2 I-1.720033 J-0.353842
G02 X75.009312 Y91.313985 Z2 I-2.072031 J0.532128
G03 X74.143227 Y90.486658 Z2 I17.382700 J-19.064028
G00 Z0.000000

(End cutting path id: path7)


(Start cutting path id: path7)
(Change tool to Default tool)

G00 Z0.000000
G00 X99.744976 Y93.466172

G01 Z2 F100.0(Penetrate)
G03 X100.319406 Y92.547998 Z2 I37.064862 J22.549832 F75
G03 X100.848500 Y91.810887 Z2 I7.479215 J4.810090
G00 Z0.000000

(End cutting path id: path7)


(Start cutting path id: path7)
(Change tool to Default tool)

G00 Z0.000000
G00 X90.806434 Y93.245468

G01 Z2 F100.0(Penetrate)
G01 X90.033884 Y92.111460 Z2 F75
G02 X88.971536 Y91.968101 Z2 I-1.010188 J3.477998
G03 X87.826921 Y91.810887 Z2 I-0.055344 J-3.842429
G00 Z0.000000

(End cutting path id: path7)


(Start cutting path id: path7)
(Change tool to Default tool)

G00 Z0.000000
G00 X90.585730 Y92.031592

G01 Z2 F100.0(Penetrate)
G02 X91.659653 Y91.614463 Z2 I-0.911277 J-3.937139 F75
G02 X92.334593 Y91.133020 Z2 I-1.922942 J-3.409618
G01 X92.548571 Y90.487681 Z2
G02 X92.228888 Y90.033563 Z2 I-1.143722 J0.465557
G03 X92.130663 Y89.934897 Z2 I0.814996 J-0.909583
G01 X93.896301 Y89.603840 Z2
G00 Z0.000000

(End cutting path id: path7)


(Start cutting path id: path7)
(Change tool to Default tool)

G00 Z0.000000
G00 X94.558415 Y91.148773

G01 Z2 F100.0(Penetrate)
G01 X94.668767 Y91.148773 Z2 F75
G00 Z0.000000

(End cutting path id: path7)


(Start cutting path id: path7)
(Change tool to Default tool)

G00 Z0.000000
G00 X85.509521 Y87.948554

G01 Z2 F100.0(Penetrate)
G03 X87.469290 Y88.341688 Z2 I-29.618840 J152.730724 F75
G03 X88.268330 Y88.599088 Z2 I-0.795979 J3.839865
G02 X88.555234 Y88.722348 Z2 I4.842122 J-10.875131
G03 X89.201386 Y89.249027 Z2 I-0.555484 J1.341194
G02 X89.742294 Y89.766993 Z2 I1.477441 J-1.001465
G02 X89.923700 Y89.874272 Z2 I3.019013 J-4.898044
G02 X90.530853 Y90.006539 Z2 I0.516432 J-0.910951
G03 X92.130663 Y89.934902 Z2 I1.652293 J18.999963
G00 Z0.000000

(End cutting path id: path7)


(Start cutting path id: path7)
(Change tool to Default tool)

G00 Z0.000000
G00 X89.592558 Y89.493492

G01 Z2 F100.0(Penetrate)
G01 X90.475377 Y88.901284 Z2 F75
G01 X92.130663 Y88.500405 Z2
G01 X95.551586 Y88.279616 Z2
G00 Z0.000000

(End cutting path id: path7)


(Start cutting path id: path7)
(Change tool to Default tool)

G00 Z0.000000
G00 X100.738150 Y88.169264

G01 Z2 F100.0(Penetrate)
G01 X100.296740 Y87.838207 Z2 F75
G00 Z0.000000

(End cutting path id: path7)


(Start cutting path id: path7)
(Change tool to Default tool)

G00 Z0.000000
G00 X91.247844 Y86.845035

G01 Z2 F100.0(Penetrate)
G02 X92.312524 Y86.673813 Z2 I-0.203100 J-4.658655 F75
G02 X93.565243 Y86.293274 Z2 I-9.094913 J-32.192354
G00 Z0.000000

(End cutting path id: path7)


(Start cutting path id: path7)
(Change tool to Default tool)

G00 Z0.000000
G00 X85.950930 Y86.734683

G01 Z2 F100.0(Penetrate)
G01 X84.626702 Y86.293274 Z2 F75
G00 Z0.000000

(End cutting path id: path7)


(Start cutting path id: path7)
(Change tool to Default tool)

G00 Z0.000000
G00 X80.874722 Y86.403626

G01 Z2 F100.0(Penetrate)
G01 X81.095426 Y86.293274 Z2 F75
G00 Z0.000000

(End cutting path id: path7)


(Start cutting path id: path7)
(Change tool to Default tool)

G00 Z0.000000
G00 X100.076030 Y86.403626

G01 Z2 F100.0(Penetrate)
G03 X101.608195 Y85.993338 Z2 I12.974527 J45.385614 F75
G02 X103.386600 Y85.520807 Z2 I-15.007508 J-60.064729
G00 Z0.000000

(End cutting path id: path7)


(Start cutting path id: path7)
(Change tool to Default tool)

G00 Z0.000000
G00 X82.861064 Y86.293269

G01 Z2 F100.0(Penetrate)
G03 X82.907780 Y85.462267 Z2 I7.342481 J-0.004047 F75
G02 X82.938294 Y84.858688 Z2 I-4.818463 J-0.546160
G01 X82.419655 Y83.865517 Z2
G00 Z0.000000

(End cutting path id: path7)


(Start cutting path id: path7)
(Change tool to Default tool)

G00 Z0.000000
G00 X88.047625 Y86.072564

G01 Z2 F100.0(Penetrate)
G01 X89.371854 Y86.072564 Z2 F75
G00 Z0.000000

(End cutting path id: path7)


(Start cutting path id: path7)
(Change tool to Default tool)

G00 Z0.000000
G00 X82.419655 Y85.189745

G01 Z2 F100.0(Penetrate)
G01 X82.750712 Y85.189745 Z2 F75
G00 Z0.000000

(End cutting path id: path7)


(Start cutting path id: path7)
(Change tool to Default tool)

G00 Z0.000000
G00 X92.020310 Y85.189745

G01 Z2 F100.0(Penetrate)
G02 X92.406722 Y85.106847 Z2 I-0.109969 J-1.454635 F75
G02 X93.015440 Y84.635855 Z2 I-0.427485 J-1.181343
G02 X93.202870 Y84.176345 Z2 I-0.965207 J-0.661680
G02 X93.239295 Y83.755164 Z2 I-2.386162 J-0.418527
G03 X93.287529 Y83.174939 Z2 I3.468347 J-0.003794
G03 X93.454891 Y82.541290 Z2 I3.545906 J0.597632
G00 Z0.000000

(End cutting path id: path7)


(Start cutting path id: path7)
(Change tool to Default tool)

G00 Z0.000000
G00 X93.123834 Y84.637983

G01 Z2 F100.0(Penetrate)
G01 X94.227358 Y84.748336 Z2 F75
G00 Z0.000000

(End cutting path id: path7)


(Start cutting path id: path7)
(Change tool to Default tool)

G00 Z0.000000
G00 X85.178464 Y84.637983

G01 Z2 F100.0(Penetrate)
G01 X86.465483 Y84.184652 Z2 F75
G01 X85.509521 Y83.130004 Z2
G03 X84.976060 Y82.861102 Z2 I2.866497 J-6.350302
G02 X84.516350 Y82.629500 Z2 I-2.914957 J5.213895
G02 X83.960795 Y82.464635 Z2 I-0.884235 J1.961177
G02 X83.633531 Y82.430940 Z2 I-0.495083 J3.202414
G01 X82.971417 Y81.217060 Z2
G00 Z0.000000

(End cutting path id: path7)


(Start cutting path id: path7)
(Change tool to Default tool)

G00 Z0.000000
G00 X105.704000 Y80.444590

G01 Z2 F100.0(Penetrate)
G02 X105.541967 Y80.493830 Z2 I2.633989 J8.958783 F75
G02 X105.149520 Y80.654820 Z2 I0.746311 J2.378125
G03 X103.830682 Y81.289891 Z2 I-13.014357 J-25.339696
G03 X102.062380 Y81.857120 Z2 I-3.390769 J-7.530614
G02 X101.340093 Y82.004250 Z2 I22.888131 J114.208199
G03 X100.627790 Y82.095620 Z2 I-0.951875 J-4.598474
G01 X99.890409 Y82.213300 Z2
G01 X99.635135 Y82.762500 Z2
G03 X99.386741 Y83.903721 Z2 I-10.072187 J-1.594633
G03 X99.193214 Y84.417278 Z2 I-2.981812 J-0.830412
G02 X100.580926 Y84.445738 Z2 I0.745901 J-2.523455
G02 X102.393430 Y83.938319 Z2 I-8.638422 J-34.347332
G03 X103.598824 Y83.620137 Z2 I4.437115 J14.367146
G02 X104.821180 Y83.313755 Z2 I-4.673918 J-21.238846
G00 Z0.000000

(End cutting path id: path7)


(Start cutting path id: path7)
(Change tool to Default tool)

G00 Z0.000000
G00 X99.082862 Y84.417278

G01 Z2 F100.0(Penetrate)
G01 X99.193214 Y84.417278 Z2 F75
G00 Z0.000000

(End cutting path id: path7)


(Start cutting path id: path7)
(Change tool to Default tool)

G00 Z0.000000
G00 X88.709739 Y84.196574

G01 Z2 F100.0(Penetrate)
G01 X89.702911 Y84.196574 Z2 F75
G00 Z0.000000

(End cutting path id: path7)


(Start cutting path id: path7)
(Change tool to Default tool)

G00 Z0.000000
G00 X89.702911 Y82.651640

G01 Z2 F100.0(Penetrate)
G01 X89.923615 Y82.651640 Z2 F75
G00 Z0.000000

(End cutting path id: path7)


(Start cutting path id: path7)
(Change tool to Default tool)

G00 Z0.000000
G00 X83.302474 Y82.541290

G01 Z2 F100.0(Penetrate)
G01 X83.523178 Y82.541290 Z2 F75
G00 Z0.000000

(End cutting path id: path7)


(Start cutting path id: path7)
(Change tool to Default tool)

G00 Z0.000000
G00 X99.634623 Y81.989530

G01 Z2 F100.0(Penetrate)
G01 X99.366066 Y81.317530 Z2 F75
G01 X97.765190 Y80.948500 Z2
G01 X97.385940 Y80.334330 Z2
G01 X99.193214 Y79.312970 Z2
G02 X102.143228 Y78.482952 Z2 I-79.686737 J-288.876387
G02 X105.041890 Y77.244370 Z2 I-3.502028 J-12.206996
G00 Z0.000000

(End cutting path id: path7)


(Start cutting path id: path7)
(Change tool to Default tool)

G00 Z0.000000
G00 X86.723397 Y81.768820

G01 Z2 F100.0(Penetrate)
G01 X85.730226 Y81.548120 Z2 F75
G00 Z0.000000

(End cutting path id: path7)


(Start cutting path id: path7)
(Change tool to Default tool)

G00 Z0.000000
G00 X90.144320 Y81.327410

G01 Z2 F100.0(Penetrate)
G01 X90.585730 Y81.327410 Z2 F75
G00 Z0.000000

(End cutting path id: path7)


(Start cutting path id: path7)
(Change tool to Default tool)

G00 Z0.000000
G00 X86.613045 Y80.334240

G01 Z2 F100.0(Penetrate)
G01 X86.723397 Y80.334240 Z2 F75
G00 Z0.000000

(End cutting path id: path7)


(Start cutting path id: path7)
(Change tool to Default tool)

G00 Z0.000000
G00 X90.806434 Y80.113540

G01 Z2 F100.0(Penetrate)
G01 X91.247844 Y80.223890 Z2 F75
G00 Z0.000000

(End cutting path id: path7)


(Start cutting path id: path7)
(Change tool to Default tool)

G00 Z0.000000
G00 X83.302474 Y79.451420

G01 Z2 F100.0(Penetrate)
G01 X83.523178 Y79.451420 Z2 F75
G00 Z0.000000

(End cutting path id: path7)


(Start cutting path id: path7)
(Change tool to Default tool)

G00 Z0.000000
G00 X97.537929 Y79.451420

G01 Z2 F100.0(Penetrate)
G01 X97.206871 Y78.237550 Z2 F75
G00 Z0.000000

(End cutting path id: path7)


(Start cutting path id: path7)
(Change tool to Default tool)

G00 Z0.000000
G00 X86.281987 Y78.899660

G01 Z2 F100.0(Penetrate)
G01 X88.047625 Y79.341070 Z2 F75
G00 Z0.000000

(End cutting path id: path7)


(Start cutting path id: path7)
(Change tool to Default tool)

G00 Z0.000000
G00 X83.192121 Y77.906490

G01 Z2 F100.0(Penetrate)
G03 X83.214020 Y77.386926 Z2 I6.567565 J0.016574 F75
G03 X83.302474 Y76.913320 Z2 I2.337066 J0.191423
G00 Z0.000000

(End cutting path id: path7)


(Start cutting path id: path7)
(Change tool to Default tool)

G00 Z0.000000
G00 X86.833749 Y77.685780

G01 Z2 F100.0(Penetrate)
G01 X86.944102 Y77.685780 Z2 F75
G00 Z0.000000

(End cutting path id: path7)


(Start cutting path id: path7)
(Change tool to Default tool)

G00 Z0.000000
G00 X91.909958 Y77.575430

G01 Z2 F100.0(Penetrate)
G01 X92.020310 Y77.575430 Z2 F75
G00 Z0.000000

(End cutting path id: path7)


(Start cutting path id: path7)
(Change tool to Default tool)

G00 Z0.000000
G00 X97.758633 Y76.692610

G01 Z2 F100.0(Penetrate)
G02 X100.027099 Y76.431783 Z2 I-0.000000 J-9.995055 F75
G02 X102.172730 Y75.628770 Z2 I-2.018397 J-8.661154
G03 X103.138554 Y75.130487 Z2 I23.168589 J43.722594
G02 X103.922020 Y74.667950 Z2 I-3.004330 J-5.983674
G01 X104.269420 Y74.154510 Z2
G00 Z0.000000

(End cutting path id: path7)


(Start cutting path id: path7)
(Change tool to Default tool)

G00 Z0.000000
G00 X94.999824 Y76.030500

G01 Z2 F100.0(Penetrate)
G01 X94.889472 Y75.920150 Z2 F75
G00 Z0.000000

(End cutting path id: path7)


(Start cutting path id: path7)
(Change tool to Default tool)

G00 Z0.000000
G00 X76.019218 Y75.589090

G01 Z2 F100.0(Penetrate)
G03 X75.558719 Y74.970463 Z2 I17.794348 J-13.726625 F75
G02 X75.163476 Y74.501920 Z2 I-3.194983 J2.294176
G01 X74.143227 Y74.154510 Z2
G00 Z0.000000

(End cutting path id: path7)


(Start cutting path id: path7)
(Change tool to Default tool)

G00 Z0.000000
G00 X83.523178 Y75.258030

G01 Z2 F100.0(Penetrate)
G01 X83.633531 Y74.926980 Z2 F75
G00 Z0.000000

(End cutting path id: path7)


(Start cutting path id: path7)
(Change tool to Default tool)

G00 Z0.000000
G00 X78.557322 Y75.147680

G01 Z2 F100.0(Penetrate)
G03 X79.275880 Y75.123767 Z2 I0.524887 J4.964415 F75
G03 X79.881550 Y75.147680 Z2 I-17.924121 J461.668099
G00 Z0.000000

(End cutting path id: path7)


(Start cutting path id: path7)
(Change tool to Default tool)

G00 Z0.000000
G00 X96.765462 Y75.037330

G01 Z2 F100.0(Penetrate)
G01 X98.310395 Y74.189170 Z2 F75
G01 X100.076030 Y74.154470 Z2
G00 Z0.000000

(End cutting path id: path7)


(Start cutting path id: path7)
(Change tool to Default tool)

G00 Z0.000000
G00 X87.606216 Y74.926940

G01 Z2 F100.0(Penetrate)
G01 X87.495863 Y74.816580 Z2 F75
G00 Z0.000000

(End cutting path id: path7)


(Start cutting path id: path7)
(Change tool to Default tool)

G00 Z0.000000
G00 X74.032875 Y74.154470

G01 Z2 F100.0(Penetrate)
G01 X74.143227 Y74.154470 Z2 F75
G00 Z0.000000

(End cutting path id: path7)


(Start cutting path id: path7)
(Change tool to Default tool)

G00 Z0.000000
G00 X78.998731 Y74.154470

G01 Z2 F100.0(Penetrate)
G01 X79.109084 Y74.154470 Z2 F75
G00 Z0.000000

(End cutting path id: path7)


(Footer)
M5
G00 X0.0000 Y0.0000
M2
(Using default footer. To add your own footer create file "footer" in the output dir.)
(end)
%