%
(Header)
(Generated by gcodetools from Inkscape.)
(Using default header. To add your own header create file "header" in the output dir.)
M3
(Header end.)
G21 (All units in mm)

(Start cutting path id: path8)
(Change tool to Default tool)

G00 Z0.000000
G00 X76.272076 Y147.404842

G01 Z3 F100.0(Penetrate)
G03 X76.937596 Y147.604139 Z3 I-0.296287 J2.200247 F75
G02 X78.443573 Y147.656186 Z3 I0.812291 J-1.689898
G02 X79.292792 Y146.894924 Z3 I-0.612143 J-1.537170
G03 X80.161680 Y145.746178 Z3 I4.005557 J2.126745
G03 X82.768335 Y143.871988 Z3 I7.934587 J8.285773
G02 X85.160965 Y142.605459 Z3 I-162.536526 J-309.944832
G02 X86.297936 Y141.876050 Z3 I-3.998469 J-7.483482
G03 X87.414623 Y141.202854 Z3 I3.675175 J4.833548
G03 X88.060198 Y141.007411 Z3 I1.011416 J2.176915
G03 X88.679484 Y140.940079 Z3 I1.062222 J6.888163
G03 X89.572532 Y140.998442 Z3 I0.221316 J3.475225
G03 X90.160965 Y141.192851 Z3 I-0.479513 J2.439113
G02 X90.827059 Y141.463465 Z3 I2.656666 J-5.584081
G02 X92.012817 Y141.663959 Z3 I1.213142 J-3.568109
G03 X92.950173 Y141.682870 Z3 I-0.260837 J36.168825
G03 X93.679484 Y141.742689 Z3 I-0.248954 J7.511024
G02 X95.127492 Y141.853979 Z3 I1.756339 J-13.376134
G03 X96.642447 Y142.098912 Z3 I-0.128005 J5.599347
G02 X97.670583 Y142.411458 Z3 I60.441597 J-196.978662
G02 X98.309113 Y142.573306 Z3 I2.146222 J-7.126848
G03 X99.897136 Y143.141833 Z3 I-1.225876 J5.926263
G03 X100.901710 Y143.701136 Z3 I-10.951936 J20.852771
G00 Z0.000000

(End cutting path id: path8)


(Start cutting path id: path8)
(Change tool to Default tool)

G00 Z0.000000
G00 X87.012817 Y141.293728

G01 Z3 F100.0(Penetrate)
G02 X86.621126 Y140.973204 Z3 I-5.898474 J6.808547 F75
G02 X85.346150 Y140.386234 Z3 I-1.912399 J2.475789
G02 X84.231623 Y140.182500 Z3 I-4.733603 J22.744824
G03 X82.938743 Y139.944419 Z3 I3.985885 J-25.274496
G03 X78.839060 Y138.736358 Z3 I5.603108 J-26.575125
G02 X76.272076 Y138.145580 Z3 I-3.393043 J8.870801
G00 Z0.000000

(End cutting path id: path8)


(Start cutting path id: path8)
(Change tool to Default tool)

G00 Z0.000000
G00 X90.160965 Y141.108543

G01 Z3 F100.0(Penetrate)
G02 X90.469419 Y140.809689 Z3 I-6.245510 J-6.754754 F75
G03 X91.642447 Y140.210052 Z3 I1.490102 J1.467807
G03 X92.583780 Y140.158205 Z3 I0.736664 J4.803558
G02 X93.679484 Y140.103314 Z3 I0.250965 J-5.953718
G03 X95.998565 Y139.831481 Z3 I6.478742 J45.243587
G02 X98.309113 Y139.545758 Z3 I-3.321818 J-36.347664
G02 X99.200432 Y139.386057 Z3 I-3.123941 J-20.002395
G03 X99.971208 Y139.241974 Z3 I5.233306 J25.862058
G02 X100.660696 Y139.117165 Z3 I-6.482759 J-37.779852
G03 X100.901710 Y139.071506 Z3 I23.141232 J121.493873
G00 Z0.000000

(End cutting path id: path8)


(Start cutting path id: path8)
(Change tool to Default tool)

G00 Z0.000000
G00 X76.086891 Y138.145580

G01 Z3 F100.0(Penetrate)
G01 X76.272076 Y138.145580 Z3 F75
G00 Z0.000000

(End cutting path id: path8)


(Start cutting path id: path8)
(Change tool to Default tool)

G00 Z0.000000
G00 X90.901706 Y128.886321

G01 Z3 F100.0(Penetrate)
G01 X90.805826 Y129.816819 Z3 F75
G01 X90.643789 Y132.107915 Z3
G01 X92.012816 Y132.436133 Z3
G01 X93.864668 Y132.775210 Z3
G01 X94.198173 Y131.478628 Z3
G01 X94.478951 Y129.469311 Z3
G01 X95.338862 Y128.924615 Z3
G01 X96.091606 Y129.637921 Z3
G01 X97.012816 Y132.404839 Z3
G03 X97.535529 Y132.279339 Z3 I3.820896 J14.762832
G02 X98.309398 Y132.098341 Z3 I-7.315275 J-33.021895
G01 X99.440799 Y131.569077 Z3
G02 X99.649230 Y130.609164 Z3 I-0.982819 J-0.715990
G03 X99.632558 Y129.819105 Z3 I2.151841 J-0.440615
G01 X100.346149 Y129.256691 Z3
G01 X100.531339 Y129.441876 Z3
G01 X100.716519 Y129.441876 Z3
G01 X100.901709 Y129.441876 Z3
G00 Z0.000000

(End cutting path id: path8)


(Start cutting path id: path8)
(Change tool to Default tool)

G00 Z0.000000
G00 X82.753557 Y128.886321

G01 Z3 F100.0(Penetrate)
G02 X83.553564 Y128.861517 Z3 I0.000000 J-12.913762 F75
G03 X84.412936 Y128.945191 Z3 I0.168865 J2.720591
G03 X84.973115 Y129.240869 Z3 I-0.352577 J1.346460
G03 X85.399018 Y129.613056 Z3 I-62.340623 J71.767771
G01 X86.433398 Y130.150039 Z3
G01 X87.383186 Y128.886320 Z3
G00 Z0.000000

(End cutting path id: path8)


(Start cutting path id: path8)
(Change tool to Default tool)

G00 Z0.000000
G00 X78.123927 Y128.886320

G01 Z3 F100.0(Penetrate)
G01 X79.420224 Y128.886320 Z3 F75
G00 Z0.000000

(End cutting path id: path8)


(Footer)
M5
G00 X0.0000 Y0.0000
M2
(Using default footer. To add your own footer create file "footer" in the output dir.)
(end)
%