%
(Header)
(Generated by gcodetools from Inkscape.)
(Using default header. To add your own header create file "header" in the output dir.)
M3
(Header end.)
G21 (All units in mm)

(Start cutting path id: path18)
(Change tool to Default tool)

G00 Z0.000000
G00 X137.631250 Y72.564580

G01 Z2 F100.0(Penetrate)
G01 X134.527320 Y66.845830 Z2 F75.000000
G01 X133.654700 Y65.320830 Z2
G01 X133.499470 Y64.685410 Z2
G01 X134.962500 Y62.143750 Z2
G01 X137.947000 Y57.695830 Z2
G01 X140.057700 Y54.752910 Z2
G01 X141.062500 Y54.395880 Z2
G01 X142.333340 Y54.391880 Z2
G01 X145.634360 Y54.391880 Z2
G01 X146.272920 Y54.391880 Z2
G00 Z0.000000

(End cutting path id: path18)


(Start cutting path id: path18)
(Change tool to Default tool)

G00 Z0.000000
G00 X141.062500 Y54.264580

G01 Z2 F100.0(Penetrate)
G01 X141.189590 Y53.756250 Z2 F75.000000
G00 Z0.000000

(End cutting path id: path18)


(Start cutting path id: path18)
(Change tool to Default tool)

G00 Z0.000000
G00 X117.552090 Y47.020830

G01 Z2 F100.0(Penetrate)
G02 X117.574870 Y46.099543 Z2 I-25.427980 J-1.089654 F75.000000
G03 X117.614890 Y45.368750 Z2 I7.611854 J0.050355
G03 X117.989310 Y44.194128 Z2 I3.001442 J0.309748
G02 X118.491630 Y42.954160 Z2 I-4.512732 J-2.549870
G01 X117.806200 Y41.556250 Z2
G00 Z0.000000

(End cutting path id: path18)


(Start cutting path id: path18)
(Change tool to Default tool)

G00 Z0.000000
G00 X118.568700 Y41.937500

G01 Z2 F100.0(Penetrate)
G01 X119.744420 Y40.285410 Z2 F75.000000
G01 X120.602040 Y38.887500 Z2
G00 Z0.000000

(End cutting path id: path18)


(Start cutting path id: path18)
(Change tool to Default tool)

G00 Z0.000000
G00 X116.408290 Y46.258330

G01 Z2 F100.0(Penetrate)
G01 X117.297870 Y45.495830 Z2 F75.000000
G00 Z0.000000

(End cutting path id: path18)


(Start cutting path id: path18)
(Change tool to Default tool)

G00 Z0.000000
G00 X109.800000 Y55.408330

G01 Z2 F100.0(Penetrate)
G01 X109.927090 Y55.281250 Z2 F75.000000
G00 Z0.000000

(End cutting path id: path18)


(Start cutting path id: path18)
(Change tool to Default tool)

G00 Z0.000000
G00 X109.800000 Y62.397910

G01 Z2 F100.0(Penetrate)
G02 X109.995013 Y62.302162 Z2 I-2.275572 J-4.881203 F75.000000
G02 X110.436690 Y61.997740 Z2 I-0.972264 J-1.883249
G02 X111.741633 Y60.592783 Z2 I-6.959880 J-7.772936
G02 X113.102310 Y58.585410 Z2 I-15.810108 J-12.181561
G02 X115.118639 Y54.179081 Z2 I-19.747319 J-11.700839
G02 X116.553360 Y49.562500 Z2 I-103.765507 J-34.779029
G03 X116.983434 Y48.461686 Z2 I6.102138 J1.749605
G02 X117.244280 Y47.529160 Z2 I-2.256322 J-1.133884
G01 X116.408340 Y46.258330 Z2
G02 X115.641406 Y47.604966 Z2 I6.166251 J4.403503
G03 X114.875000 Y49.054070 Z2 I-10.539147 J-4.646750
G03 X113.966562 Y50.045001 Z2 I-3.112316 J-1.941351
G02 X113.012490 Y50.962280 Z2 I3.287911 J4.374601
G02 X112.390371 Y52.073418 Z2 I2.859873 J2.330954
G03 X111.803820 Y53.247910 Z2 I-4.921351 J-1.724054
G03 X110.594016 Y54.676940 Z2 I-6.893764 J-4.609579
G03 X109.927090 Y55.281250 Z2 I-16.257959 J-17.272371
G00 Z0.000000

(End cutting path id: path18)


(Start cutting path id: path18)
(Change tool to Default tool)

G00 Z0.000000
G00 X109.800000 Y69.006250

G01 Z2 F100.0(Penetrate)
G02 X110.000049 Y68.921476 Z2 I-3.533006 J-8.615577 F75.000000
G03 X110.438560 Y68.734040 Z2 I11.168799 J25.523012
G02 X112.122311 Y67.895991 Z2 I-5.454274 J-13.068815
G03 X114.375000 Y66.911730 Z2 I5.336869 J9.144546
G03 X115.245161 Y66.744335 Z2 I1.225259 J4.023843
G03 X115.645840 Y66.718750 Z2 I0.816598 J9.638329
G00 Z0.000000

(End cutting path id: path18)


(Start cutting path id: path18)
(Change tool to Default tool)

G00 Z0.000000
G00 X109.800000 Y71.166660

G01 Z2 F100.0(Penetrate)
G02 X109.988636 Y71.121579 Z2 I-17.498296 J-73.637111 F75.000000
G02 X110.438560 Y70.980060 Z2 I-0.800726 J-3.331672
G02 X111.000333 Y70.728735 Z2 I-2.385213 J-6.085062
G03 X111.706250 Y70.372690 Z2 I283.301129 J560.811727
G02 X113.281127 Y69.469776 Z2 I-7.557394 J-15.006651
G02 X114.755660 Y68.437120 Z2 I-13.470596 J-20.803777
G02 X115.508335 Y67.490027 Z2 I-1.462762 J-1.935119
G03 X116.062390 Y66.741890 Z2 I1.966117 J0.876836
G03 X117.039582 Y66.044093 Z2 I4.138486 J4.762393
G03 X118.060420 Y65.465470 Z2 I32.111859 J55.463644
G02 X119.459654 Y64.408371 Z2 I-3.037683 J-5.475442
G03 X120.729170 Y63.335740 Z2 I6.858353 J6.829643
G03 X121.695368 Y62.882866 Z2 I1.747110 J2.470306
G02 X122.889590 Y62.270830 Z2 I-0.820911 J-3.072903
G00 Z0.000000

(End cutting path id: path18)


(Footer)
M5
M2
(Using default footer. To add your own footer create file "footer" in the output dir.)
(end)
%