%
(Header)
(Generated by gcodetools from Inkscape.)
(Using default header. To add your own header create file "header" in the output dir.)
M3
(Header end.)
G21 (All units in mm)

(Start cutting path id: path11)
(Change tool to Default tool)

G00 Z0.000000
G00 X47.529165 Y109.164586

G01 Z2 F100.0(Penetrate)
G03 X46.836142 Y107.839828 Z2 I13.962036 J-8.147636 F75.000000
G03 X46.248427 Y106.495837 Z2 I28.312220 J-13.181170
G02 X45.977083 Y105.854546 Z2 I-27.942252 J11.444919
G02 X45.617325 Y105.232455 Z2 I-2.932934 J1.281059
G02 X45.123910 Y104.839089 Z2 I-0.983311 J0.727268
G02 X44.606248 Y104.719121 Z2 I-0.580437 J1.327746
G02 X39.461293 Y104.512931 Z2 I-33.986962 J783.765947
G02 X36.727082 Y104.462503 Z2 I-2.742370 J74.542038
G00 Z0.000000

(End cutting path id: path11)


(Start cutting path id: path11)
(Change tool to Default tool)

G00 Z0.000000
G00 X36.599998 Y104.462503

G01 Z2 F100.0(Penetrate)
G01 X36.727082 Y104.462503 Z2 F75.000000
G00 Z0.000000

(End cutting path id: path11)


(Start cutting path id: path11)
(Change tool to Default tool)

G00 Z0.000000
G00 X36.727082 Y100.650003

G01 Z2 F100.0(Penetrate)
G03 X37.458568 Y100.743054 Z2 I-0.189392 J4.410531 F75.000000
G02 X39.141665 Y100.778557 Z2 I0.934327 J-4.380536
G02 X42.142514 Y100.035828 Z2 I-3.463806 J-20.428343
G03 X45.114581 Y99.172563 Z2 I13.949370 J42.477424
G02 X48.794424 Y98.203462 Z2 I-49.465632 J-195.300610
G03 X52.485414 Y97.199535 Z2 I365.161351 J1335.247371
G02 X56.176269 Y96.181482 Z2 I-100.960406 J-373.221816
G03 X59.856248 Y95.201502 Z2 I37.267902 J132.547409
G02 X63.100887 Y94.351217 Z2 I-41.474110 J-164.878554
G02 X66.337497 Y93.460185 Z2 I-177.801847 J-652.176767
G01 X71.039580 Y92.189352 Z2
G03 X71.720590 Y92.008895 Z2 I7.836767 J28.199253
G03 X72.309824 Y91.867036 Z2 I6.899118 J27.361879
G03 X72.879742 Y91.772175 Z2 I1.066950 J4.650738
G03 X73.072914 Y91.754170 Z2 I0.885318 J8.452906
G00 Z0.000000

(End cutting path id: path11)


(Start cutting path id: path11)
(Change tool to Default tool)

G00 Z0.000000
G00 X63.541664 Y91.881277

G01 Z2 F100.0(Penetrate)
G01 X63.541664 Y91.372943 Z2 F75.000000
G00 Z0.000000

(End cutting path id: path11)


(Start cutting path id: path11)
(Change tool to Default tool)

G00 Z0.000000
G00 X60.110414 Y91.118777

G01 Z2 F100.0(Penetrate)
G02 X59.457922 Y90.763535 Z2 I-1.320495 J1.648570 F75.000000
G02 X58.204164 Y90.356277 Z2 I-27.063854 J81.183508
G00 Z0.000000

(End cutting path id: path11)


(Start cutting path id: path11)
(Change tool to Default tool)

G00 Z0.000000
G00 X60.999997 Y88.322944

G01 Z2 F100.0(Penetrate)
G01 X69.133330 Y88.068777 Z2 F75.000000
G01 X72.309824 Y87.941694 Z2
G01 X73.072914 Y87.941694 Z2
G00 Z0.000000

(End cutting path id: path11)


(Start cutting path id: path11)
(Change tool to Default tool)

G00 Z0.000000
G00 X70.277080 Y78.537521

G01 Z2 F100.0(Penetrate)
G03 X70.822062 Y78.866342 Z2 I-2.025926 J3.973760 F75.000000
G02 X71.293747 Y79.179221 Z2 I5.701224 J-8.082985
G02 X72.496502 Y79.815294 Z2 I5.098158 J-8.184967
G02 X73.072914 Y80.062521 Z2 I11.869115 J-26.877308
G00 Z0.000000

(End cutting path id: path11)


(Start cutting path id: path11)
(Change tool to Default tool)

G00 Z0.000000
G00 X60.618747 Y76.885471

G01 Z2 F100.0(Penetrate)
G03 X62.115563 Y76.862313 Z2 I2.989410 J144.836359 F75.000000
G03 X63.795831 Y76.884471 Z2 I0.368571 J35.770561
G03 X66.649249 Y76.992315 Z2 I-36.854496 J1012.929061
G02 X69.514580 Y77.011061 Z2 I1.719705 J-43.864147
G02 X71.140521 Y76.655216 Z2 I-0.115342 J-4.419609
G03 X72.434359 Y76.288571 Z2 I2.063635 J4.816062
G03 X72.871012 Y76.253678 Z2 I0.475012 J3.194756
G02 X73.072914 Y76.250371 Z2 I-0.266305 J-22.421713
G00 Z0.000000

(End cutting path id: path11)


(Start cutting path id: path11)
(Change tool to Default tool)

G00 Z0.000000
G00 X58.966664 Y81.079191

G01 Z2 F100.0(Penetrate)
G03 X61.039237 Y81.398613 Z2 I-1.117231 J14.132823 F75.000000
G02 X62.652081 Y81.586931 Z2 I1.653462 J-7.160295
G02 X63.447621 Y81.475436 Z2 I0.016921 J-2.773189
G02 X63.795831 Y81.333361 Z2 I-0.514416 J-1.758523
G00 Z0.000000

(End cutting path id: path11)


(Start cutting path id: path11)
(Change tool to Default tool)

G00 Z0.000000
G00 X59.983331 Y85.145858

G01 Z2 F100.0(Penetrate)
G02 X59.588642 Y83.799362 Z2 I-2.573923 J0.023381 F75.000000
G02 X58.204164 Y82.647921 Z2 I-2.453996 J1.542594
G02 X56.325455 Y82.250214 Z2 I-2.102690 J5.296573
G03 X54.391664 Y82.011331 Z2 I0.458603 J-11.659045
G03 X52.331417 Y81.417297 Z2 I2.964678 J-14.151919
G03 X50.324998 Y80.570861 Z2 I8.548344 J-23.064518
G00 Z0.000000

(End cutting path id: path11)


(Start cutting path id: path11)
(Change tool to Default tool)

G00 Z0.000000
G00 X49.943748 Y84.383358

G01 Z2 F100.0(Penetrate)
G01 X53.247914 Y84.162140 Z2 F75.000000
G01 X57.949998 Y84.637525 Z2
G00 Z0.000000

(End cutting path id: path11)


(Start cutting path id: path11)
(Change tool to Default tool)

G00 Z0.000000
G00 X59.602081 Y85.272944

G01 Z2 F100.0(Penetrate)
G01 X60.999997 Y85.378355 Z2 F75.000000
G01 X62.524997 Y85.400025 Z2
G01 X69.514580 Y85.659193 Z2
G01 X72.309824 Y85.781275 Z2
G01 X73.072914 Y85.781275 Z2
G00 Z0.000000

(End cutting path id: path11)


(Start cutting path id: path11)
(Change tool to Default tool)

G00 Z0.000000
G00 X57.822914 Y86.670860

G01 Z2 F100.0(Penetrate)
G02 X56.700108 Y86.777248 Z2 I0.053903 J6.547024 F75.000000
G02 X55.408331 Y87.071428 Z2 I2.756371 J15.086814
G03 X53.336202 Y87.629975 Z2 I-74.020206 J-270.481327
G02 X51.341762 Y88.460911 Z2 I2.054996 J7.741499
G02 X50.455920 Y89.336713 Z2 I1.274529 J2.175040
G02 X50.402170 Y90.442960 Z2 I1.002932 J0.603159
G01 X51.214679 Y90.725564 Z2
G02 X51.878061 Y90.663044 Z2 I-0.379187 J-7.574212
G03 X52.612498 Y90.610540 Z2 I0.761143 J5.484026
G03 X53.646648 Y90.632302 Z2 I0.097033 J19.971692
G02 X54.645831 Y90.487675 Z2 I0.124971 J-2.660455
G02 X56.728560 Y89.422801 Z2 I-2.786457 J-8.019065
G02 X58.585414 Y88.068777 Z2 I-34.307933 J-48.998731
G00 Z0.000000

(End cutting path id: path11)


(Start cutting path id: path11)
(Change tool to Default tool)

G00 Z0.000000
G00 X53.756248 Y94.168750

G01 Z2 F100.0(Penetrate)
G02 X53.152200 Y93.568859 Z2 I-2.280661 J1.692403 F75.000000
G02 X51.722915 Y92.643750 Z2 I-8.812732 J12.048918
G00 Z0.000000

(End cutting path id: path11)


(Start cutting path id: path11)
(Change tool to Default tool)

G00 Z0.000000
G00 X44.606248 Y92.643754

G01 Z2 F100.0(Penetrate)
G03 X46.894987 Y93.570541 Z2 I-23.015886 J60.128124 F75.000000
G02 X49.181248 Y94.461164 Z2 I14.856745 J-34.758040
G02 X50.759669 Y94.713754 Z2 I1.481973 J-4.202736
G02 X52.358331 Y94.675224 Z2 I-7.056201 J-325.954525
G02 X53.219823 Y94.504001 Z2 I-0.069061 J-2.600345
G03 X54.010414 Y94.285738 Z2 I1.523019 J3.975699
G03 X54.870023 Y94.137283 Z2 I39.869148 J228.293382
G03 X55.789581 Y94.039415 Z2 I1.234215 J7.227625
G02 X57.838797 Y93.474547 Z2 I-0.203524 J-4.737827
G02 X59.469409 Y92.257012 Z2 I-3.314402 J-6.139574
G02 X59.862473 Y91.684044 Z2 I-1.361946 J-1.355622
G03 X60.308590 Y91.141994 Z2 I1.205651 J0.537665
G01 X62.016664 Y91.118654 Z2
G03 X62.909496 Y91.175408 Z2 I-0.036962 J7.632623
G02 X63.668747 Y91.176604 Z2 I0.384561 J-3.133363
G02 X64.237800 Y91.059723 Z2 I-0.412895 J-3.453949
G03 X64.812497 Y90.908906 Z2 I2.839753 J9.650666
G02 X66.339551 Y90.495457 Z2 I-4.775489 J-20.664792
G02 X67.862497 Y89.975000 Z2 I-8.669631 J-27.857273
G00 Z0.000000

(End cutting path id: path11)


(Start cutting path id: path11)
(Change tool to Default tool)

G00 Z0.000000
G00 X73.072914 Y102.175003

G01 Z2 F100.0(Penetrate)
G02 X72.311109 Y102.919698 Z2 I14.187263 J15.275235 F75.000000
G03 X71.293650 Y103.954170 Z2 I-88.099393 J-85.632881
G03 X70.462698 Y104.782871 Z2 I-111.148114 J-110.619070
G02 X69.663239 Y105.601252 Z2 I23.963976 J24.209576
G03 X69.102005 Y106.185108 Z2 I-33.705142 J-31.837539
G02 X68.601952 Y106.751865 Z2 I5.255511 J5.140945
G01 X68.297483 Y107.963865 Z2
G01 X70.024775 Y107.372672 Z2
G02 X71.487921 Y106.039075 Z2 I-4.971494 J-6.923873
G02 X72.499666 Y104.851205 Z2 I-60.115281 J-52.226850
G03 X72.879683 Y104.482515 Z2 I1.942093 J1.621570
G03 X73.072914 Y104.335420 Z2 I5.071063 J6.461103
G00 Z0.000000

(End cutting path id: path11)


(Start cutting path id: path11)
(Change tool to Default tool)

G00 Z0.000000
G00 X41.683332 Y90.864610

G01 Z2 F100.0(Penetrate)
G02 X42.890290 Y91.048662 Z2 I1.683413 J-6.989870 F75.000000
G03 X44.097915 Y91.130152 Z2 I-37.829520 J569.594213
G02 X45.415110 Y91.210133 Z2 I5.791221 J-84.488055
G02 X46.766665 Y91.245860 Z2 I1.351555 J-25.547091
G00 Z0.000000

(End cutting path id: path11)


(Start cutting path id: path11)
(Change tool to Default tool)

G00 Z0.000000
G00 X36.599998 Y92.389583

G01 Z2 F100.0(Penetrate)
G02 X36.805214 Y92.277277 Z2 I-1.843721 J-3.612662 F75.000000
G02 X37.363087 Y91.908805 Z2 I-3.120775 J-5.331460
G02 X38.395662 Y91.103991 Z2 I-16.100985 J-21.722336
G02 X39.522915 Y90.180137 Z2 I-1673.406872 J-2042.980121
G03 X42.199431 Y88.348943 Z2 I11.859095 J14.461903
G02 X44.711268 Y86.405195 Z2 I-5.382578 J-9.550570
G02 X45.721477 Y85.235165 Z2 I-10.194639 J-9.823214
G02 X46.430521 Y83.875000 Z2 I-3.446083 J-2.661311
G02 X46.596059 Y82.716974 Z2 I-3.471567 J-1.087099
G03 X46.885903 Y81.587986 Z2 I2.178253 J-0.042478
G03 X47.703257 Y80.721510 Z2 I2.225225 J1.280327
G02 X48.672915 Y80.032596 Z2 I-8.750959 J-13.343976
G02 X50.029157 Y78.828923 Z2 I-7.800524 J-10.155170
G03 X51.595831 Y77.932576 Z2 I2.359362 J2.306472
G03 X54.804883 Y77.328547 Z2 I6.938137 J28.034112
G03 X58.077081 Y77.001126 Z2 I7.136282 J54.804281
G02 X59.162675 Y76.851759 Z2 I-0.575319 J-8.201092
G03 X60.218670 Y76.962126 Z2 I0.354269 J1.717418
G01 X60.623258 Y77.775126 Z2
G02 X60.708051 Y78.201858 Z2 I2.736568 J-0.321976
G02 X60.909391 Y78.662746 Z2 I1.776083 J-0.501463
G02 X61.849222 Y79.551432 Z2 I2.108487 J-1.288529
G03 X62.900756 Y80.202856 Z2 I-4.720313 J8.793981
G03 X63.536184 Y80.837652 Z2 I-1.550647 J2.187621
G02 X64.304655 Y81.416806 Z2 I1.296573 J-0.920989
G03 X65.631484 Y82.005008 Z2 I-3.061691 J8.696953
G02 X66.591664 Y82.357876 Z2 I1.697808 J-3.137071
G02 X68.556937 Y82.728149 Z2 I9.373413 J-44.349998
G03 X70.785414 Y83.102233 Z2 I-85.867820 J518.353061
G03 X71.680942 Y83.263274 Z2 I-8.066530 J47.427506
G02 X72.434359 Y83.397977 Z2 I6.814115 J-35.938077
G02 X72.882553 Y83.467952 Z2 I3.247528 J-19.330156
G02 X73.072914 Y83.493777 Z2 I1.620077 J-11.227565
G00 Z0.000000

(End cutting path id: path11)


(Start cutting path id: path11)
(Change tool to Default tool)

G00 Z0.000000
G00 X36.599998 Y79.808361

G01 Z2 F100.0(Penetrate)
G01 X37.363087 Y79.808361 Z2 F75.000000
G01 X39.395832 Y79.808361 Z2
G03 X41.623871 Y79.854008 Z2 I-0.000000 J54.397985
G02 X43.843748 Y79.754461 Z2 I0.531136 J-12.956910
G03 X44.545952 Y79.714198 Z2 I0.624775 J4.752828
G02 X45.206756 Y79.531471 Z2 I0.019631 J-1.215220
G02 X46.088526 Y78.416782 Z2 I-1.102223 J-1.778013
G03 X46.670960 Y77.012551 Z2 I10.230941 J3.420593
G03 X47.625026 Y75.206210 Z2 I41.089495 J20.547351
G02 X48.317453 Y73.838611 Z2 I-16.962048 J-9.447124
G02 X48.488364 Y73.391890 Z2 I-3.411614 J-1.561301
G02 X48.545831 Y73.200051 Z2 I-9.045889 J-2.814320
G00 Z0.000000

(End cutting path id: path11)


(Start cutting path id: path11)
(Change tool to Default tool)

G00 Z0.000000
G00 X39.268748 Y98.743754

G01 Z2 F100.0(Penetrate)
G03 X39.383956 Y98.063590 Z2 I2.847017 J0.132394 F75.000000
G03 X39.794046 Y97.501455 Z2 I0.996695 J0.296460
G03 X41.085342 Y97.046439 Z2 I1.498854 J2.193815
G02 X42.445832 Y96.862509 Z2 I-0.954981 J-12.187387
G02 X44.634888 Y96.359422 Z2 I-6.020902 J-31.212525
G03 X46.639581 Y96.075004 Z2 I2.178772 J8.149721
G00 Z0.000000

(End cutting path id: path11)


(Start cutting path id: path11)
(Change tool to Default tool)

G00 Z0.000000
G00 X36.599998 Y100.650003

G01 Z2 F100.0(Penetrate)
G01 X36.727082 Y100.650003 Z2 F75.000000
G00 Z0.000000

(End cutting path id: path11)


(Footer)
M5
M2
(Using default footer. To add your own footer create file "footer" in the output dir.)
(end)
%