%
(Header)
(Generated by gcodetools from Inkscape.)
(Using default header. To add your own header create file "header" in the output dir.)
M3
(Header end.)
G21 (All units in mm)

(Start cutting path id: path9)
(Change tool to Default tool)

G00 Z0.000000
G00 X146.527080 Y133.437502

G01 Z2 F100.0(Penetrate)
G02 X148.369243 Y133.414848 Z2 I-0.000000 J-74.910602 F75.000000
G03 X152.372910 Y133.600867 Z2 I0.694462 J28.231394
G03 X153.814670 Y133.774496 Z2 I-35.404493 J300.060895
G02 X155.166880 Y133.470254 Z2 I0.250893 J-2.041987
G02 X155.666612 Y133.027560 Z2 I-1.121102 J-1.768953
G02 X156.031750 Y132.547919 Z2 I-6.647770 J-5.439584
G02 X156.527233 Y131.804449 Z2 I-13.151973 J-9.301937
G03 X157.032630 Y131.022919 Z2 I28.325082 J17.762965
G02 X159.469811 Y127.230321 Z2 I-111.695247 J-74.456436
G03 X162.031240 Y123.525002 Z2 I37.951108 J23.497011
G00 Z0.000000

(End cutting path id: path9)


(Start cutting path id: path9)
(Change tool to Default tool)

G00 Z0.000000
G00 X156.566660 Y111.452086

G01 Z2 F100.0(Penetrate)
G02 X157.408416 Y110.320481 Z2 I-31.895475 J-24.604672 F75.000000
G02 X157.710410 Y109.800003 Z2 I-2.542932 J-1.823319
G00 Z0.000000

(End cutting path id: path9)


(Start cutting path id: path9)
(Change tool to Default tool)

G00 Z0.000000
G00 X146.527080 Y112.977086

G01 Z2 F100.0(Penetrate)
G01 X147.165630 Y112.977086 Z2 F75.000000
G01 X148.941660 Y112.977086 Z2
G01 X153.389580 Y112.977086 Z2
G01 X155.780720 Y113.307934 Z2
G01 X157.292290 Y115.264586 Z2
G01 X160.178920 Y119.204169 Z2
G01 X161.673430 Y121.182394 Z2
G01 X162.412490 Y121.499416 Z2
G01 X164.572910 Y121.618753 Z2
G01 X169.783330 Y121.618753 Z2
G01 X171.915310 Y121.488237 Z2
G01 X172.859800 Y120.215835 Z2
G01 X176.264580 Y113.866670 Z2
G00 Z0.000000

(End cutting path id: path9)


(Start cutting path id: path9)
(Change tool to Default tool)

G00 Z0.000000
G00 X176.899990 Y112.341670

G01 Z2 F100.0(Penetrate)
G03 X175.910656 Y110.481040 Z2 I2344.284630 J-1247.695762 F75.000000
G03 X175.629160 Y109.800003 Z2 I3.382317 J-1.796724
G00 Z0.000000

(End cutting path id: path9)


(Start cutting path id: path9)
(Change tool to Default tool)

G00 Z0.000000
G00 X146.399990 Y112.977086

G01 Z2 F100.0(Penetrate)
G01 X146.527080 Y112.977086 Z2 F75.000000
G00 Z0.000000

(End cutting path id: path9)


(Start cutting path id: path9)
(Change tool to Default tool)

G00 Z0.000000
G00 X146.399990 Y133.437502

G01 Z2 F100.0(Penetrate)
G01 X146.527080 Y133.437502 Z2 F75.000000
G00 Z0.000000

(End cutting path id: path9)


(Footer)
M5
M2
(Using default footer. To add your own footer create file "footer" in the output dir.)
(end)
%