%
(Header)
(Generated by gcodetools from Inkscape.)
(Using default header. To add your own header create file "header" in the output dir.)
M3
(Header end.)
G21 (All units in mm)

(Start cutting path id: path12)
(Change tool to Default tool)

G00 Z0.000000
G00 X85.908330 Y109.672920

G01 Z2 F100.0(Penetrate)
G03 X86.358424 Y109.315930 Z2 I5.235033 J6.138104 F75.000000
G02 X86.919995 Y108.890710 Z2 I-15.878758 J-21.553886
G02 X87.141120 Y108.712095 Z2 I-4.794254 J-6.161486
G02 X87.644253 Y108.142917 Z2 I-1.640970 J-1.957521
G03 X88.700426 Y106.739075 Z2 I10.485636 J6.789586
G02 X89.258584 Y106.087524 Z2 I-46.084725 J-40.043835
G02 X89.655196 Y105.407743 Z2 I-1.744843 J-1.473603
G03 X90.169348 Y104.661267 Z2 I1.730088 J0.641332
G03 X91.083191 Y104.277282 Z2 I1.033000 J1.179012
G03 X92.135413 Y104.213338 Z2 I2.602882 J34.142294
G02 X93.004663 Y104.135352 Z2 I-0.447438 J-9.870657
G03 X93.747587 Y104.322377 Z2 I0.137522 J1.022797
G03 X94.292442 Y105.471499 Z2 I-0.776436 J1.071879
G02 X94.430365 Y106.749906 Z2 I3.887318 J0.227255
G02 X94.774894 Y107.350345 Z2 I1.359917 J-0.381250
G03 X95.390158 Y108.032211 Z2 I-9.591172 J9.272856
G03 X95.918311 Y108.758953 Z2 I-4.829207 J4.064870
G02 X96.215415 Y109.070352 Z2 I0.898583 J-0.559900
G02 X97.240526 Y109.447149 Z2 I1.244365 J-1.802558
G02 X98.616663 Y109.545836 Z2 I2.408253 J-23.937692
G00 Z0.000000

(End cutting path id: path12)


(Start cutting path id: path12)
(Change tool to Default tool)

G00 Z0.000000
G00 X98.743746 Y109.672920

G01 Z2 F100.0(Penetrate)
G01 X98.616663 Y109.545836 Z2 F75.000000
G00 Z0.000000

(End cutting path id: path12)


(Start cutting path id: path12)
(Change tool to Default tool)

G00 Z0.000000
G00 X95.312496 Y107.766670

G01 Z2 F100.0(Penetrate)
G02 X95.548041 Y107.433580 Z2 I-1.803189 J-1.524955 F75.000000
G02 X95.766799 Y106.368753 Z2 I-1.463417 J-0.855528
G03 X95.653883 Y105.258263 Z2 I24.673285 J-3.069800
G03 X95.934381 Y104.222163 Z2 I1.589655 J-0.125660
G03 X96.861251 Y103.671623 Z2 I1.068179 J0.742855
G02 X97.854163 Y103.393278 Z2 I-0.341965 J-3.129991
G02 X99.330913 Y102.121153 Z2 I-1.530844 J-3.270292
G02 X99.992907 Y100.268753 Z2 I-3.402212 J-2.260340
G02 X99.920126 Y98.964907 Z2 I-4.186885 J-0.420240
G02 X99.615679 Y97.981254 Z2 I-5.689141 J1.221884
G01 X99.370142 Y96.978413 Z2
G01 X99.768355 Y96.543133 Z2
G03 X100.213419 Y96.321129 Z2 I7.136998 J13.750817
G02 X101.031150 Y95.783966 Z2 I-1.575060 J-3.288740
G02 X101.513077 Y95.330176 Z2 I-5.491716 J-6.315025
G02 X101.807870 Y94.804170 Z2 I-0.821421 J-0.805964
G02 X101.835654 Y94.206123 Z2 I-1.467399 J-0.367842
G03 X101.793970 Y93.660420 Z2 I3.537645 J-0.544672
G03 X101.964093 Y92.351750 Z2 I5.123516 J0.000649
G03 X102.352120 Y91.378509 Z2 I4.197239 J1.109447
G03 X102.910769 Y90.882034 Z2 I0.972429 J0.531664
G03 X103.572940 Y90.736327 Z2 I0.765846 J1.902935
G02 X104.077657 Y90.710577 Z2 I-30.320754 J-599.256987
G03 X104.716690 Y90.805847 Z2 I0.083788 J1.628800
G03 X105.319008 Y91.115321 Z2 I-0.908388 J2.508832
G02 X105.860440 Y91.382036 Z2 I1.189420 J-1.731615
G02 X106.491856 Y91.570487 Z2 I4.319515 J-13.320802
G03 X107.131280 Y91.749264 Z2 I-14.288271 J52.336965
G02 X109.079920 Y92.188997 Z2 I4.840523 J-16.912886
G02 X109.672940 Y92.262500 Z2 I1.174832 J-7.049527
G00 Z0.000000

(End cutting path id: path12)


(Start cutting path id: path12)
(Change tool to Default tool)

G00 Z0.000000
G00 X107.766660 Y88.322921

G01 Z2 F100.0(Penetrate)
G02 X109.188357 Y88.280705 Z2 I0.000000 J-23.959946 F75.000000
G02 X109.672910 Y88.195837 Z2 I-0.128283 J-2.158148
G00 Z0.000000

(End cutting path id: path12)


(Start cutting path id: path12)
(Change tool to Default tool)

G00 Z0.000000
G00 X108.910410 Y84.510428

G01 Z2 F100.0(Penetrate)
G02 X107.893487 Y83.820173 Z2 I-2.329528 J2.337771 F75.000000
G02 X106.495830 Y83.620844 Z2 I-1.062656 J2.451423
G00 Z0.000000

(End cutting path id: path12)


(Start cutting path id: path12)
(Change tool to Default tool)

G00 Z0.000000
G00 X106.495830 Y85.908340

G01 Z2 F100.0(Penetrate)
G02 X107.877899 Y85.406798 Z2 I-0.826157 J-4.431605 F75.000000
G02 X108.783130 Y84.799989 Z2 I-3.398553 J-6.048534
G01 X109.034360 Y84.640548 Z2
G01 X109.271270 Y84.550828 Z2
G01 X109.672910 Y84.510428 Z2
G00 Z0.000000

(End cutting path id: path12)


(Start cutting path id: path12)
(Change tool to Default tool)

G00 Z0.000000
G00 X104.462500 Y80.825000

G01 Z2 F100.0(Penetrate)
G01 X103.793940 Y80.087410 Z2 F75.000000
G01 X102.810410 Y80.060610 Z2
G03 X102.098621 Y80.038342 Z2 I-0.147163 J-6.683029
G03 X101.417990 Y79.767910 Z2 I0.106868 J-1.260703
G03 X100.669386 Y78.716394 Z2 I1.451797 J-1.825809
G03 X100.334050 Y77.520810 Z2 I9.030000 J-3.177545
G01 X100.138230 Y76.658290 Z2
G01 X99.379066 Y76.092490 Z2
G02 X98.713472 Y75.806600 Z2 I-2.672392 J5.303975
G02 X98.108820 Y75.677900 Z2 I-0.776249 J2.162213
G01 X96.832495 Y76.378430 Z2
G03 X96.027984 Y76.893197 Z2 I-18.308769 J-27.728058
G02 X95.693746 Y77.139560 Z2 I1.362620 J2.198564
G00 Z0.000000

(End cutting path id: path12)


(Start cutting path id: path12)
(Change tool to Default tool)

G00 Z0.000000
G00 X100.141660 Y74.725000

G01 Z2 F100.0(Penetrate)
G02 X100.569768 Y73.545754 Z2 I-14.161481 J-5.808450 F75.000000
G02 X100.650000 Y73.200000 Z2 I-2.137198 J-0.678122
G00 Z0.000000

(End cutting path id: path12)


(Start cutting path id: path12)
(Change tool to Default tool)

G00 Z0.000000
G00 X102.047910 Y73.200000

G01 Z2 F100.0(Penetrate)
G01 X104.335410 Y73.200000 Z2 F75.000000
G00 Z0.000000

(End cutting path id: path12)


(Start cutting path id: path12)
(Change tool to Default tool)

G00 Z0.000000
G00 X101.920830 Y75.106220

G01 Z2 F100.0(Penetrate)
G03 X102.530798 Y74.871189 Z2 I6.286950 J15.407247 F75.000000
G02 X103.062620 Y74.643980 Z2 I-1.774781 J-4.890208
G02 X103.372701 Y74.441208 Z2 I-0.688272 J-1.390987
G02 X103.712640 Y74.084070 Z2 I-1.428064 J-1.699645
G01 X104.718530 Y73.218800 Z2
G03 X106.042655 Y73.152916 Z2 I0.964016 J6.035703
G02 X107.639580 Y73.200000 Z2 I1.596925 J-27.057796
G00 Z0.000000

(End cutting path id: path12)


(Start cutting path id: path12)
(Change tool to Default tool)

G00 Z0.000000
G00 X104.843750 Y90.737504

G01 Z2 F100.0(Penetrate)
G02 X105.221810 Y90.193367 Z2 I-2.342766 J-2.031130 F75.000000
G02 X105.746170 Y88.831254 Z2 I-4.840158 J-2.645257
G02 X105.853583 Y88.241641 Z2 I-5.339715 J-1.277353
G02 X105.783670 Y87.709567 Z2 I-1.050362 J-0.132616
G02 X105.387619 Y87.213482 Z2 I-1.039153 J0.423473
G03 X104.843790 Y86.812138 Z2 I7.602569 J-10.870765
G03 X104.026686 Y85.979950 Z2 I2.694371 J-3.462773
G03 X103.596880 Y84.891671 Z2 I1.775879 J-1.330382
G03 X103.951880 Y83.577344 Z2 I1.856221 J-0.203741
G02 X104.517940 Y82.477090 Z2 I-3.087950 J-2.284432
G02 X104.578606 Y81.584128 Z2 I-1.751188 J-0.567515
G03 X104.462540 Y80.825000 Z2 I14.533643 J-2.610550
G02 X104.900143 Y80.724369 Z2 I-2.377721 J-11.341585
G02 X105.479200 Y80.500430 Z2 I-0.611673 J-2.442274
G02 X107.103649 Y79.259914 Z2 I-3.041804 J-5.667089
G03 X108.783170 Y78.151940 Z2 I3.220899 J3.055458
G03 X109.465652 Y77.956396 Z2 I1.633361 J4.411937
G02 X109.672950 Y77.902090 Z2 I-0.411189 J-1.992418
G00 Z0.000000

(End cutting path id: path12)


(Start cutting path id: path12)
(Change tool to Default tool)

G00 Z0.000000
G00 X102.429163 Y97.091670

G01 Z2 F100.0(Penetrate)
G01 X104.843753 Y99.679816 Z2 F75.000000
G01 X106.038003 Y100.455651 Z2
G01 X106.300103 Y101.285420 Z2
G01 X106.785393 Y102.417698 Z2
G01 X109.034363 Y103.867291 Z2
G01 X109.672913 Y103.954171 Z2
G00 Z0.000000

(End cutting path id: path12)


(Start cutting path id: path12)
(Change tool to Default tool)

G00 Z0.000000
G00 X109.672940 Y106.749999

G01 Z2 F100.0(Penetrate)
G01 X109.672940 Y104.843749 Z2 F75.000000
G01 X109.633040 Y103.064583 Z2
G01 X109.012040 Y102.047916 Z2
G01 X107.776900 Y100.529878 Z2
G01 X106.913690 Y99.800620 Z2
G01 X106.224150 Y98.743750 Z2
G01 X103.827120 Y96.202083 Z2
G00 Z0.000000

(End cutting path id: path12)


(Start cutting path id: path12)
(Change tool to Default tool)

G00 Z0.000000
G00 X106.114580 Y100.395837

G01 Z2 F100.0(Penetrate)
G01 X106.750000 Y99.760420 Z2 F75.000000
G00 Z0.000000

(End cutting path id: path12)


(Start cutting path id: path12)
(Change tool to Default tool)

G00 Z0.000000
G00 X89.720830 Y100.777087

G01 Z2 F100.0(Penetrate)
G03 X92.194788 Y101.031202 Z2 I-4.145237 J52.526045 F75.000000
G02 X94.549996 Y100.904170 Z2 I0.828247 J-6.540683
G00 Z0.000000

(End cutting path id: path12)


(Start cutting path id: path12)
(Change tool to Default tool)

G00 Z0.000000
G00 X88.068746 Y106.622920

G01 Z2 F100.0(Penetrate)
G03 X88.073166 Y106.354722 Z2 I8.138995 J-0.000000 F75.000000
G02 X88.057276 Y105.606253 Z2 I-6.907786 J-0.227750
G02 X87.929514 Y104.979753 Z2 I-2.541404 J0.191991
G02 X87.425979 Y104.297667 Z2 I-1.320175 J0.447685
G02 X84.962191 Y103.408300 Z2 I-2.781430 J3.847954
G03 X82.804009 Y101.666670 Z2 I0.161464 J-2.408077
G03 X82.720111 Y100.203344 Z2 I3.191995 J-0.917078
G03 X83.292829 Y98.870934 Z2 I3.000104 J0.500261
G03 X84.571726 Y97.621672 Z2 I4.760334 J3.594009
G02 X85.145833 Y95.947920 Z2 I-0.892357 J-1.241421
G00 Z0.000000

(End cutting path id: path12)


(Start cutting path id: path12)
(Change tool to Default tool)

G00 Z0.000000
G00 X82.222913 Y94.422920

G01 Z2 F100.0(Penetrate)
G02 X81.041685 Y93.469809 Z2 I-6.214196 J6.492976 F75.000000
G03 X80.247042 Y92.135420 Z2 I1.022458 J-1.512688
G01 X80.621624 Y91.118754 Z2
G02 X81.013464 Y90.395845 Z2 I-5.483448 J-3.439857
G02 X81.206247 Y89.975004 Z2 I-58.564016 J-27.082133
G02 X80.604023 Y89.813652 Z2 I-0.658578 J1.253512
G02 X79.681247 Y89.881064 Z2 I-0.163665 J4.109096
G02 X75.476800 Y90.897546 Z2 I7.747351 J41.248773
G02 X73.327080 Y91.627087 Z2 I8.418854 J28.339651
G00 Z0.000000

(End cutting path id: path12)


(Start cutting path id: path12)
(Change tool to Default tool)

G00 Z0.000000
G00 X73.199997 Y91.627087

G01 Z2 F100.0(Penetrate)
G01 X73.327080 Y91.627087 Z2 F75.000000
G00 Z0.000000

(End cutting path id: path12)


(Start cutting path id: path12)
(Change tool to Default tool)

G00 Z0.000000
G00 X73.199997 Y87.941671

G01 Z2 F100.0(Penetrate)
G03 X73.385200 Y87.941300 Z2 I0.121929 J14.648377 F75.000000
G02 X73.838551 Y87.920101 Z2 I0.019210 J-4.447320
G03 X75.467669 Y87.856917 Z2 I1.349229 J13.754230
G02 X77.520830 Y87.741438 Z2 I0.272683 J-13.461656
G01 X78.791663 Y87.052090 Z2
G00 Z0.000000

(End cutting path id: path12)


(Start cutting path id: path12)
(Change tool to Default tool)

G00 Z0.000000
G00 X81.333330 Y89.720837

G01 Z2 F100.0(Penetrate)
G02 X81.284824 Y88.737678 Z2 I-10.010441 J0.001105 F75.000000
G02 X80.062007 Y87.176425 Z2 I-1.840227 J0.181819
G02 X79.661677 Y87.072160 Z2 I-0.807638 J2.280282
G03 X79.057303 Y86.870386 Z2 I0.351867 J-2.059977
G03 X78.479700 Y86.243110 Z2 I0.566848 J-1.101530
G03 X78.283428 Y85.272921 Z2 I2.380809 J-0.986593
G01 X78.487095 Y84.040624 Z2
G03 X79.761362 Y83.221293 Z2 I1.888680 J1.536806
G02 X81.123289 Y82.326570 Z2 I-0.641663 J-2.460635
G02 X81.420917 Y81.606644 Z2 I-1.144920 J-0.894812
G02 X81.458550 Y80.825000 Z2 I-5.359625 J-0.649769
G02 X81.311624 Y79.914563 Z2 I-3.410487 J0.083311
G03 X81.079163 Y79.045840 Z2 I12.611070 J-3.840045
G03 X80.452340 Y79.020438 Z2 I-0.217221 J-2.386322
G03 X79.808330 Y78.849620 Z2 I0.651738 J-3.756566
G03 X75.501535 Y76.843966 Z2 I9.074523 J-25.112841
G02 X73.327080 Y76.250000 Z2 I-2.211497 J3.818867
G00 Z0.000000

(End cutting path id: path12)


(Start cutting path id: path12)
(Change tool to Default tool)

G00 Z0.000000
G00 X74.216664 Y73.200000

G01 Z2 F100.0(Penetrate)
G01 X76.631247 Y73.200000 Z2 F75.000000
G02 X77.573387 Y73.176188 Z2 I0.000000 J-18.650530
G03 X78.410413 Y73.218800 Z2 I0.209120 J4.134448
G03 X79.018022 Y73.466445 Z2 I-0.213910 J1.394060
G02 X79.554163 Y73.771260 Z2 I1.716781 J-2.395737
G03 X80.701713 Y74.402436 Z2 I-2.895276 J6.622721
G02 X82.095830 Y74.850100 Z2 I1.467123 J-2.174305
G02 X82.812271 Y74.787559 Z2 I0.087419 J-3.133422
G03 X83.493256 Y74.784000 Z2 I0.349416 J1.705847
G03 X84.069285 Y75.097089 Z2 I-0.207065 J1.067406
G03 X84.595626 Y75.741730 Z2 I-3.660255 J3.525743
G03 X84.880303 Y76.310890 Z2 I-1.892435 J1.302313
G02 X85.210646 Y76.808700 Z2 I1.096907 J-0.369388
G01 X86.416663 Y77.015990 Z2
G03 X87.086198 Y77.408525 Z2 I-0.306230 J1.289596
G02 X87.560413 Y77.902050 Z2 I11.427406 J-10.505699
G02 X85.365041 Y79.643462 Z2 I10.171415 J15.077493
G02 X83.628381 Y81.841630 Z2 I6.191195 J6.676453
G02 X82.711894 Y85.109440 Z2 I6.196553 J3.500303
G02 X83.097886 Y88.449964 Z2 I11.418190 J0.373210
G02 X85.812451 Y92.497560 Z2 I7.304280 J-1.964621
G02 X90.229163 Y94.432588 Z2 I6.177529 J-8.092146
G02 X95.305484 Y93.922981 Z2 I1.631214 J-9.289121
G02 X99.421230 Y90.864547 Z2 I-3.574054 J-9.108123
G02 X101.187095 Y86.255243 Z2 I-6.548187 J-5.151580
G02 X100.063410 Y81.460380 Z2 I-8.442270 J-0.550638
G02 X98.573254 Y79.587967 Z2 I-7.082039 J4.107048
G02 X96.710510 Y78.156120 Z2 I-8.321892 J8.898689
G03 X95.918896 Y77.509961 Z2 I2.159032 J-3.453031
G02 X95.057839 Y77.019920 Z2 I-1.242813 J1.182255
G02 X94.207449 Y76.837468 Z2 I-7.318906 J32.039643
G02 X93.533329 Y76.786730 Z2 I-0.542286 J2.701331
G02 X92.947614 Y76.829248 Z2 I0.571695 J11.931035
G03 X92.135413 Y76.896760 Z2 I-2.796930 J-28.729097
G02 X90.084022 Y77.244128 Z2 I0.724170 J10.507555
G03 X88.207793 Y77.641700 Z2 I-4.369747 J-15.995847
G01 X87.485398 Y77.157400 Z2
G01 X87.179163 Y76.758300 Z2
G03 X87.805801 Y76.222144 Z2 I7.622073 J8.274103
G02 X88.355762 Y75.612690 Z2 I-1.548439 J-1.950150
G01 X88.987355 Y74.365970 Z2
G03 X90.625877 Y73.822889 Z2 I1.933551 J3.090372
G03 X92.235432 Y74.292870 Z2 I0.190031 J2.340331
G03 X92.749260 Y74.927870 Z2 I-1.033229 J1.361455
G02 X93.090205 Y75.614400 Z2 I15.820699 J-7.428964
G03 X93.395523 Y76.229524 Z2 I-13.733273 J7.199878
G02 X93.533329 Y76.504180 Z2 I5.258033 J-2.466263
G00 Z0.000000

(End cutting path id: path12)


(Start cutting path id: path12)
(Change tool to Default tool)

G00 Z0.000000
G00 X87.687496 Y77.902060

G01 Z2 F100.0(Penetrate)
G01 X87.814580 Y77.774970 Z2 F75.000000
G00 Z0.000000

(End cutting path id: path12)


(Start cutting path id: path12)
(Change tool to Default tool)

G00 Z0.000000
G00 X86.797913 Y76.758310

G01 Z2 F100.0(Penetrate)
G01 X87.179163 Y76.758310 Z2 F75.000000
G00 Z0.000000

(End cutting path id: path12)


(Start cutting path id: path12)
(Change tool to Default tool)

G00 Z0.000000
G00 X83.366663 Y74.597920

G01 Z2 F100.0(Penetrate)
G03 X83.202298 Y73.606496 Z2 I25.501204 J-4.737099 F75.000000
G02 X83.112497 Y73.200000 Z2 I-2.843249 J0.414948
G00 Z0.000000

(End cutting path id: path12)


(Start cutting path id: path12)
(Change tool to Default tool)

G00 Z0.000000
G00 X84.383330 Y73.200000

G01 Z2 F100.0(Penetrate)
G01 X85.272913 Y73.200000 Z2 F75.000000
G00 Z0.000000

(End cutting path id: path12)


(Start cutting path id: path12)
(Change tool to Default tool)

G00 Z0.000000
G00 X81.206247 Y78.918720

G01 Z2 F100.0(Penetrate)
G03 X81.640723 Y77.642992 Z2 I8.106721 J2.049065 F75.000000
G03 X82.490808 Y76.783510 Z2 I1.529811 J0.662949
G01 X83.874997 Y77.001100 Z2
G02 X84.695608 Y77.044223 Z2 I0.497363 J-1.635102
G02 X85.145830 Y76.885390 Z2 I-0.304392 J-1.580326
G00 Z0.000000

(End cutting path id: path12)


(Start cutting path id: path12)
(Change tool to Default tool)

G00 Z0.000000
G00 X79.808330 Y83.112511

G01 Z2 F100.0(Penetrate)
G02 X79.476226 Y82.596264 Z2 I-12.718777 J7.817096 F75.000000
G02 X78.791075 Y82.069077 Z2 I-1.130727 J0.760715
G02 X77.781740 Y81.769087 Z2 I-3.897436 J11.265198
G02 X76.758330 Y81.556327 Z2 I-3.186885 J12.761648
G02 X76.175610 Y81.484853 Z2 I-1.116622 J6.692582
G02 X75.614580 Y81.460427 Z2 I-0.626770 J7.940603
G03 X75.534480 Y82.652014 Z2 I-8.991871 J-0.005957
G02 X75.487497 Y83.875011 Z2 I6.381758 J0.857566
G01 X75.868747 Y84.002094 Z2
G00 Z0.000000

(End cutting path id: path12)


(Start cutting path id: path12)
(Change tool to Default tool)

G00 Z0.000000
G00 X75.614580 Y81.460427

G01 Z2 F100.0(Penetrate)
G02 X74.213380 Y80.639387 Z2 I-4.346349 J5.811369 F75.000000
G02 X73.327080 Y80.316677 Z2 I-2.787783 J6.278023
G00 Z0.000000

(End cutting path id: path12)


(Start cutting path id: path12)
(Change tool to Default tool)

G00 Z0.000000
G00 X73.199997 Y80.316640

G01 Z2 F100.0(Penetrate)
G01 X73.327080 Y80.316640 Z2 F75.000000
G00 Z0.000000

(End cutting path id: path12)


(Start cutting path id: path12)
(Change tool to Default tool)

G00 Z0.000000
G00 X73.327080 Y83.620844

G01 Z2 F100.0(Penetrate)
G01 X75.360414 Y83.747928 Z2 F75.000000
G00 Z0.000000

(End cutting path id: path12)


(Start cutting path id: path12)
(Change tool to Default tool)

G00 Z0.000000
G00 X73.327080 Y85.908340

G01 Z2 F100.0(Penetrate)
G01 X75.741664 Y85.908340 Z2 F75.000000
G00 Z0.000000

(End cutting path id: path12)


(Start cutting path id: path12)
(Change tool to Default tool)

G00 Z0.000000
G00 X73.199997 Y101.793753

G01 Z2 F100.0(Penetrate)
G02 X74.242182 Y100.970465 Z2 I-1.732332 J-3.264211 F75.000000
G03 X75.614580 Y99.506253 Z2 I23.905512 J21.031237
G02 X76.167024 Y98.932689 Z2 I-15.726003 J-15.699750
G03 X76.685179 Y98.384076 Z2 I33.994356 J31.588085
G03 X77.090631 Y97.995051 Z2 I4.934692 J4.737267
G02 X77.509554 Y97.595003 Z2 I-4.954705 J-5.607843
G02 X77.904721 Y97.154194 Z2 I-5.469976 J-5.301133
G03 X78.294705 Y96.710420 Z2 I7.847474 J6.503041
G03 X79.219638 Y95.730538 Z2 I74.702013 J69.586452
G03 X80.189580 Y94.804170 Z2 I10.722147 J10.255524
G00 Z0.000000

(End cutting path id: path12)


(Start cutting path id: path12)
(Change tool to Default tool)

G00 Z0.000000
G00 X73.200000 Y103.700004

G01 Z2 F100.0(Penetrate)
G03 X73.407735 Y103.619326 Z2 I1.225437 J2.847536 F75.000000
G03 X74.089779 Y103.389847 Z2 I11.893476 J34.220851
G02 X75.285977 Y102.324164 Z2 I-0.617432 J-1.897239
G03 X76.166160 Y100.904171 Z2 I6.091177 J2.792830
G03 X78.332667 Y98.758884 Z2 I10.755509 J8.695287
G02 X80.698406 Y96.783573 Z2 I-37.280853 J-47.053875
G02 X81.212030 Y96.317641 Z2 I-14.891740 J-16.932101
G02 X81.670849 Y95.820838 Z2 I-3.167373 J-3.385476
G02 X81.876769 Y95.522051 Z2 I-2.051286 J-1.634074
G02 X82.036115 Y95.185518 Z2 I-1.744579 J-1.032035
G01 X82.506108 Y94.372422 Z2
G03 X83.084074 Y94.234797 Z2 I0.638334 J1.398314
G02 X83.747916 Y94.190328 Z2 I-0.473357 J-12.043583
G03 X86.147501 Y94.539238 Z2 I0.483459 J5.100954
G03 X88.095519 Y96.075005 Z2 I-1.653482 J4.100679
G03 X88.832738 Y97.537658 Z2 I-4.406036 J3.137886
G02 X90.102083 Y98.580390 Z2 I1.451271 J-0.472700
G02 X90.664300 Y98.615312 Z2 I0.584796 J-4.871734
G02 X91.245833 Y98.616670 Z2 I0.590516 J-128.321967
G03 X92.359912 Y98.655037 Z2 I-0.001057 J16.224736
G02 X93.342806 Y98.297197 Z2 I0.088565 J-1.285533
G02 X94.037534 Y97.016136 Z2 I-1.674551 J-1.737029
G03 X95.058429 Y95.784065 Z2 I1.633248 J0.314319
G03 X96.872902 Y95.256400 Z2 I3.704492 J9.355038
G03 X98.436434 Y95.734055 Z2 I0.329069 J1.720664
G03 X98.840581 Y96.302592 Z2 I-1.445294 J1.455307
G02 X99.124999 Y96.710420 Z2 I1.390854 J-0.666887
G00 Z0.000000

(End cutting path id: path12)


(Footer)
M5
M2
(Using default footer. To add your own footer create file "footer" in the output dir.)
(end)
%