%
(Header)
(Generated by gcodetools from Inkscape.)
(Using default header. To add your own header create file "header" in the output dir.)
M3
(Header end.)
G21 (All units in mm)

(Start cutting path id: path14)
(Change tool to Default tool)

G00 Z0.000000
G00 X158.472910 Y109.164586

G01 Z2 F100.0(Penetrate)
G03 X160.103405 Y107.169098 Z2 I26.224557 J19.763977 F75.000000
G02 X161.793550 Y105.225003 Z2 I-111.033765 J-98.236532
G01 X162.566050 Y103.827087 Z2
G02 X162.196012 Y103.127107 Z2 I-1.250843 J0.213449
G03 X161.608120 Y102.429170 Z2 I3.063876 J-3.177355
G02 X160.019746 Y100.148703 Z2 I-96.406420 J65.454916
G03 X158.431040 Y97.854170 Z2 I77.201079 J-55.150310
G02 X157.627185 Y96.703396 Z2 I-30.919271 J20.742038
G03 X157.394370 Y95.439587 Z2 I1.203781 J-0.875105
G03 X158.819872 Y92.287598 Z2 I10.448755 J2.827159
G02 X160.601950 Y89.212504 Z2 I-24.711011 J-16.374446
G03 X161.094433 Y88.323337 Z2 I11.196986 J5.620701
G03 X161.777570 Y87.691033 Z2 I1.450882 J0.882344
G03 X162.618626 Y87.521922 Z2 I0.725207 J1.430737
G02 X163.683330 Y87.560421 Z2 I1.064704 J-14.703311
G03 X166.753094 Y87.615253 Z2 I0.000000 J85.957937
G02 X169.783330 Y87.687995 Z2 I4.618538 J-129.243402
G03 X170.330956 Y87.721955 Z2 I-0.067077 J5.514087
G03 X170.799990 Y87.828413 Z2 I-0.240939 J2.147995
G03 X171.283318 Y88.055449 Z2 I-0.841018 J2.418395
G03 X171.678100 Y88.350084 Z2 I-1.308267 J2.164753
G03 X172.242426 Y88.979984 Z2 I-2.807111 J3.082621
G03 X172.779390 Y89.720837 Z2 I-208.654262 J151.796008
G02 X174.321948 Y91.803763 Z2 I87.291636 J-63.033158
G03 X175.767230 Y93.787504 Z2 I-49.272306 J37.416374
G03 X176.079823 Y94.309088 Z2 I-3.569539 J2.493738
G03 X176.297920 Y94.804170 Z2 I-4.380242 J2.225197
G01 X176.400290 Y95.693754 Z2
G03 X176.014152 Y96.472501 Z2 I-2.918149 J-0.961846
G02 X175.466380 Y97.345837 Z2 I10.104351 J6.946081
G03 X174.134153 Y99.634667 Z2 I-127.989766 J-72.965073
G02 X172.797240 Y101.920837 Z2 I163.716618 J97.272650
G02 X172.421764 Y103.055887 Z2 I2.573176 J1.480840
G03 X171.994140 Y103.823555 Z2 I-1.143630 J-0.134114
G03 X170.818580 Y104.101447 Z2 I-0.883729 J-1.113000
G02 X169.402080 Y103.954170 Z2 I-1.419159 J6.763839
G03 X165.536632 Y103.879526 Z2 I0.039326 J-102.160683
G02 X162.793740 Y103.827087 Z2 I-2.742879 J71.709553
G00 Z0.000000

(End cutting path id: path14)


(Start cutting path id: path14)
(Change tool to Default tool)

G00 Z0.000000
G00 X175.120830 Y109.164586

G01 Z2 F100.0(Penetrate)
G01 X171.943740 Y103.954170 Z2 F75.000000
G00 Z0.000000

(End cutting path id: path14)


(Start cutting path id: path14)
(Change tool to Default tool)

G00 Z0.000000
G00 X171.435410 Y86.416667

G01 Z2 F100.0(Penetrate)
G03 X173.278870 Y82.661163 Z2 I31.263827 J13.016243 F75.000000
G02 X175.279290 Y78.918746 Z2 I-67.681576 J-38.583415
G03 X176.062720 Y77.529121 Z2 I14.359671 J7.179914
G02 X176.691810 Y76.122916 Z2 I-4.589751 J-2.897124
G02 X176.562886 Y74.920240 Z2 I-1.548155 J-0.442290
G02 X176.022370 Y73.963086 Z2 I-21.812085 J11.686346
G03 X175.725117 Y73.400883 Z2 I5.478279 J-3.256211
G02 X175.629160 Y73.199996 Z2 I-11.000522 J5.131213
G00 Z0.000000

(End cutting path id: path14)


(Start cutting path id: path14)
(Change tool to Default tool)

G00 Z0.000000
G00 X159.997910 Y86.925000

G01 Z2 F100.0(Penetrate)
G02 X156.787474 Y81.845560 Z2 I-178.586793 J109.320646 F75.000000
G03 X154.024990 Y76.631246 Z2 I27.251333 J-17.776369
G00 Z0.000000

(End cutting path id: path14)


(Start cutting path id: path14)
(Change tool to Default tool)

G00 Z0.000000
G00 X146.527080 Y74.343746

G01 Z2 F100.0(Penetrate)
G03 X146.708424 Y74.379397 Z2 I-1.613142 J8.684466 F75.000000
G02 X147.165630 Y74.449356 Z2 I0.891169 J-4.295130
G02 X147.808547 Y74.476451 Z2 I0.558869 J-5.619805
G03 X148.560410 Y74.470856 Z2 I0.751863 J50.515563
G03 X150.648430 Y74.505501 Z2 I0.000000 J62.939267
G03 X152.627080 Y74.716586 Z2 I-0.451949 J13.615610
G01 X153.631880 Y74.748886 Z2
G02 X154.574944 Y73.536879 Z2 I-0.892713 J-1.667525
G03 X154.660410 Y73.200056 Z2 I31.966369 J7.931929
G00 Z0.000000

(End cutting path id: path14)


(Start cutting path id: path14)
(Change tool to Default tool)

G00 Z0.000000
G00 X146.399990 Y74.343806

G01 Z2 F100.0(Penetrate)
G01 X146.527080 Y74.343806 Z2 F75.000000
G00 Z0.000000

(End cutting path id: path14)


(Start cutting path id: path14)
(Change tool to Default tool)

G00 Z0.000000
G00 X146.527080 Y101.793753

G01 Z2 F100.0(Penetrate)
G03 X146.726515 Y101.811383 Z2 I-1.218062 J14.916183 F75.000000
G03 X147.165630 Y101.878373 Z2 I-0.372304 J3.913089
G03 X148.178129 Y102.197080 Z2 I-1.131802 J5.363277
G02 X149.565600 Y102.207653 Z2 I0.706441 J-1.661935
G02 X150.404460 Y101.503585 Z2 I-0.673646 J-1.654376
G02 X150.809570 Y100.522916 Z2 I-2.667276 J-1.675850
G03 X151.149610 Y99.161571 Z2 I30.754817 J6.958877
G02 X151.353790 Y97.727083 Z2 I-5.576605 J-1.525528
G02 X150.413831 Y95.139191 Z2 I-3.865044 J-0.060811
G02 X148.538740 Y93.025490 Z2 I-81.477924 J70.391566
G02 X147.855060 Y92.368100 Z2 I-5.298073 J4.825742
G02 X147.165630 Y91.841242 Z2 I-5.939290 J7.057464
G02 X146.727530 Y91.589304 Z2 I-1.722367 J2.488182
G02 X146.527080 Y91.500000 Z2 I-2.429674 J5.183966
G00 Z0.000000

(End cutting path id: path14)


(Start cutting path id: path14)
(Change tool to Default tool)

G00 Z0.000000
G00 X146.399990 Y101.793749

G01 Z2 F100.0(Penetrate)
G01 X146.527080 Y101.793749 Z2 F75.000000
G00 Z0.000000

(End cutting path id: path14)


(Footer)
M5
M2
(Using default footer. To add your own footer create file "footer" in the output dir.)
(end)
%