%
(Header)
(Generated by gcodetools from Inkscape.)
(Using default header. To add your own header create file "header" in the output dir.)
M3
(Header end.)
G21 (All units in mm)

(Start cutting path id: path19)
(Change tool to Default tool)

G00 Z0.000000
G00 X155.422910 Y72.564580

G01 Z2 F100.0(Penetrate)
G02 X157.467485 Y70.103746 Z2 I-51.977673 J-45.265252 F75.000000
G03 X159.464570 Y67.608330 Z2 I257.358166 J203.917218
G03 X160.297324 Y66.704469 Z2 I7.394555 J5.977278
G02 X160.862490 Y65.702080 Z2 I-1.362324 J-1.428623
G02 X160.534648 Y64.342835 Z2 I-1.555550 J-0.343970
G03 X159.577540 Y63.033330 Z2 I10.455683 J-8.646511
G03 X157.217675 Y59.320907 Z2 I361.365777 J-232.314612
G02 X154.875350 Y55.662590 Z2 I-219.078830 J137.691419
G02 X154.422472 Y55.039267 Z2 I-6.400902 J4.174420
G02 X153.895950 Y54.586510 Z2 I-1.494560 J1.205529
G02 X153.354878 Y54.362354 Z2 I-1.091683 J1.870022
G02 X152.754160 Y54.269680 Z2 I-0.744127 J2.830193
G02 X150.789990 Y54.243036 Z2 I-1.357441 J27.657479
G03 X148.814580 Y54.264680 Z2 I-1.975410 J-90.135012
G02 X147.946309 Y54.300047 Z2 I0.000692 J10.692837
G02 X147.165630 Y54.370190 Z2 I3.859396 J47.333875
G03 X146.720583 Y54.391273 Z2 I-0.431751 J-4.406152
G02 X146.527080 Y54.391790 Z2 I-0.051190 J17.045575
G00 Z0.000000

(End cutting path id: path19)


(Start cutting path id: path19)
(Change tool to Default tool)

G00 Z0.000000
G00 X146.399990 Y54.392260

G01 Z2 F100.0(Penetrate)
G01 X146.527080 Y54.392260 Z2 F75.000000
G00 Z0.000000

(End cutting path id: path19)


(Start cutting path id: path19)
(Change tool to Default tool)

G00 Z0.000000
G00 X174.993740 Y72.564710

G01 Z2 F100.0(Penetrate)
G02 X173.333208 Y69.970931 Z2 I-21.906753 J12.196236 F75.000000
G03 X171.583380 Y67.481380 Z2 I67.287278 J-49.153856
G02 X170.600579 Y66.087112 Z2 I-36.029486 J24.353202
G02 X169.147910 Y65.322920 Z2 I-1.511500 J1.110442
G02 X168.404535 Y65.314202 Z2 I-0.593766 J18.932476
G02 X167.622910 Y65.321920 Z2 I1.562817 J197.859082
G02 X163.973142 Y65.471774 Z2 I0.747193 J62.719185
G03 X161.014580 Y65.575600 Z2 I-2.958562 J-42.100725
G00 Z0.000000

(End cutting path id: path19)


(Footer)
M5
M2
(Using default footer. To add your own footer create file "footer" in the output dir.)
(end)
%