%
(Header)
(Generated by gcodetools from Inkscape.)
(Using default header. To add your own header create file "header" in the output dir.)
M3
(Header end.)
G21 (All units in mm)

(Start cutting path id: path7)
(Change tool to Default tool)

G00 Z0.000000
G00 X73.962497 Y115.900003

G01 Z2 F100.0(Penetrate)
G01 X81.206247 Y112.440903 Z2 F75.000000
G01 X85.522079 Y110.430025 Z2
G01 X86.428038 Y109.874722 Z2
G01 X87.814580 Y109.800002 Z2
G00 Z0.000000

(End cutting path id: path7)


(Start cutting path id: path7)
(Change tool to Default tool)

G00 Z0.000000
G00 X96.074996 Y109.800002

G01 Z2 F100.0(Penetrate)
G02 X97.436861 Y109.757865 Z2 I-0.000000 J-22.028992 F75.000000
G03 X98.362496 Y109.840302 Z2 I0.191354 J3.089342
G03 X98.869076 Y110.079385 Z2 I-0.332103 J1.359899
G02 X99.506246 Y110.472581 Z2 I2.509282 J-3.353404
G02 X100.477007 Y110.891937 Z2 I4.251704 J-8.508939
G03 X101.539580 Y111.299600 Z2 I-13.842523 J37.669094
G01 X106.368750 Y113.205850 Z2
G03 X107.626651 Y113.709452 Z2 I-871.794119 J2179.403398
G02 X108.783130 Y114.171529 Z2 I237.513626 J-592.767880
G02 X109.458043 Y114.427143 Z2 I7.810839 J-19.604643
G02 X109.672910 Y114.502082 Z2 I4.109462 J-11.437194
G00 Z0.000000

(End cutting path id: path7)


(Footer)
M5
M2
(Using default footer. To add your own footer create file "footer" in the output dir.)
(end)
%