%
(Header)
(Generated by gcodetools from Inkscape.)
(Using default header. To add your own header create file "header" in the output dir.)
M3
(Header end.)
G21 (All units in mm)

(Start cutting path id: path10)
(Change tool to Default tool)

G00 Z0.000000
G00 X7.879166 Y109.164586

G01 Z2 F100.0(Penetrate)
G02 X6.732762 Y107.360923 Z2 I-16.055106 J8.938432 F75.000000
G03 X5.519103 Y105.606253 Z2 I44.956401 J-32.392216
G03 X5.117294 Y104.769994 Z2 I2.810909 J-1.865261
G03 X5.058818 Y103.827087 Z2 I1.832418 J-0.586906
G03 X5.600115 Y102.435919 Z2 I3.988048 J0.750837
G02 X6.385545 Y101.031253 Z2 I-14.798605 J-9.196682
G01 X8.418878 Y97.091670 Z2
G03 X9.474697 Y95.035669 Z2 I96.467301 J48.239826
G02 X10.420833 Y93.025004 Z2 I-21.699637 J-11.438887
G00 Z0.000000

(End cutting path id: path10)


(Start cutting path id: path10)
(Change tool to Default tool)

G00 Z0.000000
G00 X8.895833 Y73.200000

G01 Z2 F100.0(Penetrate)
G03 X8.842942 Y73.394492 Z2 I-2.816684 J-0.661541 F75.000000
G03 X8.595971 Y73.963090 Z2 I-2.711743 J-0.839912
G02 X8.116819 Y74.854141 Z2 I17.041215 J9.738081
G03 X7.585777 Y75.868750 Z2 I-35.049724 J-17.698597
G03 X6.047694 Y78.147311 Z2 I-12.477592 J-6.764272
G02 X4.920753 Y80.570840 Z2 I4.075471 J3.368872
G02 X5.184221 Y81.657909 Z2 I1.356968 J0.246580
G03 X5.818867 Y82.604170 Z2 I-7.004207 J5.383592
G03 X7.641398 Y85.850045 Z2 I-110.039492 J63.920857
G02 X9.512128 Y89.212504 Z2 I157.841381 J-85.614606
G02 X10.210499 Y90.328385 Z2 I14.022616 J-7.999537
G02 X11.310416 Y91.069137 Z2 I1.482362 J-1.014117
G02 X13.359502 Y91.268187 Z2 I1.865914 J-8.561833
G03 X15.504166 Y91.245837 Z2 I2.138185 J102.266837
G03 X19.446757 Y91.309489 Z2 I-0.007123 J122.614107
G02 X23.383332 Y91.372920 Z2 I3.935927 J-122.122641
G03 X25.505252 Y91.589540 Z2 I0.000000 J10.501027
G02 X27.411757 Y91.169156 Z2 I0.483200 J-2.341949
G02 X28.279081 Y90.035203 Z2 I-1.535663 J-2.073250
G03 X28.880764 Y88.704171 Z2 I13.106260 J5.123073
G03 X30.500240 Y85.654278 Z2 I131.608608 J67.928527
G02 X32.119233 Y82.604170 Z2 I-128.304254 J-70.058420
G02 X32.490193 Y81.804589 Z2 I-9.377009 J-4.836236
G02 X32.708956 Y81.079170 Z2 I-3.516234 J-1.456080
G01 X32.917623 Y80.229990 Z2
G01 X33.931249 Y79.935030 Z2
G02 X35.456076 Y79.847147 Z2 I-0.368470 J-19.665550
G03 X36.260521 Y79.808340 Z2 I0.804445 J8.318375
G01 X36.472915 Y79.808340 Z2
G00 Z0.000000

(End cutting path id: path10)


(Start cutting path id: path10)
(Change tool to Default tool)

G00 Z0.000000
G00 X32.787499 Y80.189590

G01 Z2 F100.0(Penetrate)
G03 X31.647099 Y78.395708 Z2 I4.228571 J-3.947598 F75.000000
G02 X30.468914 Y75.741670 Z2 I-37.132338 J14.895318
G03 X30.022167 Y74.800632 Z2 I43.148394 J-21.060743
G03 X29.680038 Y73.963090 Z2 I9.216290 J-4.253434
G03 X29.522308 Y73.391541 Z2 I3.778303 J-1.350237
G02 X29.483332 Y73.200000 Z2 I-17.655654 J3.492920
G00 Z0.000000

(End cutting path id: path10)


(Start cutting path id: path10)
(Change tool to Default tool)

G00 Z0.000000
G00 X36.472915 Y92.897876

G01 Z2 F100.0(Penetrate)
G02 X36.284013 Y92.953996 Z2 I2.068664 J7.309173 F75.000000
G02 X35.856424 Y93.192443 Z2 I0.354059 J1.137511
G02 X35.379896 Y93.712276 Z2 I2.048278 J2.355978
G02 X34.877020 Y94.422876 Z2 I27.255053 J19.821028
G02 X34.255113 Y95.765583 Z2 I3.619217 J2.491705
G02 X34.058429 Y97.218710 Z2 I5.457677 J1.478584
G02 X34.146027 Y98.341164 Z2 I6.839822 J0.030855
G02 X34.610300 Y99.378636 Z2 I2.178212 J-0.352141
G02 X35.241114 Y99.994733 Z2 I2.960700 J-2.400433
G02 X35.834361 Y100.349118 Z2 I1.776252 J-2.299733
G02 X36.283956 Y100.488601 Z2 I0.810789 J-1.819078
G02 X36.472915 Y100.522876 Z2 I5.936296 J-32.189333
G00 Z0.000000

(End cutting path id: path10)


(Start cutting path id: path10)
(Change tool to Default tool)

G00 Z0.000000
G00 X32.024999 Y104.081209

G01 Z2 F100.0(Penetrate)
G01 X30.404295 Y100.904126 Z2 F75.000000
G01 X26.433332 Y93.152043 Z2
G00 Z0.000000

(End cutting path id: path10)


(Start cutting path id: path10)
(Change tool to Default tool)

G00 Z0.000000
G00 X28.974999 Y109.164586

G01 Z2 F100.0(Penetrate)
G03 X29.824395 Y107.273948 Z2 I34.502847 J14.364769 F75.000000
G03 X30.798880 Y105.479661 Z2 I19.336686 J9.340073
G03 X31.184346 Y104.987257 Z2 I2.250399 J1.364586
G03 X31.644239 Y104.619690 Z2 I1.845769 J1.837907
G03 X32.015101 Y104.432579 Z2 I1.180304 J1.878322
G03 X32.406249 Y104.337576 Z2 I0.544678 J1.389841
G03 X32.899012 Y104.323383 Z2 I0.341803 J3.305720
G02 X33.422915 Y104.335376 Z2 I0.527823 J-11.607908
G03 X35.614786 Y104.426822 Z2 I-0.010196 J26.558603
G02 X36.472915 Y104.462459 Z2 I0.858128 J-10.314039
G00 Z0.000000

(End cutting path id: path10)


(Footer)
M5
M2
(Using default footer. To add your own footer create file "footer" in the output dir.)
(end)
%