%
(Header)
(Generated by gcodetools from Inkscape.)
(Using default header. To add your own header create file "header" in the output dir.)
M3
(Header end.)
G21 (All units in mm)

(Start cutting path id: path8)
(Change tool to Default tool)

G00 Z0.000000
G00 X132.675000 Y124.414586

G01 Z2 F100.0(Penetrate)
G01 X138.647920 Y130.514586 Z2 F75.000000
G01 X141.062500 Y132.981432 Z2
G01 X142.333340 Y133.305418 Z2
G01 X145.509830 Y133.383568 Z2
G01 X146.272920 Y133.437498 Z2
G00 Z0.000000

(End cutting path id: path8)


(Start cutting path id: path8)
(Change tool to Default tool)

G00 Z0.000000
G00 X132.675000 Y122.762503

G01 Z2 F100.0(Penetrate)
G02 X135.359107 Y119.568783 Z2 I-34.981561 J-32.124416 F75.000000
G03 X137.936210 Y116.281253 Z2 I167.853791 J128.927146
G02 X139.131985 Y114.672578 Z2 I-22.048905 J-17.638358
G03 X140.438460 Y113.286363 Z2 I5.175656 J3.569166
G03 X141.102543 Y113.041649 Z2 I0.714191 J0.914685
G03 X141.825000 Y113.067888 Z2 I0.196540 J4.547582
G02 X142.422951 Y113.103313 Z2 I0.611401 J-5.255845
G02 X143.095830 Y113.104168 Z2 I0.672879 J-264.724953
G02 X144.380989 Y113.091863 Z2 I-0.000000 J-67.117840
G02 X145.509830 Y113.013368 Z2 I-0.215575 J-11.256429
G03 X146.086534 Y112.978090 Z2 I0.588950 J4.896372
G02 X146.272920 Y112.977088 Z2 I-0.079978 J-32.208809
G00 Z0.000000

(End cutting path id: path8)


(Start cutting path id: path8)
(Change tool to Default tool)

G00 Z0.000000
G00 X109.800000 Y114.756253

G01 Z2 F100.0(Penetrate)
G01 X110.054170 Y114.756253 Z2 F75.000000
G00 Z0.000000

(End cutting path id: path8)


(Footer)
M5
M2
(Using default footer. To add your own footer create file "footer" in the output dir.)
(end)
%