%
(Header)
(Generated by gcodetools from Inkscape.)
(Using default header. To add your own header create file "header" in the output dir.)
M3
(Header end.)
G21 (All units in mm)

(Start cutting path id: path15)
(Change tool to Default tool)

G00 Z0.000000
G00 X9.404166 Y72.564580

G01 Z2 F100.0(Penetrate)
G02 X10.424733 Y70.713274 Z2 I-200.477627 J-111.723960 F75.000000
G03 X11.950834 Y69.373470 Z2 I2.592006 J1.413365
G03 X12.721643 Y69.264808 Z2 I0.618163 J1.596772
G02 X13.470833 Y69.297770 Z2 I0.738166 J-8.247102
G03 X14.105465 Y69.325847 Z2 I0.009855 J6.963769
G02 X14.741666 Y69.376170 Z2 I2.625721 J-29.148322
G02 X19.167224 Y69.515368 Z2 I4.116079 J-60.442461
G03 X23.637499 Y69.514730 Z2 I2.299394 J450.116219
G02 X25.821216 Y69.408714 Z2 I0.094166 J-20.603532
G03 X27.514130 Y69.718400 Z2 I0.313041 J3.070788
G03 X28.480707 Y70.912832 Z2 I-0.829236 J1.659357
G02 X28.974999 Y72.564630 Z2 I22.300884 J-5.773570
G00 Z0.000000

(End cutting path id: path15)


(Start cutting path id: path15)
(Change tool to Default tool)

G00 Z0.000000
G00 X27.831249 Y69.514630

G01 Z2 F100.0(Penetrate)
G01 X28.325461 Y68.116710 Z2 F75.000000
G01 X32.199641 Y63.033380 Z2
G01 X34.207087 Y60.568400 Z2
G01 X35.709826 Y60.291480 Z2
G01 X36.472915 Y60.237580 Z2
G00 Z0.000000

(End cutting path id: path15)


(Footer)
M5
M2
(Using default footer. To add your own footer create file "footer" in the output dir.)
(end)
%