%
(Header)
(Generated by gcodetools from Inkscape.)
(Using default header. To add your own header create file "header" in the output dir.)
M3
(Header end.)
G21 (All units in mm)

(Start cutting path id: path17)
(Change tool to Default tool)

G00 Z0.000000
G00 X77.393747 Y73.072910

G01 Z2 F100.0(Penetrate)
G02 X74.914040 Y72.452258 Z2 I-8.581532 J29.022081 F75.000000
G03 X73.327080 Y72.056250 Z2 I3.970978 J-19.291053
G00 Z0.000000

(End cutting path id: path17)


(Start cutting path id: path17)
(Change tool to Default tool)

G00 Z0.000000
G00 X73.199997 Y68.243750

G01 Z2 F100.0(Penetrate)
G01 X73.327080 Y68.243750 Z2 F75.000000
G00 Z0.000000

(End cutting path id: path17)


(Start cutting path id: path17)
(Change tool to Default tool)

G00 Z0.000000
G00 X81.587497 Y67.227080

G01 Z2 F100.0(Penetrate)
G03 X81.475540 Y66.417659 Z2 I8.714024 J-1.617757 F75.000000
G02 X81.316660 Y65.066660 Z2 I-26.324143 J2.410922
G02 X81.222063 Y64.539029 Z2 I-7.671165 J1.103040
G03 X81.115935 Y63.922910 Z2 I7.381338 J-1.588653
G03 X81.079936 Y63.376921 Z2 I4.287611 J-0.556880
G03 X81.079165 Y62.779160 Z2 I243.168816 J-0.612482
G02 X81.076963 Y60.949139 Z2 I-802.862854 J0.050978
G03 X81.079263 Y59.093750 Z2 I258.958501 J-0.606706
G03 X81.324364 Y55.346578 Z2 I31.056870 J0.149811
G03 X82.349999 Y51.977080 Z2 I10.346989 J1.308657
G01 X82.624365 Y52.130050 Z2
G02 X83.584152 Y52.320425 Z2 I1.073288 J-2.896446
G02 X84.637498 Y52.341170 Z2 I1.134590 J-30.857000
G03 X85.071555 Y52.349365 Z2 I-0.035377 J13.372883
G02 X85.527082 Y52.336170 Z2 I0.124929 J-3.556695
G03 X86.948705 Y52.251345 Z2 I2.031313 J22.088535
G03 X88.449998 Y52.230760 Z2 I1.497584 J54.464582
G03 X91.747496 Y52.294224 Z2 I-0.005322 J85.982502
G02 X95.058331 Y52.357840 Z2 I3.310678 J-86.123441
G02 X97.082985 Y52.258109 Z2 I-0.000000 J-20.601209
G02 X98.870734 Y51.984340 Z2 I-1.661399 J-16.823186
G02 X99.815612 Y51.260562 Z2 I-0.280218 J-1.344468
G03 X100.268752 Y50.578670 Z2 I3.113028 J1.577202
G00 Z0.000000

(End cutting path id: path17)


(Start cutting path id: path17)
(Change tool to Default tool)

G00 Z0.000000
G00 X91.627080 Y47.529120

G01 Z2 F100.0(Penetrate)
G03 X91.979363 Y47.320574 Z2 I1.338139 J1.858608 F75.000000
G03 X92.643746 Y47.114040 Z2 I1.046298 J2.193891
G03 X94.734892 Y46.942137 Z2 I2.177984 J13.689434
G03 X96.837496 Y47.364290 Z2 I0.033093 J5.282432
G03 X98.220629 Y48.505095 Z2 I-1.240064 J2.912347
G02 X99.136860 Y49.805250 Z2 I33.123971 J-22.369849
G02 X99.764360 Y50.439092 Z2 I2.460131 J-1.807986
G02 X100.141660 Y50.706210 Z2 I4.996260 J-6.657100
G00 Z0.000000

(End cutting path id: path17)


(Start cutting path id: path17)
(Change tool to Default tool)

G00 Z0.000000
G00 X87.179163 Y50.197870

G01 Z2 F100.0(Penetrate)
G01 X93.152079 Y50.070790 Z2 F75.000000
G01 X96.074996 Y49.816620 Z2
G00 Z0.000000

(End cutting path id: path17)


(Start cutting path id: path17)
(Change tool to Default tool)

G00 Z0.000000
G00 X86.543746 Y56.297910

G01 Z2 F100.0(Penetrate)
G03 X88.013718 Y55.847329 Z2 I1.798742 J3.245098 F75.000000
G02 X89.974996 Y55.642790 Z2 I-5.753437 J-64.673868
G03 X93.910187 Y55.344638 Z2 I5.394255 J45.078000
G03 X97.854163 Y55.569890 Z2 I0.712640 J22.162731
G03 X100.202481 Y56.169654 Z2 I-1.704719 J11.571845
G02 X102.047910 Y56.043710 Z2 I0.782452 J-2.118196
G00 Z0.000000

(End cutting path id: path17)


(Start cutting path id: path17)
(Change tool to Default tool)

G00 Z0.000000
G00 X102.683330 Y64.939580

G01 Z2 F100.0(Penetrate)
G02 X103.220259 Y64.818808 Z2 I-0.570453 J-3.790044 F75.000000
G02 X103.827080 Y64.541370 Z2 I-0.712420 J-2.360578
G02 X105.059182 Y63.655989 Z2 I-6.935806 J-10.951905
G02 X106.095850 Y62.513530 Z2 I-3.204347 J-3.949192
G02 X106.823171 Y60.614171 Z2 I-3.904752 J-2.584182
G03 X107.424640 Y58.585410 Z2 I7.424885 J1.097723
G03 X108.862332 Y56.533456 Z2 I6.309123 J2.890826
G03 X109.672910 Y55.916660 Z2 I2.807817 J2.848941
G00 Z0.000000

(End cutting path id: path17)


(Start cutting path id: path17)
(Change tool to Default tool)

G00 Z0.000000
G00 X102.429160 Y67.100000

G01 Z2 F100.0(Penetrate)
G02 X103.112089 Y67.201698 Z2 I0.705027 J-2.390565 F75.000000
G02 X103.954160 Y67.093000 Z2 I0.027513 J-3.102920
G02 X105.517336 Y66.094467 Z2 I-0.819077 J-3.005065
G03 X106.877080 Y64.723920 Z2 I9.075252 J7.643930
G03 X108.867351 Y63.330040 Z2 I8.161034 J9.534990
G03 X109.672910 Y63.033690 Z2 I1.312335 J2.324241
G00 Z0.000000

(End cutting path id: path17)


(Start cutting path id: path17)
(Change tool to Default tool)

G00 Z0.000000
G00 X105.606250 Y73.072910

G01 Z2 F100.0(Penetrate)
G03 X106.435523 Y72.859169 Z2 I1.412779 J3.765729 F75.000000
G02 X107.385410 Y72.547320 Z2 I-0.424647 J-2.896062
G02 X109.142216 Y71.576995 Z2 I-29.835107 J-56.092980
G03 X109.672910 Y71.420830 Z2 I0.592581 J1.033955
G00 Z0.000000

(End cutting path id: path17)


(Start cutting path id: path17)
(Change tool to Default tool)

G00 Z0.000000
G00 X105.479160 Y73.072910

G01 Z2 F100.0(Penetrate)
G01 X105.119190 Y72.309820 Z2 F75.000000
G03 X105.609813 Y71.359820 Z2 I1.708464 J0.280638
G03 X106.622910 Y70.431230 Z2 I12.633245 J12.766000
G03 X107.947860 Y69.704422 Z2 I2.437875 J2.873098
G03 X109.034360 Y69.389360 Z2 I9.495034 J30.712975
G03 X109.470418 Y69.292803 Z2 I1.250052 J4.612423
G03 X109.672910 Y69.260410 Z2 I1.392872 J8.057810
G00 Z0.000000

(End cutting path id: path17)


(Start cutting path id: path17)
(Change tool to Default tool)

G00 Z0.000000
G00 X101.285410 Y72.056240

G01 Z2 F100.0(Penetrate)
G02 X101.609201 Y70.735274 Z2 I-13.151633 J-3.923849 F75.000000
G02 X102.058110 Y68.243740 Z2 I-99.062399 J-19.134667
G03 X102.161578 Y67.685941 Z2 I15.734265 J2.630101
G03 X102.301590 Y67.099990 Z2 I8.849025 J1.804758
G02 X102.396740 Y66.599055 Z2 I-3.069148 J-0.842473
G02 X102.429550 Y66.083320 Z2 I-5.842298 J-0.630586
G03 X102.480106 Y65.519443 Z2 I4.120223 J0.085203
G02 X102.553890 Y64.939570 Z2 I-9.135909 J-1.457105
G02 X102.570240 Y64.318234 Z2 I-4.519592 J-0.429812
G03 X102.555890 Y63.668740 Z2 I16.140495 J-0.681512
G03 X102.587999 Y61.594596 Z2 I65.629457 J-0.021351
G02 X102.482690 Y59.474990 Z2 I-13.120018 J-0.410576
G03 X102.379070 Y58.457978 Z2 I17.453474 J-2.292061
G02 X102.294230 Y57.695820 Z2 I-9.970931 J0.724119
G03 X102.239683 Y57.307240 Z2 I19.782798 J-2.975109
G03 X102.193910 Y56.933320 Z2 I23.804282 J-3.103766
G02 X102.141460 Y56.490262 Z2 I-52.604432 J6.002775
G02 X102.072420 Y56.043740 Z2 I-7.152446 J0.877293
G03 X101.750727 Y53.767851 Z2 I25.506291 J-4.765948
G02 X101.176460 Y51.600920 Z2 I-6.877384 J0.663044
G02 X100.676370 Y50.992033 Z2 I-1.369184 J0.614726
G02 X100.268350 Y50.706240 Z2 I-21.973428 J30.936787
G02 X100.397119 Y50.231175 Z2 I-1.931228 J-0.778456
G02 X100.393470 Y49.435400 Z2 I-2.620097 J-0.385881
G02 X99.985302 Y48.058747 Z2 I-5.355051 J0.838898
G02 X99.290510 Y46.512490 Z2 I-632.030877 J283.066415
G02 X97.485100 Y43.020211 Z2 I-33.445981 J15.077820
G02 X95.255025 Y39.777070 Z2 I-23.712219 J13.916887
G02 X94.602037 Y38.980572 Z2 I-31.677326 J25.303903
G02 X93.913689 Y38.265800 Z2 I-5.658080 J4.760075
G02 X93.402187 Y37.886879 Z2 I-2.153945 J2.372893
G03 X92.924087 Y37.454860 Z2 I0.844899 J-1.415578
G01 X92.005969 Y36.618820 Z2
G02 X91.645843 Y36.594877 Z2 I-0.309093 J1.928732
G03 X91.245430 Y36.600020 Z2 I-0.393792 J-15.067831
G03 X90.615497 Y36.585336 Z2 I0.006217 J-13.785564
G02 X90.113152 Y36.640420 Z2 I-0.075345 J1.631010
G01 X89.105997 Y37.769260 Z2
G03 X88.637105 Y38.213889 Z2 I-3.377471 J-3.092219
G02 X88.185133 Y38.760830 Z2 I1.181129 J1.436259
G03 X87.220471 Y40.161315 Z2 I-7.157957 J-3.897967
G02 X86.175727 Y41.556270 Z2 I10.215900 J8.739847
G02 X85.787789 Y42.248375 Z2 I4.956916 J3.233222
G02 X85.688378 Y42.949080 Z2 I1.071485 J0.509419
G01 X86.047466 Y43.487420 Z2
G02 X86.573998 Y43.779272 Z2 I1.148998 J-1.452026
G02 X87.292118 Y43.766600 Z2 I0.342252 J-0.958840
G01 X88.248675 Y42.360640 Z2
G03 X90.415002 Y41.480499 Z2 I2.012635 J1.847677
G02 X92.897513 Y41.556370 Z2 I2.715269 J-48.192159
G03 X93.561970 Y41.588352 Z2 I-0.031471 J7.572125
G03 X94.156971 Y41.792390 Z2 I-0.122443 J1.326631
G03 X94.615969 Y42.193678 Z2 I-1.100885 J1.722352
G03 X95.009783 Y42.700020 Z2 I-5.877005 J4.977236
G01 X95.412115 Y43.697860 Z2
G01 X94.041263 Y44.097930 Z2
G03 X92.208311 Y44.034757 Z2 I-0.001839 J-26.571407
G02 X90.355846 Y43.970850 Z2 I-1.852407 J26.816505
G02 X89.493381 Y43.972204 Z2 I-0.000001 J274.704179
G03 X88.703763 Y43.970750 Z2 I-0.248862 J-79.264810
G03 X87.918428 Y43.860447 Z2 I0.018977 J-2.985995
G03 X87.560013 Y43.716680 Z2 I0.479200 J-1.713304
G00 Z0.000000

(End cutting path id: path17)


(Start cutting path id: path17)
(Change tool to Default tool)

G00 Z0.000000
G00 X87.941663 Y39.650000

G01 Z2 F100.0(Penetrate)
G02 X88.440942 Y39.989463 Z2 I2.265734 J-2.795520 F75.000000
G02 X89.085413 Y40.131170 Z2 I0.554004 J-0.983208
G02 X89.584947 Y40.063901 Z2 I-0.377778 J-4.693695
G03 X90.102080 Y39.977810 Z2 I2.176342 J11.476753
G03 X91.632616 Y39.910289 Z2 I1.107055 J7.713747
G02 X92.770829 Y39.777080 Z2 I0.183118 J-3.364703
G01 X92.416055 Y39.138620 Z2
G01 X92.375365 Y38.528020 Z2
G01 X93.024999 Y37.743750 Z2
G00 Z0.000000

(End cutting path id: path17)


(Start cutting path id: path17)
(Change tool to Default tool)

G00 Z0.000000
G00 X91.118749 Y38.124920

G01 Z2 F100.0(Penetrate)
G01 X91.118749 Y36.599920 Z2 F75.000000
G00 Z0.000000

(End cutting path id: path17)


(Start cutting path id: path17)
(Change tool to Default tool)

G00 Z0.000000
G00 X89.212499 Y37.870830

G01 Z2 F100.0(Penetrate)
G02 X90.030797 Y38.232011 Z2 I1.093492 J-1.369871 F75.000000
G02 X90.991666 Y38.256000 Z2 I0.570297 J-3.587343
G03 X91.548453 Y38.237863 Z2 I0.398678 J3.683467
G02 X92.135416 Y38.252000 Z2 I0.673340 J-15.764074
G00 Z0.000000

(End cutting path id: path17)


(Start cutting path id: path17)
(Change tool to Default tool)

G00 Z0.000000
G00 X84.510413 Y52.231210

G01 Z2 F100.0(Penetrate)
G03 X84.985931 Y50.451891 Z2 I3.877415 J0.083029 F75.000000
G03 X86.544237 Y48.699550 Z2 I4.590189 J2.512871
G03 X87.780097 Y48.090104 Z2 I2.508208 J3.528459
G03 X89.085413 Y47.710240 Z2 I13.214109 J42.974667
G03 X89.715220 Y47.553534 Z2 I3.547552 J12.913800
G03 X90.356246 Y47.438420 Z2 I1.691880 J7.579048
G01 X91.550986 Y47.595510 Z2
G01 X92.048631 Y48.363600 Z2
G02 X92.646321 Y48.537805 Z2 I0.618213 J-1.008634
G02 X93.533329 Y48.545790 Z2 I0.921776 J-53.126845
G00 Z0.000000

(End cutting path id: path17)


(Start cutting path id: path17)
(Change tool to Default tool)

G00 Z0.000000
G00 X87.052080 Y57.822910

G01 Z2 F100.0(Penetrate)
G01 X88.322913 Y57.441270 Z2 F75.000000
G01 X93.787496 Y57.314580 Z2
G01 X96.202079 Y57.060410 Z2
G00 Z0.000000

(End cutting path id: path17)


(Start cutting path id: path17)
(Change tool to Default tool)

G00 Z0.000000
G00 X87.052080 Y58.458330

G01 Z2 F100.0(Penetrate)
G02 X86.896312 Y57.563078 Z2 I-3.240471 J0.102642 F75.000000
G02 X86.637784 Y56.814190 Z2 I-19.295074 J6.241910
G01 X84.397058 Y56.978140 Z2
G01 X83.830184 Y57.942640 Z2
G01 X84.263797 Y58.429310 Z2
G02 X84.876874 Y58.554909 Z2 I0.765704 J-2.178493
G02 X85.781246 Y58.585410 Z2 I0.922262 J-13.922667
G02 X86.348171 Y58.571826 Z2 I0.014488 J-11.232680
G03 X86.924996 Y58.600710 Z2 I0.143356 J2.911316
G03 X87.634165 Y58.759936 Z2 I-0.756393 J5.027731
G02 X88.577080 Y58.945090 Z2 I1.408238 J-4.678079
G02 X92.874702 Y59.192130 Z2 I5.400383 J-56.442388
G02 X97.218746 Y59.082370 Z2 I0.945420 J-48.601046
G02 X99.890979 Y58.357980 Z2 I-0.500162 J-7.136126
G03 X102.175000 Y57.822910 Z2 I2.288002 J4.624287
G00 Z0.000000

(End cutting path id: path17)


(Start cutting path id: path17)
(Change tool to Default tool)

G00 Z0.000000
G00 X94.549996 Y67.735430

G01 Z2 F100.0(Penetrate)
G01 X94.549996 Y67.227100 Z2 F75.000000
G00 Z0.000000

(End cutting path id: path17)


(Start cutting path id: path17)
(Change tool to Default tool)

G00 Z0.000000
G00 X90.737496 Y67.100000

G01 Z2 F100.0(Penetrate)
G03 X91.451154 Y66.774880 Z2 I1.174823 J1.632988 F75.000000
G03 X92.897913 Y66.591660 Z2 I1.589912 J6.750780
G00 Z0.000000

(End cutting path id: path17)


(Start cutting path id: path17)
(Change tool to Default tool)

G00 Z0.000000
G00 X90.737496 Y67.735410

G01 Z2 F100.0(Penetrate)
G02 X91.598685 Y68.002880 Z2 I1.121393 J-2.090469 F75.000000
G02 X93.406246 Y68.011050 Z2 I0.942399 J-8.539913
G02 X93.944282 Y67.951573 Z2 I-2.988325 J-29.495850
G03 X94.549996 Y67.879560 Z2 I40.553513 J338.521229
G03 X95.052287 Y67.857960 Z2 I0.395678 J3.350255
G02 X95.566663 Y67.860560 Z2 I0.306124 J-9.681784
G02 X98.234170 Y67.592209 Z2 I-0.369986 J-17.069971
G02 X100.395830 Y66.718770 Z2 I-1.018034 J-5.631165
G00 Z0.000000

(End cutting path id: path17)


(Start cutting path id: path17)
(Change tool to Default tool)

G00 Z0.000000
G00 X84.002080 Y67.481250

G01 Z2 F100.0(Penetrate)
G01 X84.002080 Y67.268850 Z2 F75.000000
G01 X84.402157 Y66.129910 Z2
G03 X85.955629 Y65.544486 Z2 I1.993758 J2.936761
G02 X87.687496 Y65.213460 Z2 I-1.696531 J-13.571843
G03 X93.818640 Y64.492613 Z2 I5.692765 J21.985091
G03 X100.014580 Y64.685410 Z2 I-5.069462 J262.573875
G00 Z0.000000

(End cutting path id: path17)


(Start cutting path id: path17)
(Change tool to Default tool)

G00 Z0.000000
G00 X83.239580 Y67.608330

G01 Z2 F100.0(Penetrate)
G03 X84.120445 Y67.648858 Z2 I0.131413 J6.736777 F75.000000
G03 X85.018746 Y67.755030 Z2 I-8.127831 J72.621056
G02 X87.129945 Y68.014745 Z2 I91.098209 J-731.817491
G02 X89.212496 Y68.114800 Z2 I1.725805 J-14.197827
G01 X90.241812 Y66.845240 Z2
G01 X89.974996 Y66.718750 Z2
G00 Z0.000000

(End cutting path id: path17)


(Start cutting path id: path17)
(Change tool to Default tool)

G00 Z0.000000
G00 X84.637496 Y72.691660

G01 Z2 F100.0(Penetrate)
G02 X85.620841 Y72.414120 Z2 I-9.509186 J-35.572550 F75.000000
G03 X86.924996 Y72.083020 Z2 I4.754487 J15.993252
G03 X89.075427 Y71.745687 Z2 I4.272933 J20.216150
G03 X91.245830 Y71.559290 Z2 I6.493289 J62.878462
G03 X95.680790 Y71.491120 Z2 I2.859148 J41.711205
G03 X100.014580 Y72.024970 Z2 I-0.970798 J25.738699
G03 X100.664620 Y72.171571 Z2 I-4.767916 J22.655690
G02 X101.285410 Y72.297670 Z2 I2.070394 J-8.601527
G03 X102.242144 Y72.581961 Z2 I-0.659700 J3.972120
G02 X103.191660 Y72.805410 Z2 I1.081936 J-2.468394
G02 X104.281223 Y72.701583 Z2 I0.186965 J-3.806845
G02 X104.970830 Y72.437500 Z2 I-0.692311 J-2.840288
G00 Z0.000000

(End cutting path id: path17)


(Start cutting path id: path17)
(Change tool to Default tool)

G00 Z0.000000
G00 X82.858330 Y72.564580

G01 Z2 F100.0(Penetrate)
G01 X82.349997 Y71.675000 Z2 F75.000000
G03 X81.164355 Y72.034402 Z2 I-1.498409 J-2.807771
G03 X79.554163 Y71.729800 Z2 I-0.286015 J-2.896277
G03 X77.902055 Y70.459707 Z2 I2.604281 J-5.097150
G02 X76.249997 Y69.175000 Z2 I-4.406773 J3.962272
G02 X74.826887 Y68.812602 Z2 I-1.471364 J2.802516
G03 X73.965635 Y68.636070 Z2 I0.036060 J-2.365097
G03 X73.503306 Y68.371265 Z2 I0.773315 J-1.886145
G02 X73.327080 Y68.243740 Z2 I-2.659840 J3.490090
G00 Z0.000000

(End cutting path id: path17)


(Start cutting path id: path17)
(Change tool to Default tool)

G00 Z0.000000
G00 X82.349997 Y71.675000

G01 Z2 F100.0(Penetrate)
G02 X82.165296 Y70.468070 Z2 I-23.171393 J2.928401 F75.000000
G02 X81.841761 Y68.752080 Z2 I-102.830103 J18.499247
G01 X81.314503 Y67.472910 Z2
G02 X80.651284 Y67.148579 Z2 I-1.421140 J2.065796
G03 X79.681247 Y66.746990 Z2 I1.859478 J-5.863920
G03 X77.641147 Y65.561286 Z2 I11.186534 J-21.595279
G03 X75.741664 Y64.140800 Z2 I9.619345 J-14.843289
G03 X74.117545 Y62.612193 Z2 I15.827012 J-18.443029
G02 X73.327080 Y62.016660 Z2 I-2.296609 J2.225977
G00 Z0.000000

(End cutting path id: path17)


(Start cutting path id: path17)
(Change tool to Default tool)

G00 Z0.000000
G00 X73.327080 Y52.739580

G01 Z2 F100.0(Penetrate)
G03 X74.738716 Y54.432428 Z2 I-32.421154 J28.470427 F75.000000
G03 X76.516911 Y58.077080 Z2 I-7.431759 J5.882001
G03 X76.773892 Y60.895187 Z2 I-9.363310 J2.274603
G02 X77.720182 Y63.491560 Z2 I3.493505 J0.197367
G02 X78.758741 Y63.929513 Z2 I1.014563 J-0.955536
G03 X79.808330 Y63.923010 Z2 I0.819755 J47.604178
G03 X80.437892 Y63.957375 Z2 I-0.037021 J6.462142
G03 X81.079163 Y64.050000 Z2 I-0.833283 J8.035244
G00 Z0.000000

(End cutting path id: path17)


(Start cutting path id: path17)
(Change tool to Default tool)

G00 Z0.000000
G00 X82.985413 Y58.331250

G01 Z2 F100.0(Penetrate)
G01 X83.747913 Y58.204160 Z2 F75.000000
G00 Z0.000000

(End cutting path id: path17)


(Start cutting path id: path17)
(Change tool to Default tool)

G00 Z0.000000
G00 X82.349997 Y51.977040

G01 Z2 F100.0(Penetrate)
G03 X82.590847 Y50.672557 Z2 I6.551321 J0.535112 F75.000000
G03 X83.141717 Y49.181210 Z2 I10.883424 J3.172678
G02 X84.203014 Y46.101472 Z2 I-16.133152 J-7.282318
G03 X85.527080 Y43.208290 Z2 I8.204872 J2.005393
G00 Z0.000000

(End cutting path id: path17)


(Footer)
M5
M2
(Using default footer. To add your own footer create file "footer" in the output dir.)
(end)
%