%
(Header)
(Generated by gcodetools from Inkscape.)
(Using default header. To add your own header create file "header" in the output dir.)
M3
(Header end.)
G21 (All units in mm)

(Start cutting path id: path5)
(Change tool to Default tool)

G00 Z0.000000
G00 X10.293750 Y151.102085

G01 Z2 F100.0(Penetrate)
G02 X10.611800 Y150.211288 Z2 I-5.685509 J-2.532129 F75.000000
G03 X11.153426 Y149.285066 Z2 I1.995898 J0.545665
G03 X11.684226 Y148.940703 Z2 I1.098239 J1.111553
G02 X12.225397 Y148.543455 Z2 I-0.471340 J-1.209350
G02 X12.782920 Y147.166950 Z2 I-2.017827 J-1.618435
G02 X12.835417 Y146.400002 Z2 I-15.113992 J-1.419816
G00 Z0.000000

(End cutting path id: path5)


(Start cutting path id: path6)
(Change tool to Default tool)

G00 Z0.000000
G00 X12.962500 Y145.764585

G01 Z2 F100.0(Penetrate)
G02 X12.527602 Y142.953435 Z2 I-9.302992 J-0.000000 F75.000000
G02 X11.564583 Y140.300002 Z2 I-32.685193 J10.361073
G00 Z0.000000

(End cutting path id: path6)


(Start cutting path id: path6)
(Change tool to Default tool)

G00 Z0.000000
G00 X6.608333 Y142.206252

G01 Z2 F100.0(Penetrate)
G01 X6.481250 Y140.045835 Z2 F75.000000
G00 Z0.000000

(End cutting path id: path6)


(Start cutting path id: path6)
(Change tool to Default tool)

G00 Z0.000000
G00 X10.675000 Y145.764585

G01 Z2 F100.0(Penetrate)
G01 X10.148330 Y145.016989 Z2 F75.000000
G01 X9.404167 Y145.111320 Z2
G01 X8.387500 Y145.383335 Z2
G03 X8.254433 Y143.527107 Z2 I4.166542 J-1.231570
G03 X8.899069 Y140.681252 Z2 I18.414911 J2.675363
G02 X9.309664 Y139.307794 Z2 I-63.670588 J-19.782446
G02 X9.055668 Y137.913953 Z2 I-1.533668 J-0.440586
G01 X7.953985 Y137.519565 Z2
G02 X7.461403 Y138.502765 Z2 I0.575092 J0.903112
G03 X6.724042 Y139.805593 Z2 I-1.341810 J0.100652
G01 X5.658543 Y139.029168 Z2
G02 X4.548352 Y137.404730 Z2 I-9.865964 J5.551113
G03 X3.812500 Y135.597919 Z2 I2.554840 J-2.093748
G00 Z0.000000

(End cutting path id: path6)


(Start cutting path id: path5)
(Change tool to Default tool)

G00 Z0.000000
G00 X8.641667 Y147.289585

G01 Z2 F100.0(Penetrate)
G01 X8.514583 Y146.400002 Z2 F75.000000
G00 Z0.000000

(End cutting path id: path5)


(Start cutting path id: path5)
(Change tool to Default tool)

G00 Z0.000000
G00 X10.929167 Y149.068751

G01 Z2 F100.0(Penetrate)
G01 X10.802083 Y146.400002 Z2 F75.000000
G00 Z0.000000

(End cutting path id: path5)


(Start cutting path id: path6)
(Change tool to Default tool)

G00 Z0.000000
G00 X16.266667 Y132.748154

G01 Z2 F100.0(Penetrate)
G02 X18.613303 Y132.851879 Z2 I1.772207 J-13.497202 F75.000000
G03 X20.968750 Y132.802084 Z2 I2.359071 J55.856439
G02 X21.885279 Y132.763257 Z2 I-0.000673 J-10.852859
G02 X22.724480 Y132.391809 Z2 I-0.118950 J-1.402455
G02 X24.235691 Y130.517236 Z2 I-5.730212 J-6.165910
G03 X25.561695 Y128.481251 Z2 I24.709232 J14.642930
G03 X26.128289 Y127.706951 Z2 I32.193919 J22.963445
G02 X26.412643 Y126.829168 Z2 I-1.136779 J-0.853204
G02 X25.715169 Y125.124286 Z2 I-2.539811 J0.043936
G03 X24.479918 Y123.652085 Z2 I11.383441 J-10.805601
G03 X23.502193 Y122.281602 Z2 I39.418832 J-29.156034
G02 X22.112500 Y121.402336 Z2 I-1.722701 J1.184908
G02 X19.358502 Y121.033503 Z2 I-8.252706 J51.155032
G03 X16.520833 Y120.722794 Z2 I55.262000 J-517.814778
G03 X15.488101 Y120.582750 Z2 I2.528956 J-22.527234
G02 X14.499366 Y120.805854 Z2 I-0.214836 J1.350361
G02 X12.532787 Y123.041984 Z2 I3.435510 J5.004206
G03 X10.971135 Y125.685422 Z2 I-22.754831 J-11.659768
G03 X10.402012 Y126.509029 Z2 I-37.748553 J-25.476321
G02 X10.121070 Y127.464589 Z2 I1.255722 J0.888271
G02 X10.378725 Y128.217257 Z2 I1.408324 J-0.061667
G02 X10.856114 Y128.862505 Z2 I15.528787 J-10.989798
G03 X12.176104 Y130.886826 Z2 I-11.926264 J9.219227
G02 X13.853947 Y132.507522 Z2 I3.411638 J-1.853084
G02 X15.038139 Y132.727091 Z2 I0.974459 J-1.952393
G03 X16.266667 Y132.748157 Z2 I0.521789 J5.403557
G00 Z0.000000

(End cutting path id: path6)


(Start cutting path id: path6)
(Change tool to Default tool)

G00 Z0.000000
G00 X12.708332 Y109.800003

G01 Z2 F100.0(Penetrate)
G02 X13.124018 Y110.557792 Z2 I32.164651 J-17.151054 F75.000000
G02 X14.360906 Y111.591425 Z2 I1.986945 J-1.120789
G02 X16.497028 Y111.978200 Z2 I2.298429 J-6.601815
G03 X18.681249 Y112.109074 Z2 I-0.693722 J29.870135
G03 X20.408339 Y112.320803 Z2 I-3.285130 J33.946849
G02 X22.112499 Y112.451789 Z2 I1.775765 J-11.951920
G02 X23.329699 Y111.730420 Z2 I0.008109 J-1.373921
G03 X23.962855 Y110.563093 Z2 I280.501429 J151.388118
G02 X24.202438 Y110.020529 Z2 I-3.131487 J-1.706967
G02 X24.272916 Y109.800003 Z2 I-4.706645 J-1.625724
G00 Z0.000000

(End cutting path id: path6)


(Start cutting path id: path6)
(Change tool to Default tool)

G00 Z0.000000
G00 X34.566667 Y109.800006

G01 Z2 F100.0(Penetrate)
G02 X33.154301 Y110.052908 Z2 I-0.000000 J4.070227 F75.000000
G02 X32.204642 Y110.816673 Z2 I0.666222 J1.800657
G03 X30.369530 Y113.141744 Z2 I-12.784335 J-8.203574
G02 X29.196514 Y115.772922 Z2 I3.057662 J2.940212
G02 X29.550821 Y116.761361 Z2 I1.292540 J0.094408
G03 X30.256031 Y117.552089 Z2 I-11.629051 J11.081189
G03 X32.149891 Y120.136873 Z2 I-19.548686 J16.309444
G02 X34.441445 Y122.264370 Z2 I5.257755 J-3.365314
G02 X37.717968 Y123.030400 Z2 I3.046954 J-5.642349
G03 X41.175000 Y123.197687 Z2 I0.737009 J20.573479
G03 X42.352411 Y123.410459 Z2 I-1.708888 J12.820519
G02 X43.457400 Y123.267307 Z2 I0.358751 J-1.567075
G02 X44.365739 Y122.282471 Z2 I-0.924434 J-1.763939
G03 X44.959654 Y121.242504 Z2 I4.723245 J2.007827
G03 X45.343160 Y120.775711 Z2 I4.682356 J3.455976
G02 X45.582618 Y120.336544 Z2 I-0.775651 J-0.707794
G02 X45.633958 Y119.865812 Z2 I-1.531293 J-0.405174
G03 X45.622918 Y119.331253 Z2 I12.873534 J-0.533261
G00 Z0.000000

(End cutting path id: path6)


(Start cutting path id: path6)
(Change tool to Default tool)

G00 Z0.000000
G00 X45.622918 Y114.120836

G01 Z2 F100.0(Penetrate)
G03 X45.647047 Y113.291443 Z2 I14.266727 J0.000000 F75.000000
G02 X45.583008 Y112.600839 Z2 I-2.307012 J-0.134345
G02 X45.380104 Y112.185700 Z2 I-1.068041 J0.264862
G03 X45.107819 Y111.811765 Z2 I4.946059 J-3.887627
G03 X44.328358 Y110.330958 Z2 I6.434507 J-4.332519
G02 X44.097916 Y109.800003 Z2 I-8.150068 J3.221756
G00 Z0.000000

(End cutting path id: path6)


(Footer)
M5
M2
(Using default footer. To add your own footer create file "footer" in the output dir.)
(end)
%