%
(Header)
(Generated by gcodetools from Inkscape.)
(Using default header. To add your own header create file "header" in the output dir.)
M3
(Header end.)
G21 (All units in mm)

(Start cutting path id: path7)
(Change tool to Default tool)

G00 Z0.000000
G00 X173.591670 Y144.112502

G01 Z2 F100.0(Penetrate)
G03 X174.034751 Y143.239951 Z2 I25.411214 J12.355028 F75.000000
G02 X174.342200 Y142.333335 Z2 I-2.650977 J-1.404430
G02 X174.382547 Y141.520389 Z2 I-3.434299 J-0.577921
G03 X174.354200 Y140.681252 Z2 I12.405930 J-0.839137
G03 X174.553369 Y138.482936 Z2 I12.222769 J-0.000787
G02 X173.208590 Y136.748729 Z2 I-1.449057 J-0.264841
G01 X172.067090 Y138.520835 Z2
G03 X171.956890 Y139.271399 Z2 I-2.999990 J-0.057096
G02 X171.832830 Y139.918752 Z2 I3.819914 J1.067618
G02 X171.865329 Y140.588925 Z2 I2.165061 J0.230884
G03 X171.939610 Y141.189585 Z2 I-3.703883 J0.762967
G00 Z0.000000

(End cutting path id: path7)


(Start cutting path id: path7)
(Change tool to Default tool)

G00 Z0.000000
G00 X174.608360 Y142.079168

G01 Z2 F100.0(Penetrate)
G02 X176.260851 Y140.352176 Z2 I-1.331467 J-2.928127 F75.000000
G02 X176.747210 Y136.995835 Z2 I-6.650835 J-2.677164
G02 X175.566417 Y131.286910 Z2 I-26.655832 J2.536725
G02 X173.210450 Y125.939586 Z2 I-27.308200 J8.838999
G00 Z0.000000

(End cutting path id: path7)


(Start cutting path id: path7)
(Change tool to Default tool)

G00 Z0.000000
G00 X165.458360 Y126.829169

G01 Z2 F100.0(Penetrate)
G02 X165.286882 Y129.952933 Z2 I6.508835 J1.923889 F75.000000
G02 X166.984740 Y131.992812 Z2 I2.645136 J-0.475102
G01 X167.872360 Y131.149905 Z2
G03 X168.241235 Y128.929595 Z2 I19.848738 J2.156809
G03 X171.000510 Y128.135401 Z2 I1.597233 J0.358898
G03 X171.434365 Y130.658251 Z2 I-1.583186 J1.570991
G02 X170.578660 Y132.929169 Z2 I13.635172 J6.434553
G02 X170.048365 Y135.136274 Z2 I24.787942 J7.122992
G02 X170.142600 Y137.377085 Z2 I4.751489 J0.922568
G02 X170.374025 Y138.178695 Z2 I76.937675 J-21.777690
G02 X170.658090 Y138.900125 Z2 I4.191880 J-1.233924
G02 X171.162862 Y139.492254 Z2 I1.451887 J-0.726473
G02 X171.685450 Y139.791668 Z2 I1.715362 J-2.388181
G00 Z0.000000

(End cutting path id: path7)


(Start cutting path id: path7)
(Change tool to Default tool)

G00 Z0.000000
G00 X167.364610 Y133.183335

G01 Z2 F100.0(Penetrate)
G01 X167.237530 Y132.166669 Z2 F75.000000
G00 Z0.000000

(End cutting path id: path7)


(Start cutting path id: path7)
(Change tool to Default tool)

G00 Z0.000000
G00 X162.916670 Y109.800003

G01 Z2 F100.0(Penetrate)
G03 X162.816462 Y110.011058 Z2 I-4.425833 J-1.972047 F75.000000
G03 X162.553260 Y110.438557 Z2 I-2.655895 J-1.340404
G03 X161.283628 Y111.779633 Z2 I-6.116947 J-4.519542
G02 X160.234480 Y113.612503 Z2 I1.911144 J2.310657
G02 X160.442396 Y114.533301 Z2 I1.249700 J0.201691
G02 X161.020030 Y115.264586 Z2 I5.960163 J-4.114091
G03 X162.679884 Y117.489854 Z2 I-11.223281 J10.103263
G02 X164.950000 Y118.820565 Z2 I2.377184 J-1.453641
G03 X167.454668 Y119.148330 Z2 I-0.530050 J13.784261
G02 X169.765930 Y118.819365 Z2 I0.722841 J-3.205208
G02 X170.420418 Y118.144268 Z2 I-0.778293 J-1.409337
G03 X170.898500 Y117.297894 Z2 I10.652568 J5.458986
G03 X172.305648 Y115.227652 Z2 I25.231036 J15.636247
G02 X173.465270 Y113.104145 Z2 I-6.992037 J-5.196651
G02 X173.129388 Y111.454905 Z2 I-1.479077 J-0.557595
G03 X172.295340 Y110.438532 Z2 I6.332325 J-6.046781
G03 X172.041760 Y110.010839 Z2 I2.650443 J-1.860473
G03 X171.939580 Y109.799978 Z2 I14.806787 J-7.305333
G00 Z0.000000

(End cutting path id: path7)


(Start cutting path id: path7)
(Change tool to Default tool)

G00 Z0.000000
G00 X137.500000 Y123.397919

G01 Z2 F100.0(Penetrate)
G01 X137.627080 Y123.270836 Z2 F75.000000
G00 Z0.000000

(End cutting path id: path7)


(Start cutting path id: path7)
(Change tool to Default tool)

G00 Z0.000000
G00 X137.627110 Y125.304169

G01 Z2 F100.0(Penetrate)
G03 X139.038876 Y126.255437 Z2 I-1.735389 J4.098697 F75.000000
G02 X141.312530 Y128.390450 Z2 I35.129831 J-35.132899
G03 X142.023318 Y129.072113 Z2 I-7.771077 J8.814524
G02 X142.837530 Y129.623825 Z2 I1.695869 J-1.626089
G02 X144.043270 Y129.756721 Z2 I0.838472 J-2.071125
G03 X145.252110 Y129.630025 Z2 I1.646903 J9.883274
G03 X147.796536 Y129.552592 Z2 I4.174383 J95.325908
G02 X150.335450 Y129.499804 Z2 I-5.853691 J-342.623504
G03 X151.711571 Y129.569775 Z2 I0.224287 J9.155991
G02 X152.999200 Y129.276526 Z2 I0.242161 J-1.910244
G02 X154.593226 Y127.624575 Z2 I-2.741898 J-4.240796
G03 X155.912010 Y125.685441 Z2 I17.080321 J10.198127
G03 X156.952690 Y124.354964 Z2 I88.455292 J68.116228
G02 X157.973190 Y123.016691 Z2 I-33.171151 J-26.352884
G02 X158.344489 Y122.372366 Z2 I-2.762276 J-2.020933
G02 X158.414950 Y121.618775 Z2 I-1.099133 J-0.482859
G02 X157.226900 Y119.490084 Z2 I-4.273655 J0.989303
G03 X155.529390 Y117.552108 Z2 I12.724462 J-12.858028
G03 X154.979066 Y116.814520 Z2 I51.838420 J-39.251385
G02 X154.270030 Y116.243522 Z2 I-1.432546 J1.053142
G02 X151.423382 Y115.768060 Z2 I-2.340611 J5.254173
G03 X148.429200 Y115.900025 Z2 I-2.994182 J-33.901791
G03 X146.419739 Y115.723816 Z2 I0.000000 J-11.545878
G02 X144.489710 Y116.194101 Z2 I-0.429780 J2.431723
G02 X141.992833 Y118.585720 Z2 I9.488781 J12.405587
G03 X139.733600 Y121.237525 Z2 I-138.981965 J-116.118849
G03 X138.464417 Y122.577537 Z2 I-16.203156 J-14.075653
G03 X137.627110 Y123.270858 Z2 I-4.858361 J-5.015066
G00 Z0.000000

(End cutting path id: path7)


(Footer)
M5
M2
(Using default footer. To add your own footer create file "footer" in the output dir.)
(end)
%