%
(Header)
(Generated by gcodetools from Inkscape.)
(Using default header. To add your own header create file "header" in the output dir.)
M3
(Header end.)
G21 (All units in mm)

(Start cutting path id: path8)
(Change tool to Default tool)

G00 Z0.000000
G00 X12.072917 Y109.164586

G01 Z2 F100.0(Penetrate)
G02 X10.202224 Y107.155133 Z2 I-13.655064 J10.836645 F75.000000
G03 X9.006345 Y104.843753 Z2 I2.558119 J-2.788596
G03 X9.717683 Y102.551408 Z2 I2.872536 J-0.365163
G02 X11.208730 Y100.522920 Z2 I-9.971814 J-8.892060
G02 X12.351239 Y98.232662 Z2 I-14.313888 J-8.570674
G03 X13.865322 Y96.273767 Z2 I4.267877 J1.734172
G03 X14.713999 Y95.980973 Z2 I0.883722 J1.185151
G02 X15.631250 Y95.926347 Z2 I-0.304494 J-12.841118
G03 X18.364891 Y95.798939 Z2 I2.674231 J27.987691
G02 X21.095833 Y95.672181 Z2 I0.059585 J-28.198144
G02 X22.327165 Y95.535414 Z2 I-3.729357 J-39.187132
G03 X23.498553 Y95.802795 Z2 I0.220322 J1.734370
G03 X24.840041 Y97.363567 Z2 I-1.986775 J3.064530
G02 X25.851848 Y99.252087 Z2 I14.476080 J-6.540505
G02 X27.338007 Y101.140849 Z2 I9.508263 J-5.952442
G03 X28.030308 Y103.318753 Z2 I-1.817815 J1.776823
G03 X27.611134 Y104.376647 Z2 I-2.588278 J-0.413573
G02 X26.992069 Y105.352087 Z2 I15.647600 J10.614943
G02 X25.885508 Y107.257997 Z2 I106.195861 J62.930906
G03 X24.781250 Y109.164586 Z2 I-121.703865 J-69.215380
G00 Z0.000000

(End cutting path id: path8)


(Start cutting path id: path8)
(Change tool to Default tool)

G00 Z0.000000
G00 X33.422917 Y109.164586

G01 Z2 F100.0(Penetrate)
G02 X37.151592 Y109.011835 Z2 I-0.000000 J-45.585176 F75.000000
G02 X40.920833 Y108.677828 Z2 I-23.824626 J-290.293569
G03 X42.427182 Y108.607611 Z2 I1.479588 J15.548414
G03 X43.716667 Y109.164586 Z2 I-0.003047 J1.778221
G00 Z0.000000

(End cutting path id: path8)


(Start cutting path id: path8)
(Change tool to Default tool)

G00 Z0.000000
G00 X37.997917 Y95.185420

G01 Z2 F100.0(Penetrate)
G01 X39.522917 Y95.185420 Z2 F75.000000
G00 Z0.000000

(End cutting path id: path8)


(Start cutting path id: path8)
(Change tool to Default tool)

G00 Z0.000000
G00 X39.777083 Y93.279170

G01 Z2 F100.0(Penetrate)
G01 X41.556250 Y93.787504 Z2 F75.000000
G00 Z0.000000

(End cutting path id: path8)


(Start cutting path id: path8)
(Change tool to Default tool)

G00 Z0.000000
G00 X33.422917 Y73.200000

G01 Z2 F100.0(Penetrate)
G02 X33.649739 Y73.898784 Z2 I6.129507 J-1.603404 F75.000000
G03 X34.191793 Y75.360320 Z2 I-43.422486 J16.935806
G01 X34.606966 Y76.227250 Z2
G01 X35.583333 Y76.376990 Z2
G02 X36.709644 Y76.378691 Z2 I0.762439 J-131.949395
G03 X37.870833 Y76.377090 Z2 I1.161192 J421.083049
G03 X39.702660 Y76.524948 Z2 I-0.000000 J11.421258
G02 X41.424164 Y76.246480 Z2 I0.442635 J-2.724057
G02 X42.726177 Y75.062337 Z2 I-1.609262 J-3.077327
G03 X43.582230 Y73.838560 Z2 I18.513406 J12.039150
G02 X43.857619 Y73.413101 Z2 I-2.906644 J-2.183257
G02 X43.970833 Y73.200000 Z2 I-6.460855 J-3.569064
G00 Z0.000000

(End cutting path id: path8)


(Start cutting path id: path8)
(Change tool to Default tool)

G00 Z0.000000
G00 X12.746380 Y87.556891

G01 Z2 F100.0(Penetrate)
G02 X13.358825 Y87.710520 Z2 I0.538012 J-0.847216 F75.000000
G03 X13.979167 Y87.687504 Z2 I0.619819 J8.334223
G01 X17.156250 Y87.687504 Z2
G01 X21.477083 Y87.687504 Z2
G03 X22.516411 Y87.740071 Z2 I0.000000 J10.300817
G02 X23.510320 Y87.556891 Z2 I0.182385 J-1.798399
G02 X24.998157 Y86.150736 Z2 I-1.598486 J-3.181550
G03 X26.163085 Y84.383337 Z2 I15.113295 J8.693861
G03 X27.855845 Y82.458821 Z2 I13.171514 J9.878644
G02 X29.046876 Y80.316670 Z2 I-2.969065 J-3.052975
G02 X28.940225 Y79.451812 Z2 I-1.282658 J-0.280832
G02 X28.520206 Y78.664590 Z2 I-13.693540 J6.800464
G03 X27.378473 Y76.211465 Z2 I14.050056 J-8.031432
G02 X25.784581 Y74.198630 Z2 I-3.855896 J1.415855
G02 X25.057960 Y73.971541 Z2 I-0.757758 J1.148574
G02 X24.272917 Y73.962500 Z2 I-0.799202 J35.309944
G02 X22.363551 Y73.969884 Z2 I-0.086101 J224.594339
G02 X20.460417 Y74.068020 Z2 I0.178278 J21.960012
G03 X17.667195 Y73.939835 Z2 I-0.944199 J-9.922399
G02 X15.007699 Y74.299630 Z2 I-0.788814 J4.178317
G02 X13.640196 Y75.668141 Z2 I1.312368 J2.678905
G03 X12.595958 Y77.393750 Z2 I-10.147271 J-4.961776
G02 X11.374811 Y79.104660 Z2 I61.815685 J45.411648
G03 X10.166667 Y80.825000 Z2 I-142.499688 J-98.788936
G03 X9.630353 Y81.577296 Z2 I-364.813256 J-259.508924
G02 X9.383476 Y82.477090 Z2 I1.099243 J0.785365
G02 X10.255662 Y84.314753 Z2 I2.889579 J-0.245634
G03 X11.644108 Y85.908337 Z2 I-8.684563 J8.968272
G03 X12.156699 Y86.841028 Z2 I-3.326338 J2.435298
G02 X12.746380 Y87.556891 Z2 I1.389710 J-0.543951
G00 Z0.000000

(End cutting path id: path8)


(Footer)
M5
M2
(Using default footer. To add your own footer create file "footer" in the output dir.)
(end)
%