%
(Header)
(Generated by gcodetools from Inkscape.)
(Using default header. To add your own header create file "header" in the output dir.)
M3
(Header end.)
G21 (All units in mm)

(Start cutting path id: path16)
(Change tool to Default tool)

G00 Z0.000000
G00 X40.031250 Y36.472920

G01 Z2 F100.0(Penetrate)
G03 X40.708796 Y36.261289 Z2 I3.680676 J10.593430 F75.000000
G02 X41.365823 Y35.883490 Z2 I-0.408973 J-1.471456
G02 X42.218421 Y34.436852 Z2 I-2.232178 J-2.290133
G02 X42.572917 Y32.406260 Z2 I-10.583027 J-2.893799
G00 Z0.000000

(End cutting path id: path16)


(Start cutting path id: path16)
(Change tool to Default tool)

G00 Z0.000000
G00 X39.650000 Y33.677090

G01 Z2 F100.0(Penetrate)
G03 X39.318454 Y31.857810 Z2 I3.890081 J-1.648779 F75.000000
G03 X39.486635 Y29.737510 Z2 I27.402158 J1.106702
G01 X39.599598 Y28.780560 Z2
G03 X40.056655 Y28.251138 Z2 I1.211445 J0.583855
G02 X40.565471 Y27.702310 Z2 I-0.930069 J-1.372536
G03 X41.673910 Y26.054513 Z2 I11.940748 J6.835586
G02 X42.434458 Y24.145840 Z2 I-2.874719 J-2.251352
G02 X42.518339 Y22.678101 Z2 I-19.839339 J-1.870078
G02 X42.287763 Y21.222920 Z2 I-4.175062 J-0.084313
G02 X41.138234 Y18.380266 Z2 I-29.094468 J10.111639
G03 X40.544586 Y15.377090 Z2 I5.868040 J-2.720217
G03 X40.872219 Y13.058684 Z2 I12.123340 J0.530897
G03 X42.443382 Y11.770020 Z2 I1.638730 J0.395842
G01 X43.151951 Y12.581350 Z2
G03 X43.211408 Y13.194905 Z2 I-3.924869 J0.689999
G03 X43.203331 Y13.852090 Z2 I-10.440966 J0.200322
G03 X43.003236 Y15.559445 Z2 I-11.790381 J-0.516382
G02 X43.019966 Y17.283340 Z2 I4.276636 J0.820524
G02 X43.621286 Y18.738214 Z2 I4.232036 J-0.897458
G03 X44.436220 Y20.079170 Z2 I-22.854561 J14.807411
G03 X44.698499 Y20.606094 Z2 I-4.619371 J2.628053
G02 X44.963378 Y21.090150 Z2 I2.692790 J-1.159014
G02 X45.415370 Y21.570093 Z2 I1.708499 J-1.156192
G03 X45.622918 Y21.731260 Z2 I-14.931942 J19.443333
G00 Z0.000000

(End cutting path id: path16)


(Start cutting path id: path16)
(Change tool to Default tool)

G00 Z0.000000
G00 X45.622917 Y17.283340

G01 Z2 F100.0(Penetrate)
G01 X45.622917 Y14.868760 Z2 F75.000000
G00 Z0.000000

(End cutting path id: path16)


(Start cutting path id: path16)
(Change tool to Default tool)

G00 Z0.000000
G00 X32.914583 Y17.283340

G01 Z2 F100.0(Penetrate)
G01 X32.914583 Y16.902090 Z2 F75.000000
G00 Z0.000000

(End cutting path id: path16)


(Start cutting path id: path16)
(Change tool to Default tool)

G00 Z0.000000
G00 X26.306250 Y24.018760

G01 Z2 F100.0(Penetrate)
G02 X26.867981 Y23.010302 Z2 I-1.797335 J-1.661829 F75.000000
G02 X27.177006 Y20.587510 Z2 I-8.239633 J-2.282061
G02 X27.011386 Y20.037478 Z2 I-1.053720 J0.017335
G03 X26.803305 Y19.316670 Z2 I1.114969 J-0.712304
G03 X27.037902 Y17.363945 Z2 I8.712947 J0.056303
G02 X27.195833 Y16.012510 Z2 I-5.703228 J-1.351435
G00 Z0.000000

(End cutting path id: path16)


(Start cutting path id: path16)
(Change tool to Default tool)

G00 Z0.000000
G00 X26.052083 Y23.891670

G01 Z2 F100.0(Penetrate)
G03 X25.662936 Y22.936057 Z2 I1.784789 J-1.283846 F75.000000
G03 X25.805369 Y20.587510 Z2 I5.569044 J-0.840846
G03 X26.233662 Y19.880677 Z2 I1.472644 J0.409147
G03 X26.687500 Y19.570840 Z2 I1.230007 J1.314370
G00 Z0.000000

(End cutting path id: path16)


(Start cutting path id: path16)
(Change tool to Default tool)

G00 Z0.000000
G00 X28.466667 Y30.118760

G01 Z2 F100.0(Penetrate)
G02 X29.003749 Y28.388620 Z2 I-2.319546 J-1.668481 F75.000000
G03 X29.548835 Y24.781260 Z2 I10.683191 J-0.230590
G03 X30.865850 Y22.342604 Z2 I7.609219 J2.534455
G02 X32.319272 Y20.079170 Z2 I-10.783063 J-8.522509
G02 X32.732682 Y18.454882 Z2 I-3.364863 J-1.721171
G03 X33.041667 Y17.410420 Z2 I2.101985 J0.053899
G01 X34.362902 Y18.180380 Z2
G01 X34.439582 Y19.570840 Z2
G00 Z0.000000

(End cutting path id: path16)


(Start cutting path id: path16)
(Change tool to Default tool)

G00 Z0.000000
G00 X39.522917 Y28.593760

G01 Z2 F100.0(Penetrate)
G03 X38.904339 Y26.941420 Z2 I2.729822 J-1.963907 F75.000000
G02 X38.379167 Y23.510420 Z2 I-29.253092 J2.721982
G02 X37.747955 Y21.111032 Z2 I-26.237186 J5.619550
G03 X37.256992 Y18.681260 Z2 I11.380990 J-3.564147
G03 X37.354126 Y16.053888 Z2 I9.926609 J-0.948496
G02 X37.760419 Y13.470840 Z2 I-97.978007 J-16.734656
G03 X38.311628 Y10.908191 Z2 I18.814874 J2.706347
G02 X37.102842 Y8.464190 Z2 I-1.942217 J-0.560322
G02 X36.050622 Y8.626092 Z2 I-0.386018 J0.991426
G02 X35.599808 Y9.531260 Z2 I0.756041 J0.941389
G02 X35.808574 Y10.964235 Z2 I4.164330 J0.125005
G03 X36.048521 Y12.454170 Z2 I-4.505859 J1.489935
G03 X35.602271 Y15.849698 Z2 I-13.141461 J0.000000
G03 X34.312500 Y17.918760 Z2 I-4.036377 J-1.079591
G00 Z0.000000

(End cutting path id: path16)


(Start cutting path id: path16)
(Change tool to Default tool)

G00 Z0.000000
G00 X43.589583 Y28.085420

G01 Z2 F100.0(Penetrate)
G02 X44.934221 Y29.352502 Z2 I3.565841 J-2.437090 F75.000000
G02 X45.622917 Y29.610420 Z2 I1.045755 J-1.743945
G00 Z0.000000

(End cutting path id: path16)


(Start cutting path id: path16)
(Change tool to Default tool)

G00 Z0.000000
G00 X45.622917 Y31.008340

G01 Z2 F100.0(Penetrate)
G01 X45.622917 Y27.958340 Z2 F75.000000
G00 Z0.000000

(End cutting path id: path16)


(Start cutting path id: path16)
(Change tool to Default tool)

G00 Z0.000000
G00 X37.235417 Y35.964590

G01 Z2 F100.0(Penetrate)
G02 X35.036901 Y32.864607 Z2 I-18.556660 J10.830841 F75.000000
G03 X33.041667 Y29.610420 Z2 I9.387404 J-7.994444
G00 Z0.000000

(End cutting path id: path16)


(Start cutting path id: path16)
(Change tool to Default tool)

G00 Z0.000000
G00 X29.102084 Y32.787510

G01 Z2 F100.0(Penetrate)
G01 X28.357725 Y30.293990 Z2 F75.000000
G01 X27.557177 Y29.568650 Z2
G01 X27.054043 Y28.085420 Z2
G01 X26.813997 Y25.289590 Z2
G01 X26.179168 Y23.891670 Z2
G02 X25.552899 Y24.791922 Z2 I2.455778 J2.376349
G03 X24.689762 Y26.433340 Z2 I-22.331228 J-10.695184
G01 X23.412262 Y27.505800 Z2
G01 X22.999044 Y26.560420 Z2
G02 X22.873357 Y25.183928 Z2 I-43.175613 J3.248375
G02 X22.551212 Y23.764590 Z2 I-6.242601 J0.670644
G02 X20.957913 Y21.436496 Z2 I-5.158157 J1.820879
G03 X19.328531 Y19.189590 Z2 I3.907664 J-4.547948
G03 X18.764676 Y16.891327 Z2 I7.156754 J-2.974136
G03 X18.695568 Y14.996040 Z2 I18.577349 J-1.626287
G02 X18.581789 Y14.402418 Z2 I-1.493083 J-0.021537
G02 X18.427084 Y14.106260 Z2 I-1.751572 J0.726488
G00 Z0.000000

(End cutting path id: path16)


(Start cutting path id: path16)
(Change tool to Default tool)

G00 Z0.000000
G00 X9.277083 Y18.681260

G01 Z2 F100.0(Penetrate)
G03 X9.103992 Y18.360659 Z2 I1.723189 J-1.137370 F75.000000
G03 X8.885929 Y17.537510 Z2 I2.656424 J-1.144179
G02 X8.200060 Y15.453932 Z2 I-5.308950 J0.592917
G03 X7.243750 Y13.343760 Z2 I10.113468 J-5.855110
G00 Z0.000000

(End cutting path id: path16)


(Start cutting path id: path16)
(Change tool to Default tool)

G00 Z0.000000
G00 X13.597917 Y27.068760

G01 Z2 F100.0(Penetrate)
G01 X13.470833 Y25.797920 Z2 F75.000000
G00 Z0.000000

(End cutting path id: path16)


(Start cutting path id: path16)
(Change tool to Default tool)

G00 Z0.000000
G00 X9.785417 Y29.610420

G01 Z2 F100.0(Penetrate)
G03 X9.413537 Y29.195646 Z2 I7.258518 J-6.881967 F75.000000
G03 X8.997029 Y28.593760 Z2 I2.861138 J-2.424976
G03 X8.022311 Y26.838491 Z2 I1273.794738 J-708.499465
G03 X7.162264 Y24.908340 Z2 I10.628962 J-5.892797
G03 X6.821293 Y23.405627 Z2 I6.695028 J-2.309165
G02 X6.608333 Y21.985420 Z2 I-20.550060 J2.355405
G00 Z0.000000

(End cutting path id: path16)


(Start cutting path id: path16)
(Change tool to Default tool)

G00 Z0.000000
G00 X9.912500 Y31.643760

G01 Z2 F100.0(Penetrate)
G02 X9.844671 Y30.595452 Z2 I-8.134766 J-0.000000 F75.000000
G03 X9.897890 Y29.759080 Z2 I2.168997 J-0.281864
G03 X10.204971 Y29.219075 Z2 I1.165480 J0.305450
G02 X10.570176 Y28.720350 Z2 I-1.516279 J-1.493416
G02 X10.960246 Y27.424239 Z2 I-3.103707 J-1.640826
G02 X10.802083 Y26.179170 Z2 I-2.802787 J-0.276538
G00 Z0.000000

(End cutting path id: path16)


(Start cutting path id: path16)
(Change tool to Default tool)

G00 Z0.000000
G00 X12.708333 Y35.837510

G01 Z2 F100.0(Penetrate)
G03 X12.989087 Y32.534188 Z2 I19.573625 J0.000000 F75.000000
G03 X13.852083 Y29.356260 Z2 I17.003700 J2.911370
G00 Z0.000000

(End cutting path id: path16)


(Start cutting path id: path16)
(Change tool to Default tool)

G00 Z0.000000
G00 X16.393750 Y35.202090

G01 Z2 F100.0(Penetrate)
G02 X16.613470 Y34.917397 Z2 I-2.962220 J-2.513319 F75.000000
G02 X16.953662 Y34.185420 Z2 I-1.888640 J-1.322801
G03 X17.185379 Y33.328289 Z2 I87.587831 J23.218586
G03 X17.488176 Y32.406260 Z2 I9.673155 J2.665963
G03 X18.407194 Y30.357580 Z2 I18.733719 J7.173296
G02 X19.040927 Y28.212510 Z2 I-5.247625 J-2.716491
G02 X19.212325 Y25.919778 Z2 I-51.463582 J-5.000049
G02 X18.962677 Y23.637510 Z2 I-7.136342 J-0.374172
G02 X17.740549 Y19.946720 Z2 I-37.878881 J10.495067
G03 X17.168114 Y16.012510 Z2 I8.318155 J-3.219056
G03 X17.350437 Y15.055548 Z2 I4.504187 J0.362301
G03 X17.629970 Y14.522320 Z2 I1.552159 J0.473802
G01 X18.377172 Y13.926520 Z2
G02 X18.841547 Y13.208662 Z2 I-1.439564 J-1.440368
G03 X19.189583 Y12.327090 Z2 I33.280300 J12.629252
G00 Z0.000000

(End cutting path id: path16)


(Start cutting path id: path16)
(Change tool to Default tool)

G00 Z0.000000
G00 X22.239583 Y30.372920

G01 Z2 F100.0(Penetrate)
G01 X23.383333 Y27.831260 Z2 F75.000000
G00 Z0.000000

(End cutting path id: path16)


(Start cutting path id: path16)
(Change tool to Default tool)

G00 Z0.000000
G00 X22.747917 Y35.964590

G01 Z2 F100.0(Penetrate)
G01 X21.985417 Y34.058340 Z2 F75.000000
G00 Z0.000000

(End cutting path id: path16)


(Start cutting path id: path16)
(Change tool to Default tool)

G00 Z0.000000
G00 X19.952083 Y35.837510

G01 Z2 F100.0(Penetrate)
G01 X20.079167 Y35.583340 Z2 F75.000000
G00 Z0.000000

(End cutting path id: path16)


(Start cutting path id: path16)
(Change tool to Default tool)

G00 Z0.000000
G00 X16.520833 Y35.456260

G01 Z2 F100.0(Penetrate)
G03 X15.905383 Y34.620223 Z2 I5.990947 J-5.054795 F75.000000
G03 X15.631348 Y33.677090 Z2 I1.469357 J-0.938312
G03 X15.854950 Y31.437166 Z2 I11.655171 J0.032361
G02 X16.134582 Y29.102090 Z2 I-14.987153 J-2.979038
G02 X15.973752 Y26.851165 Z2 I-9.955411 J-0.419888
G03 X15.612423 Y24.783710 Z2 I87.507231 J-16.358939
G01 X13.892778 Y25.159960 Z2
G01 X13.094486 Y25.629260 Z2
G01 X12.316101 Y24.527090 Z2
G03 X11.881093 Y22.089397 Z2 I10.285984 J-3.093203
G03 X11.819241 Y19.570840 Z2 I34.442064 J-2.105878
G03 X12.697534 Y16.305611 Z2 I6.811613 J0.081474
G02 X14.014762 Y13.216670 Z2 I-13.263647 J-7.481391
G02 X14.380510 Y11.784801 Z2 I-16.646120 J-5.014633
G02 X14.175283 Y10.296210 Z2 I-2.176490 J-0.458377
G02 X12.333974 Y9.887188 Z2 I-1.092969 J0.571203
G02 X11.233441 Y11.310420 Z2 I2.119110 J2.775748
G02 X11.047653 Y12.958794 Z2 I2.715541 J1.140725
G03 X11.182841 Y14.614590 Z2 I-8.930177 J1.562523
G03 X10.945542 Y16.218508 Z2 I-5.952945 J-0.061222
G03 X10.426617 Y17.662630 Z2 I-11.988592 J-3.492638
G03 X9.916233 Y18.287934 Z2 I-1.350283 J-0.581180
G02 X9.407599 Y18.835400 Z2 I1.005161 J1.443877
G02 X9.144111 Y19.818505 Z2 I1.625458 J0.962511
G03 X9.150000 Y20.968760 Z2 I-99.464663 J1.084397
G00 Z0.000000

(End cutting path id: path16)


(Start cutting path id: path16)
(Change tool to Default tool)

G00 Z0.000000
G00 X25.416667 Y35.964590

G01 Z2 F100.0(Penetrate)
G01 X25.944612 Y34.439590 Z2 F75.000000
G01 X26.052083 Y32.787510 Z2
G00 Z0.000000

(End cutting path id: path16)


(Start cutting path id: path16)
(Change tool to Default tool)

G00 Z0.000000
G00 X28.847917 Y35.964590

G01 Z2 F100.0(Penetrate)
G01 X28.720833 Y35.583340 Z2 F75.000000
G00 Z0.000000

(End cutting path id: path16)


(Start cutting path id: path16)
(Change tool to Default tool)

G00 Z0.000000
G00 X33.931250 Y35.964590

G01 Z2 F100.0(Penetrate)
G01 X33.804167 Y34.058340 Z2 F75.000000
G00 Z0.000000

(End cutting path id: path16)


(Footer)
M5
M2
(Using default footer. To add your own footer create file "footer" in the output dir.)
(end)
%