%
(Header)
(Generated by gcodetools from Inkscape.)
(Using default header. To add your own header create file "header" in the output dir.)
M3
(Header end.)
G21 (All units in mm)

(Start cutting path id: path15)
(Change tool to Default tool)

G00 Z0.000000
G00 X160.633330 Y72.691660

G01 Z2 F100.0(Penetrate)
G03 X161.593314 Y71.514520 Z2 I844.446326 J687.685176 F75.000000
G03 X162.793750 Y70.554000 Z2 I2.840962 J2.320170
G03 X165.532714 Y70.019619 Z2 I2.331106 J4.661603
G03 X168.385420 Y70.290910 Z2 I-6.803854 J86.678790
G03 X170.030498 Y71.225782 Z2 I-0.266357 J2.383548
G02 X171.308330 Y72.691660 Z2 I11.332943 J-8.589233
G00 Z0.000000

(End cutting path id: path15)


(Start cutting path id: path15)
(Change tool to Default tool)

G00 Z0.000000
G00 X169.910420 Y58.966670

G01 Z2 F100.0(Penetrate)
G02 X169.783585 Y57.292522 Z2 I-12.389244 J0.096742 F75.000000
G03 X169.656740 Y55.662510 Z2 I12.311853 J-1.778031
G02 X169.609038 Y54.791367 Z2 I-10.316648 J0.128038
G03 X169.732440 Y53.904910 Z2 I1.910361 J-0.185880
G03 X170.094318 Y53.290380 Z2 I2.102726 J0.824416
G02 X170.472090 Y52.612510 Z2 I-1.649556 J-1.363486
G03 X171.767258 Y50.077238 Z2 I9.257299 J3.130720
G02 X173.006990 Y47.529170 Z2 I-7.000287 J-4.981527
G02 X172.733457 Y45.279046 Z2 I-2.738553 J-0.808779
G02 X171.181250 Y43.589590 Z2 I-4.663435 J2.726800
G00 Z0.000000

(End cutting path id: path15)


(Start cutting path id: path15)
(Change tool to Default tool)

G00 Z0.000000
G00 X171.816780 Y40.539590

G01 Z2 F100.0(Penetrate)
G03 X171.730721 Y39.558291 Z2 I3.287451 J-0.782729 F75.000000
G02 X171.559570 Y38.782000 Z2 I-1.457081 J-0.085766
G02 X171.217884 Y38.337150 Z2 I-1.531959 J0.823039
G03 X170.936510 Y37.992930 Z2 I1.158717 J-1.234275
G03 X170.500554 Y37.097511 Z2 I4.222293 J-2.609563
G02 X170.291780 Y36.600010 Z2 I-5.662633 J2.083737
G00 Z0.000000

(End cutting path id: path15)


(Start cutting path id: path15)
(Change tool to Default tool)

G00 Z0.000000
G00 X171.689690 Y38.633320

G01 Z2 F100.0(Penetrate)
G02 X172.047974 Y38.225606 Z2 I-1.913556 J-2.042841 F75.000000
G02 X172.452190 Y37.489570 Z2 I-2.808519 J-2.021394
G00 Z0.000000

(End cutting path id: path15)


(Start cutting path id: path15)
(Change tool to Default tool)

G00 Z0.000000
G00 X174.993860 Y38.760410

G01 Z2 F100.0(Penetrate)
G01 X174.993860 Y36.599990 Z2 F75.000000
G00 Z0.000000

(End cutting path id: path15)


(Start cutting path id: path15)
(Change tool to Default tool)

G00 Z0.000000
G00 X160.760470 Y42.700010

G01 Z2 F100.0(Penetrate)
G01 X160.782070 Y40.539590 Z2 F75.000000
G01 X160.887580 Y39.141680 Z2
G01 X160.993090 Y37.363100 Z2
G01 X161.014690 Y36.600010 Z2
G00 Z0.000000

(End cutting path id: path15)


(Start cutting path id: path15)
(Change tool to Default tool)

G00 Z0.000000
G00 X154.025110 Y38.252070

G01 Z2 F100.0(Penetrate)
G02 X153.934127 Y37.000461 Z2 I-9.763235 J0.080606 F75.000000
G03 X153.898030 Y36.599990 Z2 I4.240840 J-0.584115
G00 Z0.000000

(End cutting path id: path15)


(Start cutting path id: path15)
(Change tool to Default tool)

G00 Z0.000000
G00 X151.610470 Y39.650010

G01 Z2 F100.0(Penetrate)
G03 X151.918085 Y40.363071 Z2 I-2.325645 J1.426166 F75.000000
G02 X152.109190 Y41.047830 Z2 I44.583968 J-12.073642
G02 X152.308403 Y41.537755 Z2 I2.394520 J-0.688194
G03 X152.525550 Y41.991440 Z2 I-4.805051 J2.578647
G03 X153.174969 Y44.051322 Z2 I-10.501978 J4.443270
G02 X154.533680 Y45.838550 Z2 I2.580190 J-0.551464
G02 X155.021924 Y46.024096 Z2 I1.025606 J-1.963622
G03 X155.422970 Y46.131260 Z2 I-3.126877 J12.505861
G00 Z0.000000

(End cutting path id: path15)


(Start cutting path id: path15)
(Change tool to Default tool)

G00 Z0.000000
G00 X152.627190 Y41.937510

G01 Z2 F100.0(Penetrate)
G01 X153.262610 Y41.683340 Z2 F75.000000
G00 Z0.000000

(End cutting path id: path15)


(Start cutting path id: path15)
(Change tool to Default tool)

G00 Z0.000000
G00 X149.958440 Y37.362490

G01 Z2 F100.0(Penetrate)
G01 X150.593860 Y36.599990 Z2 F75.000000
G00 Z0.000000

(End cutting path id: path15)


(Start cutting path id: path15)
(Change tool to Default tool)

G00 Z0.000000
G00 X144.112610 Y39.395840

G01 Z2 F100.0(Penetrate)
G01 X143.500140 Y38.506060 Z2 F75.000000
G01 X142.850010 Y37.237880 Z2
G01 X142.316970 Y36.676690 Z2
G01 X141.189690 Y36.599990 Z2
G00 Z0.000000

(End cutting path id: path15)


(Start cutting path id: path15)
(Change tool to Default tool)

G00 Z0.000000
G00 X138.393860 Y37.997910

G01 Z2 F100.0(Penetrate)
G01 X138.393860 Y36.599990 Z2 F75.000000
G00 Z0.000000

(End cutting path id: path15)


(Start cutting path id: path15)
(Change tool to Default tool)

G00 Z0.000000
G00 X143.985530 Y40.285420

G01 Z2 F100.0(Penetrate)
G03 X144.381650 Y39.303594 Z2 I1.831707 J0.168186 F75.000000
G03 X145.129280 Y38.569800 Z2 I3.433548 J2.750529
G03 X147.000375 Y37.364517 Z2 I8.053670 J10.447611
G02 X147.925110 Y36.600010 Z2 I-1.394414 J-2.628187
G00 Z0.000000

(End cutting path id: path15)


(Start cutting path id: path15)
(Change tool to Default tool)

G00 Z0.000000
G00 X161.522920 Y51.850010

G01 Z2 F100.0(Penetrate)
G03 X161.266389 Y50.582986 Z2 I1.991205 J-1.062636 F75.000000
G02 X160.846320 Y48.418760 Z2 I-3.939555 J-0.358226
G02 X159.322548 Y46.340086 Z2 I-7.267459 J3.729572
G02 X157.202080 Y44.820810 Z2 I-5.824690 J5.890160
G01 X155.610110 Y45.369350 Z2
G01 X155.663110 Y46.236280 Z2
G02 X156.161808 Y46.736141 Z2 I1.166531 J-0.665118
G02 X156.693800 Y47.020840 Z2 I5.148420 J-8.980997
G00 Z0.000000

(End cutting path id: path15)


(Start cutting path id: path15)
(Change tool to Default tool)

G00 Z0.000000
G00 X161.141670 Y53.247920

G01 Z2 F100.0(Penetrate)
G01 X161.631470 Y51.939240 Z2 F75.000000
G01 X162.793750 Y51.197630 Z2
G01 X163.810420 Y49.816670 Z2
G00 Z0.000000

(End cutting path id: path15)


(Start cutting path id: path15)
(Change tool to Default tool)

G00 Z0.000000
G00 X169.656250 Y53.756260

G01 Z2 F100.0(Penetrate)
G03 X168.760676 Y52.362553 Z2 I3.222546 J-3.055353 F75.000000
G02 X167.711760 Y50.452090 Z2 I-8.541765 J3.446569
G02 X166.260472 Y48.875985 Z2 I-7.074142 J5.057685
G03 X164.905040 Y47.275010 Z2 I4.124913 J-4.866534
G03 X164.216490 Y45.352195 Z2 I4.561930 J-2.718294
G03 X164.064580 Y43.335420 Z2 I13.311524 J-2.016775
G00 Z0.000000

(End cutting path id: path15)


(Start cutting path id: path15)
(Change tool to Default tool)

G00 Z0.000000
G00 X141.970910 Y71.417300

G01 Z2 F100.0(Penetrate)
G02 X142.959224 Y71.621169 Z2 I0.791463 J-1.339343 F75.000000
G03 X144.112500 Y71.547910 Z2 I1.153276 J9.041101
G01 X149.195830 Y71.547910 Z2
G03 X150.362380 Y71.619910 Z2 I0.000000 J9.486244
G02 X151.478330 Y71.417300 Z2 I0.233801 J-1.886814
G02 X152.263485 Y70.675564 Z2 I-0.924495 J-1.765038
G03 X152.866540 Y69.768750 Z2 I9.836264 J5.887441
G02 X154.294174 Y67.798094 Z2 I-131.714648 J-96.922653
G03 X155.724250 Y65.829160 Z2 I114.290863 J81.507883
G03 X156.494730 Y64.899528 Z2 I8.795807 J6.505866
G02 X156.902420 Y63.795830 Z2 I-1.125697 J-1.042963
G02 X156.592311 Y62.972828 Z2 I-1.393274 J0.055062
G03 X156.058330 Y62.270830 Z2 I11.084593 J-8.985687
G03 X154.712856 Y60.109123 Z2 I16.561236 J-11.807501
G02 X152.996860 Y58.329780 Z2 I-4.033368 J2.172651
G02 X150.717281 Y57.950670 Z2 I-1.635027 J2.788292
G03 X148.306250 Y58.309680 Z2 I-4.593267 J-22.571854
G03 X145.797889 Y58.274328 Z2 I-1.092619 J-11.481103
G02 X143.355000 Y58.650730 Z2 I-0.556820 J4.501683
G02 X142.550702 Y59.297700 Z2 I0.872286 J1.907834
G03 X141.898640 Y60.110420 Z2 I-13.285054 J-9.990928
G03 X140.169199 Y61.954126 Z2 I-20.920570 J-17.891028
G02 X138.735480 Y63.922920 Z2 I5.019688 J5.161875
G02 X138.608639 Y64.838275 Z2 I1.309524 J0.647927
G02 X138.907080 Y65.702090 Z2 I3.034749 J-0.565020
G02 X139.981622 Y67.677665 Z2 I58.921471 J-30.768164
G03 X141.080150 Y69.641670 Z2 I-192.121013 J108.748392
G03 X141.467107 Y70.704488 Z2 I-3.191470 J1.763820
G02 X141.970910 Y71.417310 Z2 I1.046141 J-0.204936
G00 Z0.000000

(End cutting path id: path15)


(Footer)
M5
M2
(Using default footer. To add your own footer create file "footer" in the output dir.)
(end)
%