%
(Header)
(Generated by gcodetools from Inkscape.)
(Using default header. To add your own header create file "header" in the output dir.)
M3
(Header end.)
G21 (All units in mm)

(Start cutting path id: path9)
(Change tool to Default tool)

G00 Z0.000000
G00 X90.737500 Y102.556253

G01 Z2 F100.0(Penetrate)
G01 X91.372917 Y102.556253 Z2 F75.000000
G00 Z0.000000

(End cutting path id: path9)


(Start cutting path id: path10)
(Change tool to Default tool)

G00 Z0.000000
G00 X91.500000 Y102.556253

G01 Z2 F100.0(Penetrate)
G01 X93.279167 Y102.556253 Z2 F75.000000
G00 Z0.000000

(End cutting path id: path10)


(Start cutting path id: path10)
(Change tool to Default tool)

G00 Z0.000000
G00 X96.844854 Y102.403969

G01 Z2 F100.0(Penetrate)
G01 X97.727083 Y102.352979 Z2 F75.000000
G02 X98.453146 Y101.887644 Z2 I-0.532217 J-1.629524
G02 X98.797682 Y101.031253 Z2 I-0.951408 J-0.880264
G02 X98.710774 Y99.855703 Z2 I-6.399489 J-0.117873
G02 X97.978798 Y98.937320 Z2 I-1.192887 J0.199869
G02 X96.241275 Y99.751184 Z2 I-0.495860 J1.203042
G02 X96.241895 Y101.539587 Z2 I2.849769 J0.893213
G01 X96.844854 Y102.403969 Z2
G00 Z0.000000

(End cutting path id: path10)


(Start cutting path id: path9)
(Change tool to Default tool)

G00 Z0.000000
G00 X85.781347 Y102.065962

G01 Z2 F100.0(Penetrate)
G02 X86.941064 Y101.799294 Z2 I0.389897 J-0.959462 F75.000000
G02 X87.357730 Y100.777087 Z2 I-1.210622 J-1.089490
G02 X87.201358 Y99.332506 Z2 I-4.884870 J-0.201979
G02 X86.162011 Y98.185018 Z2 I-1.624407 J0.426878
G02 X84.082097 Y99.781294 Z2 I-0.539114 J1.450726
G02 X85.781347 Y102.065962 Z2 I2.732569 J-0.258129
G00 Z0.000000

(End cutting path id: path9)


(Start cutting path id: path9)
(Change tool to Default tool)

G00 Z0.000000
G00 X74.470833 Y78.918750

G01 Z2 F100.0(Penetrate)
G01 X74.979167 Y78.791670 Z2 F75.000000
G00 Z0.000000

(End cutting path id: path9)


(Start cutting path id: path9)
(Change tool to Default tool)

G00 Z0.000000
G00 X65.702083 Y79.427090

G01 Z2 F100.0(Penetrate)
G01 X67.100000 Y79.935420 Z2 F75.000000
G00 Z0.000000

(End cutting path id: path9)


(Start cutting path id: path9)
(Change tool to Default tool)

G00 Z0.000000
G00 X56.425000 Y79.300000

G01 Z2 F100.0(Penetrate)
G01 X56.933333 Y79.300000 Z2 F75.000000
G00 Z0.000000

(End cutting path id: path9)


(Start cutting path id: path9)
(Change tool to Default tool)

G00 Z0.000000
G00 X49.435417 Y85.908337

G01 Z2 F100.0(Penetrate)
G01 X49.435417 Y85.781254 Z2 F75.000000
G00 Z0.000000

(End cutting path id: path9)


(Start cutting path id: path9)
(Change tool to Default tool)

G00 Z0.000000
G00 X47.020833 Y87.306254

G01 Z2 F100.0(Penetrate)
G01 X47.656250 Y87.052087 Z2 F75.000000
G00 Z0.000000

(End cutting path id: path9)


(Start cutting path id: path10)
(Change tool to Default tool)

G00 Z0.000000
G00 X109.672920 Y80.062500

G01 Z2 F100.0(Penetrate)
G01 X110.308330 Y79.808340 Z2 F75.000000
G00 Z0.000000

(End cutting path id: path10)


(Start cutting path id: path10)
(Change tool to Default tool)

G00 Z0.000000
G00 X120.729170 Y79.681250

G01 Z2 F100.0(Penetrate)
G01 X122.635420 Y79.427090 Z2 F75.000000
G00 Z0.000000

(End cutting path id: path10)


(Start cutting path id: path10)
(Change tool to Default tool)

G00 Z0.000000
G00 X133.564580 Y86.289587

G01 Z2 F100.0(Penetrate)
G01 X135.216670 Y85.654171 Z2 F75.000000
G00 Z0.000000

(End cutting path id: path10)


(Start cutting path id: path10)
(Change tool to Default tool)

G00 Z0.000000
G00 X134.962500 Y84.002087

G01 Z2 F100.0(Penetrate)
G01 X135.979170 Y83.875004 Z2 F75.000000
G00 Z0.000000

(End cutting path id: path10)


(Footer)
M5
M2
(Using default footer. To add your own footer create file "footer" in the output dir.)
(end)
%