%
(Header)
(Generated by gcodetools from Inkscape.)
(Using default header. To add your own header create file "header" in the output dir.)
M3
(Header end.)
G21 (All units in mm)

(Start cutting path id: path14)
(Change tool to Default tool)

G00 Z0.000000
G00 X107.131250 Y71.929160

G01 Z2 F100.0(Penetrate)
G01 X110.181250 Y70.658330 Z2 F75.000000
G00 Z0.000000

(End cutting path id: path14)


(Start cutting path id: path14)
(Change tool to Default tool)

G00 Z0.000000
G00 X108.656250 Y62.270830

G01 Z2 F100.0(Penetrate)
G01 X114.120830 Y53.883330 Z2 F75.000000
G00 Z0.000000

(End cutting path id: path14)


(Start cutting path id: path14)
(Change tool to Default tool)

G00 Z0.000000
G00 X119.839540 Y45.495830

G01 Z2 F100.0(Penetrate)
G03 X119.219800 Y44.745941 Z2 I4.835889 J-4.627617 F75.000000
G02 X118.303170 Y43.769910 Z2 I-4.021803 J2.858599
G02 X117.743048 Y43.447527 Z2 I-1.288997 J1.591778
G03 X117.297880 Y43.239710 Z2 I1.199622 J-3.150434
G03 X116.568020 Y42.680149 Z2 I1.559286 J-2.789620
G03 X115.869560 Y41.810410 Z2 I4.180255 J-4.072357
G03 X115.182826 Y40.267284 Z2 I4.372302 J-2.870167
G03 X114.772780 Y38.633330 Z2 I76.459554 J-20.056191
G03 X114.620188 Y37.882794 Z2 I10.746888 J-2.575730
G02 X114.502140 Y37.238550 Z2 I-21.100426 J3.533414
G02 X114.414609 Y36.800938 Z2 I-251.377048 J50.052952
G03 X114.374960 Y36.600000 Z2 I28.932634 J-5.813315
G00 Z0.000000

(End cutting path id: path14)


(Start cutting path id: path14)
(Change tool to Default tool)

G00 Z0.000000
G00 X109.037500 Y37.997920

G01 Z2 F100.0(Penetrate)
G03 X108.226129 Y37.160379 Z2 I3.270191 J-3.979787 F75.000000
G03 X107.893750 Y36.600000 Z2 I2.143161 J-1.649942
G00 Z0.000000

(End cutting path id: path14)


(Start cutting path id: path14)
(Change tool to Default tool)

G00 Z0.000000
G00 X109.164580 Y39.395830

G01 Z2 F100.0(Penetrate)
G02 X109.142820 Y38.851060 Z2 I-6.941143 J0.004439 F75.000000
G03 X109.150580 Y38.252080 Z2 I3.244287 J-0.257507
G01 X109.672940 Y36.600000 Z2
G00 Z0.000000

(End cutting path id: path14)


(Start cutting path id: path14)
(Change tool to Default tool)

G00 Z0.000000
G00 X104.970790 Y44.987500

G01 Z2 F100.0(Penetrate)
G03 X104.567930 Y43.832542 Z2 I1.745128 J-1.256457 F75.000000
G02 X104.201820 Y41.810410 Z2 I-7.804323 J0.368775
G02 X103.720881 Y40.841834 Z2 I-3.447504 J1.108142
G03 X103.191630 Y39.904170 Z2 I4.558753 J-3.191316
G00 Z0.000000

(End cutting path id: path14)


(Start cutting path id: path14)
(Change tool to Default tool)

G00 Z0.000000
G00 X99.125000 Y38.506250

G01 Z2 F100.0(Penetrate)
G03 X98.906377 Y36.990438 Z2 I18.627508 J-3.460292 F75.000000
G03 X98.870833 Y36.600000 Z2 I16.211804 J-1.672679
G00 Z0.000000

(End cutting path id: path14)


(Start cutting path id: path14)
(Change tool to Default tool)

G00 Z0.000000
G00 X92.643710 Y43.208330

G01 Z2 F100.0(Penetrate)
G02 X91.968312 Y43.039480 Z2 I-2.014122 J6.618298 F75.000000
G03 X91.627043 Y42.954160 Z2 I0.676341 J-3.428955
G00 Z0.000000

(End cutting path id: path14)


(Start cutting path id: path14)
(Change tool to Default tool)

G00 Z0.000000
G00 X91.499960 Y42.954160

G01 Z2 F100.0(Penetrate)
G01 X91.627043 Y42.954160 Z2 F75.000000
G00 Z0.000000

(End cutting path id: path14)


(Start cutting path id: path14)
(Change tool to Default tool)

G00 Z0.000000
G00 X91.627083 Y51.214580

G01 Z2 F100.0(Penetrate)
G01 X95.185417 Y51.214580 Z2 F75.000000
G00 Z0.000000

(End cutting path id: path14)


(Start cutting path id: path14)
(Change tool to Default tool)

G00 Z0.000000
G00 X98.362500 Y56.933330

G01 Z2 F100.0(Penetrate)
G01 X98.489583 Y56.933330 Z2 F75.000000
G00 Z0.000000

(End cutting path id: path14)


(Start cutting path id: path14)
(Change tool to Default tool)

G00 Z0.000000
G00 X95.439583 Y66.083330

G01 Z2 F100.0(Penetrate)
G01 X96.837500 Y66.083330 Z2 F75.000000
G00 Z0.000000

(End cutting path id: path14)


(Start cutting path id: path14)
(Change tool to Default tool)

G00 Z0.000000
G00 X104.716660 Y47.656250

G01 Z2 F100.0(Penetrate)
G02 X104.719993 Y46.331119 Z2 I-8.664188 J-0.684362 F75.000000
G03 X104.993570 Y45.141160 Z2 I2.061755 J-0.152421
G03 X105.579139 Y44.488119 Z2 I1.861499 J1.080117
G02 X106.096920 Y43.716660 Z2 I-0.814183 J-1.105944
G02 X106.339165 Y42.016326 Z2 I-7.982463 J-2.004680
G02 X106.055120 Y40.285410 Z2 I-4.419402 J-0.163535
G02 X105.385317 Y38.798060 Z2 I-12.538068 J4.751814
G02 X104.589540 Y37.362500 Z2 I-32.773910 J17.229291
G00 Z0.000000

(End cutting path id: path14)


(Start cutting path id: path14)
(Change tool to Default tool)

G00 Z0.000000
G00 X118.441630 Y43.462500

G01 Z2 F100.0(Penetrate)
G02 X118.159442 Y42.145530 Z2 I-24.160886 J4.488252 F75.000000
G03 X117.955360 Y39.014580 Z2 I8.835601 J-2.148050
G03 X118.657709 Y37.294894 Z2 I3.347690 J0.363985
G02 X119.077040 Y36.600000 Z2 I-2.572693 J-2.026449
G00 Z0.000000

(End cutting path id: path14)


(Start cutting path id: path14)
(Change tool to Default tool)

G00 Z0.000000
G00 X126.447920 Y37.870830

G01 Z2 F100.0(Penetrate)
G01 X126.066670 Y36.600000 Z2 F75.000000
G00 Z0.000000

(End cutting path id: path14)


(Start cutting path id: path14)
(Change tool to Default tool)

G00 Z0.000000
G00 X126.193710 Y40.031250

G01 Z2 F100.0(Penetrate)
G02 X126.291500 Y38.922681 Z2 I-3.727179 J-0.887382 F75.000000
G03 X126.502990 Y38.047430 Z2 I1.546704 J-0.089441
G01 X127.972880 Y36.600000 Z2
G00 Z0.000000

(End cutting path id: path14)


(Start cutting path id: path14)
(Change tool to Default tool)

G00 Z0.000000
G00 X132.674960 Y39.777080

G01 Z2 F100.0(Penetrate)
G01 X133.418630 Y38.760420 Z2 F75.000000
G01 X133.618470 Y37.363090 Z2
G01 X133.691670 Y36.600000 Z2
G00 Z0.000000

(End cutting path id: path14)


(Start cutting path id: path14)
(Change tool to Default tool)

G00 Z0.000000
G00 X135.852080 Y48.927080

G01 Z2 F100.0(Penetrate)
G03 X134.543787 Y47.388414 Z2 I9.378983 J-9.300277 F75.000000
G03 X133.692160 Y45.750000 Z2 I5.039899 J-3.660216
G02 X133.419283 Y44.966895 Z2 I-83.241408 J28.566850
G03 X133.140780 Y44.097910 Z2 I14.406974 J-5.096439
G03 X132.858055 Y42.524650 Z2 I7.507014 J-2.161095
G03 X132.802080 Y41.047910 Z2 I19.687436 J-1.485667
G03 X132.805137 Y40.514481 Z2 I43.219791 J-0.019009
G02 X132.725980 Y40.031250 Z2 I-1.411963 J-0.016807
G02 X132.359446 Y39.210554 Z2 I-5.090328 J1.781211
G03 X132.166750 Y38.506250 Z2 I1.365434 J-0.752093
G02 X132.080659 Y37.309312 Z2 I-14.571991 J0.446540
G03 X132.039570 Y36.600000 Z2 I6.408680 J-0.727088
G00 Z0.000000

(End cutting path id: path14)


(Footer)
M5
M2
(Using default footer. To add your own footer create file "footer" in the output dir.)
(end)
%