%
(Header)
(Generated by gcodetools from Inkscape.)
(Using default header. To add your own header create file "header" in the output dir.)
M3
(Header end.)
G21 (All units in mm)

(Start cutting path id: path17)
(Change tool to Default tool)

G00 Z0.000000
G00 X55.154167 Y35.075010

G01 Z2 F100.0(Penetrate)
G03 X54.885363 Y33.839347 Z2 I6.505970 J-2.062368 F75.000000
G03 X54.991978 Y32.533930 Z2 I3.225665 J-0.393618
G01 X56.411664 Y31.974600 Z2
G03 X57.297121 Y33.669138 Z2 I-1.184613 J1.697613
G02 X57.458630 Y35.456260 Z2 I10.134702 J-0.015055
G01 X58.204755 Y36.295930 Z2
G01 X59.407732 Y35.577850 Z2
G02 X60.774720 Y32.726115 Z2 I-5.183962 J-4.238449
G02 X60.110417 Y29.483340 Z2 I-4.055890 J-0.858556
G00 Z0.000000

(End cutting path id: path17)


(Start cutting path id: path17)
(Change tool to Default tool)

G00 Z0.000000
G00 X56.806252 Y29.229170

G01 Z2 F100.0(Penetrate)
G01 X56.170835 Y27.068760 Z2 F75.000000
G00 Z0.000000

(End cutting path id: path17)


(Start cutting path id: path17)
(Change tool to Default tool)

G00 Z0.000000
G00 X61.127087 Y23.637510

G01 Z2 F100.0(Penetrate)
G01 X61.381254 Y21.858340 Z2 F75.000000
G00 Z0.000000

(End cutting path id: path17)


(Start cutting path id: path17)
(Change tool to Default tool)

G00 Z0.000000
G00 X53.375000 Y21.095840

G01 Z2 F100.0(Penetrate)
G03 X53.196681 Y19.867714 Z2 I3.666058 J-1.159307 F75.000000
G03 X53.247917 Y18.808340 Z2 I17.428165 J0.311985
G00 Z0.000000

(End cutting path id: path17)


(Start cutting path id: path17)
(Change tool to Default tool)

G00 Z0.000000
G00 X48.291667 Y15.377090

G01 Z2 F100.0(Penetrate)
G01 X48.291667 Y15.122920 Z2 F75.000000
G00 Z0.000000

(End cutting path id: path17)


(Start cutting path id: path17)
(Change tool to Default tool)

G00 Z0.000000
G00 X45.750000 Y15.504170

G01 Z2 F100.0(Penetrate)
G01 X45.877083 Y15.377090 Z2 F75.000000
G00 Z0.000000

(End cutting path id: path17)


(Start cutting path id: path17)
(Change tool to Default tool)

G00 Z0.000000
G00 X45.750000 Y21.477090

G01 Z2 F100.0(Penetrate)
G01 X45.877083 Y21.350010 Z2 F75.000000
G00 Z0.000000

(End cutting path id: path17)


(Start cutting path id: path17)
(Change tool to Default tool)

G00 Z0.000000
G00 X47.529171 Y22.620840

G01 Z2 F100.0(Penetrate)
G02 X47.705641 Y22.359808 Z2 I-4.396624 J-3.162496 F75.000000
G02 X47.893555 Y21.857750 Z2 I-1.100004 J-0.697913
G02 X47.960982 Y21.028973 Z2 I-5.898574 J-0.897021
G02 X47.782357 Y20.079170 Z2 I-2.464603 J-0.028192
G02 X46.731813 Y17.988613 Z2 I-13.177284 J5.312596
G02 X45.877087 Y16.775010 Z2 I-9.677289 J5.907808
G00 Z0.000000

(End cutting path id: path17)


(Start cutting path id: path17)
(Change tool to Default tool)

G00 Z0.000000
G00 X47.529169 Y23.891670

G01 Z2 F100.0(Penetrate)
G03 X47.543970 Y23.463749 Z2 I6.058071 J-0.004675 F75.000000
G02 X47.452489 Y22.888250 Z2 I-1.288322 J-0.090229
G02 X46.369031 Y21.650677 Z2 I-2.325506 J0.942857
G03 X45.877087 Y21.350010 Z2 I4.632165 J-8.131823
G00 Z0.000000

(End cutting path id: path17)


(Start cutting path id: path17)
(Change tool to Default tool)

G00 Z0.000000
G00 X45.750002 Y28.593760

G01 Z2 F100.0(Penetrate)
G01 X46.512502 Y27.577090 Z2 F75.000000
G00 Z0.000000

(End cutting path id: path17)


(Start cutting path id: path17)
(Change tool to Default tool)

G00 Z0.000000
G00 X46.766669 Y32.152090

G01 Z2 F100.0(Penetrate)
G02 X46.223671 Y30.994277 Z2 I-8.497411 J3.278930 F75.000000
G02 X45.877085 Y30.500010 Z2 I-2.570030 J1.433489
G00 Z0.000000

(End cutting path id: path17)


(Start cutting path id: path17)
(Change tool to Default tool)

G00 Z0.000000
G00 X51.214583 Y34.058340

G01 Z2 F100.0(Penetrate)
G01 X51.637116 Y33.295250 Z2 F75.000000
G01 X52.482867 Y31.770840 Z2
G01 X52.739583 Y29.483340 Z2
G00 Z0.000000

(End cutting path id: path17)


(Start cutting path id: path17)
(Change tool to Default tool)

G00 Z0.000000
G00 X51.468750 Y35.583340

G01 Z2 F100.0(Penetrate)
G03 X51.376367 Y34.850116 Z2 I750.751140 J-94.963325 F75.000000
G02 X51.047590 Y34.094620 Z2 I-1.450800 J0.182074
G02 X50.586678 Y33.579113 Z2 I-7.928855 J6.625352
G03 X50.161145 Y32.914590 Z2 I1.483353 J-1.418385
G03 X49.440841 Y30.499570 Z2 I13.603116 J-5.372197
G03 X49.181250 Y27.958340 Z2 I12.308732 J-2.541230
G00 Z0.000000

(End cutting path id: path17)


(Start cutting path id: path17)
(Change tool to Default tool)

G00 Z0.000000
G00 X65.829167 Y32.787510

G01 Z2 F100.0(Penetrate)
G02 X66.043758 Y32.463440 Z2 I-2.327031 J-1.773982 F75.000000
G02 X66.363682 Y31.643760 Z2 I-2.621365 J-1.495403
G03 X66.592341 Y30.755206 Z2 I17.163243 J3.943069
G03 X66.955755 Y29.864590 Z2 I4.232265 J1.207512
G02 X67.858956 Y27.918304 Z2 I-15.115077 J-8.197080
G02 X68.236885 Y25.797920 Z2 I-5.159946 J-2.013560
G02 X67.957347 Y23.250789 Z2 I-14.248681 J0.274837
G03 X67.535181 Y20.714590 Z2 I36.650578 J-7.403944
G03 X67.469783 Y19.435651 Z2 I7.997449 J-1.050087
G03 X68.042828 Y18.267250 Z2 I1.568438 J0.044518
G03 X70.518866 Y19.124287 Z2 I0.975078 J1.188173
G03 X70.890927 Y21.477090 Z2 I-19.298997 J4.257672
G03 X71.123849 Y24.092795 Z2 I-169.239157 J16.388515
G03 X70.856707 Y26.687510 Z2 I-7.116895 J0.578382
G03 X70.364383 Y28.085926 Z2 I-13.622800 J-4.010146
G02 X69.912407 Y29.483340 Z2 I8.723733 J3.593384
G02 X69.809960 Y30.354458 Z2 I3.627815 J0.868227
G03 X69.760906 Y31.008340 Z2 I-4.337760 J0.003361
G03 X69.398867 Y32.002995 Z2 I-2.653021 J-0.402444
G02 X69.006252 Y32.787510 Z2 I4.484788 J2.734936
G00 Z0.000000

(End cutting path id: path17)


(Start cutting path id: path17)
(Change tool to Default tool)

G00 Z0.000000
G00 X70.022919 Y31.008340

G01 Z2 F100.0(Penetrate)
G02 X71.513938 Y29.948851 Z2 I-3.792210 J-6.915678 F75.000000
G02 X73.450541 Y27.322920 Z2 I-5.464460 J-6.057075
G02 X74.497295 Y24.626147 Z2 I-20.563000 J-9.533080
G02 X75.174403 Y21.858340 Z2 I-20.451865 J-6.470006
G02 X75.320976 Y20.500077 Z2 I-10.207498 J-1.788553
G03 X75.591052 Y19.189590 Z2 I4.151644 J0.172532
G03 X76.763308 Y17.700492 Z2 I2.976572 J1.137269
G03 X78.156252 Y16.775010 Z2 I30.526395 J44.434320
G00 Z0.000000

(End cutting path id: path17)


(Start cutting path id: path17)
(Change tool to Default tool)

G00 Z0.000000
G00 X77.902085 Y15.758340

G01 Z2 F100.0(Penetrate)
G01 X78.576432 Y14.252170 Z2 F75.000000
G01 X77.355999 Y13.441820 Z2
G03 X76.853464 Y11.409458 Z2 I1.920312 J-1.553139
G03 X78.042504 Y9.693740 Z2 I2.564196 J0.507181
G03 X83.238849 Y10.093530 Z2 I2.324470 J3.757399
G03 X86.041597 Y14.106260 Z2 I-6.342383 J7.415100
G03 X85.732671 Y17.839922 Z2 I-4.132980 J1.537646
G02 X84.259486 Y21.222920 Z2 I14.497904 J8.325625
G02 X84.163135 Y23.509869 Z2 I4.284781 J1.326026
G02 X85.172506 Y25.402940 Z2 I3.873155 J-0.849508
G02 X85.733018 Y25.816565 Z2 I1.475882 J-1.413406
G02 X86.289585 Y26.052090 Z2 I2.111924 J-4.215291
G00 Z0.000000

(End cutting path id: path17)


(Start cutting path id: path17)
(Change tool to Default tool)

G00 Z0.000000
G00 X89.212500 Y18.045840

G01 Z2 F100.0(Penetrate)
G01 X89.899595 Y16.775590 Z2 F75.000000
G01 X90.612278 Y16.052910 Z2
G01 X91.372917 Y16.012510 Z2
G00 Z0.000000

(End cutting path id: path17)


(Start cutting path id: path17)
(Change tool to Default tool)

G00 Z0.000000
G00 X89.212500 Y17.664590

G01 Z2 F100.0(Penetrate)
G03 X88.894566 Y17.263964 Z2 I2.489765 J-2.302326 F75.000000
G03 X88.520600 Y16.393760 Z2 I2.082062 J-1.410214
G02 X87.924805 Y14.122985 Z2 I-28.549763 J6.277200
G03 X88.288303 Y11.696770 Z2 I2.722376 J-0.832469
G03 X90.304116 Y10.573720 Z2 I2.117980 J1.430995
G03 X91.372917 Y10.547920 Z2 I1.348398 J33.708330
G00 Z0.000000

(End cutting path id: path17)


(Start cutting path id: path17)
(Change tool to Default tool)

G00 Z0.000000
G00 X72.310417 Y17.156260

G01 Z2 F100.0(Penetrate)
G01 X71.420833 Y15.885420 Z2 F75.000000
G00 Z0.000000

(End cutting path id: path17)


(Start cutting path id: path17)
(Change tool to Default tool)

G00 Z0.000000
G00 X58.204167 Y12.708340

G01 Z2 F100.0(Penetrate)
G01 X58.204167 Y11.945840 Z2 F75.000000
G00 Z0.000000

(End cutting path id: path17)


(Start cutting path id: path17)
(Change tool to Default tool)

G00 Z0.000000
G00 X55.789583 Y9.404170

G01 Z2 F100.0(Penetrate)
G01 X57.387735 Y10.929170 Z2 F75.000000
G01 X58.204167 Y11.945840 Z2
G02 X59.553775 Y10.365583 Z2 I-4.404648 J-5.128202
G03 X62.270833 Y8.943590 Z2 I2.555161 J1.575454
G03 X62.974615 Y9.040130 Z2 I-0.233580 J4.316404
G03 X63.668750 Y9.238850 Z2 I-1.300202 J5.853310
G03 X66.290301 Y10.564294 Z2 I-3.796211 J10.763663
G03 X68.430648 Y12.581260 Z2 I-5.236345 J7.700779
G03 X69.512158 Y14.503339 Z2 I-6.088025 J4.690903
G02 X71.164313 Y15.776480 Z2 I1.874447 J-0.723898
G01 X72.818750 Y15.087130 Z2
G03 X73.905020 Y15.316627 Z2 I-0.021475 J2.787194
G02 X74.979167 Y15.607820 Z2 I1.541279 J-3.558695
G02 X76.367371 Y15.563879 Z2 I0.551044 J-4.541518
G03 X77.629090 Y15.707940 Z2 I0.396106 J2.128049
G01 X78.323733 Y16.719900 Z2
G02 X79.315007 Y17.041272 Z2 I1.152548 J-1.865562
G03 X80.362655 Y17.576140 Z2 I-0.111488 J1.511821
G03 X80.458661 Y20.528871 Z2 I-1.823902 J1.537229
G02 X79.438947 Y23.256260 Z2 I4.277199 J3.153475
G02 X80.969709 Y28.325529 Z2 I7.232458 J0.581777
G03 X84.060428 Y32.660420 Z2 I-44.144315 J34.743564
G03 X84.627726 Y33.637990 Z2 I-10.296417 J6.628555
G02 X85.191527 Y34.561670 Z2 I7.026665 J-3.655064
G01 X86.030317 Y35.260340 Z2
G01 X86.650534 Y34.566580 Z2
G03 X87.193104 Y33.376600 Z2 I5.675869 J1.869223
G03 X88.068847 Y32.274170 Z2 I4.530982 J2.700250
G02 X89.617398 Y30.783333 Z2 I-948.459944 J-986.726675
G02 X90.800848 Y29.102090 Z2 I-3.773315 J-3.913234
G03 X91.134286 Y28.455767 Z2 I6.236654 J2.808323
G02 X91.354188 Y27.831260 Z2 I-1.505699 J-0.881156
G02 X91.445009 Y25.718442 Z2 I-10.009003 J-1.488605
G03 X91.372918 Y23.383340 Z2 I37.782155 J-2.335102
G03 X91.389030 Y22.657866 Z2 I16.340682 J-0.000000
G02 X91.354188 Y21.985420 Z2 I-3.502425 J-0.155650
G02 X91.133281 Y21.386260 Z2 I-1.549311 J0.230918
G03 X90.823396 Y20.841670 Z2 I6.454862 J-4.033441
G03 X90.421332 Y20.030051 Z2 I24.816101 J-12.798930
G03 X90.037169 Y19.189590 Z2 I27.824317 J-13.226131
G02 X89.554040 Y18.420782 Z2 I-2.831957 J1.243433
G02 X89.212500 Y18.045840 Z2 I-6.327272 J5.420571
G02 X88.905162 Y18.418139 Z2 I3.159170 J2.920939
G02 X88.561097 Y19.189590 Z2 I1.598958 J1.175583
G03 X87.793745 Y20.950340 Z2 I-4.598394 J-0.956440
G02 X86.792231 Y22.747920 Z2 I7.742984 J5.491757
G02 X86.565039 Y23.764699 Z2 I2.682064 J1.133061
G02 X86.543750 Y24.781260 Z2 I26.723972 J1.068149
G03 X86.487494 Y25.482476 Z2 I-4.507258 J-0.008737
G02 X86.461970 Y26.179170 Z2 I2.838938 J0.452822
G02 X86.759147 Y27.334918 Z2 I3.582100 J-0.304985
G02 X87.433334 Y28.593760 Z2 I8.912072 J-3.963002
G00 Z0.000000

(End cutting path id: path17)


(Start cutting path id: path17)
(Change tool to Default tool)

G00 Z0.000000
G00 X81.714583 Y35.964590

G01 Z2 F100.0(Penetrate)
G01 X81.714583 Y35.202090 Z2 F75.000000
G00 Z0.000000

(End cutting path id: path17)


(Start cutting path id: path17)
(Change tool to Default tool)

G00 Z0.000000
G00 X73.708333 Y36.472920

G01 Z2 F100.0(Penetrate)
G03 X74.375778 Y36.249087 Z2 I2.990650 J7.810751 F75.000000
G02 X75.360417 Y35.851430 Z2 I-1.443406 J-4.991880
G02 X77.867327 Y33.410310 Z2 I-2.898460 J-5.484372
G02 X78.029167 Y29.991670 Z2 I-3.322217 J-1.870426
G00 Z0.000000

(End cutting path id: path17)


(Start cutting path id: path17)
(Change tool to Default tool)

G00 Z0.000000
G00 X71.293750 Y35.964590

G01 Z2 F100.0(Penetrate)
G01 X70.912500 Y35.329170 Z2 F75.000000
G00 Z0.000000

(End cutting path id: path17)


(Start cutting path id: path17)
(Change tool to Default tool)

G00 Z0.000000
G00 X66.337500 Y34.947920

G01 Z2 F100.0(Penetrate)
G03 X66.140024 Y33.982058 Z2 I4.444259 J-1.411773 F75.000000
G02 X65.753073 Y32.936160 Z2 I-2.170571 J0.208517
G02 X65.254210 Y32.344061 Z2 I-3.635993 J2.557240
G03 X64.899478 Y31.770740 Z2 I1.029193 J-1.033198
G03 X64.627538 Y30.691692 Z2 I7.147121 J-2.374997
G02 X64.406441 Y29.483340 Z2 I-75.267221 J13.147547
G03 X64.366680 Y24.209005 Z2 I14.352408 J-2.745515
G02 X65.156978 Y19.062510 Z2 I-118.926139 J-20.896283
G02 X65.285864 Y16.629996 Z2 I-15.522613 J-2.042131
G02 X64.049509 Y14.437100 Z2 I-2.681554 J0.066884
G01 X62.431452 Y15.631260 Z2
G03 X62.473139 Y18.039990 Z2 I-649.589751 J12.446940
G03 X62.281031 Y20.460420 Z2 I-12.843481 J0.198460
G01 X61.628552 Y21.618100 Z2
G01 X60.670329 Y20.997680 Z2
G01 X59.984706 Y20.671640 Z2
G02 X59.018981 Y21.268064 Z2 I0.121057 J1.276075
G03 X58.222602 Y22.366670 Z2 I-8.419886 J-5.265619
G02 X57.223339 Y24.130022 Z2 I4.344274 J3.626638
G02 X56.737511 Y25.925010 Z2 I12.342795 J4.303919
G01 X56.043652 Y26.914800 Z2
G01 X55.443732 Y26.426380 Z2
G03 X55.228055 Y25.900241 Z2 I1.843485 J-1.062964
G03 X55.043655 Y25.162510 Z2 I36.472483 J-9.508409
G03 X55.198045 Y21.335091 Z2 I6.855602 J-1.640283
G02 X55.913039 Y17.537510 Z2 I-14.236476 J-4.646489
G02 X55.949616 Y16.034761 Z2 I-23.174574 J-1.315888
G02 X55.257717 Y14.685490 Z2 I-1.688056 J0.013590
G01 X54.168389 Y15.250500 Z2
G02 X54.168125 Y16.545166 Z2 I4.045327 J0.648157
G03 X53.954033 Y17.918270 Z2 I-2.227393 J0.355951
G01 X52.998653 Y18.648700 Z2
G01 X52.264197 Y17.791670 Z2
G03 X51.672349 Y16.419036 Z2 I7.538448 J-4.064319
G03 X51.480223 Y14.868760 Z2 I3.799599 J-1.257927
G03 X51.764117 Y13.179955 Z2 I9.152655 J0.670328
G02 X51.709581 Y11.437510 Z2 I-2.933289 J-0.780269
G02 X50.828111 Y10.017558 Z2 I-3.432558 J1.147270
G02 X49.308333 Y9.406620 Z2 I-1.482342 J1.491718
G01 X48.099473 Y10.168640 Z2
G02 X48.311004 Y11.907802 Z2 I3.131318 J0.501588
G03 X48.659679 Y13.852090 Z2 I-4.103503 J1.739301
G01 X48.343932 Y14.905820 Z2
G01 X46.893750 Y14.696760 Z2
G02 X46.134862 Y15.094738 Z2 I0.078189 J1.071631
G03 X45.877083 Y15.377090 Z2 I-2.392271 J-1.925223
G00 Z0.000000

(End cutting path id: path17)


(Footer)
M5
M2
(Using default footer. To add your own footer create file "footer" in the output dir.)
(end)
%