%
(Header)
(Generated by gcodetools from Inkscape.)
(Using default header. To add your own header create file "header" in the output dir.)
M3
(Header end.)
G21 (All units in mm)

(Start cutting path id: path11)
(Change tool to Default tool)

G00 Z0.000000
G00 X163.302080 Y109.164586

G01 Z2 F100.0(Penetrate)
G02 X164.174263 Y108.065801 Z2 I-5.483837 J-5.248454 F75.000000
G03 X165.210200 Y107.176652 Z2 I2.046115 J1.335852
G03 X166.162933 Y107.081112 Z2 I0.617559 J1.360204
G02 X167.114580 Y107.268532 Z2 I3.417596 J-14.843452
G03 X169.190342 Y107.837281 Z2 I-1.666082 J10.153013
G03 X170.927080 Y109.164582 Z2 I-1.436577 J3.679612
G00 Z0.000000

(End cutting path id: path11)


(Start cutting path id: path11)
(Change tool to Default tool)

G00 Z0.000000
G00 X163.812280 Y101.027718

G01 Z2 F100.0(Penetrate)
G02 X165.055546 Y101.189271 Z2 I0.846791 J-1.651981 F75.000000
G03 X166.352080 Y101.033118 Z2 I1.464429 J6.698516
G03 X168.143129 Y101.157048 Z2 I0.235302 J9.603578
G02 X169.771470 Y100.881421 Z2 I0.412275 J-2.512120
G02 X171.134505 Y99.493104 Z2 I-1.590130 J-2.924439
G03 X172.153600 Y97.727088 Z2 I20.687090 J10.760618
G02 X172.463771 Y97.128651 Z2 I-3.201311 J-2.038845
G02 X172.548670 Y96.456255 Z2 I-1.202941 J-0.493446
G02 X171.806553 Y94.850250 Z2 I-3.015694 J0.419055
G03 X170.654970 Y93.406255 Z2 I12.674289 J-11.288905
G03 X169.943705 Y92.301055 Z2 I11.407273 J-8.122765
G02 X169.015830 Y91.393808 Z2 I-2.091938 J1.211393
G02 X166.879089 Y90.882408 Z2 I-2.001362 J3.642546
G03 X164.572920 Y90.869589 Z2 I-0.985098 J-30.226462
G02 X163.863343 Y90.850219 Z2 I-0.945072 J21.614567
G02 X163.203530 Y91.068353 Z2 I-0.011666 J1.071686
G02 X161.825466 Y93.183574 Z2 I2.264198 J2.981637
G03 X160.975850 Y95.693755 Z2 I-13.906772 J-3.308122
G02 X160.725067 Y96.321826 Z2 I7.861786 J3.503250
G02 X160.654020 Y96.964588 Z2 I1.333900 J0.472748
G02 X160.851899 Y97.505525 Z2 I1.252262 J-0.151426
G02 X161.193050 Y97.981255 Z2 I5.957692 J-3.912134
G03 X162.356264 Y99.669718 Z2 I-13.483938 J10.534247
G02 X163.812280 Y101.027723 Z2 I3.117052 J-1.882466
G00 Z0.000000

(End cutting path id: path11)


(Start cutting path id: path11)
(Change tool to Default tool)

G00 Z0.000000
G00 X147.543750 Y99.125004

G01 Z2 F100.0(Penetrate)
G01 X149.195830 Y98.362505 Z2 F75.000000
G00 Z0.000000

(End cutting path id: path11)


(Start cutting path id: path11)
(Change tool to Default tool)

G00 Z0.000000
G00 X144.366670 Y95.947921

G01 Z2 F100.0(Penetrate)
G01 X145.891670 Y95.693755 Z2 F75.000000
G00 Z0.000000

(End cutting path id: path11)


(Start cutting path id: path11)
(Change tool to Default tool)

G00 Z0.000000
G00 X159.870830 Y73.200000

G01 Z2 F100.0(Penetrate)
G03 X159.763531 Y73.413054 Z2 I-3.587766 J-1.673333 F75.000000
G03 X159.472520 Y73.838560 Z2 I-2.200216 J-1.192501
G03 X158.330977 Y74.876829 Z2 I-4.550653 J-3.856615
G02 X157.732480 Y76.631250 Z2 I0.894588 J1.284471
G02 X159.150747 Y79.134976 Z2 I6.569250 J-2.067673
G03 X160.971240 Y81.460420 Z2 I-17.924607 J15.907745
G03 X161.546553 Y82.364171 Z2 I-12.378315 J8.514825
G02 X162.297280 Y83.018173 Z2 I1.352549 J-0.794708
G02 X162.900756 Y83.120447 Z2 I0.524297 J-1.262084
G03 X163.556250 Y83.123879 Z2 I0.300636 J5.180322
G03 X165.909461 Y83.349731 Z2 I-2.967130 J43.287607
G02 X168.258330 Y83.493754 Z2 I2.340282 J-18.941762
G01 X169.247940 Y83.363142 Z2
G02 X169.864103 Y82.626814 Z2 I-0.729459 J-1.236384
G03 X170.260290 Y81.714590 Z2 I8.647856 J3.213691
G01 X172.483460 Y77.266670 Z2
G03 X173.061033 Y76.224478 Z2 I12.569307 J6.284653
G02 X173.317350 Y75.106250 Z2 I-1.541460 J-0.941819
G02 X172.601129 Y73.740223 Z2 I-2.043182 J0.200485
G03 X172.197920 Y73.200000 Z2 I0.968754 J-1.143639
G00 Z0.000000

(End cutting path id: path11)


(Footer)
M5
M2
(Using default footer. To add your own footer create file "footer" in the output dir.)
(end)
%