%
(Header)
(Generated by gcodetools from Inkscape.)
(Using default header. To add your own header create file "header" in the output dir.)
M3
(Header end.)
G21 (All units in mm)

(Start cutting path id: path19)
(Change tool to Default tool)

G00 Z0.000000
G00 X142.841670 Y36.472920

G01 Z2 F100.0(Penetrate)
G01 X141.570830 Y35.710420 Z2 F75.000000
G00 Z0.000000

(End cutting path id: path19)


(Start cutting path id: path19)
(Change tool to Default tool)

G00 Z0.000000
G00 X142.333330 Y33.168760

G01 Z2 F100.0(Penetrate)
G03 X142.397267 Y30.738529 Z2 I46.421037 J0.005342 F75.000000
G02 X142.460510 Y28.085420 Z2 I-46.244122 J-2.429638
G02 X142.359179 Y27.105311 Z2 I-5.048577 J0.026667
G03 X142.421310 Y26.088370 Z2 I1.928844 J-0.392524
G03 X142.789393 Y25.509564 Z2 I1.348236 J0.450949
G02 X143.245290 Y24.908340 Z2 I-1.619634 J-1.701599
G03 X144.260994 Y23.316374 Z2 I10.385541 J5.506168
G02 X144.988380 Y21.477090 Z2 I-2.937125 J-2.225024
G02 X144.776531 Y20.095438 Z2 I-2.734361 J-0.287807
G03 X144.223330 Y18.808340 Z2 I199.133633 J-86.350986
G03 X143.468267 Y16.925321 Z2 I43.701484 J-18.616556
G03 X142.895620 Y14.995840 Z2 I13.185067 J-4.962886
G03 X142.738807 Y12.699608 Z2 I7.578944 J-1.671047
G03 X144.493770 Y11.225210 Z2 I1.605858 J0.129782
G03 X145.822792 Y12.701231 Z2 I-0.135560 J1.458401
G02 X145.913750 Y14.614590 Z2 I16.096372 J0.193646
G02 X146.357474 Y16.191811 Z2 I4.894186 J-0.525869
G02 X147.291470 Y17.537510 Z2 I4.500928 J-2.126938
G02 X148.240952 Y18.371160 Z2 I5.790074 J-5.637051
G03 X148.959730 Y19.037010 Z2 I-2.802054 J3.745668
G03 X149.270478 Y19.781259 Z2 I-0.955789 J0.836071
G02 X149.371970 Y20.587510 Z2 I7.671192 J-0.556148
G02 X149.590230 Y21.776635 Z2 I171.822281 J-30.922769
G02 X149.831270 Y23.002090 Z2 I66.525669 J-12.448806
G00 Z0.000000

(End cutting path id: path19)


(Start cutting path id: path19)
(Change tool to Default tool)

G00 Z0.000000
G00 X146.272950 Y27.322920

G01 Z2 F100.0(Penetrate)
G02 X146.953241 Y26.268373 Z2 I-2.296105 J-2.227925 F75.000000
G03 X148.052110 Y24.400010 Z2 I6.483836 J2.556109
G00 Z0.000000

(End cutting path id: path19)


(Start cutting path id: path19)
(Change tool to Default tool)

G00 Z0.000000
G00 X142.333360 Y25.925010

G01 Z2 F100.0(Penetrate)
G03 X141.684881 Y24.395864 Z2 I2.139584 J-1.809429 F75.000000
G02 X141.133720 Y21.604170 Z2 I-14.966634 J1.504592
G02 X140.432297 Y19.790115 Z2 I-11.764457 J3.506213
G03 X139.930740 Y17.918760 Z2 I4.710909 J-2.265500
G03 X140.264186 Y14.661577 Z2 I9.245966 J-0.699127
G02 X140.530760 Y11.310420 Z2 I-8.127298 J-2.332683
G02 X140.286899 Y10.188932 Z2 I-6.112054 J0.741775
G02 X139.629700 Y9.243850 Z2 I-1.855260 J0.589080
G02 X138.175738 Y8.844896 Z2 I-1.205168 J1.543248
G03 X137.377110 Y8.895840 Z2 I-0.798628 J-6.234476
G00 Z0.000000

(End cutting path id: path19)


(Start cutting path id: path19)
(Change tool to Default tool)

G00 Z0.000000
G00 X137.250020 Y9.022920

G01 Z2 F100.0(Penetrate)
G01 X137.377100 Y8.895840 Z2 F75.000000
G00 Z0.000000

(End cutting path id: path19)


(Start cutting path id: path19)
(Change tool to Default tool)

G00 Z0.000000
G00 X155.550020 Y17.664590

G01 Z2 F100.0(Penetrate)
G02 X155.704831 Y19.000418 Z2 I7.107102 J-0.146766 F75.000000
G02 X156.439600 Y19.952090 Z2 I1.359067 J-0.289824
G00 Z0.000000

(End cutting path id: path19)


(Start cutting path id: path19)
(Change tool to Default tool)

G00 Z0.000000
G00 X159.870850 Y24.781260

G01 Z2 F100.0(Penetrate)
G02 X160.149764 Y24.427701 Z2 I-3.698656 J-3.204568 F75.000000
G02 X160.486070 Y23.764590 Z2 I-1.988655 J-1.425412
G03 X160.957751 Y22.400348 Z2 I42.746085 J14.015610
G03 X162.158260 Y21.354710 Z2 I1.545297 J0.562194
G01 X163.274060 Y21.987190 Z2
G02 X163.666149 Y22.499649 Z2 I2.720717 J-1.675427
G02 X163.937520 Y22.747920 Z2 I1.775065 J-1.667780
G00 Z0.000000

(End cutting path id: path19)


(Start cutting path id: path19)
(Change tool to Default tool)

G00 Z0.000000
G00 X164.064610 Y25.162510

G01 Z2 F100.0(Penetrate)
G02 X164.035167 Y23.886338 Z2 I-27.671770 J-0.000000 F75.000000
G03 X164.155410 Y23.002090 Z2 I2.472128 J-0.114131
G03 X164.471626 Y22.368959 Z2 I2.299902 J0.753150
G02 X164.777190 Y21.731260 Z2 I-1.784715 J-1.247232
G02 X164.972598 Y21.038408 Z2 I-39.094115 J-11.399854
G03 X165.249830 Y20.333340 Z2 I3.372763 J0.919130
G03 X166.333196 Y18.588567 Z2 I12.560906 J6.590600
G02 X167.093520 Y16.775010 Z2 I-3.472958 J-2.522178
G03 X167.348136 Y16.033831 Z2 I2.352235 J0.393736
G03 X167.622940 Y15.631260 Z2 I2.084281 J1.127698
G00 Z0.000000

(End cutting path id: path19)


(Start cutting path id: path19)
(Change tool to Default tool)

G00 Z0.000000
G00 X167.495850 Y15.758340

G01 Z2 F100.0(Penetrate)
G01 X166.733350 Y14.741670 Z2 F75.000000
G00 Z0.000000

(End cutting path id: path19)


(Start cutting path id: path19)
(Change tool to Default tool)

G00 Z0.000000
G00 X166.733350 Y13.343760

G01 Z2 F100.0(Penetrate)
G01 X166.479190 Y13.089590 Z2 F75.000000
G00 Z0.000000

(End cutting path id: path19)


(Start cutting path id: path19)
(Change tool to Default tool)

G00 Z0.000000
G00 X160.633340 Y28.085420

G01 Z2 F100.0(Penetrate)
G03 X160.316260 Y26.376885 Z2 I6.690848 J-2.125416 F75.000000
G02 X159.872410 Y24.929910 Z2 I-3.201377 J0.190440
G03 X159.313566 Y23.980867 Z2 I128.964123 J-76.579563
G03 X158.992730 Y22.620840 Z2 I2.062737 J-1.204465
G03 X159.415519 Y20.465757 Z2 I8.549043 J0.558156
G03 X160.238070 Y18.427090 Z2 I17.032335 J5.686851
G03 X160.723708 Y17.620102 Z2 I4.390238 J2.092388
G02 X161.109510 Y16.775010 Z2 I-1.785135 J-1.325559
G02 X161.088560 Y15.030822 Z2 I-3.738076 J-0.827321
G02 X159.995970 Y13.618810 Z2 I-2.141286 J0.528169
G02 X157.306994 Y14.236047 Z2 I-0.993424 J1.838017
G02 X156.257990 Y16.393760 Z2 I5.704481 J4.107169
G01 X155.302220 Y17.474360 Z2
G01 X154.592280 Y16.266670 Z2
G03 X154.440489 Y14.272404 Z2 I9.060149 J-1.692513
G02 X154.090710 Y12.327090 Z2 I-4.723801 J-0.154736
G02 X153.062367 Y11.238567 Z2 I-1.923948 J0.787574
G02 X151.737510 Y10.769240 Z2 I-2.890555 J6.055088
G01 X150.634260 Y10.646180 Z2
G01 X150.584460 Y11.945840 Z2
G02 X151.624255 Y13.710226 Z2 I5.999603 J-2.347130
G03 X152.076420 Y15.626160 Z2 I-1.705537 J1.413834
G03 X151.135312 Y16.484330 Z2 I-1.093955 J-0.254565
G02 X149.987290 Y17.057710 Z2 I0.272074 J1.980720
G02 X149.368028 Y18.217078 Z2 I1.630795 J1.616139
G03 X149.068780 Y18.935420 Z2 I-1.973533 J-0.400635
G00 Z0.000000

(End cutting path id: path19)


(Start cutting path id: path19)
(Change tool to Default tool)

G00 Z0.000000
G00 X153.008350 Y30.118760

G01 Z2 F100.0(Penetrate)
G02 X154.156439 Y28.631094 Z2 I-12.459099 J-10.802017 F75.000000
G02 X155.493830 Y26.306260 Z2 I-14.160477 J-9.693087
G02 X155.733973 Y24.737392 Z2 I-2.490331 J-1.184003
G02 X155.422930 Y23.256260 Z2 I-11.197730 J1.578340
G00 Z0.000000

(End cutting path id: path19)


(Start cutting path id: path19)
(Change tool to Default tool)

G00 Z0.000000
G00 X147.670850 Y30.754170

G01 Z2 F100.0(Penetrate)
G03 X147.018950 Y29.763858 Z2 I5.353908 J-4.234078 F75.000000
G03 X146.581130 Y28.593760 Z2 I4.019503 J-2.170953
G03 X146.474258 Y28.047665 Z2 I9.838048 J-2.208836
G02 X146.276370 Y27.450010 Z2 I-2.022963 J0.338229
G02 X145.884853 Y26.708617 Z2 I-31.010607 J15.902121
G02 X145.383350 Y25.797920 Z2 I-83.426363 J45.347783
G00 Z0.000000

(End cutting path id: path19)


(Start cutting path id: path19)
(Change tool to Default tool)

G00 Z0.000000
G00 X149.577080 Y35.329170

G01 Z2 F100.0(Penetrate)
G01 X151.356250 Y36.091670 Z2 F75.000000
G00 Z0.000000

(End cutting path id: path19)


(Start cutting path id: path19)
(Change tool to Default tool)

G00 Z0.000000
G00 X153.897920 Y35.837510

G01 Z2 F100.0(Penetrate)
G02 X153.585830 Y33.811862 Z2 I-13.817976 J1.092056 F75.000000
G03 X153.262500 Y31.770840 Z2 I14.444304 J-3.334329
G03 X153.203026 Y30.902717 Z2 I22.854767 J-2.001847
G02 X152.931750 Y30.151700 Z2 I-1.361743 J0.067375
G02 X152.443029 Y29.662538 Z2 I-1.966029 J1.475536
G03 X152.014420 Y29.226820 Z2 I1.238085 J-1.646551
G03 X151.160389 Y27.473159 Z2 I4.529552 J-3.290673
G03 X150.847920 Y25.543760 Z2 I8.013071 J-2.287731
G00 Z0.000000

(End cutting path id: path19)


(Start cutting path id: path19)
(Change tool to Default tool)

G00 Z0.000000
G00 X161.141690 Y34.820840

G01 Z2 F100.0(Penetrate)
G02 X161.138172 Y34.322276 Z2 I-39.011256 J0.025960 F75.000000
G02 X161.087290 Y33.677090 Z2 I-4.961938 J0.066722
G02 X160.195025 Y31.145238 Z2 I-6.859391 J0.994208
G02 X157.588970 Y29.978240 Z2 I-2.127206 J1.256996
G01 X157.026220 Y31.389590 Z2
G02 X157.389834 Y32.475475 Z2 I3.864858 J-0.690344
G02 X158.091720 Y33.168760 Z2 I1.389723 J-0.705025
G00 Z0.000000

(End cutting path id: path19)


(Start cutting path id: path19)
(Change tool to Default tool)

G00 Z0.000000
G00 X161.268770 Y35.583340

G01 Z2 F100.0(Penetrate)
G01 X161.268770 Y34.947920 Z2 F75.000000
G02 X161.975877 Y34.690914 Z2 I-0.397696 J-2.195430
G02 X162.570000 Y34.179930 Z2 I-1.015292 J-1.781373
G02 X162.975570 Y33.580543 Z2 I-3.876393 J-3.059832
G02 X163.293380 Y32.914590 Z2 I-4.198060 J-2.412234
G02 X163.812508 Y30.132077 Z2 I-7.193586 J-2.781777
G02 X162.793770 Y27.577090 Z2 I-3.714201 J0.000355
G00 Z0.000000

(End cutting path id: path19)


(Start cutting path id: path19)
(Change tool to Default tool)

G00 Z0.000000
G00 X169.020850 Y33.168760

G01 Z2 F100.0(Penetrate)
G02 X168.838530 Y31.599494 Z2 I-10.869834 J0.467654 F75.000000
G03 X168.639600 Y30.118760 Z2 I13.401190 J-2.554117
G00 Z0.000000

(End cutting path id: path19)


(Start cutting path id: path19)
(Change tool to Default tool)

G00 Z0.000000
G00 X172.452080 Y33.422920

G01 Z2 F100.0(Penetrate)
G01 X173.214580 Y33.041670 Z2 F75.000000
G00 Z0.000000

(End cutting path id: path19)


(Start cutting path id: path19)
(Change tool to Default tool)

G00 Z0.000000
G00 X174.993800 Y34.693760

G01 Z2 F100.0(Penetrate)
G03 X174.631903 Y34.337562 Z2 I2.441055 J-2.842051 F75.000000
G03 X174.110690 Y33.681600 Z2 I5.797443 J-5.141576
G01 X173.503320 Y32.776130 Z2
G03 X173.615695 Y31.972610 Z2 I1.354782 J-0.220147
G02 X173.838190 Y31.135420 Z2 I-2.199157 J-1.032617
G02 X173.745948 Y29.065790 Z2 I-8.277485 J-0.667949
G02 X172.693060 Y27.235850 Z2 I-3.013612 J0.516066
G02 X170.333243 Y27.388945 Z2 I-1.099522 J1.315629
G02 X169.273090 Y29.102090 Z2 I3.901901 J3.599233
G01 X168.512650 Y29.947740 Z2
G01 X167.881250 Y29.354300 Z2
G03 X167.639057 Y27.477464 Z2 I3.779756 J-1.441797
G03 X168.051680 Y25.162510 Z2 I17.042142 J1.843383
G03 X168.634390 Y23.446921 Z2 I10.670622 J2.667585
G02 X169.121300 Y21.731260 Z2 I-6.151015 J-2.672601
G02 X169.100638 Y19.943532 Z2 I-5.741114 J-0.827630
G03 X168.821040 Y18.172920 Z2 I91.420484 J-15.343640
G03 X168.713524 Y17.366554 Z2 I27.950713 J-4.137116
G02 X168.552660 Y16.648410 Z2 I-3.581373 J0.425139
G02 X168.133239 Y15.978853 Z2 I-1.595654 J0.533397
G02 X167.750050 Y15.631260 Z2 I-4.831264 J4.941019
G02 X167.901258 Y15.060505 Z2 I-1.231025 J-0.631537
G02 X167.622970 Y13.852090 Z2 I-2.319840 J-0.102012
G01 X166.733380 Y14.741670 Z2
G01 X166.773580 Y13.447400 Z2
G01 X167.622960 Y13.725010 Z2
G00 Z0.000000

(End cutting path id: path19)


(Start cutting path id: path19)
(Change tool to Default tool)

G00 Z0.000000
G00 X169.529170 Y35.964590

G01 Z2 F100.0(Penetrate)
G01 X167.622920 Y34.693760 Z2 F75.000000
G00 Z0.000000

(End cutting path id: path19)


(Start cutting path id: path19)
(Change tool to Default tool)

G00 Z0.000000
G00 X174.993750 Y35.837510

G01 Z2 F100.0(Penetrate)
G02 X174.980909 Y35.422515 Z2 I-6.547241 J-0.005100 F75.000000
G03 X175.069850 Y34.832210 Z2 I1.414500 J-0.088730
G03 X175.391136 Y34.304164 Z2 I1.572775 J0.595179
G02 X175.695370 Y33.802310 Z2 I-1.178010 J-1.057277
G02 X176.212062 Y32.003132 Z2 I-11.122948 J-4.168095
G02 X176.389820 Y29.991670 Z2 I-8.802382 J-1.791474
G02 X176.255338 Y28.394210 Z2 I-13.485901 J0.330918
G03 X176.137410 Y26.814590 Z2 I11.382229 J-1.643963
G02 X176.040183 Y26.061235 Z2 I-3.090541 J0.015908
G02 X175.836770 Y25.289590 Z2 I-62.368013 J16.028195
G03 X175.759782 Y24.734087 Z2 I2.150099 J-0.581072
G03 X175.756270 Y24.145840 Z2 I53.377533 J-0.612815
G03 X176.593848 Y18.903073 Z2 I16.796620 J-0.004880
G03 X178.442280 Y13.852090 Z2 I75.866447 J24.899981
G02 X178.906396 Y12.207857 Z2 I-7.253426 J-2.935037
G03 X179.441690 Y10.675010 Z2 I4.725718 J0.790404
G00 Z0.000000

(End cutting path id: path19)


(Start cutting path id: path19)
(Change tool to Default tool)

G00 Z0.000000
G00 X138.266720 Y34.693760

G01 Z2 F100.0(Penetrate)
G02 X138.621279 Y34.283040 Z2 I-5.140338 J-4.795851 F75.000000
G02 X138.980380 Y33.677090 Z2 I-1.992981 J-1.590473
G03 X139.867609 Y31.760223 Z2 I26.284661 J11.002194
G02 X139.663460 Y29.391660 Z2 I-2.005624 J-1.020213
G02 X139.128385 Y28.999989 Z2 I-0.908798 J0.680212
G03 X138.520880 Y28.720840 Z2 I1.157221 J-3.319053
G00 Z0.000000

(End cutting path id: path19)


(Start cutting path id: path19)
(Change tool to Default tool)

G00 Z0.000000
G00 X137.250000 Y34.058340

G01 Z2 F100.0(Penetrate)
G01 X137.377080 Y34.058340 Z2 F75.000000
G00 Z0.000000

(End cutting path id: path19)


(Start cutting path id: path19)
(Change tool to Default tool)

G00 Z0.000000
G00 X138.393750 Y35.837510

G01 Z2 F100.0(Penetrate)
G02 X137.865286 Y34.482833 Z2 I-2.019309 J0.007322 F75.000000
G02 X137.377080 Y34.058340 Z2 I-2.084361 J1.904222
G00 Z0.000000

(End cutting path id: path19)


(Footer)
M5
M2
(Using default footer. To add your own footer create file "footer" in the output dir.)
(end)
%