%
(Header)
(Generated by gcodetools from Inkscape.)
(Using default header. To add your own header create file "header" in the output dir.)
M3
(Header end.)
G21 (All units in mm)

(Start cutting path id: path13)
(Change tool to Default tool)

G00 Z0.000000
G00 X76.885417 Y71.547910

G01 Z2 F100.0(Penetrate)
G01 X71.293750 Y68.243750 Z2 F75.000000
G00 Z0.000000

(End cutting path id: path13)


(Start cutting path id: path13)
(Change tool to Default tool)

G00 Z0.000000
G00 X75.741667 Y61.762500

G01 Z2 F100.0(Penetrate)
G01 X71.293750 Y50.960410 Z2 F75.000000
G00 Z0.000000

(End cutting path id: path13)


(Start cutting path id: path13)
(Change tool to Default tool)

G00 Z0.000000
G00 X78.410417 Y48.291660

G01 Z2 F100.0(Penetrate)
G03 X78.311121 Y47.447985 Z2 I49.202316 J-6.218502 F75.000000
G03 X78.294708 Y46.639580 Z2 I4.558026 J-0.496913
G02 X78.333292 Y45.979552 Z2 I-34.360453 J-2.339796
G03 X78.450720 Y45.254900 Z2 I3.284363 J0.160381
G03 X78.843089 Y44.575661 Z2 I1.518939 J0.424483
G02 X79.255481 Y43.843650 Z2 I-1.158085 J-1.134598
G03 X80.310343 Y41.527731 Z2 I7.021442 J1.799953
G02 X81.543179 Y39.268750 Z2 I-10.174764 J-7.018765
G02 X81.864260 Y37.385850 Z2 I-3.926826 J-1.638447
G03 X81.841667 Y36.600000 Z2 I13.655832 J-0.785850
G00 Z0.000000

(End cutting path id: path13)


(Start cutting path id: path13)
(Change tool to Default tool)

G00 Z0.000000
G00 X86.035417 Y36.600000

G01 Z2 F100.0(Penetrate)
G01 X86.670833 Y36.600000 Z2 F75.000000
G00 Z0.000000

(End cutting path id: path13)


(Start cutting path id: path13)
(Change tool to Default tool)

G00 Z0.000000
G00 X90.737500 Y42.827080

G01 Z2 F100.0(Penetrate)
G01 X91.372917 Y42.954160 Z2 F75.000000
G00 Z0.000000

(End cutting path id: path13)


(Start cutting path id: path13)
(Change tool to Default tool)

G00 Z0.000000
G00 X89.085417 Y50.960410

G01 Z2 F100.0(Penetrate)
G03 X90.687514 Y51.048916 Z2 I-0.009835 J14.722455 F75.000000
G02 X91.372917 Y51.087500 Z2 I0.703127 J-6.383345
G00 Z0.000000

(End cutting path id: path13)


(Start cutting path id: path13)
(Change tool to Default tool)

G00 Z0.000000
G00 X78.410417 Y44.987500

G01 Z2 F100.0(Penetrate)
G03 X78.125057 Y44.622493 Z2 I3.451212 J-2.992184 F75.000000
G03 X77.770587 Y43.970830 Z2 I2.653057 J-1.865360
G03 X76.750245 Y41.145650 Z2 I37.661082 J-15.198513
G03 X77.012500 Y38.125000 Z2 I3.741615 J-1.196860
G00 Z0.000000

(End cutting path id: path13)


(Start cutting path id: path13)
(Change tool to Default tool)

G00 Z0.000000
G00 X71.802083 Y38.252080

G01 Z2 F100.0(Penetrate)
G02 X71.703334 Y37.150610 Z2 I-51.741115 J4.083539 F75.000000
G03 X71.675000 Y36.600000 Z2 I5.639887 J-0.566257
G00 Z0.000000

(End cutting path id: path13)


(Start cutting path id: path13)
(Change tool to Default tool)

G00 Z0.000000
G00 X71.039583 Y41.429160

G01 Z2 F100.0(Penetrate)
G01 X71.929167 Y38.379170 Z2 F75.000000
G02 X73.385449 Y37.443899 Z2 I-0.405560 J-2.232887
G03 X74.979167 Y36.600000 Z2 I1.617061 J1.127016
G00 Z0.000000

(End cutting path id: path13)


(Start cutting path id: path13)
(Change tool to Default tool)

G00 Z0.000000
G00 X59.093750 Y44.987500

G01 Z2 F100.0(Penetrate)
G03 X57.988838 Y42.562235 Z2 I6.486055 J-4.419265 F75.000000
G03 X57.573849 Y39.777080 Z2 I12.521914 J-3.289265
G03 X57.622669 Y38.654401 Z2 I6.821014 J-0.265791
G02 X57.700834 Y37.743750 Z2 I-11.270973 J-1.426121
G03 X57.786992 Y36.901444 Z2 I7.483302 J0.339891
G02 X57.822917 Y36.600000 Z2 I-3.761362 J-0.601133
G00 Z0.000000

(End cutting path id: path13)


(Start cutting path id: path13)
(Change tool to Default tool)

G00 Z0.000000
G00 X51.850000 Y41.683330

G01 Z2 F100.0(Penetrate)
G01 X51.717916 Y38.760420 Z2 F75.000000
G01 X51.591224 Y37.363090 Z2
G01 X51.468750 Y36.600000 Z2
G00 Z0.000000

(End cutting path id: path13)


(Start cutting path id: path13)
(Change tool to Default tool)

G00 Z0.000000
G00 X45.750000 Y71.039580

G01 Z2 F100.0(Penetrate)
G03 X46.268909 Y70.676179 Z2 I4.637300 J6.069524 F75.000000
G02 X47.011126 Y69.387500 Z2 I-0.870222 J-1.359287
G02 X46.427045 Y68.098433 Z2 I-1.563452 J-0.068452
G02 X45.877083 Y67.735410 Z2 I-2.226496 J2.774937
G00 Z0.000000

(End cutting path id: path13)


(Footer)
M5
M2
(Using default footer. To add your own footer create file "footer" in the output dir.)
(end)
%