%
(Header)
(Generated by gcodetools from Inkscape.)
(Using default header. To add your own header create file "header" in the output dir.)
M3
(Header end.)
G21 (All units in mm)

(Start cutting path id: path11)
(Change tool to Default tool)

G00 Z0.000000
G00 X91.500000 Y153.300000

G01 Z2 F100.0(Penetrate)
G03 X91.761215 Y153.239475 Z2 I0.636894 J2.154788 F75
G03 X92.500000 Y153.175095 Z2 I0.765631 J4.514789
G02 X93.281394 Y153.126475 Z2 I-0.040687 J-6.957257
G03 X94.250000 Y153.051350 Z2 I1.399240 J11.758980
G02 X96.188604 Y152.870531 Z2 I-0.625625 J-17.189999
G02 X98.125000 Y152.559933 Z2 I-15.523667 J-102.972400
G02 X98.818286 Y152.435703 Z2 I-6.679024 J-39.270157
G02 X99.373939 Y152.281964 Z2 I-0.637531 J-3.385201
G01 X99.954572 Y151.672589 Z2
G02 X99.879742 Y151.129821 Z2 I-1.068894 J-0.129177
G02 X99.644580 Y150.675481 Z2 I-2.836876 J1.180312
G02 X98.516906 Y149.459791 Z2 I-3.778280 J2.373873
G03 X97.262249 Y148.300000 Z2 I4.619392 J-6.255775
G03 X96.954947 Y147.091119 Z2 I1.049177 J-0.910204
G02 X97.123071 Y145.675000 Z2 I-7.076735 J-1.558200
G02 X97.046420 Y144.733246 Z2 I-4.693125 J-0.092016
G02 X96.662230 Y143.801831 Z2 I-2.385770 J0.439140
G02 X95.905672 Y143.120102 Z2 I-1.789724 J1.225504
G02 X95.132330 Y142.733064 Z2 I-6.351949 J11.725745
G01 X94.664738 Y142.281964 Z2
G03 X94.601642 Y141.685653 Z2 I1.617440 J-0.472636
G02 X94.625000 Y141.050000 Z2 I-8.637459 J-0.635653
G03 X94.650468 Y139.077090 Z2 I76.428641 J0.000000
G02 X94.423322 Y137.175000 Z2 I-6.641394 J-0.171496
G02 X94.146773 Y136.559107 Z2 I-2.064724 J0.557071
G02 X93.743152 Y136.054919 Z2 I-2.861036 J1.876712
G02 X93.021176 Y135.375156 Z2 I-7.757511 J7.515963
G02 X92.375579 Y134.848708 Z2 I-10.730418 J12.499913
G02 X91.827707 Y134.516291 Z2 I-1.732842 J2.238280
G02 X91.625000 Y134.425000 Z2 I-5.303688 J11.505924
G00 Z0.000000

(End cutting path id: path11)


(Start cutting path id: path11)
(Change tool to Default tool)

G00 Z0.000000
G00 X100.125000 Y151.800000

G01 Z2 F100.0(Penetrate)
G02 X100.667955 Y151.771512 Z2 I-0.050678 J-6.154144 F75
G02 X101.375000 Y151.694386 Z2 I-2.848072 J-29.389033
G02 X103.616350 Y151.175497 Z2 I-1.299360 J-10.712819
G02 X105.874900 Y150.298070 Z2 I-10.968886 J-31.580120
G02 X106.382868 Y149.993347 Z2 I-0.880093 J-2.042848
G03 X106.838730 Y149.671239 Z2 I2.966157 J3.714210
G03 X107.313454 Y149.501756 Z2 I0.628272 J1.010202
G02 X107.625100 Y149.449113 Z2 I-0.538197 J-4.134902
G02 X108.070598 Y149.338159 Z2 I-1.205788 J-5.791308
G02 X108.625000 Y149.149442 Z2 I-1.809360 J-6.224119
G02 X110.063097 Y148.521569 Z2 I-7.461537 J-19.050958
G02 X111.373070 Y147.769521 Z2 I-4.621682 J-9.567320
G02 X111.858465 Y147.288440 Z2 I-1.017207 J-1.511744
G03 X112.311820 Y146.864140 Z2 I1.187664 J0.814641
G03 X112.937334 Y146.638032 Z2 I0.906504 J1.529508
G02 X113.750000 Y146.377835 Z2 I-0.447783 J-2.797738
G02 X117.324554 Y143.990445 Z2 I-7.500371 J-15.099760
G02 X120.311820 Y141.084143 Z2 I-24.904662 J-28.586853
G03 X121.230983 Y140.298115 Z2 I3.742131 J3.445524
G02 X122.236500 Y139.425000 Z2 I-2.923896 J-4.382840
G02 X122.695054 Y138.643480 Z2 I-1.714165 J-1.531067
G03 X123.087770 Y137.988658 Z2 I1.747500 J0.602854
G03 X123.711333 Y137.523642 Z2 I1.576678 J1.463655
G02 X124.450810 Y136.924422 Z2 I-0.957457 J-1.937457
G02 X124.822229 Y136.139740 Z2 I-1.523243 J-1.201252
G03 X125.123460 Y135.512288 Z2 I1.483489 J0.326168
G03 X125.602176 Y135.137172 Z2 I1.049853 J0.846782
G02 X126.084300 Y134.786496 Z2 I-0.662801 J-1.418005
G02 X126.985850 Y133.628593 Z2 I-6.054326 J-5.643862
G02 X127.760990 Y132.300000 Z2 I-14.481261 J-9.339205
G02 X128.005209 Y131.580177 Z2 I-2.160012 J-1.134180
G03 X128.248460 Y130.981906 Z2 I1.488131 J0.256472
G03 X128.670542 Y130.522179 Z2 I1.829810 J1.256355
G02 X129.081020 Y130.049422 Z2 I-1.181877 J-1.440760
G02 X129.702787 Y128.900758 Z2 I-11.148765 J-6.777392
G02 X130.287130 Y127.675000 Z2 I-506.407986 J-242.166829
G02 X131.546935 Y124.907710 Z2 I-83.561839 J-39.711814
G02 X132.530090 Y122.050000 Z2 I-17.460523 J-7.605025
G02 X132.677525 Y121.127882 Z2 I-4.849090 J-1.248151
G03 X132.821180 Y120.425000 Z2 I2.631526 J0.171712
G03 X133.083888 Y119.872204 Z2 I2.738617 J0.962667
G02 X133.314720 Y119.300000 Z2 I-1.594157 J-0.975757
G02 X133.491558 Y118.392935 Z2 I-17.993296 J-3.978673
G02 X133.422740 Y117.682332 Z2 I-1.348798 J-0.228010
G01 X132.375000 Y117.177411 Z2
G02 X131.013492 Y117.375850 Z2 I0.028578 J4.966017
G03 X130.000000 Y117.582406 Z2 I-1.753442 J-6.013780
G03 X129.402208 Y117.617997 Z2 I-0.600531 J-5.048453
G02 X129.000000 Y117.639796 Z2 I0.002025 J3.758857
G02 X127.840217 Y117.766173 Z2 I77.681203 J718.279062
G03 X126.625100 Y117.794505 Z2 I-0.771810 J-7.030324
G03 X125.872486 Y117.499134 Z2 I0.082727 J-1.317316
G03 X125.299960 Y116.924521 Z2 I2.521950 J-3.085321
G02 X123.881823 Y115.235189 Z2 I-51.204958 J41.544928
G03 X122.576680 Y113.425002 Z2 I9.333125 J-8.104770
G01 X121.960260 Y111.803473 Z2
G01 X120.750000 Y111.675002 Z2
G02 X118.617931 Y111.737642 Z2 I-0.002379 J36.237020
G03 X116.500000 Y111.800002 Z2 I-2.120202 J-36.013212
G02 X115.734601 Y111.828309 Z2 I0.000681 J10.380298
G03 X115.000000 Y111.724582 Z2 I-0.128823 J-1.740774
G03 X114.157469 Y110.756980 Z2 I0.464422 J-1.255006
G03 X114.125000 Y110.550006 Z2 I1.682256 J-0.369934
G00 Z0.000000

(End cutting path id: path11)


(Start cutting path id: path11)
(Change tool to Default tool)

G00 Z0.000000
G00 X106.625000 Y149.425006

G01 Z2 F100.0(Penetrate)
G02 X105.407445 Y147.400009 Z2 I-2.979363 J0.412846 F75
G03 X102.875000 Y145.304442 Z2 I14.711182 J-20.356111
G02 X102.061209 Y144.564131 Z2 I-20.290040 J21.486496
G03 X101.250480 Y143.853053 Z2 I753.431648 J-859.836053
G03 X100.829458 Y143.468806 Z2 I9.756814 J-11.113386
G03 X100.486690 Y143.049525 Z2 I1.477900 J-1.557954
G03 X100.234427 Y142.170056 Z2 I1.405527 J-0.879069
G03 X100.285690 Y141.300006 Z2 I7.439415 J0.001795
G02 X100.384481 Y140.051996 Z2 I-16.176786 J-1.908454
G02 X100.297990 Y138.800006 Z2 I-5.735652 J-0.232746
G02 X99.772744 Y137.603852 Z2 I-2.757064 J0.497263
G02 X98.886148 Y136.550006 Z2 I-10.902936 J8.272725
G03 X96.707888 Y134.160985 Z2 I113.193464 J-105.395007
G02 X94.500000 Y131.800000 Z2 I-52.267221 J46.665131
G00 Z0.000000

(End cutting path id: path11)


(Start cutting path id: path11)
(Change tool to Default tool)

G00 Z0.000000
G00 X91.625000 Y147.425000

G01 Z2 F100.0(Penetrate)
G02 X91.782282 Y147.522681 Z2 I11.167752 J-17.806404 F75
G03 X92.020062 Y147.673070 Z2 I-5.848640 J9.510453
G02 X92.777197 Y148.145879 Z2 I13.272208 J-20.410882
G02 X94.250000 Y148.533894 Z2 I1.405321 J-2.345036
G02 X95.821159 Y148.204815 Z2 I-0.109568 J-4.438343
G03 X96.625000 Y147.925000 Z2 I3.025843 J7.397986
G00 Z0.000000

(End cutting path id: path11)


(Start cutting path id: path11)
(Change tool to Default tool)

G00 Z0.000000
G00 X112.000000 Y146.675000

G01 Z2 F100.0(Penetrate)
G02 X110.006899 Y144.229581 Z2 I-3.318187 J0.669504 F75
G03 X107.482250 Y142.048167 Z2 I2.138160 J-5.026243
G03 X107.256730 Y141.272753 Z2 I1.317063 J-0.803554
G03 X107.250000 Y140.550000 Z2 I40.471433 J-0.738274
G02 X107.247488 Y139.972544 Z2 I-72.661925 J0.027344
G03 X107.252000 Y139.425000 Z2 I16.529220 J-0.137585
G03 X107.310783 Y138.818072 Z2 I4.232937 J0.103663
G02 X107.332700 Y138.175000 Z2 I-2.364301 J-0.402489
G02 X106.288296 Y136.280669 Z2 I-2.741113 J0.276190
G03 X104.502070 Y134.675000 Z2 I10.769389 J-13.776778
G03 X103.936138 Y133.869938 Z2 I2.257492 J-2.188388
G02 X103.519820 Y133.227372 Z2 I-2.887867 J1.414899
G02 X102.911956 Y132.822567 Z2 I-0.984564 J0.819651
G03 X101.750240 Y132.161883 Z2 I0.905883 J-2.944556
G03 X100.872457 Y131.191000 Z2 I4.400107 J-4.860417
G03 X100.669890 Y130.193518 Z2 I0.972726 J-0.716849
G01 X101.750140 Y129.800000 Z2
G03 X102.654955 Y129.842179 Z2 I0.015695 J9.389391
G02 X103.875140 Y129.929822 Z2 I2.504206 J-26.326399
G03 X105.116165 Y129.998926 Z2 I-4.275376 J87.958713
G03 X106.375140 Y130.121953 Z2 I-1.141107 J18.180598
G02 X108.617640 Y130.364956 Z2 I6.142539 J-46.216343
G02 X110.875140 Y130.538811 Z2 I13.747932 J-163.772711
G03 X112.064070 Y130.654954 Z2 I-1.523921 J21.743588
G03 X113.084530 Y131.182330 Z2 I-0.207209 J1.651913
G03 X114.299615 Y132.717223 Z2 I-10.037931 J9.194846
G02 X115.350640 Y134.175000 Z2 I27.504727 J-18.722528
G02 X115.986182 Y134.990925 Z2 I40.817044 J-31.137827
G03 X116.592730 Y135.925000 Z2 I-4.551524 J3.619533
G03 X116.853978 Y136.460628 Z2 I-10.073564 J5.244820
G03 X116.949890 Y136.925000 Z2 I-0.971778 J0.442803
G01 X116.466090 Y138.050000 Z2
G02 X116.455778 Y139.029674 Z2 I1.870952 J0.509586
G02 X117.130640 Y139.926446 Z2 I1.397184 J-0.349127
G02 X118.337940 Y140.274995 Z2 I1.302584 J-2.246686
G02 X119.424810 Y139.849576 Z2 I0.053743 J-1.463785
G02 X119.861870 Y138.147053 Z2 I-1.212450 J-1.218613
G02 X118.749660 Y136.991648 Z2 I-1.663084 J0.487892
G02 X117.921072 Y136.854585 Z2 I-0.840260 J2.506561
G02 X117.125140 Y136.924998 Z2 I-0.019066 J4.318187
G00 Z0.000000

(End cutting path id: path11)


(Start cutting path id: path11)
(Change tool to Default tool)

G00 Z0.000000
G00 X91.500140 Y143.924998

G01 Z2 F100.0(Penetrate)
G01 X92.375333 Y143.351504 Z2 F75
G01 X94.625000 Y142.550000 Z2
G00 Z0.000000

(End cutting path id: path11)


(Start cutting path id: path11)
(Change tool to Default tool)

G00 Z0.000000
G00 X113.250000 Y139.425000

G01 Z2 F100.0(Penetrate)
G03 X112.253465 Y139.851154 Z2 I-2.280121 J-3.953680 F75
G02 X111.321660 Y140.925000 Z2 I0.369902 J1.262173
G02 X112.347380 Y142.803351 Z2 I1.765093 J0.255363
G02 X114.412130 Y142.371278 Z2 I0.738400 J-1.620854
G02 X114.762021 Y141.394337 Z2 I-1.024116 J-0.917914
G02 X114.429530 Y140.430402 Z2 I-1.785969 J0.076725
G02 X113.871968 Y139.966776 Z2 I-1.165401 J0.834448
G03 X113.325950 Y139.398379 Z2 I0.465100 J-0.993246
G03 X113.272293 Y138.760175 Z2 I0.956092 J-0.401741
G02 X113.370150 Y138.050000 Z2 I-3.753955 J-0.879099
G02 X113.396280 Y137.264565 Z2 I-37.579310 J-1.643368
G02 X113.332050 Y136.550000 Z2 I-3.195777 J-0.072909
G02 X113.068975 Y135.950843 Z2 I-1.526891 J0.313088
G02 X112.658440 Y135.425000 Z2 I-7.184822 J5.186132
G03 X111.771559 Y134.330651 Z2 I27.682519 J-23.340979
G02 X110.749970 Y133.426158 Z2 I-2.934004 J2.284672
G02 X109.220885 Y132.996438 Z2 I-1.552492 J2.588928
G03 X107.500070 Y132.903878 Z2 I0.145352 J-18.744635
G03 X105.085397 Y132.636851 Z2 I11.606809 J-116.009365
G02 X103.625070 Y133.050000 Z2 I-0.236438 J1.951711
G00 Z0.000000

(End cutting path id: path11)


(Start cutting path id: path11)
(Change tool to Default tool)

G00 Z0.000000
G00 X120.250070 Y140.925000

G01 Z2 F100.0(Penetrate)
G01 X119.500070 Y140.050000 Z2 F75
G00 Z0.000000

(End cutting path id: path11)


(Start cutting path id: path11)
(Change tool to Default tool)

G00 Z0.000000
G00 X123.000070 Y137.925000

G01 Z2 F100.0(Penetrate)
G03 X122.667727 Y137.448439 Z2 I2.344326 J-1.989048 F75
G03 X122.397450 Y136.425000 Z2 I1.818773 J-1.027722
G01 X122.700490 Y135.000424 Z2
G01 X123.750070 Y134.806847 Z2
G03 X124.617150 Y135.124871 Z2 I-0.122207 J1.674235
G03 X125.000070 Y135.425000 Z2 I-4.148926 J5.687748
G00 Z0.000000

(End cutting path id: path11)


(Start cutting path id: path11)
(Change tool to Default tool)

G00 Z0.000000
G00 X122.625070 Y134.925000

G01 Z2 F100.0(Penetrate)
G02 X120.698361 Y133.146911 Z2 I-7.239819 J5.912035 F75
G03 X118.579840 Y130.550000 Z2 I3.423968 J-4.955805
G03 X118.338407 Y129.201673 Z2 I2.822076 J-1.201103
G02 X118.375070 Y127.675000 Z2 I-31.767651 J-1.526673
G01 X118.768590 Y126.148476 Z2
G01 X119.375070 Y126.221006 Z2
G03 X119.848481 Y126.446611 Z2 I-0.594974 J1.858006
G03 X120.553120 Y127.051927 Z2 I-1.959120 J2.993367
G02 X121.701555 Y128.244177 Z2 I17.212337 J-15.430552
G03 X122.863880 Y129.424904 Z2 I-23.074944 J23.877774
G03 X123.279491 Y129.894550 Z2 I-8.128468 J7.611972
G02 X123.754990 Y130.277622 Z2 I1.200596 J-1.003625
G02 X124.303391 Y130.418495 Z2 I0.574539 J-1.098742
G02 X124.875070 Y130.424999 Z2 I0.620835 J-29.442919
G03 X127.214179 Y130.568949 Z2 I-0.033190 J19.615936
G03 X128.125070 Y130.924999 Z2 I-0.237746 J1.951432
G00 Z0.000000

(End cutting path id: path11)


(Start cutting path id: path11)
(Change tool to Default tool)

G00 Z0.000000
G00 X91.500000 Y134.425000

G01 Z2 F100.0(Penetrate)
G01 X91.625000 Y134.425000 Z2 F75
G00 Z0.000000

(End cutting path id: path11)


(Start cutting path id: path11)
(Change tool to Default tool)

G00 Z0.000000
G00 X100.625000 Y129.925000

G01 Z2 F100.0(Penetrate)
G02 X99.795437 Y129.439923 Z2 I-1.627593 J1.831573 F75
G03 X99.163098 Y129.100058 Z2 I0.727343 J-2.111449
G03 X98.965022 Y128.904377 Z2 I0.681416 J-0.887847
G03 X98.663098 Y128.424905 Z2 I2.128329 J-1.675008
G03 X98.457209 Y127.845431 Z2 I2.388218 J-1.174855
G03 X98.375579 Y127.175000 Z2 I3.157014 J-0.724575
G03 X98.373000 Y126.657828 Z2 I22.350368 J-0.370056
G02 X98.375000 Y126.050000 Z2 I-92.353800 J-0.607828
G03 X98.381009 Y123.945847 Z2 I368.435238 J-0.000000
G02 X98.375482 Y122.175000 Z2 I-100.252964 J-0.572559
G03 X98.373576 Y121.528631 Z2 I36.318801 J-0.430274
G02 X98.375000 Y121.050000 Z2 I-80.447156 J-0.478631
G01 X99.750000 Y121.050000 Z2
G03 X101.295759 Y121.110870 Z2 I-0.000000 J19.657164
G02 X102.299580 Y120.656483 Z2 I0.089745 J-1.137739
G02 X102.545721 Y119.782299 Z2 I-1.012316 J-0.756780
G03 X102.500000 Y118.800000 Z2 I10.529211 J-0.982299
G03 X102.580149 Y117.508880 Z2 I10.439333 J-0.000000
G02 X102.627800 Y116.550000 Z2 I-6.413340 J-0.799328
G02 X102.549153 Y115.587265 Z2 I-8.497498 J0.209593
G03 X102.535700 Y114.300000 Z2 I4.997708 J-0.695933
G01 X102.320810 Y112.428471 Z2
G01 X100.875010 Y112.300000 Z2
G03 X98.008734 Y112.178078 Z2 I-0.000022 J-33.752874
G02 X95.000010 Y112.050000 Z2 I-3.011000 J35.329321
G02 X93.948316 Y112.066888 Z2 I-0.002072 J32.625635
G03 X93.153559 Y111.870793 Z2 I-0.048650 J-1.511415
G01 X92.750000 Y110.550000 Z2
G00 Z0.000000

(End cutting path id: path11)


(Start cutting path id: path11)
(Change tool to Default tool)

G00 Z0.000000
G00 X93.000000 Y129.425000

G01 Z2 F100.0(Penetrate)
G01 X93.875000 Y129.550000 Z2 F75
G00 Z0.000000

(End cutting path id: path11)


(Start cutting path id: path11)
(Change tool to Default tool)

G00 Z0.000000
G00 X92.875000 Y126.675000

G01 Z2 F100.0(Penetrate)
G02 X92.757767 Y125.185424 Z2 I-20.950089 J0.899413 F75
G03 X92.626832 Y123.300000 Z2 I20.944062 J-2.401742
G03 X92.623253 Y122.867810 Z2 I13.239940 J-0.325759
G02 X92.625032 Y122.425000 Z2 I-55.100439 J-0.442810
G01 X92.496560 Y121.214738 Z2
G01 X91.625000 Y120.925000 Z2
G00 Z0.000000

(End cutting path id: path11)


(Start cutting path id: path11)
(Change tool to Default tool)

G00 Z0.000000
G00 X118.625000 Y126.050000

G01 Z2 F100.0(Penetrate)
G02 X118.458517 Y125.396358 Z2 I-14.898351 J3.446588 F75
G02 X118.096930 Y124.550000 Z2 I-3.360693 J0.935361
G02 X116.594171 Y122.713032 Z2 I-6.844666 J4.066218
G03 X114.627220 Y120.800000 Z2 I25.592704 J-28.281755
G03 X114.140769 Y120.120549 Z2 I2.133497 J-2.041333
G02 X113.686340 Y119.459241 Z2 I-2.908728 J1.511994
G02 X112.828770 Y118.809694 Z2 I-2.049086 J1.814442
G02 X112.125480 Y118.499169 Z2 I-4.833339 J9.995074
G01 X111.376160 Y118.031579 Z2
G03 X111.191378 Y117.596032 Z2 I0.923194 J-0.648639
G03 X111.125000 Y117.050000 Z2 I3.915286 J-0.753008
G00 Z0.000000

(End cutting path id: path11)


(Start cutting path id: path11)
(Change tool to Default tool)

G00 Z0.000000
G00 X126.000000 Y125.239621

G01 Z2 F100.0(Penetrate)
G02 X126.774788 Y125.250630 Z2 I0.417954 J-2.145289 F75
G02 X127.493150 Y124.959046 Z2 I-0.287966 J-1.740139
G02 X128.176049 Y123.008545 Z2 I-1.005011 J-1.446666
G02 X126.750000 Y121.717534 Z2 I-1.777828 J0.530675
G02 X125.795597 Y121.645786 Z2 I-0.785823 J4.069444
G02 X125.039740 Y121.917283 Z2 I0.054539 J1.339750
G01 X124.679880 Y123.175000 Z2
G02 X124.925760 Y124.444872 Z2 I2.189908 J0.234717
G02 X126.000000 Y125.239621 Z2 I1.371332 J-0.730206
G00 Z0.000000

(End cutting path id: path11)


(Start cutting path id: path11)
(Change tool to Default tool)

G00 Z0.000000
G00 X124.875000 Y121.925000

G01 Z2 F100.0(Penetrate)
G02 X123.792243 Y120.475799 Z2 I-96.401791 J70.896601 F75
G02 X121.875000 Y119.093018 Z2 I-3.219834 J2.443809
G02 X119.718026 Y118.780550 Z2 I-1.916850 J5.631004
G03 X117.500000 Y118.798169 Z2 I-1.380516 J-34.170088
G02 X115.287401 Y118.809505 Z2 I-0.915001 J37.344039
G02 X113.750000 Y119.425000 Z2 I0.084796 J2.439636
G00 Z0.000000

(End cutting path id: path11)


(Start cutting path id: path11)
(Change tool to Default tool)

G00 Z0.000000
G00 X98.375000 Y121.050000

G01 Z2 F100.0(Penetrate)
G02 X97.530971 Y120.916611 Z2 I-0.792393 J2.276910 F75
G03 X96.750000 Y120.925000 Z2 I-0.783246 J-36.560810
G02 X95.299689 Y120.926091 Z2 I0.065584 J1050.768342
G03 X94.000000 Y120.924905 Z2 I-0.398003 J-275.879227
G03 X93.372113 Y120.916273 Z2 I0.094566 J-29.718117
G02 X92.750000 Y120.925000 Z2 I-0.197298 J8.113506
G00 Z0.000000

(End cutting path id: path11)


(Start cutting path id: path11)
(Change tool to Default tool)

G00 Z0.000000
G00 X91.500000 Y120.925000

G01 Z2 F100.0(Penetrate)
G01 X91.625000 Y120.925000 Z2 F75
G00 Z0.000000

(End cutting path id: path11)


(Start cutting path id: path11)
(Change tool to Default tool)

G00 Z0.000000
G00 X93.000000 Y120.800000

G01 Z2 F100.0(Penetrate)
G01 X93.000000 Y119.050000 Z2 F75
G03 X93.123541 Y117.753243 Z2 I6.867541 J-0.000000
G02 X92.818962 Y116.729207 Z2 I-1.138042 J-0.218826
G02 X91.834202 Y116.407928 Z2 I-0.795533 J0.768560
G03 X91.625000 Y116.425000 Z2 I-0.198680 J-1.144281
G00 Z0.000000

(End cutting path id: path11)


(Start cutting path id: path11)
(Change tool to Default tool)

G00 Z0.000000
G00 X98.125000 Y120.800000

G01 Z2 F100.0(Penetrate)
G01 X98.125000 Y119.675000 Z2 F75
G01 X98.125000 Y115.550000 Z2
G00 Z0.000000

(End cutting path id: path11)


(Start cutting path id: path11)
(Change tool to Default tool)

G00 Z0.000000
G00 X130.125000 Y117.675000

G01 Z2 F100.0(Penetrate)
G02 X130.296010 Y118.471321 Z2 I3.270396 J-0.285793 F75
G02 X130.881850 Y119.350735 Z2 I2.002445 J-0.699130
G02 X132.035446 Y120.030593 Z2 I2.263710 J-2.522457
G02 X132.625000 Y120.175000 Z2 I1.064907 J-3.071908
G00 Z0.000000

(End cutting path id: path11)


(Start cutting path id: path11)
(Change tool to Default tool)

G00 Z0.000000
G00 X133.500000 Y117.425000

G01 Z2 F100.0(Penetrate)
G02 X134.136779 Y115.533715 Z2 I-4.388523 J-2.530418 F75
G02 X134.370080 Y112.800000 Z2 I-32.906142 J-4.185096
G02 X134.379373 Y112.184732 Z2 I-10.737742 J-0.469887
G03 X134.375080 Y111.550000 Z2 I46.921293 J-0.634732
G01 X132.625080 Y111.550000 Z2
G01 X123.750080 Y111.675000 Z2
G01 X122.375080 Y111.675000 Z2
G00 Z0.000000

(End cutting path id: path11)


(Start cutting path id: path11)
(Change tool to Default tool)

G00 Z0.000000
G00 X102.750000 Y116.550000

G01 Z2 F100.0(Penetrate)
G01 X104.500000 Y116.550000 Z2 F75
G01 X108.750000 Y116.550000 Z2
G00 Z0.000000

(End cutting path id: path11)


(Start cutting path id: path11)
(Change tool to Default tool)

G00 Z0.000000
G00 X91.500000 Y116.425000

G01 Z2 F100.0(Penetrate)
G01 X91.625000 Y116.425000 Z2 F75
G00 Z0.000000

(End cutting path id: path11)


(Start cutting path id: path11)
(Change tool to Default tool)

G00 Z0.000000
G00 X102.625000 Y112.175000

G01 Z2 F100.0(Penetrate)
G02 X102.629441 Y110.814647 Z2 I-20.804065 J-0.748099 F75
G03 X102.625000 Y110.550000 Z2 I10.469288 J-0.308040
G00 Z0.000000

(End cutting path id: path11)


(Start cutting path id: path11)
(Change tool to Default tool)

G00 Z0.000000
G00 X111.500000 Y111.925000

G01 Z2 F100.0(Penetrate)
G03 X111.870385 Y111.845340 Z2 I0.711452 J2.407065 F75
G03 X112.375190 Y111.798070 Z2 I0.802539 J5.851323
G02 X113.059979 Y111.630975 Z2 I-0.094597 J-1.874429
G02 X113.604940 Y111.296429 Z2 I-1.088083 J-2.383570
G01 X113.791090 Y111.128606 Z2
G01 X114.000000 Y110.925000 Z2
G00 Z0.000000

(End cutting path id: path11)


(Start cutting path id: path11)
(Change tool to Default tool)

G00 Z0.000000
G00 X102.750000 Y111.550000

G01 Z2 F100.0(Penetrate)
G01 X103.875000 Y111.550000 Z2 F75
G03 X106.330170 Y111.604586 Z2 I-0.000000 J55.241320
G02 X109.000000 Y111.675000 Z2 I3.280760 J-73.744155
G00 Z0.000000

(End cutting path id: path11)


(Start cutting path id: path11)
(Change tool to Default tool)

G00 Z0.000000
G00 X134.500000 Y111.425000

G01 Z2 F100.0(Penetrate)
G01 X134.500000 Y110.550000 Z2 F75
G00 Z0.000000

(End cutting path id: path11)


(Footer)
M5
;G00 X0.0000 Y0.0000
M2
(Using default footer. To add your own footer create file "footer" in the output dir.)
(end)
%