%
(Header)
(Generated by gcodetools from Inkscape.)
(Using default header. To add your own header create file "header" in the output dir.)
M3
(Header end.)
G21 (All units in mm)

(Start cutting path id: path9)
(Change tool to Default tool)

G00 Z0.000000
G00 X29.000000 Y154.800000

G01 Z2 F100.0(Penetrate)
G01 X30.625000 Y154.800000 Z2 F75
G00 Z0.000000

(End cutting path id: path9)


(Start cutting path id: path9)
(Change tool to Default tool)

G00 Z0.000000
G00 X20.625000 Y154.675000

G01 Z2 F100.0(Penetrate)
G02 X20.421059 Y153.348808 Z2 I-4.495612 J0.012556 F75
G02 X19.983990 Y152.175000 Z2 I-11.062340 J3.450800
G01 X19.465279 Y151.292283 Z2
G02 X18.584287 Y150.956307 Z2 I-1.086307 J1.525449
G02 X17.250000 Y150.859219 Z2 I-1.970794 J17.867626
G02 X14.730553 Y151.984255 Z2 I-0.111069 J3.134857
G02 X13.875000 Y154.550000 Z2 I2.844996 J2.374185
G00 Z0.000000

(End cutting path id: path9)


(Start cutting path id: path9)
(Change tool to Default tool)

G00 Z0.000000
G00 X4.250000 Y154.550000

G01 Z2 F100.0(Penetrate)
G01 X4.250000 Y145.925000 Z2 F75
G03 X4.336336 Y143.407554 Z2 I36.746020 J0.000000
G02 X4.208816 Y141.050000 Z2 I-9.630340 J-0.661322
G02 X4.002248 Y140.414961 Z2 I-2.392020 J0.426971
G03 X3.785783 Y139.925000 Z2 I6.632462 J-3.223011
G01 X3.600791 Y138.925000 Z2
G03 X4.332525 Y137.403410 Z2 I3.886957 J0.932500
G02 X5.470004 Y135.925578 Z2 I-145.409233 J-113.097330
G03 X6.304446 Y135.328739 Z2 I1.385426 J1.055229
G03 X7.250000 Y135.175000 Z2 I0.946900 J2.839176
G03 X9.495622 Y135.174747 Z2 I1.500757 J3333.779305
G02 X11.750000 Y135.175000 Z2 I2.229887 J-10053.386304
G03 X12.864027 Y135.183976 Z2 I-0.000000 J69.134625
G02 X13.875000 Y135.172700 Z2 I0.298771 J-18.538801
G02 X14.811988 Y134.806619 Z2 I-0.058978 J-1.533110
G02 X15.496818 Y134.049921 Z2 I-2.580273 J-3.023452
G02 X16.383863 Y132.706425 Z2 I-28.382642 J-19.704249
G03 X17.255015 Y131.426944 Z2 I17.478829 J10.964397
G01 X18.495853 Y130.044614 Z2
G02 X18.497278 Y129.571491 Z2 I-1.783343 J-0.241934
G02 X18.427953 Y129.050016 Z2 I-77.920901 J10.093449
G02 X18.261616 Y128.057553 Z2 I-16.376496 J2.234537
G02 X18.026235 Y126.925016 Z2 I-67.417379 J13.420960
G01 X17.123072 Y125.559564 Z2
G01 X15.638986 Y126.800000 Z2
G02 X14.239380 Y129.086741 Z2 I21.245376 J14.574979
G03 X12.375000 Y130.293153 Z2 I-2.038211 J-1.106030
G03 X10.095835 Y130.362789 Z2 I-1.921697 J-25.563593
G03 X7.750000 Y130.295053 Z2 I1.096525 J-78.629371
G03 X7.150838 Y130.260622 Z2 I0.963522 J-21.997430
G03 X6.518518 Y130.137065 Z2 I0.187956 J-2.641665
G01 X6.108700 Y129.548044 Z2
G01 X5.715181 Y128.822349 Z2
G01 X4.875000 Y128.680402 Z2
G01 X3.873553 Y128.995505 Z2
G02 X3.209174 Y130.630574 Z2 I2.385628 J1.921867
G02 X3.929205 Y132.171527 Z2 I1.672379 J0.157257
G01 X4.875000 Y132.299905 Z2
G01 X5.712095 Y132.171527 Z2
G01 X6.103202 Y131.300000 Z2
G02 X6.129374 Y130.744695 Z2 I-4.132344 J-0.473028
G03 X6.125000 Y130.300000 Z2 I22.349558 J-0.442186
G00 Z0.000000

(End cutting path id: path9)


(Start cutting path id: path9)
(Change tool to Default tool)

G00 Z0.000000
G00 X29.625000 Y154.175000

G01 Z2 F100.0(Penetrate)
G02 X29.555395 Y153.640244 Z2 I-5.619791 J0.459583 F75
G02 X29.369213 Y153.050000 Z2 I-2.381078 J0.426580
G02 X28.839966 Y152.121700 Z2 I-5.755266 J2.666208
G03 X28.207079 Y151.175000 Z2 I35.501569 J-24.418335
G03 X26.902794 Y149.042274 Z2 I38.551353 J-25.041572
G02 X25.658178 Y146.925095 Z2 I-108.988833 J62.646301
G02 X25.237155 Y146.377669 Z2 I-2.592775 J1.558476
G03 X24.820024 Y145.889314 Z2 I3.655712 J-3.544868
G03 X24.577018 Y145.359306 Z2 I1.098499 J-0.824371
G02 X24.438753 Y144.800000 Z2 I-10.681937 J2.343905
G02 X23.898679 Y143.449868 Z2 I-6.281466 J1.729604
G03 X23.217207 Y142.175095 Z2 I448.542600 J-240.602442
G01 X22.494598 Y141.379861 Z2
G01 X21.179880 Y141.948630 Z2
G02 X19.859813 Y143.457944 Z2 I12.925575 J12.636816
G03 X18.375000 Y144.925000 Z2 I-6.428571 J-5.021461
G00 Z0.000000

(End cutting path id: path9)


(Start cutting path id: path9)
(Change tool to Default tool)

G00 Z0.000000
G00 X19.625000 Y151.175000

G01 Z2 F100.0(Penetrate)
G02 X19.862624 Y150.910232 Z2 I-10.127533 J-9.328293 F75
G02 X20.285784 Y150.424420 Z2 I-126.132820 J-110.293365
G03 X20.707846 Y149.940526 Z2 I93.380608 J81.022387
G03 X21.160686 Y149.425000 Z2 I285.105874 J249.981513
G02 X22.489553 Y147.895511 Z2 I-119.965820 J-105.571950
G03 X23.760996 Y146.576333 Z2 I11.997328 J10.290900
G03 X24.322973 Y146.135698 Z2 I2.999312 J3.246574
G02 X24.625000 Y145.925000 Z2 I-4.056139 J-6.136142
G00 Z0.000000

(End cutting path id: path9)


(Start cutting path id: path9)
(Change tool to Default tool)

G00 Z0.000000
G00 X10.375000 Y148.978436

G01 Z2 F100.0(Penetrate)
G02 X11.694256 Y148.920537 Z2 I0.572928 J-2.004460 F75
G02 X12.524981 Y148.049519 Z2 I-0.502680 J-1.311082
G02 X12.732243 Y146.715197 Z2 I-3.911072 J-1.290770
G02 X12.118152 Y145.697377 Z2 I-1.171060 J0.012384
G02 X10.544331 Y145.551585 Z2 I-0.957773 J1.771564
G02 X9.310860 Y146.925000 Z2 I0.560282 J1.743793
G02 X9.426135 Y148.133253 Z2 I2.019375 J0.416965
G02 X10.375000 Y148.978436 Z2 I1.350897 J-0.561393
G00 Z0.000000

(End cutting path id: path9)


(Start cutting path id: path9)
(Change tool to Default tool)

G00 Z0.000000
G00 X12.500000 Y145.800000

G01 Z2 F100.0(Penetrate)
G02 X13.977895 Y143.948991 Z2 I-22.647051 J-19.597507 F75
G03 X16.375000 Y140.800000 Z2 I97.060332 J71.398332
G02 X16.742932 Y140.316789 Z2 I-14.640607 J-11.529489
G03 X17.162519 Y139.917285 Z2 I1.336719 J0.983824
G03 X17.697743 Y139.718525 Z2 I0.692281 J1.044177
G03 X18.250000 Y139.676833 Z2 I0.689860 J5.459469
G03 X18.799027 Y139.671757 Z2 I0.435650 J17.425257
G02 X19.375000 Y139.639313 Z2 I0.029907 J-4.597904
G02 X20.075610 Y139.553140 Z2 I-12.521968 J-104.698481
G02 X20.749807 Y139.427892 Z2 I-0.742336 J-5.873097
G02 X21.375130 Y139.126730 Z2 I-0.403648 J-1.637903
G02 X21.625000 Y138.924999 Z2 I-4.226791 J-5.491040
G03 X22.207860 Y140.136541 Z2 I-2.577317 J1.985895
G03 X22.375000 Y141.174999 Z2 I-6.335018 J1.552301
G00 Z0.000000

(End cutting path id: path9)


(Start cutting path id: path9)
(Change tool to Default tool)

G00 Z0.000000
G00 X21.625000 Y138.799999

G01 Z2 F100.0(Penetrate)
G02 X20.703099 Y136.108142 Z2 I-64.001631 J20.415340 F75
G03 X19.696953 Y133.049999 Z2 I45.416867 J-16.636985
G03 X19.432751 Y132.118758 Z2 I57.206139 J-16.733010
G02 X19.170815 Y131.301832 Z2 I-9.860843 J2.711290
G02 X18.798687 Y130.709426 Z2 I-1.585129 J0.582638
G02 X18.500000 Y130.425000 Z2 I-3.672324 J3.557412
G00 Z0.000000

(End cutting path id: path9)


(Start cutting path id: path9)
(Change tool to Default tool)

G00 Z0.000000
G00 X9.750000 Y119.300000

G01 Z2 F100.0(Penetrate)
G03 X8.713239 Y119.227582 Z2 I0.831205 J-19.357215 F75
G02 X7.625000 Y119.175000 Z2 I-1.088239 J11.234928
G03 X6.520111 Y119.174454 Z2 I0.000064 J-1117.672137
G02 X5.500000 Y119.175000 Z2 I-0.330878 J334.699368
G01 X4.503472 Y119.375424 Z2
G01 X4.375000 Y120.300000 Z2
G03 X4.267648 Y122.586455 Z2 I-25.521905 J-0.052538
G02 X4.367284 Y124.550000 Z2 I6.893993 J0.634479
G02 X4.692832 Y125.189667 Z2 I1.285183 J-0.251398
G02 X5.250482 Y125.727469 Z2 I5.149688 J-4.781726
G02 X5.766158 Y126.160217 Z2 I15.767034 J-18.264851
G02 X6.375000 Y126.478432 Z2 I1.078878 J-1.322664
G02 X7.970857 Y126.630568 Z2 I1.206792 J-4.212780
G03 X9.750000 Y126.550000 Z2 I1.811954 J20.328276
G02 X10.395039 Y126.535507 Z2 I-0.024865 J-15.467914
G02 X10.999517 Y126.406482 Z2 I-0.080536 J-1.857804
G02 X11.880127 Y125.739633 Z2 I-0.760386 J-1.919001
G03 X12.641300 Y124.800000 Z2 I16.544885 J12.624478
G03 X13.432162 Y123.937689 Z2 I13.741498 J11.809089
G02 X14.077932 Y123.050000 Z2 I-2.704498 J-2.646185
G01 X13.747589 Y122.050580 Z2
G02 X13.118796 Y121.416032 Z2 I-11.603558 J10.869512
G03 X13.000000 Y121.300000 Z2 I4.867536 J-5.102289
G02 X13.650262 Y120.665981 Z2 I-0.867625 J-1.540322
G02 X13.946470 Y119.800000 Z2 I-1.896420 J-1.132318
G02 X13.766493 Y118.528505 Z2 I-2.465544 J-0.299493
G02 X12.875000 Y117.589738 Z2 I-1.702411 J0.723999
G02 X12.213041 Y117.416642 Z2 I-0.762388 J1.563257
G02 X11.500000 Y117.451718 Z2 I-0.193128 J3.339068
G02 X10.840635 Y117.702443 Z2 I0.266403 J1.692967
G02 X10.331501 Y118.180402 Z2 I1.035499 J1.613191
G02 X10.033264 Y118.730922 Z2 I1.842683 J1.354294
G02 X9.914930 Y119.300000 Z2 I1.772238 J0.665359
G02 X10.035544 Y120.152182 Z2 I2.258258 J0.115003
G02 X10.513599 Y120.908315 Z2 I1.841421 J-0.635024
G02 X11.730319 Y121.418005 Z2 I1.248995 J-1.274462
G02 X13.000000 Y121.300000 Z2 I0.104324 J-5.767105
G00 Z0.000000

(End cutting path id: path9)


(Start cutting path id: path9)
(Change tool to Default tool)

G00 Z0.000000
G00 X17.375000 Y125.425000

G01 Z2 F100.0(Penetrate)
G02 X17.311903 Y123.933548 Z2 I-17.658539 J0.000000 F75
G02 X17.028646 Y121.925000 Z2 I-18.204927 J1.543114
G02 X16.898828 Y121.455788 Z2 I-3.217015 J0.637492
G03 X16.765046 Y120.925000 Z2 I2.651839 J-0.950636
G03 X16.732591 Y120.248140 Z2 I3.300507 J-0.497467
G02 X16.714316 Y119.675000 Z2 I-3.346931 J-0.180144
G03 X16.592772 Y118.544381 Z2 I54.467952 J-6.427263
G03 X16.488813 Y117.300000 Z2 I46.464881 J-4.508339
G03 X16.414844 Y116.122965 Z2 I81.581782 J-5.717736
G02 X16.303050 Y114.925000 Z2 I-16.021419 J0.890917
G03 X16.257916 Y114.352080 Z2 I5.487585 J-0.720546
G03 X16.250000 Y113.800000 Z2 I22.366133 J-0.596783
G02 X16.187844 Y112.745117 Z2 I-9.298066 J0.018592
G03 X16.125000 Y111.675000 Z2 I9.337071 J-1.085233
G03 X16.124855 Y110.774255 Z2 I310.462207 J-0.500128
G02 X16.125000 Y110.550000 Z2 I-173.833215 J-0.224383
G00 Z0.000000

(End cutting path id: path9)


(Start cutting path id: path9)
(Change tool to Default tool)

G00 Z0.000000
G00 X14.500000 Y122.425000

G01 Z2 F100.0(Penetrate)
G01 X15.500096 Y121.458951 Z2 F75
G01 X16.625000 Y121.050000 Z2
G00 Z0.000000

(End cutting path id: path9)


(Start cutting path id: path9)
(Change tool to Default tool)

G00 Z0.000000
G00 X14.625000 Y121.800000

G01 Z2 F100.0(Penetrate)
G01 X13.750000 Y120.925000 Z2 F75
G00 Z0.000000

(End cutting path id: path9)


(Start cutting path id: path9)
(Change tool to Default tool)

G00 Z0.000000
G00 X46.375000 Y114.925000

G01 Z2 F100.0(Penetrate)
G01 X46.375000 Y110.550000 Z2 F75
G00 Z0.000000

(End cutting path id: path9)


(Footer)
M5
G00 X0.0000 Y0.0000
M2
(Using default footer. To add your own footer create file "footer" in the output dir.)
(end)
%