%
(Header)
(Generated by gcodetools from Inkscape.)
(Using default header. To add your own header create file "header" in the output dir.)
M3
(Header end.)
G21 (All units in mm)

(Start cutting path id: path7)
(Change tool to Default tool)

G00 Z0.000000
G00 X118.750000 Y198.245023

G01 Z2 F100.0(Penetrate)
G02 X120.154488 Y198.141324 Z2 I0.474644 J-3.134435 F75
G02 X121.361500 Y197.411881 Z2 I-0.849597 J-2.769178
G02 X122.085744 Y194.131810 Z2 I-2.230896 J-2.212577
G02 X119.500000 Y192.073052 Z2 I-2.965321 J1.071172
G02 X118.309240 Y192.166489 Z2 I-0.363710 J2.999135
G02 X117.375000 Y192.436383 Z2 I33.804583 J118.766523
G03 X116.942783 Y192.555146 Z2 I-3.703955 J-12.634025
G02 X116.414740 Y192.853722 Z2 I0.289397 J1.128029
G02 X115.930443 Y194.036011 Z2 I1.140892 J1.157676
G02 X116.035780 Y195.550000 Z2 I13.974685 J-0.211646
G02 X116.969953 Y197.382825 Z2 I2.996565 J-0.372838
G02 X118.750000 Y198.245023 Z2 I2.279817 J-2.438192
G00 Z0.000000

(End cutting path id: path7)


(Start cutting path id: path7)
(Change tool to Default tool)

G00 Z0.000000
G00 X94.125000 Y193.550000

G01 Z2 F100.0(Penetrate)
G01 X94.125000 Y194.800000 Z2 F75
G02 X94.133544 Y195.831073 Z2 I62.215919 J0.000000
G02 X94.465953 Y196.924905 Z2 I2.079305 J-0.034464
G02 X96.581123 Y198.130984 Z2 I2.218497 J-1.432916
G02 X98.733025 Y196.924905 Z2 I0.092326 J-2.358036
G02 X99.110850 Y195.342100 Z2 I-2.609075 J-1.459298
G02 X98.471547 Y193.823148 Z2 I-2.355549 J0.097401
G02 X98.018760 Y193.448420 Z2 I-1.729451 J1.628795
G02 X97.500000 Y193.191686 Z2 I-1.445871 J2.269065
G02 X96.950931 Y193.067594 Z2 I-0.750911 J2.045779
G02 X96.375000 Y193.055497 Z2 I-0.372116 J4.000392
G02 X94.875513 Y193.359996 Z2 I0.260437 J5.126822
G03 X94.125000 Y193.550000 Z2 I-1.303616 J-3.572006
G00 Z0.000000

(End cutting path id: path7)


(Start cutting path id: path7)
(Change tool to Default tool)

G00 Z0.000000
G00 X105.374900 Y197.241456

G01 Z2 F100.0(Penetrate)
G01 X106.358220 Y196.175000 Z2 F75
G02 X106.131189 Y195.351644 Z2 I-1.535695 J-0.019528
G02 X105.374900 Y194.755341 Z2 I-1.189112 J0.730395
G02 X104.478517 Y194.781732 Z2 I-0.411449 J1.261176
G02 X103.773630 Y195.675481 Z2 I0.412402 J1.050098
G02 X103.733191 Y196.249240 Z2 I4.146967 J0.580587
G02 X103.878470 Y196.781484 Z2 I1.041380 J0.001698
G01 X105.374900 Y197.241456 Z2
G00 Z0.000000

(End cutting path id: path7)


(Start cutting path id: path7)
(Change tool to Default tool)

G00 Z0.000000
G00 X105.625000 Y194.800000

G01 Z2 F100.0(Penetrate)
G02 X105.796808 Y194.509143 Z2 I-2.827845 J-1.866570 F75
G02 X105.994500 Y193.800000 Z2 I-1.550070 J-0.814249
G02 X105.989024 Y193.108418 Z2 I-5.087996 J-0.305523
G02 X105.910700 Y192.300000 Z2 I-19.496601 J1.480927
G03 X105.891008 Y190.392862 Z2 I8.857388 J-1.045129
G02 X105.638420 Y188.550000 Z2 I-4.008843 J-0.389279
G02 X104.924942 Y187.598342 Z2 I-2.049078 J0.792953
G03 X104.000010 Y186.798167 Z2 I6.217569 J-8.121622
G03 X103.326051 Y186.123649 Z2 I26.039758 J-26.692134
G03 X103.058270 Y185.800000 Z2 I1.859992 J-1.811524
G01 X102.990170 Y185.305497 Z2
G01 X104.375010 Y184.601697 Z2
G03 X105.490021 Y184.445189 Z2 I3.283682 J19.343892
G02 X106.250010 Y184.353047 Z2 I-4.275313 J-38.443038
G01 X107.187700 Y184.375427 Z2
G01 X108.034350 Y185.608934 Z2
G02 X108.647109 Y186.086721 Z2 I2.597677 J-2.699684
G03 X109.168410 Y186.676931 Z2 I-0.732096 J1.171945
G03 X109.670435 Y189.219860 Z2 I-4.952976 J2.298835
G02 X109.624530 Y192.050003 Z2 I49.617966 J2.220242
G02 X109.697078 Y193.260306 Z2 I12.777287 J-0.158573
G03 X109.750010 Y194.175003 Z2 I-9.200188 J0.991277
G00 Z0.000000

(End cutting path id: path7)


(Start cutting path id: path7)
(Change tool to Default tool)

G00 Z0.000000
G00 X94.125000 Y193.550000

G01 Z2 F100.0(Penetrate)
G03 X93.592946 Y191.976796 Z2 I2.299989 J-1.654423 F75
G03 X93.501832 Y188.550000 Z2 I820.408416 J-23.528197
G03 X93.496396 Y187.769632 Z2 I22.268244 J-0.545310
G02 X93.500032 Y187.050000 Z2 I-65.408805 J-0.690270
G01 X93.371560 Y185.964738 Z2
G01 X92.500225 Y185.675578 Z2
G02 X91.895989 Y185.673410 Z2 I-0.372850 J19.711924
G03 X91.625032 Y185.675000 Z2 I-0.270957 J-23.085623
G00 Z0.000000

(End cutting path id: path7)


(Start cutting path id: path7)
(Change tool to Default tool)

G00 Z0.000000
G00 X116.125032 Y192.675000

G01 Z2 F100.0(Penetrate)
G03 X115.995816 Y190.528241 Z2 I8.586262 J-1.594087 F75
G02 X115.988842 Y187.800000 Z2 I-20.678440 J-1.311274
G02 X115.930971 Y187.156734 Z2 I-15.066325 J1.031199
G02 X115.747042 Y186.550483 Z2 I-1.725719 J0.192535
G02 X114.601845 Y185.383061 Z2 I-2.474569 J1.282051
G03 X113.255532 Y184.466378 Z2 I3.869984 J-7.130753
G01 X112.568222 Y183.055497 Z2
G01 X114.000032 Y182.175000 Z2
G02 X115.439862 Y181.668831 Z2 I-15.140601 J-45.369330
G03 X116.875032 Y181.300483 Z2 I2.503309 J6.773427
G02 X117.461248 Y181.193440 Z2 I-1.371452 J-9.169395
G03 X117.986432 Y181.199210 Z2 I0.249913 J1.156886
G01 X118.485562 Y181.679244 Z2
G02 X118.822454 Y182.180936 Z2 I3.334476 J-1.875179
G02 X119.375132 Y182.799517 Z2 I5.532454 J-4.386844
G02 X121.053019 Y184.367123 Z2 I25.790826 J-25.923454
G03 X122.750032 Y185.920081 Z2 I-35.992633 J41.035049
G02 X123.637638 Y186.738760 Z2 I24.310996 J-25.467289
G03 X124.495012 Y187.528781 Z2 I-23.278259 J26.123101
G03 X124.884688 Y187.915241 Z2 I-9.430529 J9.898693
G03 X125.142782 Y188.304921 Z2 I-0.915104 J0.886406
G03 X125.242211 Y188.775056 Z2 I-1.159081 J0.490717
G02 X125.251772 Y189.175000 Z2 I26.495889 J-0.433305
G02 X125.431625 Y190.103427 Z2 I2.968018 J-0.093325
G02 X126.250132 Y190.782834 Z2 I0.993403 J-0.364043
G02 X126.731721 Y190.825105 Z2 I0.509388 J-3.038941
G02 X127.244532 Y190.721684 Z2 I0.011426 J-1.266439
G02 X127.971615 Y189.778742 Z2 I-0.485492 J-1.126142
G02 X127.587132 Y188.584821 Z2 I-1.392611 J-0.210401
G02 X126.914047 Y188.231222 Z2 I-0.880911 J0.859423
G02 X126.250032 Y188.176064 Z2 I-0.648928 J3.787610
G02 X125.653785 Y188.261321 Z2 I0.008642 J2.188010
G02 X125.250032 Y188.425004 Z2 I0.574295 J1.996399
G00 Z0.000000

(End cutting path id: path7)


(Start cutting path id: path7)
(Change tool to Default tool)

G00 Z0.000000
G00 X101.750032 Y185.550004

G01 Z2 F100.0(Penetrate)
G02 X100.992067 Y185.519177 Z2 I-0.530918 J3.720305 F75
G03 X100.000032 Y185.550004 Z2 I-1.020337 J-16.857413
G01 X98.677404 Y185.750428 Z2
G02 X98.314600 Y186.415108 Z2 I0.670098 J0.797116
G02 X98.239808 Y187.175004 Z2 I12.876140 J1.650952
G02 X98.501258 Y188.684292 Z2 I3.211577 J0.220956
G02 X99.875032 Y189.648385 Z2 I1.478210 J-0.645540
G02 X100.872623 Y189.492849 Z2 I0.150134 J-2.314048
G02 X101.635062 Y188.794988 Z2 I-0.526244 J-1.340367
G02 X101.850796 Y188.006350 Z2 I-1.883514 J-0.939065
G02 X101.874932 Y187.300004 Z2 I-9.432197 J-0.675892
G01 X102.750032 Y185.550004 Z2
G00 Z0.000000

(End cutting path id: path7)


(Start cutting path id: path7)
(Change tool to Default tool)

G00 Z0.000000
G00 X136.375032 Y171.175004

G01 Z2 F100.0(Penetrate)
G02 X136.130259 Y171.229319 Z2 I4.233720 J19.658240 F75
G02 X135.375032 Y171.523576 Z2 I0.616466 J2.698488
G02 X134.716422 Y171.954798 Z2 I3.187453 J5.586789
G03 X133.875032 Y172.549907 Z2 I-12.163331 J-16.304687
G03 X131.701871 Y173.967313 Z2 I-58.585222 J-87.447983
G03 X129.500032 Y175.324985 Z2 I-53.012785 J-83.510542
G03 X128.420965 Y175.932310 Z2 I-11.857023 J-19.804734
G02 X127.380432 Y176.523095 Z2 I9.138218 J17.306606
G01 X126.784082 Y177.550099 Z2
G02 X127.471073 Y178.760702 Z2 I2.136540 J-0.412213
G03 X128.875032 Y180.038815 Z2 I-66.929537 J74.929718
G02 X129.356597 Y180.472819 Z2 I15.247164 J-16.433866
G02 X129.875032 Y180.722169 Z2 I0.708419 J-0.809281
G01 X130.750032 Y180.471204 Z2
G03 X131.549174 Y180.061164 Z2 I55.521745 J107.224545
G03 X132.500032 Y179.794988 Z2 I1.140826 J2.243905
G03 X133.952503 Y179.959071 Z2 I0.295067 J3.898759
G03 X135.353812 Y180.811673 Z2 I-0.996635 J3.215910
G03 X136.025554 Y181.587609 Z2 I-5.663924 J5.582105
G03 X136.372622 Y182.550004 Z2 I-1.366415 J1.036548
G03 X136.054989 Y184.254651 Z2 I-3.840985 J0.166212
G03 X135.766812 Y184.821223 Z2 I-4.952870 J-2.162619
G02 X135.542336 Y185.705957 Z2 I1.421061 J0.831398
G02 X135.791812 Y186.370702 Z2 I1.105874 J-0.035844
G01 X135.991852 Y186.526856 Z2
G01 X136.375052 Y186.675004 Z2
G00 Z0.000000

(End cutting path id: path7)


(Start cutting path id: path7)
(Change tool to Default tool)

G00 Z0.000000
G00 X129.875052 Y180.925004

G01 Z2 F100.0(Penetrate)
G02 X129.801530 Y181.475264 Z2 I5.371291 J0.997720 F75
G02 X129.738862 Y182.300004 Z2 I66.936587 J5.500913
G02 X129.709848 Y183.466107 Z2 I13.012913 J0.907194
G02 X129.990022 Y184.550004 Z2 I2.422768 J-0.048097
G02 X130.632823 Y185.414287 Z2 I3.115560 J-1.645984
G02 X131.500052 Y186.004577 Z2 I2.053338 J-2.084484
G02 X132.102306 Y186.200718 Z2 I1.254157 J-2.828222
G02 X132.750052 Y186.288333 Z2 I0.885404 J-4.107641
G02 X134.116506 Y186.144419 Z2 I0.241616 J-4.265029
G03 X135.375052 Y185.925004 Z2 I1.794812 J6.575723
G00 Z0.000000

(End cutting path id: path7)


(Start cutting path id: path7)
(Change tool to Default tool)

G00 Z0.000000
G00 X91.500000 Y185.675000

G01 Z2 F100.0(Penetrate)
G01 X91.625000 Y185.675000 Z2 F75
G00 Z0.000000

(End cutting path id: path7)


(Start cutting path id: path7)
(Change tool to Default tool)

G00 Z0.000000
G00 X93.500000 Y185.675000

G01 Z2 F100.0(Penetrate)
G02 X94.344963 Y185.605659 Z2 I-0.466651 J-10.869361 F75
G03 X95.250000 Y185.550000 Z2 I0.920233 J7.577334
G03 X95.703823 Y185.549153 Z2 I3.507104 J1757.414943
G02 X96.125000 Y185.528780 Z2 I-0.007864 J-4.526336
G02 X96.709147 Y185.463121 Z2 I-1.632221 J-17.152571
G03 X97.250000 Y185.425482 Z2 I0.586280 J4.519876
G03 X98.176418 Y185.545975 Z2 I0.033457 J3.364427
G03 X98.500000 Y185.674999 Z2 I-0.418069 J1.518754
G00 Z0.000000

(End cutting path id: path7)


(Start cutting path id: path7)
(Change tool to Default tool)

G00 Z0.000000
G00 X107.375000 Y184.299999

G01 Z2 F100.0(Penetrate)
G03 X108.348718 Y183.778664 Z2 I1.889259 J2.358651 F75
G03 X111.000000 Y183.144232 Z2 I5.668192 J17.830243
G03 X111.705620 Y183.068027 Z2 I1.052707 J6.442590
G03 X112.375000 Y183.050002 Z2 I0.677651 J12.727266
G00 Z0.000000

(End cutting path id: path7)


(Start cutting path id: path7)
(Change tool to Default tool)

G00 Z0.000000
G00 X118.375000 Y180.925002

G01 Z2 F100.0(Penetrate)
G03 X120.175424 Y179.784775 Z2 I2.819652 J2.460691 F75
G02 X123.000000 Y178.705577 Z2 I-4.625965 J-16.343472
G02 X124.231397 Y178.088640 Z2 I-29.143811 J-59.707988
G03 X125.500000 Y177.587619 Z2 I3.164641 J6.156401
G03 X126.124268 Y177.464156 Z2 I1.061379 J3.726693
G03 X126.625000 Y177.425002 Z2 I0.809297 J7.128440
G00 Z0.000000

(End cutting path id: path7)


(Footer)
M5
G00 X0.0000 Y0.0000
M2
(Using default footer. To add your own footer create file "footer" in the output dir.)
(end)
%