%
(Header)
(Generated by gcodetools from Inkscape.)
(Using default header. To add your own header create file "header" in the output dir.)
M3
(Header end.)
G21 (All units in mm)

(Start cutting path id: path6)
(Change tool to Default tool)

G00 Z0.000000
G00 X74.875000 Y178.125000

G01 Z2 F100.0(Penetrate)
G03 X74.872498 Y178.636858 Z2 I-51.195345 J0.005709 F75.000000
G02 X74.896700 Y179.125000 Z2 I4.114439 J0.040680
G02 X75.005036 Y179.682999 Z2 I3.416614 J-0.373823
G02 X75.303720 Y180.197628 Z2 I1.151538 J-0.324346
G02 X75.816316 Y180.502482 Z2 I0.836126 J-0.822525
G02 X76.374998 Y180.558353 Z2 I0.433044 J-1.508997
G02 X77.507831 Y179.781659 Z2 I-0.110439 J-1.375562
G02 X77.392744 Y178.266685 Z2 I-1.366186 J-0.658074
G02 X76.546136 Y177.786892 Z2 I-0.914055 J0.626047
G02 X75.625000 Y177.852238 Z2 I-0.213992 J3.508518
G01 X74.625483 Y177.972706 Z2
G03 X74.065189 Y177.625344 Z2 I0.296851 J-1.104378
G03 X73.668114 Y177.124519 Z2 I4.514258 J-3.986915
G03 X73.117839 Y176.317389 Z2 I21.089009 J-14.968937
G02 X72.529995 Y175.505497 Z2 I-8.891039 J5.818731
G01 X71.200424 Y174.481579 Z2
G03 X71.098074 Y173.914969 Z2 I1.154764 J-0.501141
G02 X71.071953 Y173.250000 Z2 I-3.644870 J-0.189821
G03 X71.006684 Y172.358666 Z2 I7.714765 J-1.012977
G03 X71.000000 Y171.500000 Z2 I54.690478 J-0.855100
G03 X71.004861 Y170.785524 Z2 I52.990165 J0.003270
G03 X71.105999 Y170.000000 Z2 I3.465724 J0.046947
G03 X72.291785 Y167.853510 Z2 I4.592687 J1.136361
G02 X73.502796 Y165.875000 Z2 I-3.868710 J-3.727844
G02 X73.670817 Y165.240620 Z2 I-4.268837 J-1.470080
G02 X73.750000 Y164.750000 Z2 I-9.335957 J-1.758463
G02 X74.419236 Y164.847614 Z2 I0.882234 J-3.705621
G03 X75.125000 Y164.910784 Z2 I-0.594641 J10.617738
G03 X76.508961 Y165.136428 Z2 I-2.196114 J17.826631
G03 X77.874905 Y165.425539 Z2 I-17.582480 J86.442068
G01 X78.621529 Y165.789255 Z2
G03 X78.800351 Y166.468890 Z2 I-0.922754 J0.606132
G02 X78.839314 Y168.000000 Z2 I8.311025 J0.554554
G01 X79.164738 Y169.354168 Z2
G01 X80.375000 Y169.566166 Z2
G03 X81.517648 Y170.165449 Z2 I-0.579872 J2.494618
G03 X82.236496 Y171.250000 Z2 I-1.783927 J1.962904
G03 X82.269462 Y173.183949 Z2 I-2.896782 J1.016634
G03 X80.875000 Y174.667053 Z2 I-2.227791 J-0.697529
G03 X80.261907 Y174.827789 Z2 I-1.043467 J-2.730465
G03 X79.625000 Y174.868248 Z2 I-0.557764 J-3.746993
G03 X77.479009 Y173.667760 Z2 I0.054668 J-2.616054
G03 X77.201679 Y171.250000 Z2 I2.317296 J-1.490592
G03 X78.231910 Y170.074982 Z2 I2.000534 J0.714874
G02 X79.000000 Y169.500000 Z2 I-1.308282 J-2.548186
G00 Z0.000000

(End cutting path id: path6)


(Start cutting path id: path6)
(Change tool to Default tool)

G00 Z0.000000
G00 X78.750000 Y165.750000

G01 Z2 F100.0(Penetrate)
G02 X79.250578 Y165.746196 Z2 I0.000000 J-32.934785 F75.000000
G03 X79.875000 Y165.771220 Z2 I0.085994 J5.657205
G03 X81.070032 Y165.928835 Z2 I-1.601260 J16.749868
G02 X82.375000 Y166.103879 Z2 I3.254751 J-19.312591
G02 X85.212602 Y166.296821 Z2 I4.448746 J-44.464906
G03 X87.625000 Y166.625001 Z2 I-0.443392 J12.289979
G00 Z0.000000

(End cutting path id: path6)


(Start cutting path id: path6)
(Change tool to Default tool)

G00 Z0.000000
G00 X87.875000 Y176.125000

G01 Z2 F100.0(Penetrate)
G01 X87.875000 Y174.875000 Z2 F75.000000
G03 X87.888486 Y173.913126 Z2 I34.308581 J-0.000000
G02 X87.853780 Y172.875000 Z2 I-8.452428 J-0.237065
G03 X87.748477 Y170.624745 Z2 I23.312918 J-2.218538
G02 X87.750001 Y168.375000 Z2 I-1661.085770 J-2.249744
G01 X87.878472 Y166.825424 Z2
G01 X88.625096 Y166.625578 Z2
G03 X89.611222 Y166.621169 Z2 I0.645059 J33.992377
G02 X90.375001 Y166.625000 Z2 I0.763779 J-76.131811
G01 X91.375001 Y166.625000 Z2
G00 Z0.000000

(End cutting path id: path6)


(Start cutting path id: path6)
(Change tool to Default tool)

G00 Z0.000000
G00 X91.375000 Y176.375000

G01 Z2 F100.0(Penetrate)
G02 X91.159620 Y176.375140 Z2 I0.000015 J165.990831 F75.000000
G03 X90.250000 Y176.375000 Z2 I-0.406678 J-313.412236
G03 X89.623156 Y176.348598 Z2 I0.012446 J-7.749933
G03 X89.000000 Y176.285686 Z2 I1.432660 J-17.308593
G02 X88.400239 Y176.239764 Z2 I-0.843258 J7.073782
G02 X87.625000 Y176.235534 Z2 I-0.461213 J13.485564
G01 X86.325424 Y176.643516 Z2
G01 X86.252994 Y177.249904 Z2
G01 X86.378474 Y177.840183 Z2
G01 X88.500000 Y178.375000 Z2
G00 Z0.000000

(End cutting path id: path6)


(Start cutting path id: path6)
(Change tool to Default tool)

G00 Z0.000000
G00 X87.250000 Y180.375000

G01 Z2 F100.0(Penetrate)
G01 X87.375000 Y180.375000 Z2 F75.000000
G00 Z0.000000

(End cutting path id: path6)


(Start cutting path id: path6)
(Change tool to Default tool)

G00 Z0.000000
G00 X86.000000 Y178.125000

G01 Z2 F100.0(Penetrate)
G01 X86.250000 Y178.125000 Z2 F75.000000
G00 Z0.000000

(End cutting path id: path6)


(Start cutting path id: path6)
(Change tool to Default tool)

G00 Z0.000000
G00 X84.625000 Y176.250000

G01 Z2 F100.0(Penetrate)
G01 X86.250000 Y176.250000 Z2 F75.000000
G00 Z0.000000

(End cutting path id: path6)


(Start cutting path id: path6)
(Change tool to Default tool)

G00 Z0.000000
G00 X73.750000 Y164.750000

G01 Z2 F100.0(Penetrate)
G01 X72.999420 Y164.362366 Z2 F75.000000
G01 X71.500000 Y163.946953 Z2
G01 X68.250000 Y163.011864 Z2
G01 X66.875000 Y162.875000 Z2
G00 Z0.000000

(End cutting path id: path6)


(Start cutting path id: path6)
(Change tool to Default tool)

G00 Z0.000000
G00 X64.375000 Y168.250003

G01 Z2 F100.0(Penetrate)
G02 X64.040340 Y168.463261 Z2 I14.830195 J23.641829 F75.000000
G02 X63.553530 Y168.896797 Z2 I1.161219 J1.793996
G02 X63.183556 Y169.665618 Z2 I1.375120 J1.135170
G02 X63.192129 Y170.500000 Z2 I1.894748 J0.397766
G02 X64.272884 Y171.671934 Z2 I1.569824 J-0.363386
G02 X65.856964 Y171.335747 Z2 I0.496754 J-1.559449
G02 X66.284282 Y170.640778 Z2 I-0.938673 J-1.056024
G02 X66.361496 Y169.875000 Z2 I-2.365826 J-0.625328
G02 X66.168687 Y169.134116 Z2 I-1.950788 J0.112147
G02 X65.619503 Y168.571472 Z2 I-1.119186 J0.543067
G01 X64.450424 Y167.867670 Z2
G03 X64.372867 Y167.466458 Z2 I0.991703 J-0.399806
G03 X64.375484 Y167.000000 Z2 I54.284887 J0.071377
G03 X64.414755 Y166.369867 Z2 I6.024591 J0.059172
G03 X64.617286 Y165.750000 Z2 I1.621330 J0.186722
G03 X65.378052 Y164.892619 Z2 I2.403430 J1.366387
G02 X66.215280 Y164.113811 Z2 I-3.011420 J-4.076731
G02 X66.573360 Y163.573005 Z2 I-1.996878 J-1.711128
G02 X66.686921 Y163.000483 Z2 I-0.996367 J-0.495155
G01 X65.750001 Y162.087481 Z2
G02 X64.925222 Y161.788411 Z2 I-4.156961 J10.177298
G02 X64.125001 Y161.594233 Z2 I-1.786948 J5.618158
G01 X63.268037 Y161.524213 Z2
G01 X62.194734 Y163.000000 Z2
G03 X58.758375 Y167.013665 Z2 I-113.141247 J-93.389686
G03 X56.000000 Y169.750000 Z2 I-22.951334 J-20.377732
G00 Z0.000000

(End cutting path id: path6)


(Start cutting path id: path6)
(Change tool to Default tool)

G00 Z0.000000
G00 X49.000000 Y172.625000

G01 Z2 F100.0(Penetrate)
G02 X51.000969 Y175.257257 Z2 I3.927767 J-0.909111 F75.000000
G02 X54.250000 Y175.488235 Z2 I1.878127 J-3.451913
G02 X55.443023 Y174.621407 Z2 I-0.957428 J-2.572114
G02 X56.148149 Y173.375000 Z2 I-3.619845 J-2.870501
G02 X56.357834 Y172.048487 Z2 I-3.126485 J-1.174039
G02 X56.219139 Y170.750000 Z2 I-10.745477 J0.491101
G03 X56.145472 Y170.298537 Z2 I41.676250 J-7.032231
G02 X55.998364 Y169.901619 Z2 I-1.059708 J0.167035
G02 X55.516170 Y169.456290 Z2 I-1.040657 J0.643083
G03 X55.000000 Y169.178047 Z2 I6.584758 J-12.833325
G02 X53.902615 Y168.671519 Z2 I-3.619443 J6.399463
G02 X52.625000 Y168.446373 Z2 I-1.272847 J3.485354
G02 X50.630324 Y169.025920 Z2 I0.004807 J3.738943
G02 X49.292535 Y170.625000 Z2 I1.828006 J2.888444
G02 X49.099647 Y171.633626 Z2 I2.419700 J0.985497
G03 X48.799576 Y172.445793 Z2 I-1.219905 J0.010800
G01 X48.000000 Y172.744503 Z2
G03 X47.585050 Y172.753333 Z2 I-0.314219 J-5.011967
G02 X47.253086 Y172.750003 Z2 I-0.331964 J16.546274
G01 X46.625000 Y172.750003 Z2
G00 Z0.000000

(End cutting path id: path6)


(Start cutting path id: path6)
(Change tool to Default tool)

G00 Z0.000000
G00 X46.500000 Y172.750003

G01 Z2 F100.0(Penetrate)
G01 X46.625000 Y172.750003 Z2 F75.000000
G00 Z0.000000

(End cutting path id: path6)


(Start cutting path id: path6)
(Change tool to Default tool)

G00 Z0.000000
G00 X46.500000 Y161.500000

G01 Z2 F100.0(Penetrate)
G03 X46.741015 Y161.503227 Z2 I0.020615 J7.461290 F75.000000
G02 X47.500000 Y161.441450 Z2 I0.101752 J-3.443152
G02 X48.226850 Y161.150143 Z2 I-0.397174 J-2.043451
G02 X48.939622 Y160.124996 Z2 I-0.880534 J-1.372588
G02 X48.731711 Y158.761246 Z2 I-1.883105 J-0.410634
G03 X48.286651 Y157.624996 Z2 I3.696640 J-2.103233
G03 X48.460908 Y156.574083 Z2 I1.352161 J-0.315695
G02 X49.012346 Y155.624996 Z2 I-14.707991 J-9.180361
G01 X49.659722 Y154.561436 Z2
G01 X50.750000 Y154.744304 Z2
G03 X51.883073 Y155.360355 Z2 I-2.502541 J5.952831
G02 X53.000000 Y156.075035 Z2 I12.959880 J-19.024032
G02 X56.143627 Y157.857294 Z2 I37.714826 J-62.859528
G02 X59.375000 Y159.461416 Z2 I28.054508 J-52.456774
G02 X61.710333 Y160.454005 Z2 I18.541003 J-40.379157
G03 X63.000000 Y161.375000 Z2 I-1.182918 J3.019894
G00 Z0.000000

(End cutting path id: path6)


(Start cutting path id: path6)
(Change tool to Default tool)

G00 Z0.000000
G00 X49.625000 Y154.375000

G01 Z2 F100.0(Penetrate)
G01 X48.868248 Y153.458622 Z2 F75.000000
G01 X47.500193 Y152.487461 Z2
G01 X46.625000 Y152.000000 Z2
G00 Z0.000000

(End cutting path id: path6)


(Start cutting path id: path6)
(Change tool to Default tool)

G00 Z0.000000
G00 X46.500000 Y152.000000

G01 Z2 F100.0(Penetrate)
G01 X46.625000 Y152.000000 Z2 F75.000000
G00 Z0.000000

(End cutting path id: path6)


(Start cutting path id: path6)
(Change tool to Default tool)

G00 Z0.000000
G00 X46.500000 Y157.625000

G01 Z2 F100.0(Penetrate)
G01 X48.125000 Y157.625000 Z2 F75.000000
G00 Z0.000000

(End cutting path id: path6)


(Start cutting path id: path6)
(Change tool to Default tool)

G00 Z0.000000
G00 X67.250000 Y177.875000

G01 Z2 F100.0(Penetrate)
G03 X66.815559 Y177.302112 Z2 I12.198046 J-9.701368 F75.000000
G02 X65.625000 Y176.637249 Z2 I-1.309275 J0.946107
G02 X64.910152 Y176.699324 Z2 I-0.165313 J2.243359
G02 X64.302372 Y177.049286 Z2 I0.314764 J1.249400
G02 X63.850722 Y178.119303 Z2 I1.140123 J1.111570
G02 X64.198593 Y179.236881 Z2 I1.816755 J0.047425
G02 X65.181690 Y179.821371 Z2 I1.173681 J-0.855086
G02 X66.238716 Y179.607544 Z2 I0.217619 J-1.643781
G02 X66.823705 Y178.910733 Z2 I-0.687458 J-1.171099
G03 X67.323496 Y178.028068 Z2 I3.012145 J1.122736
G03 X67.926858 Y177.604708 Z2 I1.023400 J0.816893
G02 X68.500000 Y177.311249 Z2 I-0.706657 J-2.086561
G02 X70.140020 Y175.812419 Z2 I-5.365707 J-7.517828
G03 X71.125000 Y174.750000 Z2 I14.535788 J12.488481
G00 Z0.000000

(End cutting path id: path6)


(Footer)
M5
M2
(Using default footer. To add your own footer create file "footer" in the output dir.)
(end)
%