%
(Header)
(Generated by gcodetools from Inkscape.)
(Using default header. To add your own header create file "header" in the output dir.)
M3
(Header end.)
G21 (All units in mm)

(Start cutting path id: path19)
(Change tool to Default tool)

G00 Z0.000000
G00 X127.750000 Y9.250000

G01 Z2 F100.0(Penetrate)
G03 X127.666813 Y8.549498 Z2 I46.184882 J-5.839774 F75.000000
G03 X127.626830 Y7.625000 Z2 I6.827849 J-0.758410
G03 X127.686474 Y6.916466 Z2 I5.935429 J0.142865
G03 X127.874320 Y6.250000 Z2 I2.626469 J0.380574
G03 X128.434788 Y5.434400 Z2 I2.328720 J0.999888
G03 X129.250000 Y4.854940 Z2 I2.270699 J2.331357
G03 X131.412242 Y4.752036 Z2 I1.197549 J2.394955
G03 X132.939620 Y6.250000 Z2 I-0.973258 J2.520035
G03 X133.138803 Y7.212675 Z2 I-2.487048 J1.016528
G03 X133.009020 Y8.250000 Z2 I-3.628953 J0.072752
G03 X131.983561 Y9.644875 Z2 I-2.338469 J-0.644776
G03 X130.250050 Y10.111980 Z2 I-1.598987 J-2.483893
G03 X128.740575 Y9.604355 Z2 I0.131912 J-2.890354
G02 X127.386240 Y9.530190 Z2 I-0.737854 J1.071110
G02 X126.321890 Y10.405825 Z2 I1.688867 J3.137533
G03 X125.197580 Y11.750000 Z2 I-76.744078 J-63.048870
G02 X124.704594 Y12.380948 Z2 I7.240003 J6.164981
G02 X124.389320 Y13.125000 Z2 I1.503258 J1.075791
G02 X124.328357 Y14.366165 Z2 I4.667275 J0.851324
G03 X124.375020 Y15.500000 Z2 I-13.751891 J1.133835
G03 X124.367160 Y16.367043 Z2 I-47.828329 J-0.000000
G02 X124.386220 Y17.125000 Z2 I8.762537 J0.158875
G02 X124.463130 Y17.991223 Z2 I21.480649 J-1.470681
G03 X124.495110 Y19.000000 Z2 I-6.516476 J0.711482
G03 X124.446841 Y19.481420 Z2 I-4.428737 J-0.200911
G03 X124.314650 Y19.999520 Z2 I-2.776379 J-0.432468
G03 X124.034437 Y20.477317 Z2 I-1.414847 J-0.508696
G03 X123.656960 Y20.910690 Z2 I-240.325441 J-208.947746
G01 X123.209330 Y21.999420 Z2
G01 X124.000130 Y22.789930 Z2
G03 X125.819449 Y23.797730 Z2 I-39.143083 J72.808677
G02 X127.625030 Y24.564330 Z2 I4.165667 J-7.301783
G03 X128.024973 Y24.689191 Z2 I-3.267931 J11.170449
G03 X128.464340 Y24.927180 Z2 I-0.450167 J1.355653
G02 X129.339468 Y25.618568 Z2 I97.192046 J-122.121685
G02 X130.500030 Y26.309320 Z2 I3.259671 J-4.156385
G02 X131.201599 Y26.524413 Z2 I1.314153 J-3.034674
G03 X131.842620 Y26.820510 Z2 I-0.268118 J1.422370
G03 X132.370020 Y27.357951 Z2 I-2.047987 J2.537219
G02 X133.000130 Y27.956500 Z2 I2.284094 J-1.773590
G03 X134.336630 Y28.898308 Z2 I-93.991089 J134.799936
G02 X135.375030 Y29.595680 Z2 I13.224113 J-18.569178
G02 X136.124713 Y29.933577 Z2 I1.569315 J-2.481197
G02 X136.375030 Y30.000000 Z2 I1.534232 J-5.276934
G00 Z0.000000

(End cutting path id: path19)


(Start cutting path id: path19)
(Change tool to Default tool)

G00 Z0.000000
G00 X131.875030 Y26.750000

G01 Z2 F100.0(Penetrate)
G02 X132.065953 Y26.445371 Z2 I-3.259731 J-2.255139 F75.000000
G03 X132.487400 Y25.752410 Z2 I11.057261 J6.250207
G01 X133.138050 Y25.166570 Z2
G03 X133.616493 Y25.152671 Z2 I0.271051 J1.088702
G03 X134.125030 Y25.276230 Z2 I-0.922963 J4.906951
G03 X134.970633 Y25.683129 Z2 I-0.852726 J2.854204
G02 X135.535530 Y26.063180 Z2 I13.443525 J-19.372229
G02 X136.156645 Y26.321959 Z2 I1.009639 J-1.548530
G03 X136.375030 Y26.375000 Z2 I-0.890829 J4.143892
G00 Z0.000000

(End cutting path id: path19)


(Start cutting path id: path19)
(Change tool to Default tool)

G00 Z0.000000
G00 X128.500030 Y24.750000

G01 Z2 F100.0(Penetrate)
G02 X128.614621 Y24.564052 Z2 I-4.924392 J-3.162962 F75.000000
G02 X128.870590 Y24.121910 Z2 I-24.871292 J-14.693869
G03 X129.902328 Y22.608891 Z2 I9.662251 J5.480472
G02 X131.178080 Y21.000000 Z2 I-75.375375 J-61.078292
G03 X131.571552 Y20.510098 Z2 I14.751742 J11.445104
G02 X131.816680 Y20.000000 Z2 I-0.895260 J-0.744165
G01 X131.688980 Y19.250000 Z2
G03 X131.533635 Y18.535655 Z2 I4.128091 J-1.271778
G03 X131.730880 Y17.626830 Z2 I1.370560 J-0.178360
G03 X132.707155 Y16.581697 Z2 I3.142089 J1.956531
G03 X133.874980 Y15.874810 Z2 I4.952707 J6.864100
G01 X134.960240 Y15.612940 Z2
G01 X135.228660 Y16.875000 Z2
G02 X135.084638 Y18.899218 Z2 I35.374954 J3.534146
G03 X134.106560 Y20.277300 Z2 I-1.552888 J-0.066014
G01 X133.124980 Y20.249500 Z2
G03 X132.520186 Y20.126885 Z2 I0.836151 J-5.677160
G02 X131.999980 Y19.999980 Z2 I-4.622605 J17.819192
G00 Z0.000000

(End cutting path id: path19)


(Start cutting path id: path19)
(Change tool to Default tool)

G00 Z0.000000
G00 X135.125010 Y15.499930

G01 Z2 F100.0(Penetrate)
G01 X135.375010 Y15.249930 Z2 F75.000000
G00 Z0.000000

(End cutting path id: path19)


(Start cutting path id: path19)
(Change tool to Default tool)

G00 Z0.000000
G00 X117.999980 Y12.999980

G01 Z2 F100.0(Penetrate)
G03 X118.691311 Y12.735606 Z2 I1.176040 J2.039215 F75.000000
G02 X119.857520 Y11.874400 Z2 I-0.359061 J-1.706445
G02 X119.718217 Y9.725680 Z2 I-1.742959 J-0.965878
G02 X117.749980 Y9.081580 Z2 I-1.436161 J1.059299
G02 X116.455749 Y10.393438 Z2 I0.584380 J1.870877
G02 X116.909800 Y12.202620 Z2 I1.752956 J0.521628
G02 X117.508171 Y12.650255 Z2 I1.805317 J-1.789488
G03 X117.996510 Y13.136650 Z2 I-0.574828 J1.065468
G03 X118.126232 Y13.654019 Z2 I-0.935506 J0.509510
G02 X118.124980 Y14.124980 Z2 I49.893002 J0.368103
G02 X118.136654 Y14.688440 Z2 I15.099437 J-0.030988
G03 X118.096480 Y15.249500 Z2 I-2.540185 J0.100082
G03 X117.869981 Y15.752994 Z2 I-1.140235 J-0.210247
G03 X117.494530 Y16.138960 Z2 I-1.959957 J-1.530968
G03 X116.431323 Y16.919511 Z2 I-7.313034 J-8.846878
G02 X115.528100 Y17.662500 Z2 I2.834306 J4.366054
G01 X115.069760 Y18.858390 Z2
G01 X115.627060 Y19.344120 Z2
G02 X116.372651 Y19.631777 Z2 I2.374460 J-5.044368
G03 X117.250030 Y19.918000 Z2 I-7.150468 J23.406711
G03 X119.592215 Y20.895588 Z2 I-6.804942 J19.598426
G02 X121.750030 Y21.685740 Z2 I4.806582 J-9.784778
G02 X122.428407 Y21.814858 Z2 I1.463426 J-5.842087
G02 X123.000030 Y21.874980 Z2 I1.444815 J-10.989493
G00 Z0.000000

(End cutting path id: path19)


(Start cutting path id: path19)
(Change tool to Default tool)

G00 Z0.000000
G00 X108.500010 Y13.249930

G01 Z2 F100.0(Penetrate)
G01 X108.375010 Y11.749930 Z2 F75.000000
G01 X108.375010 Y9.374930 Z2
G01 X108.250010 Y4.249930 Z2
G00 Z0.000000

(End cutting path id: path19)


(Start cutting path id: path19)
(Change tool to Default tool)

G00 Z0.000000
G00 X115.500030 Y4.749980

G01 Z2 F100.0(Penetrate)
G03 X115.639679 Y4.953816 Z2 I-3.254967 J2.379749 F75.000000
G03 X115.878120 Y5.377970 Z2 I-3.540375 J2.269344
G02 X116.362920 Y6.010823 Z2 I1.807704 J-0.882683
G02 X117.250030 Y6.352020 Z2 I0.910243 J-1.042787
G02 X118.738505 Y5.359407 Z2 I0.026296 J-1.572897
G02 X118.223310 Y3.626140 Z2 I-1.358880 J-0.539289
G02 X117.188269 Y3.356613 Z2 I-0.875100 J1.238417
G02 X116.255530 Y3.670840 Z2 I0.238627 J2.249796
G02 X115.844506 Y4.115720 Z2 I0.566158 J0.935385
G03 X115.322750 Y4.697560 Z2 I-1.329510 J-0.667359
G03 X114.547116 Y5.119812 Z2 I-3.180032 J-4.917894
G02 X113.625030 Y5.750510 Z2 I1.303582 J2.895244
G03 X112.795928 Y6.561220 Z2 I-159.513047 J-162.302624
G02 X112.013150 Y7.374930 Z2 I11.882209 J12.213880
G02 X111.665383 Y7.819958 Z2 I3.019234 J2.717775
G02 X111.424320 Y8.374930 Z2 I1.370699 J0.925230
G02 X111.356321 Y9.155007 Z2 I2.756290 J0.633266
G03 X111.375020 Y9.874930 Z2 I-13.849581 J0.719923
G03 X111.316546 Y11.232803 Z2 I-15.795298 J-0.000000
G03 X110.728220 Y12.444570 Z2 I-1.875394 J-0.161821
G03 X109.498019 Y13.106716 Z2 I-1.864071 J-1.989388
G02 X108.799210 Y13.462800 Z2 I0.388968 J1.627089
G02 X108.379228 Y14.105179 Z2 I0.890818 J1.040888
G03 X107.965390 Y14.839240 Z2 I-1.862144 J-0.566129
G01 X107.057020 Y16.731510 Z2
G01 X108.125020 Y17.266130 Z2
G03 X110.741870 Y17.982604 Z2 I-11.799145 J48.232322
G02 X113.250020 Y18.584710 Z2 I6.353721 J-20.942184
G02 X114.086823 Y18.701786 Z2 I1.973284 J-11.055031
G02 X114.875020 Y18.749930 Z2 I0.990053 J-9.732663
G00 Z0.000000

(End cutting path id: path19)


(Start cutting path id: path19)
(Change tool to Default tool)

G00 Z0.000000
G00 X102.125020 Y9.874930

G01 Z2 F100.0(Penetrate)
G03 X101.145139 Y9.190719 Z2 I58.940274 J-85.454053 F75.000000
G03 X100.276250 Y7.624930 Z2 I1.190959 J-1.684865
G03 X100.521428 Y6.404697 Z2 I2.453657 J-0.141741
G03 X101.375120 Y5.450350 Z2 I2.114782 J1.032736
G03 X101.945041 Y5.263751 Z2 I0.651726 J1.026898
G03 X102.500020 Y5.251760 Z2 I0.408576 J6.060883
G03 X103.195959 Y5.344940 Z2 I-0.077382 J3.223432
G03 X103.869520 Y5.677300 Z2 I-0.419898 J1.699666
G03 X104.718960 Y7.484849 Z2 I-1.413631 J1.767689
G03 X103.869520 Y9.196210 Z2 I-2.227705 J-0.039237
G01 X102.236130 Y10.018450 Z2
G02 X102.194352 Y10.717316 Z2 I1.482580 J0.439311
G03 X102.250030 Y11.374930 Z2 I-3.868516 J0.658700
G03 X102.250166 Y12.748959 Z2 I-2443.120985 J0.895956
G02 X102.250030 Y14.249930 Z2 I8253.060081 J1.853503
G03 X102.213463 Y15.190617 Z2 I-12.117967 J0.000000
G02 X102.325430 Y15.856410 Z2 I1.391321 J0.108332
G01 X103.000590 Y16.278380 Z2
G02 X103.661401 Y16.398239 Z2 I2.237042 J-10.451789
G03 X104.375010 Y16.509960 Z2 I-7.308453 J49.017176
G02 X105.777061 Y16.688624 Z2 I3.192909 J-19.465536
G02 X106.875010 Y16.749930 Z2 I1.421069 J-15.587924
G00 Z0.000000

(End cutting path id: path19)


(Start cutting path id: path19)
(Change tool to Default tool)

G00 Z0.000000
G00 X91.625010 Y15.374930

G01 Z2 F100.0(Penetrate)
G01 X92.625010 Y15.374930 Z2 F75.000000
G02 X93.461585 Y15.374604 Z2 I-0.000259 J-1073.621025
G03 X94.250010 Y15.374930 Z2 I0.257591 J330.547369
G03 X96.438848 Y15.471691 Z2 I-0.034314 J25.581599
G03 X98.750010 Y15.714340 Z2 I-5.739930 J65.799009
G02 X99.899054 Y15.814908 Z2 I2.013277 J-16.388190
G03 X101.000010 Y15.896150 Z2 I-1.356963 J25.889586
G03 X101.685526 Y15.966564 Z2 I-4.390859 J46.119156
G02 X102.250010 Y15.999930 Z2 I0.610646 J-5.539284
G00 Z0.000000

(End cutting path id: path19)


(Start cutting path id: path19)
(Change tool to Default tool)

G00 Z0.000000
G00 X91.500000 Y7.625000

G01 Z2 F100.0(Penetrate)
G03 X91.743501 Y7.534893 Z2 I1.521293 J3.736985 F75.000000
G02 X92.369695 Y7.196180 Z2 I-0.652684 J-1.954841
G02 X92.989499 Y6.393745 Z2 I-1.303712 J-1.647579
G02 X93.243152 Y5.250000 Z2 I-2.757347 J-1.211508
G02 X92.933718 Y3.964626 Z2 I-2.582930 J-0.058132
G02 X92.251157 Y3.232350 Z2 I-1.744175 J0.941513
G02 X91.831631 Y3.052693 Z2 I-0.764172 J1.204802
G03 X91.625000 Y3.000000 Z2 I4.511342 J-18.122253
G00 Z0.000000

(End cutting path id: path19)


(Start cutting path id: path19)
(Change tool to Default tool)

G00 Z0.000000
G00 X91.500000 Y3.000000

G01 Z2 F100.0(Penetrate)
G01 X91.625000 Y3.000000 Z2 F75.000000
G00 Z0.000000

(End cutting path id: path19)


(Footer)
M5
M2
(Using default footer. To add your own footer create file "footer" in the output dir.)
(end)
%