%
(Header)
(Generated by gcodetools from Inkscape.)
(Using default header. To add your own header create file "header" in the output dir.)
M3
(Header end.)
G21 (All units in mm)

(Start cutting path id: path12)
(Change tool to Default tool)

G00 Z0.000000
G00 X163.375000 Y136.375000

G01 Z2 F100.0(Penetrate)
G02 X162.562170 Y136.253345 Z2 I-0.841736 J2.847736 F75.000000
G02 X161.875000 Y136.250000 Z2 I-0.687170 J70.588448
G00 Z0.000000

(End cutting path id: path12)


(Start cutting path id: path12)
(Change tool to Default tool)

G00 Z0.000000
G00 X154.625030 Y133.125002

G01 Z2 F100.0(Penetrate)
G02 X155.714342 Y133.573538 Z2 I1.681819 J-2.537441 F75.000000
G02 X157.750030 Y133.423323 Z2 I0.745977 J-3.759399
G02 X158.503619 Y132.973364 Z2 I-0.761854 J-2.131985
G02 X159.055300 Y132.250002 Z2 I-1.647326 J-1.828406
G02 X159.297122 Y131.566092 Z2 I-2.583392 J-1.298161
G02 X159.371360 Y130.875002 Z2 I-3.177706 J-0.690888
G02 X159.317370 Y130.307568 Z2 I-3.010420 J0.000150
G02 X159.135060 Y129.750002 Z2 I-2.285979 J0.438868
G02 X158.811032 Y129.236448 Z2 I-2.280439 J1.079849
G02 X158.373290 Y128.812018 Z2 I-2.019028 J1.644401
G02 X157.746812 Y128.403001 Z2 I-3.063952 J4.008670
G03 X157.500000 Y128.250000 Z2 I1.382931 J-2.506429
G00 Z0.000000

(End cutting path id: path12)


(Start cutting path id: path12)
(Change tool to Default tool)

G00 Z0.000000
G00 X152.125000 Y135.750000

G01 Z2 F100.0(Penetrate)
G02 X152.851471 Y134.718911 Z2 I-8.718438 J-6.914187 F75.000000
G03 X153.683060 Y133.651619 Z2 I5.487946 J3.418363
G03 X154.066286 Y133.349999 Z2 I1.283457 J1.236441
G02 X154.518230 Y132.951294 Z2 I-0.792185 J-1.353463
G02 X154.724553 Y132.515671 Z2 I-0.907703 J-0.696585
G03 X154.865550 Y132.000000 Z2 I7.073911 J1.657068
G03 X155.535898 Y130.605155 Z2 I5.134623 J1.609142
G02 X156.394190 Y129.250481 Z2 I-24.143667 J-16.246143
G03 X156.873932 Y128.658886 Z2 I2.277270 J1.356390
G02 X157.311340 Y128.203125 Z2 I-3.531278 J-3.826855
G02 X157.594485 Y127.619750 Z2 I-0.989926 J-0.840869
G03 X157.824750 Y126.750000 Z2 I7.447344 J1.506313
G03 X158.269308 Y125.688980 Z2 I6.946356 J2.286822
G03 X158.793980 Y124.750481 Z2 I13.952352 J7.184208
G03 X159.190173 Y124.264556 Z2 I1.922415 J1.162940
G02 X159.642840 Y123.728779 Z2 I-1.949701 J-2.106375
G02 X159.844863 Y123.209891 Z2 I-1.129810 J-0.738650
G03 X159.951870 Y122.625000 Z2 I16.842416 J2.779117
G03 X160.873240 Y119.969741 Z2 I10.188575 J2.047932
G02 X162.072050 Y117.250000 Z2 I-24.338638 J-12.352081
G02 X162.444463 Y116.195411 Z2 I-24.656605 J-9.300169
G03 X162.798510 Y115.251060 Z2 I11.843937 J3.901876
G01 X163.266690 Y114.702738 Z2
G01 X164.000000 Y114.777298 Z2
G03 X164.626987 Y115.147628 Z2 I-0.517549 J1.592160
G03 X165.250000 Y115.750002 Z2 I-18.737074 J20.002435
G03 X166.098081 Y116.665526 Z2 I-11.231796 J11.254957
G02 X166.875000 Y117.148440 Z2 I1.150784 J-0.984982
G02 X167.595166 Y117.062768 Z2 I0.248916 J-0.977318
G03 X168.500000 Y116.776621 Z2 I1.239077 J2.344443
G03 X169.655235 Y117.073087 Z2 I0.203877 J1.604586
G03 X170.315970 Y118.125002 Z2 I-0.982049 J1.350320
G03 X169.753372 Y119.681951 Z2 I-1.620843 J0.294435
G03 X168.001830 Y119.918308 Z2 I-1.062821 J-1.267973
G03 X167.300751 Y119.214185 Z2 I0.589864 J-1.288400
G03 X167.053630 Y118.375002 Z2 I2.883767 J-1.305183
G03 X167.007502 Y117.852970 Z2 I4.348928 J-0.647332
G03 X167.000030 Y117.375002 Z2 I18.565977 J-0.529301
G00 Z0.000000

(End cutting path id: path12)


(Start cutting path id: path12)
(Change tool to Default tool)

G00 Z0.000000
G00 X175.375000 Y113.125031

G01 Z2 F100.0(Penetrate)
G03 X175.504117 Y113.593988 Z2 I-3.985728 J1.349636 F75.000000
G02 X175.654900 Y114.250031 Z2 I21.840883 J-4.674494
G02 X175.871211 Y114.870496 Z2 I3.382608 J-0.831331
G02 X176.218170 Y115.500031 Z2 I4.430784 J-2.031584
G03 X176.503509 Y115.957827 Z2 I-11.219393 J7.310739
G03 X176.793110 Y116.498103 Z2 I-5.831036 J3.473332
G01 X177.381850 Y117.155316 Z2
G01 X178.648050 Y116.498103 Z2
G02 X179.280324 Y115.373240 Z2 I-9.324420 J-5.981288
G02 X179.702930 Y114.250031 Z2 I-5.749543 J-2.804366
G01 X179.763830 Y113.502442 Z2
G01 X178.999940 Y112.893549 Z2
G02 X178.196718 Y112.851595 Z2 I-0.604108 J3.855936
G03 X177.250040 Y112.875029 Z2 I-0.918916 J-17.988904
G02 X176.227224 Y112.907954 Z2 I-0.023392 J15.176769
G03 X175.250040 Y112.811369 Z2 I-0.197529 J-2.993081
G03 X174.329598 Y112.370860 Z2 I0.726997 J-2.700942
G03 X173.490690 Y111.499932 Z2 I2.053287 J-2.817295
G03 X172.689662 Y110.157954 Z2 I11.960811 J-8.049472
G02 X171.948240 Y109.035713 Z2 I-5.967428 J3.136420
G02 X171.295172 Y108.254519 Z2 I-31.455577 J25.632881
G03 X170.625040 Y107.375027 Z2 I7.272195 J-6.236125
G02 X170.142782 Y106.661911 Z2 I-283.695866 J191.334831
G02 X169.588870 Y106.117310 Z2 I-1.634218 J1.108168
G02 X168.582885 Y105.848273 Z2 I-0.912204 J1.395608
G02 X167.250040 Y105.964341 Z2 I1.230356 J21.839292
G03 X166.252806 Y105.951367 Z2 I-0.449175 J-3.806855
G02 X165.534860 Y106.056551 Z2 I-0.182049 J1.260212
G01 X165.112500 Y106.750224 Z2
G02 X164.976318 Y107.352542 Z2 I6.952882 J1.888579
G03 X164.848670 Y108.000000 Z2 I-21.408637 J-3.884448
G03 X163.954056 Y111.843566 Z2 I-102.345765 J-21.795707
G03 X163.250000 Y114.375000 Z2 I-53.685473 J-13.567677
G00 Z0.000000

(End cutting path id: path12)


(Start cutting path id: path12)
(Change tool to Default tool)

G00 Z0.000000
G00 X165.500000 Y105.874997

G01 Z2 F100.0(Penetrate)
G03 X165.608449 Y104.431012 Z2 I22.545283 J0.967180 F75.000000
G03 X165.875580 Y102.374997 Z2 I46.539463 J5.001345
G03 X165.999514 Y101.834424 Z2 I3.708564 J0.565749
G02 X166.155000 Y101.249997 Z2 I-7.348229 J-2.267879
G02 X166.232097 Y100.696425 Z2 I-3.316888 J-0.744105
G02 X166.249900 Y100.124997 Z2 I-11.447387 J-0.642635
G03 X166.298135 Y99.197321 Z2 I9.950847 J0.052311
G03 X166.395740 Y98.249997 Z2 I117.626185 J11.640575
G02 X166.510905 Y95.743658 Z2 I-20.549942 J-2.200071
G03 X166.750000 Y93.999997 Z2 I5.845758 J-0.086637
G02 X167.372912 Y94.104289 Z2 I0.738474 J-2.498330
G02 X168.125000 Y94.125478 Z2 I1.029673 J-23.189640
G03 X170.437326 Y94.191818 Z2 I-0.827792 J69.185263
G02 X173.000000 Y94.250000 Z2 I2.562674 J-56.408470
G02 X173.947930 Y94.239167 Z2 I-0.000000 J-41.477508
G03 X174.875000 Y94.261190 Z2 I0.227441 J9.949304
G03 X175.532622 Y94.344491 Z2 I-0.419000 J5.945254
G03 X176.179500 Y94.696469 Z2 I-0.213594 J1.162969
G03 X176.535328 Y95.420137 Z2 I-0.996756 J0.939420
G03 X176.620080 Y96.250001 Z2 I-7.306251 J1.165427
G03 X176.635083 Y96.931794 Z2 I-14.532607 J0.660857
G03 X176.548880 Y97.625001 Z2 I-2.863471 J-0.004121
G03 X176.393288 Y98.147108 Z2 I-6.040487 J-1.515878
G02 X176.270720 Y98.624421 Z2 I2.841735 J0.984115
G01 X175.960240 Y99.299577 Z2
G01 X174.749980 Y99.386767 Z2
G02 X173.145072 Y100.181040 Z2 I0.208881 J2.440641
G02 X172.490920 Y101.874999 Z2 I1.866220 J1.693959
G02 X172.737025 Y102.996776 Z2 I2.679651 J-0.000000
G02 X173.501810 Y103.918498 Z2 I2.110104 J-0.972682
G02 X174.234845 Y104.266454 Z2 I1.354428 J-1.907246
G02 X174.999980 Y104.348765 Z2 I0.634864 J-2.304090
G02 X176.433296 Y103.844950 Z2 I-0.148039 J-2.711907
G02 X177.279400 Y102.624999 Z2 I-1.285457 J-1.794922
G02 X176.969001 Y100.586141 Z2 I-2.471843 J-0.666740
G02 X175.999980 Y99.374999 Z2 I-6.009574 J3.814970
G00 Z0.000000

(End cutting path id: path12)


(Start cutting path id: path12)
(Change tool to Default tool)

G00 Z0.000000
G00 X173.875000 Y91.500000

G01 Z2 F100.0(Penetrate)
G01 X178.375000 Y91.500000 Z2 F75.000000
G00 Z0.000000

(End cutting path id: path12)


(Start cutting path id: path12)
(Change tool to Default tool)

G00 Z0.000000
G00 X166.750000 Y94.000000

G01 Z2 F100.0(Penetrate)
G01 X166.750000 Y92.375195 Z2 F75.000000
G01 X166.750000 Y91.500000 Z2
G00 Z0.000000

(End cutting path id: path12)


(Start cutting path id: path12)
(Change tool to Default tool)

G00 Z0.000000
G00 X166.249980 Y101.374999

G01 Z2 F100.0(Penetrate)
G03 X166.822591 Y101.379011 Z2 I-0.004598 J41.522907 F75.000000
G03 X167.499980 Y101.428049 Z2 I-0.080924 J5.820920
G02 X169.237316 Y101.630461 Z2 I7.778589 J-59.207929
G03 X171.124980 Y101.839316 Z2 I-10.848248 J106.682853
G02 X171.748499 Y101.875740 Z2 I0.611450 J-5.111958
G03 X172.374980 Y101.875006 Z2 I0.626481 J267.243870
G00 Z0.000000

(End cutting path id: path12)


(Start cutting path id: path12)
(Change tool to Default tool)

G00 Z0.000000
G00 X172.125000 Y109.000000

G01 Z2 F100.0(Penetrate)
G03 X172.790679 Y108.545879 Z2 I2.267869 J2.609428 F75.000000
G03 X174.125000 Y108.146317 Z2 I1.700861 J3.252219
G03 X175.641772 Y108.098042 Z2 I1.111628 J11.074484
G02 X177.125000 Y108.124997 Z2 I1.480543 J-40.646630
G03 X177.739708 Y108.141175 Z2 I0.000743 J11.658102
G02 X178.351950 Y107.996524 Z2 I0.058980 J-1.118362
G02 X178.846920 Y107.522800 Z2 I-0.692894 J-1.219416
G03 X179.203610 Y106.999997 Z2 I7.028175 J4.411997
G02 X179.643572 Y106.376078 Z2 I-13.530704 J-10.008372
G02 X180.000000 Y105.749997 Z2 I-4.046845 J-2.718369
G00 Z0.000000

(End cutting path id: path12)


(Start cutting path id: path12)
(Change tool to Default tool)

G00 Z0.000000
G00 X170.375000 Y127.375000

G01 Z2 F100.0(Penetrate)
G03 X169.562343 Y126.530157 Z2 I21.407936 J-21.405631 F75.000000
G02 X168.146220 Y125.001831 Z2 I-1108.744578 J1025.925057
G02 X167.680936 Y124.527648 Z2 I-8.723666 J8.094594
G02 X167.124520 Y124.168018 Z2 I-1.197513 J1.242521
G02 X166.645391 Y124.042598 Z2 I-0.740221 J1.849902
G02 X166.125000 Y124.001831 Z2 I-0.642736 J4.862691
G02 X163.435816 Y123.985117 Z2 I-1.790629 J71.754232
G03 X161.000000 Y124.000031 Z2 I-2.383779 J-190.401277
G03 X160.095600 Y123.946173 Z2 I0.002476 J-7.661993
G03 X159.750000 Y123.875031 Z2 I0.247774 J-2.078672
G00 Z0.000000

(End cutting path id: path12)


(Start cutting path id: path12)
(Change tool to Default tool)

G00 Z0.000000
G00 X172.500000 Y133.310669

G01 Z2 F100.0(Penetrate)
G02 X173.535795 Y133.336864 Z2 I0.591291 J-2.889004 F75.000000
G02 X174.500000 Y133.065105 Z2 I-0.613353 J-4.022571
G02 X176.344331 Y130.859955 Z2 I-1.215815 J-2.890726
G02 X175.683450 Y128.005016 Z2 I-3.301633 J-0.739678
G02 X174.876670 Y127.288808 Z2 I-2.496528 J1.999736
G02 X173.875000 Y126.896797 Z2 I-1.556857 J2.502347
G02 X172.585253 Y126.871394 Z2 I-0.718947 J3.748153
G02 X171.375000 Y127.136478 Z2 I1.415484 J9.357742
G03 X170.953626 Y127.253469 Z2 I-5.862655 J-20.298623
G02 X170.553720 Y127.465954 Z2 I0.258062 J0.968246
G01 X170.170520 Y128.250095 Z2
G02 X169.963789 Y128.997577 Z2 I34.158230 J9.849462
G02 X169.808060 Y129.875000 Z2 I5.179032 J1.371730
G02 X169.828201 Y130.595437 Z2 I2.989965 J0.276910
G02 X169.995660 Y131.250000 Z2 I3.274553 J-0.489036
G02 X170.356014 Y131.959584 Z2 I3.194437 J-1.175965
G02 X170.886670 Y132.566456 Z2 I2.560702 J-1.703666
G02 X171.630794 Y133.037325 Z2 I1.862262 J-2.119557
G02 X172.500000 Y133.310669 Z2 I1.759401 J-4.076059
G00 Z0.000000

(End cutting path id: path12)


(Footer)
M5
M2
(Using default footer. To add your own footer create file "footer" in the output dir.)
(end)
%