%
(Header)
(Generated by gcodetools from Inkscape.)
(Using default header. To add your own header create file "header" in the output dir.)
M3
(Header end.)
G21 (All units in mm)

(Start cutting path id: path15)
(Change tool to Default tool)

G00 Z0.000000
G00 X112.875000 Y110.175000

G01 Z2 F100.0(Penetrate)
G02 X113.680091 Y110.026950 Z2 I-0.380749 J-4.333555 F75
G02 X114.608890 Y109.573148 Z2 I-0.793997 J-2.802468
G02 X115.194177 Y108.987374 Z2 I-1.607494 J-2.191444
G03 X115.875100 Y108.301831 Z2 I2.608872 J1.910353
G02 X117.495567 Y107.088733 Z2 I-158.608271 J-213.559209
G03 X119.125000 Y105.910630 Z2 I29.671070 J39.322136
G03 X119.716058 Y105.524613 Z2 I7.429478 J10.730286
G03 X120.375000 Y105.244637 Z2 I1.257443 J2.044057
G03 X121.475356 Y105.138223 Z2 I0.889277 J3.453172
G02 X122.750000 Y105.174997 Z2 I1.242241 J-20.948813
G02 X123.464765 Y105.123432 Z2 I-0.007840 J-5.088288
G03 X124.106480 Y105.182897 Z2 I0.196617 J1.370469
G01 X124.533370 Y105.925569 Z2
G02 X124.763604 Y106.802188 Z2 I5.031697 J-0.852977
G02 X125.287620 Y107.663320 Z2 I2.376203 J-0.855962
G02 X126.373252 Y108.362526 Z2 I1.905992 J-1.766951
G02 X127.625000 Y108.544587 Z2 I1.135670 J-3.414040
G02 X128.252521 Y108.481756 Z2 I-0.150733 J-4.670552
G02 X128.875000 Y108.290632 Z2 I-0.416438 J-2.465560
G02 X129.426392 Y107.939143 Z2 I-0.980310 J-2.146079
G02 X129.793980 Y107.544973 Z2 I-1.541341 J-1.805883
G02 X130.175506 Y106.888101 Z2 I-2.767590 J-2.046714
G02 X130.395160 Y106.299989 Z2 I-4.938212 J-2.179449
G02 X130.460121 Y105.139092 Z2 I-2.305510 J-0.711276
G02 X130.216920 Y103.925084 Z2 I-59.267830 J11.241681
G01 X129.731960 Y103.067445 Z2
G02 X128.979941 Y102.754708 Z2 I-1.276278 J2.008447
G02 X128.000000 Y102.576127 Z2 I-2.621111 J11.605108
G02 X127.168835 Y102.558421 Z2 I-0.490848 J3.524216
G02 X126.375000 Y102.754274 Z2 I0.268584 J2.795342
G02 X125.128087 Y103.746948 Z2 I1.074626 J2.629324
G02 X124.500000 Y105.050000 Z2 I3.600892 J2.538574
G00 Z0.000000

(End cutting path id: path15)


(Start cutting path id: path15)
(Change tool to Default tool)

G00 Z0.000000
G00 X92.750000 Y109.550000

G01 Z2 F100.0(Penetrate)
G01 X92.750000 Y108.175000 Z2 F75
G01 X92.768900 Y107.050000 Z2
G01 X92.750000 Y105.550000 Z2
G01 X92.625000 Y100.175000 Z2
G00 Z0.000000

(End cutting path id: path15)


(Start cutting path id: path15)
(Change tool to Default tool)

G00 Z0.000000
G00 X102.625000 Y109.550000

G01 Z2 F100.0(Penetrate)
G01 X102.624420 Y108.050000 Z2 F75
G01 X102.335260 Y107.178471 Z2
G01 X101.000000 Y107.050000 Z2
G01 X96.000000 Y107.050000 Z2
G01 X94.125000 Y107.050000 Z2
G01 X92.875000 Y107.050000 Z2
G00 Z0.000000

(End cutting path id: path15)


(Start cutting path id: path15)
(Change tool to Default tool)

G00 Z0.000000
G00 X134.500000 Y109.550000

G01 Z2 F100.0(Penetrate)
G02 X134.324390 Y105.301890 Z2 I-51.469939 J-0.000000 F75
G02 X133.759450 Y101.050000 Z2 I-43.226607 J3.579955
G02 X133.544232 Y100.386091 Z2 I-2.609361 J0.479032
G03 X133.318480 Y99.800000 Z2 I3.649654 J-1.742309
G03 X133.218724 Y99.226866 Z2 I2.375523 J-0.708717
G02 X133.177950 Y98.800000 Z2 I-5.286105 J0.289545
G03 X133.115146 Y98.275619 Z2 I15.959341 J-2.177354
G02 X133.012630 Y97.675000 Z2 I-4.577519 J0.472254
G02 X132.598584 Y96.241411 Z2 I-15.793679 J3.784913
G02 X132.123070 Y94.925480 Z2 I-33.752915 J11.452787
G01 X131.372680 Y94.121470 Z2
G02 X130.419382 Y94.364723 Z2 I-0.185816 J1.261387
G02 X129.625000 Y95.050480 Z2 I4.774358 J6.333614
G03 X128.061280 Y96.582288 Z2 I-236.544069 J-239.907886
G03 X126.375000 Y98.078840 Z2 I-17.104848 J-17.575041
G03 X125.905874 Y98.424197 Z2 I-4.045252 J-5.003694
G03 X125.375000 Y98.685030 Z2 I-1.243043 J-1.859302
G03 X123.909990 Y98.806677 Z2 I-0.979744 J-2.916715
G02 X122.250000 Y98.675030 Z2 I-1.658988 J10.387310
G03 X121.663607 Y98.666541 Z2 I-0.001440 J-20.157124
G02 X121.125000 Y98.748630 Z2 I-0.044091 J1.518712
G02 X120.254006 Y99.266300 Z2 I0.810663 J2.355534
G03 X119.375000 Y100.006350 Z2 I-9.402240 J-10.275603
G02 X116.625131 Y102.149581 Z2 I301.491098 J389.663415
G03 X113.875000 Y104.285186 Z2 I-202.397096 J-257.798815
G03 X112.395356 Y105.067129 Z2 I-3.034336 J-3.950859
G02 X111.625000 Y106.050000 Z2 I0.350965 J1.068411
G00 Z0.000000

(End cutting path id: path15)


(Start cutting path id: path15)
(Change tool to Default tool)

G00 Z0.000000
G00 X102.625000 Y106.925000

G01 Z2 F100.0(Penetrate)
G02 X102.647184 Y105.495856 Z2 I-19.355596 J-1.015196 F75
G03 X102.625000 Y103.425000 Z2 I97.239570 J-2.077233
G02 X102.619061 Y102.662725 Z2 I-49.356587 J0.003374
G03 X102.628000 Y101.800000 Z2 I16.672382 J-0.258663
G02 X102.633888 Y101.009058 Z2 I-13.745886 J-0.497822
G03 X102.625000 Y100.175000 Z2 I39.129859 J-0.834058
G03 X102.648377 Y99.007414 Z2 I29.169609 J-0.000000
G02 X102.392750 Y98.214250 Z2 I-1.208163 J-0.048399
G01 X101.375000 Y97.821320 Z2
G02 X100.471884 Y97.787259 Z2 I-0.717479 J7.033751
G03 X99.500000 Y97.800020 Z2 I-0.971884 J-37.002878
G01 X98.125000 Y97.781120 Z2
G02 X97.498155 Y97.793743 Z2 I0.000000 J15.570157
G03 X97.250000 Y97.799620 Z2 I-0.301143 J-7.473996
G03 X96.033963 Y97.802652 Z2 I-0.925428 J-127.297181
G02 X94.000000 Y97.800010 Z2 I-2.359660 J1033.644937
G03 X93.356597 Y97.789567 Z2 I0.006559 J-20.229869
G02 X92.625000 Y97.782610 Z2 I-0.519519 J16.161520
G02 X91.845339 Y97.797080 Z2 I0.934041 J71.340006
G03 X91.625000 Y97.800010 Z2 I-0.246781 J-10.271217
G00 Z0.000000

(End cutting path id: path15)


(Start cutting path id: path15)
(Change tool to Default tool)

G00 Z0.000000
G00 X102.750000 Y106.675010

G01 Z2 F100.0(Penetrate)
G01 X103.875000 Y106.675010 Z2 F75
G01 X105.375000 Y106.675010 Z2
G01 X108.875000 Y106.800010 Z2
G00 Z0.000000

(End cutting path id: path15)


(Start cutting path id: path15)
(Change tool to Default tool)

G00 Z0.000000
G00 X98.000000 Y104.675000

G01 Z2 F100.0(Penetrate)
G01 X98.250000 Y104.675000 Z2 F75
G00 Z0.000000

(End cutting path id: path15)


(Start cutting path id: path15)
(Change tool to Default tool)

G00 Z0.000000
G00 X130.000000 Y103.050000

G01 Z2 F100.0(Penetrate)
G02 X130.610246 Y102.115107 Z2 I-19.289211 J-13.257537 F75
G03 X131.755020 Y100.680500 Z2 I6.569031 J4.067841
G03 X132.499583 Y100.174145 Z2 I1.755476 J1.780725
G02 X133.250000 Y99.800000 Z2 I-3.660227 J-8.280867
G00 Z0.000000

(End cutting path id: path15)


(Start cutting path id: path15)
(Change tool to Default tool)

G00 Z0.000000
G00 X95.625000 Y101.925000

G01 Z2 F100.0(Penetrate)
G03 X98.763463 Y101.982799 Z2 I0.000000 J85.237246 F75
G02 X101.500000 Y102.049520 Z2 I4.047247 J-109.844283
G02 X102.043398 Y102.051263 Z2 I0.371420 J-31.097175
G03 X102.500000 Y102.050000 Z2 I0.456602 J82.567678
G00 Z0.000000

(End cutting path id: path15)


(Start cutting path id: path15)
(Change tool to Default tool)

G00 Z0.000000
G00 X102.750000 Y101.675000

G01 Z2 F100.0(Penetrate)
G01 X103.875000 Y101.675000 Z2 F75
G02 X106.010953 Y101.574040 Z2 I-0.000000 J-22.645132
G03 X108.500000 Y101.675000 Z2 I0.872880 J9.212919
G00 Z0.000000

(End cutting path id: path15)


(Start cutting path id: path15)
(Change tool to Default tool)

G00 Z0.000000
G00 X111.125000 Y101.175000

G01 Z2 F100.0(Penetrate)
G01 X111.253470 Y100.250330 Z2 F75
G01 X112.000100 Y99.983930 Z2
G02 X113.021324 Y99.371468 Z2 I-0.544682 J-2.065838
G02 X113.860150 Y98.425000 Z2 I-20.180924 J-18.730675
G02 X114.240338 Y97.700111 Z2 I-1.437062 J-1.215850
G03 X114.616800 Y97.040450 Z2 I1.454970 J0.393085
G03 X115.306227 Y96.578785 Z2 I1.441520 J1.407084
G02 X116.233310 Y95.924420 Z2 I-0.921296 J-2.289174
G02 X116.747162 Y94.933132 Z2 I-1.717517 J-1.519131
G03 X117.159820 Y94.238750 Z2 I1.313319 J0.310673
G03 X117.833754 Y93.858852 Z2 I1.197050 J1.335825
G02 X118.613810 Y93.408310 Z2 I-0.581589 J-1.907503
G02 X119.687422 Y92.203392 Z2 I-6.037851 J-6.460639
G03 X120.875000 Y91.173650 Z2 I2.896165 J2.140408
G03 X121.538454 Y91.011870 Z2 I0.641825 J1.190808
G03 X122.250000 Y91.039390 Z2 I-0.251141 J15.705607
G03 X124.054523 Y91.267863 Z2 I-0.863156 J14.057855
G02 X125.750000 Y91.182140 Z2 I0.673404 J-3.490960
G02 X126.611299 Y90.681584 Z2 I-0.615381 J-2.050166
G02 X127.370080 Y89.925000 Z2 I-16.323381 J-17.129565
G03 X128.342338 Y88.995212 Z2 I11.161141 J10.697715
G03 X128.875000 Y88.550000 Z2 I9.800030 J11.183745
G03 X129.246957 Y88.858089 Z2 I-39.034640 J47.505257
G03 X129.670520 Y89.305110 Z2 I-1.695536 J2.030739
G03 X130.643634 Y90.979224 Z2 I-6.742958 J5.039365
G03 X131.234570 Y92.800000 Z2 I-9.018198 J3.933154
G03 X131.338387 Y93.436848 Z2 I-5.753663 J1.264830
G03 X131.375000 Y93.925000 Z2 I-7.620989 J0.817049
G00 Z0.000000

(End cutting path id: path15)


(Start cutting path id: path15)
(Change tool to Default tool)

G00 Z0.000000
G00 X98.125000 Y99.175000

G01 Z2 F100.0(Penetrate)
G01 X98.000000 Y97.800000 Z2 F75
G00 Z0.000000

(End cutting path id: path15)


(Start cutting path id: path15)
(Change tool to Default tool)

G00 Z0.000000
G00 X91.500000 Y97.800000

G01 Z2 F100.0(Penetrate)
G01 X91.625000 Y97.800000 Z2 F75
G00 Z0.000000

(End cutting path id: path15)


(Start cutting path id: path15)
(Change tool to Default tool)

G00 Z0.000000
G00 X92.750000 Y97.675000

G01 Z2 F100.0(Penetrate)
G01 X92.750000 Y96.425000 Z2 F75
G01 X92.750000 Y91.675000 Z2
G00 Z0.000000

(End cutting path id: path15)


(Start cutting path id: path15)
(Change tool to Default tool)

G00 Z0.000000
G00 X98.125000 Y97.675000

G01 Z2 F100.0(Penetrate)
G01 X98.125000 Y96.550000 Z2 F75
G01 X98.125000 Y95.050000 Z2
G01 X98.125000 Y91.550000 Z2
G00 Z0.000000

(End cutting path id: path15)


(Start cutting path id: path15)
(Change tool to Default tool)

G00 Z0.000000
G00 X114.500000 Y96.925000

G01 Z2 F100.0(Penetrate)
G03 X113.977405 Y95.761023 Z2 I2.723498 J-1.922083 F75
G03 X113.748650 Y94.050000 Z2 I8.721180 J-2.036780
G02 X113.606454 Y91.898922 Z2 I-36.329996 J1.321336
G03 X113.500000 Y89.675000 Z2 I23.176633 J-2.223922
G02 X113.489937 Y89.045953 Z2 I-19.665778 J0.000000
G03 X113.543000 Y88.425000 Z2 I2.662611 J-0.085212
G03 X113.954143 Y87.669154 Z2 I1.446500 J0.297082
G03 X114.624980 Y87.060030 Z2 I7.990768 J8.126376
G02 X116.827824 Y85.190808 Z2 I-149.893448 J-178.879294
G02 X118.999980 Y83.293730 Z2 I-116.590478 J-135.688310
G02 X119.780801 Y82.564464 Z2 I-14.010979 J-15.784113
G03 X120.499980 Y82.130250 Z2 I1.272817 J1.295452
G03 X121.159654 Y82.102247 Z2 I0.380952 J1.190116
G02 X121.999980 Y82.153150 Z2 I0.573542 J-2.506588
G02 X122.632532 Y82.001257 Z2 I-0.256737 J-2.462236
G02 X123.124980 Y81.755390 Z2 I-1.035347 J-2.689795
G01 X123.874980 Y81.440090 Z2
G03 X124.525595 Y81.718305 Z2 I-0.073031 J1.070637
G03 X125.043860 Y82.425050 Z2 I-1.502226 J1.644999
G01 X125.258950 Y83.417620 Z2
G01 X124.004900 Y84.107050 Z2
G02 X123.221075 Y84.929524 Z2 I0.828246 J1.574059
G02 X123.043480 Y85.924950 Z2 I1.784338 J0.831900
G02 X123.200428 Y86.456294 Z2 I1.362758 J-0.113680
G02 X123.527950 Y86.896880 Z2 I1.640843 J-0.877737
G02 X125.076957 Y87.439317 Z2 I1.340782 J-1.345872
G02 X126.310740 Y86.663280 Z2 I-0.183023 J-1.659765
G01 X127.126810 Y85.952830 Z2
G03 X127.680400 Y86.151251 Z2 I-0.067152 J1.058818
G03 X128.094500 Y86.563450 Z2 I-1.085561 J1.504670
G03 X128.645290 Y87.804527 Z2 I-2.609194 J1.900718
G03 X128.749980 Y88.424950 Z2 I-7.974555 J1.664674
G00 Z0.000000

(End cutting path id: path15)


(Start cutting path id: path15)
(Change tool to Default tool)

G00 Z0.000000
G00 X117.000000 Y94.175000

G01 Z2 F100.0(Penetrate)
G03 X116.753291 Y93.727794 Z2 I2.260479 J-1.538687 F75
G03 X116.500480 Y92.550000 Z2 I2.791343 J-1.215185
G02 X116.357030 Y90.767469 Z2 I-13.160430 J0.162052
G03 X116.642460 Y89.175480 Z2 I2.499645 J-0.373417
G03 X117.140451 Y88.573723 Z2 I1.828662 J1.006392
G02 X117.750000 Y88.038810 Z2 I-8.910252 J-10.768256
G02 X118.718202 Y87.102853 Z2 I-23.913853 J-25.706459
G03 X119.750000 Y86.301060 Z2 I3.654703 J3.638317
G03 X120.576639 Y86.013313 Z2 I1.128247 J1.909965
G03 X121.500000 Y85.929920 Z2 I1.361311 J9.919418
G03 X122.218469 Y85.919806 Z2 I0.529710 J12.104512
G02 X122.875000 Y85.924920 Z2 I0.656531 J-42.136308
G00 Z0.000000

(End cutting path id: path15)


(Start cutting path id: path15)
(Change tool to Default tool)

G00 Z0.000000
G00 X120.375000 Y82.049920

G01 Z2 F100.0(Penetrate)
G02 X120.182774 Y81.257453 Z2 I-7.747697 J1.459784 F75
G03 X120.071080 Y79.799920 Z2 I3.310011 J-0.986699
G03 X120.480315 Y78.749866 Z2 I2.398738 J0.330083
G02 X120.554690 Y77.679840 Z2 I-0.861256 J-0.597461
G02 X119.240353 Y76.133685 Z2 I-3.860209 J1.949723
G02 X117.250000 Y74.848730 Z2 I-12.422184 J17.057590
G02 X116.714768 Y74.651608 Z2 I-0.862237 J1.515971
G03 X116.224920 Y74.426370 Z2 I0.210605 J-1.103305
G03 X115.729060 Y73.920487 Z2 I1.814611 J-2.274617
G02 X115.124900 Y73.343420 Z2 I-2.149085 J1.645188
G02 X111.031770 Y70.903253 Z2 I-19.468658 J28.003684
G02 X106.625000 Y69.050310 Z2 I-15.485020 J30.660647
G02 X105.445269 Y68.656525 Z2 I-32.190812 J94.475509
G02 X104.375000 Y68.394250 Z2 I-2.266119 J6.932524
G01 X103.391590 Y68.375850 Z2
G01 X102.668980 Y69.299850 Z2
G03 X101.993220 Y70.054915 Z2 I-3.678282 J-2.612026
G03 X101.000000 Y70.855700 Z2 I-8.548824 J-9.586829
G01 X99.503472 Y71.709670 Z2
G02 X99.349558 Y72.348710 Z2 I0.876375 J0.549131
G03 X99.316936 Y73.049950 Z2 I-2.626418 J0.229196
G03 X97.896921 Y75.266531 Z2 I-3.408130 J-0.620215
G02 X95.625000 Y77.026900 Z2 I17.215934 J24.565026
G03 X94.856219 Y77.520101 Z2 I-2.176712 J-2.547195
G03 X94.375096 Y77.709960 Z2 I-1.880631 J-4.061179
G03 X94.152519 Y77.772071 Z2 I-0.783368 J-2.377368
G02 X93.679205 Y78.015900 Z2 I0.241315 J1.049740
G02 X93.331549 Y78.871819 Z2 I0.690938 J0.779209
G03 X93.375000 Y80.050000 Z2 I-15.951641 J1.178181
G02 X93.382196 Y82.538712 Z2 I430.387934 J-0.000000
G03 X93.374518 Y85.050000 Z2 I-142.045835 J0.821392
G03 X93.302223 Y85.919862 Z2 I-6.160742 J-0.074089
G02 X93.253665 Y86.550000 Z2 I4.064369 J0.630138
G02 X93.293694 Y87.108414 Z2 I3.914998 J-0.000000
G03 X93.366223 Y87.675000 Z2 I-17.886653 J2.577609
G01 X94.125000 Y88.675000 Z2
G00 Z0.000000

(End cutting path id: path15)


(Start cutting path id: path15)
(Change tool to Default tool)

G00 Z0.000000
G00 X116.125000 Y74.550000

G01 Z2 F100.0(Penetrate)
G03 X114.937123 Y76.189427 Z2 I-34.150824 J-23.494541 F75
G03 X112.125000 Y78.267010 Z2 I-4.977422 J-3.795242
G03 X111.457115 Y78.405124 Z2 I-0.792986 J-2.150770
G03 X110.750000 Y78.425000 Z2 I-0.728494 J-13.328732
G03 X107.479376 Y78.235045 Z2 I-0.043635 J-27.500226
G02 X104.375000 Y78.488800 Z2 I-0.923617 J7.816646
G02 X103.700044 Y78.831268 Z2 I0.558488 J1.937055
G02 X103.125000 Y79.309880 Z2 I6.404152 J8.279237
G03 X102.128701 Y80.198866 Z2 I-335.928681 J-375.477258
G03 X101.125000 Y81.085630 Z2 I-123.932884 J-139.264392
G03 X99.867883 Y82.122379 Z2 I-17.671478 J-20.147136
G02 X98.929205 Y83.300040 Z2 I1.951216 J2.518181
G02 X98.723230 Y84.342914 Z2 I2.033842 J0.943477
G03 X98.750000 Y85.550000 Z2 I-27.200481 J1.207086
G03 X98.749490 Y86.581030 Z2 I-1042.709618 J0.000685
G02 X98.750000 Y87.550000 Z2 I319.821090 J0.316170
G01 X99.625000 Y88.675000 Z2
G00 Z0.000000

(End cutting path id: path15)


(Start cutting path id: path15)
(Change tool to Default tool)

G00 Z0.000000
G00 X127.000000 Y85.800000

G01 Z2 F100.0(Penetrate)
G03 X126.405187 Y84.610891 Z2 I9.647897 J-5.569369 F75
G02 X125.500000 Y83.675000 Z2 I-1.678615 J0.717854
G00 Z0.000000

(End cutting path id: path15)


(Start cutting path id: path15)
(Change tool to Default tool)

G00 Z0.000000
G00 X123.625000 Y81.300000

G01 Z2 F100.0(Penetrate)
G02 X122.506124 Y79.352392 Z2 I-3.055108 J0.459926 F75
G02 X121.000000 Y78.425000 Z2 I-4.431325 J5.509962
G00 Z0.000000

(End cutting path id: path15)


(Start cutting path id: path15)
(Change tool to Default tool)

G00 Z0.000000
G00 X93.375000 Y77.800000

G01 Z2 F100.0(Penetrate)
G01 X93.375000 Y76.550000 Z2 F75
G01 X93.375000 Y72.300000 Z2
G01 X92.981482 Y70.780420 Z2
G02 X92.491531 Y70.550925 Z2 I-0.825986 J1.125655
G03 X92.375579 Y70.520580 Z2 I1.118807 J-4.511876
G02 X91.937512 Y70.444133 Z2 I-0.615134 J2.231576
G02 X91.625000 Y70.424980 Z2 I-0.779817 J10.164695
G00 Z0.000000

(End cutting path id: path15)


(Start cutting path id: path15)
(Change tool to Default tool)

G00 Z0.000000
G00 X99.375000 Y71.549980

G01 Z2 F100.0(Penetrate)
G03 X99.101701 Y70.848575 Z2 I1.811920 J-1.109952 F75
G02 X98.750000 Y69.299980 Z2 I-26.110353 J5.115685
G00 Z0.000000

(End cutting path id: path15)


(Start cutting path id: path15)
(Change tool to Default tool)

G00 Z0.000000
G00 X93.125000 Y70.674980

G01 Z2 F100.0(Penetrate)
G01 X93.391397 Y70.279920 Z2 F75
G02 X93.547709 Y68.567597 Z2 I-3.116806 J-1.147818
G03 X93.374997 Y66.549980 Z2 I11.698546 J-2.017617
G03 X96.407717 Y66.715697 Z2 I0.000000 J27.833072
G03 X99.624997 Y67.199570 Z2 I-4.421238 J40.334744
G02 X101.036400 Y67.447469 Z2 I8.687423 J-45.319583
G03 X102.249807 Y67.741440 Z2 I-1.241774 J7.776849
G03 X102.847496 Y68.067351 Z2 I-0.585654 J1.785041
G03 X103.124997 Y68.299980 Z2 I-7.016018 J8.651158
G00 Z0.000000

(End cutting path id: path15)


(Start cutting path id: path15)
(Change tool to Default tool)

G00 Z0.000000
G00 X91.624997 Y65.549980

G01 Z2 F100.0(Penetrate)
G02 X91.963787 Y65.880919 Z2 I28.830564 J-29.175648 F75
G02 X93.249997 Y66.424980 Z2 I1.349209 J-1.397265
G00 Z0.000000

(End cutting path id: path15)


(Start cutting path id: path15)
(Change tool to Default tool)

G00 Z0.000000
G00 X91.500000 Y65.550000

G01 Z2 F100.0(Penetrate)
G01 X91.625000 Y65.550000 Z2 F75
G00 Z0.000000

(End cutting path id: path15)


(Footer)
M5
G00 X0.0000 Y0.0000
M2
(Using default footer. To add your own footer create file "footer" in the output dir.)
(end)
%