%
(Header)
(Generated by gcodetools from Inkscape.)
(Using default header. To add your own header create file "header" in the output dir.)
M3
(Header end.)
G21 (All units in mm)

(Start cutting path id: path17)
(Change tool to Default tool)

G00 Z0.000000
G00 X7.000000 Y46.375000

G01 Z2 F100.0(Penetrate)
G02 X8.000355 Y46.040595 Z2 I-10.195627 J-32.163177 F75.000000
G02 X8.835262 Y45.125000 Z2 I-0.434211 J-1.234409
G02 X8.942982 Y43.733789 Z2 I-4.026768 J-1.011562
G03 X8.875000 Y42.250000 Z2 I16.158904 J-1.483789
G02 X8.870913 Y41.495411 Z2 I-69.657968 J0.000000
G03 X8.910687 Y40.750000 Z2 I5.822617 J-0.063079
G02 X8.978399 Y39.983644 Z2 I-13.030868 J-1.537525
G02 X9.000000 Y39.250000 Z2 I-12.474571 J-0.734431
G01 X9.000000 Y36.000000 Z2
G01 X9.000000 Y31.000000 Z2
G02 X8.997442 Y30.320175 Z2 I-90.313874 J0.000000
G03 X9.035687 Y29.625000 Z2 I5.574359 J-0.041961
G02 X9.102160 Y28.879651 Z2 I-13.039538 J-1.538556
G02 X9.125000 Y28.125000 Z2 I-12.482163 J-0.755450
G01 X9.125000 Y20.875000 Z2
G02 X9.119781 Y19.888451 Z2 I-93.247865 J-0.000000
G03 X9.126830 Y18.875000 Z2 I28.898017 J-0.305754
G03 X9.197882 Y17.368497 Z2 I33.309062 J0.816032
G02 X9.249998 Y15.875000 Z2 I-21.373579 J-1.493497
G01 X9.249998 Y9.375000 Z2
G02 X9.232110 Y8.120999 Z2 I-43.965122 J-0.000000
G03 X9.261283 Y6.875000 Z2 I11.999556 J-0.342398
G01 X9.492282 Y6.054210 Z2
G01 X10.624998 Y5.750100 Z2
G03 X11.667458 Y5.748711 Z2 I0.708231 J140.345287
G02 X12.749998 Y5.750000 Z2 I1.082541 J-454.571118
G01 X24.374998 Y5.625000 Z2
G00 Z0.000000

(End cutting path id: path17)


(Start cutting path id: path17)
(Change tool to Default tool)

G00 Z0.000000
G00 X46.375000 Y18.125000

G01 Z2 F100.0(Penetrate)
G01 X46.375000 Y13.625000 Z2 F75.000000
G00 Z0.000000

(End cutting path id: path17)


(Start cutting path id: path17)
(Change tool to Default tool)

G00 Z0.000000
G00 X46.375000 Y25.875000

G01 Z2 F100.0(Penetrate)
G03 X46.393951 Y25.053794 Z2 I17.802249 J-0.000000 F75.000000
G02 X46.299580 Y24.516110 Z2 I-1.250039 J-0.057725
G01 X45.375004 Y23.618250 Z2
G03 X44.710713 Y22.968153 Z2 I13.492221 J-14.451239
G02 X44.000004 Y22.250100 Z2 I-47.777830 J46.578466
G02 X42.322093 Y20.777239 Z2 I-12.592785 J12.653760
G03 X41.034821 Y19.250000 Z2 I2.893629 J-3.745091
G03 X40.691975 Y17.847241 Z2 I2.598286 J-1.378321
G03 X40.803051 Y16.250000 Z2 I13.105291 J0.108895
G02 X40.908087 Y15.333704 Z2 I-27.842980 J-3.655834
G02 X40.799551 Y14.643420 Z2 I-1.385568 J-0.135817
G01 X38.886743 Y13.598280 Z2
G03 X38.123646 Y12.043154 Z2 I1.628375 J-1.763828
G03 X38.590444 Y10.376830 Z2 I2.445650 J-0.213431
G03 X39.059784 Y9.874361 Z2 I2.354063 J1.728420
G03 X39.624975 Y9.528550 Z2 I1.408349 J1.667021
G03 X40.259444 Y9.378301 Z2 I0.770793 J1.840153
G03 X40.874975 Y9.401230 Z2 I0.199622 J2.914592
G03 X42.082171 Y9.938222 Z2 I-0.345544 J2.402236
G03 X42.776329 Y11.000000 Z2 I-1.384130 J1.662699
G03 X42.400950 Y13.166261 Z2 I-2.412620 J0.697585
G03 X41.000000 Y14.250000 Z2 I-2.531318 J-1.824863
G00 Z0.000000

(End cutting path id: path17)


(Start cutting path id: path17)
(Change tool to Default tool)

G00 Z0.000000
G00 X43.000000 Y32.500000

G01 Z2 F100.0(Penetrate)
G03 X42.018628 Y31.252043 Z2 I11.574893 J-10.112145 F75.000000
G02 X40.125000 Y29.751160 Z2 I-3.500000 J2.470851
G02 X38.885940 Y29.660070 Z2 I-0.761248 J1.882185
G03 X37.750000 Y29.853880 Z2 I-1.978781 J-8.172001
G02 X36.363028 Y30.174011 Z2 I0.565910 J5.616424
G03 X35.750000 Y30.375000 Z2 I-3.063151 J-8.307385
G00 Z0.000000

(End cutting path id: path17)


(Start cutting path id: path17)
(Change tool to Default tool)

G00 Z0.000000
G00 X37.125000 Y38.000000

G01 Z2 F100.0(Penetrate)
G03 X36.772713 Y37.645766 Z2 I57.429009 J-57.465667 F75.000000
G02 X36.249809 Y37.146030 Z2 I-9.032111 J8.927401
G02 X35.648291 Y36.630740 Z2 I-10.237645 J11.342051
G03 X35.000000 Y36.091050 Z2 I22.515146 J-27.705089
G03 X33.138845 Y34.499539 Z2 I565.092375 J-662.717885
G03 X31.250000 Y32.875000 Z2 I560.679539 J-653.810264
G02 X30.069685 Y31.961102 Z2 I-9.220404 J10.689158
G03 X29.217785 Y30.875000 Z2 I1.331469 J-1.921509
G03 X29.115324 Y29.897229 Z2 I1.778941 J-0.680669
G02 X29.228785 Y29.000000 Z2 I-14.488729 J-2.287988
G01 X29.378477 Y27.789740 Z2
G01 X30.999909 Y27.215180 Z2
G02 X31.872064 Y26.284350 Z2 I-0.931585 J-1.746866
G02 X32.121338 Y25.125000 Z2 I-2.554631 J-1.155749
G02 X31.935182 Y24.200652 Z2 I-2.403312 J0.003088
G02 X31.369507 Y23.416180 Z2 I-1.968977 J0.823623
G02 X30.147740 Y22.860655 Z2 I-1.539174 J1.763827
G02 X28.875004 Y23.038100 Z2 I-0.321353 J2.348185
G02 X27.852145 Y23.946881 Z2 I0.890890 J2.032742
G02 X27.516112 Y25.250000 Z2 I2.109294 J1.238806
G02 X28.233415 Y26.842869 Z2 I2.259162 J-0.059406
G02 X29.250004 Y27.750000 Z2 I20.859994 J-22.353840
G00 Z0.000000

(End cutting path id: path17)


(Start cutting path id: path17)
(Change tool to Default tool)

G00 Z0.000000
G00 X32.625000 Y42.875000

G01 Z2 F100.0(Penetrate)
G01 X31.625000 Y41.886190 Z2 F75.000000
G01 X29.875000 Y40.590470 Z2
G01 X28.750000 Y40.499970 Z2
G01 X25.250000 Y40.511170 Z2
G01 X24.250000 Y40.620060 Z2
G01 X21.250000 Y40.625060 Z2
G01 X19.875000 Y40.625060 Z2
G00 Z0.000000

(End cutting path id: path17)


(Start cutting path id: path17)
(Change tool to Default tool)

G00 Z0.000000
G00 X16.625000 Y43.191460

G01 Z2 F100.0(Penetrate)
G02 X18.684809 Y42.661617 Z2 I0.434448 J-2.579811 F75.000000
G02 X19.738234 Y40.875000 Z2 I-1.792488 J-2.260755
G02 X19.706996 Y39.730374 Z2 I-2.953891 J-0.492126
G02 X19.180265 Y38.636670 Z2 I-2.607693 J0.582184
G02 X18.490523 Y38.025378 Z2 I-2.151065 J1.732343
G02 X17.625000 Y37.673810 Z2 I-1.446416 J2.319729
G02 X14.603025 Y38.984164 Z2 I-0.599580 J2.757089
G02 X14.952450 Y42.351850 Z2 I2.427947 J1.450051
G02 X15.699105 Y42.900591 Z2 I1.785826 J-1.647575
G02 X16.625000 Y43.191460 Z2 I1.513629 J-3.199093
G00 Z0.000000

(End cutting path id: path17)


(Start cutting path id: path17)
(Change tool to Default tool)

G00 Z0.000000
G00 X10.624998 Y46.375000

G01 Z2 F100.0(Penetrate)
G03 X9.437763 Y45.896566 Z2 I2.137313 J-7.016031 F75.000000
G03 X8.874998 Y45.500000 Z2 I1.091756 J-2.146897
G00 Z0.000000

(End cutting path id: path17)


(Start cutting path id: path17)
(Change tool to Default tool)

G00 Z0.000000
G00 X31.124998 Y45.750000

G01 Z2 F100.0(Penetrate)
G03 X31.720805 Y44.925098 Z2 I6.305442 J3.926649 F75.000000
G02 X32.385511 Y43.875000 Z2 I-3.691821 J-3.072329
G02 X32.530491 Y43.428226 Z2 I-1.767693 J-0.820535
G03 X32.748455 Y42.962380 Z2 I1.041986 J0.203618
G03 X33.359073 Y42.479273 Z2 I1.389730 J1.129088
G02 X34.158853 Y41.873070 Z2 I-1.107662 J-2.292056
G03 X35.407810 Y40.510988 Z2 I37.850741 J33.453449
G02 X36.573107 Y39.125000 Z2 I-10.711739 J-10.188981
G02 X36.870843 Y38.567313 Z2 I-1.728580 J-1.281170
G03 X37.188749 Y38.063660 Z2 I1.284517 J0.458629
G03 X37.717886 Y37.720729 Z2 I1.058834 J1.054074
G02 X38.249998 Y37.430270 Z2 I-0.785494 J-2.071636
G02 X39.140364 Y36.635528 Z2 I-3.871329 J-5.233246
G03 X39.999998 Y35.750480 Z2 I21.961742 J20.471129
G03 X41.211204 Y34.677929 Z2 I10.408556 J10.533965
G02 X42.348280 Y33.613810 Z2 I-5.892917 J-7.436517
G02 X42.713084 Y33.047215 Z2 I-1.526073 J-1.383306
G03 X43.159334 Y32.491800 Z2 I1.229984 J0.531257
G03 X43.629597 Y32.268725 Z2 I0.841606 J1.166968
G02 X44.124998 Y32.073300 Z2 I-0.600547 J-2.248016
G02 X44.932350 Y31.522293 Z2 I-2.126167 J-3.982305
G03 X45.499903 Y31.084970 Z2 I4.581807 J5.359277
G03 X45.927530 Y30.792959 Z2 I22.471828 J32.449058
G02 X46.372587 Y29.999420 Z2 I-0.564234 J-0.838026
G02 X46.413096 Y29.072820 Z2 I-1281.497903 J-56.488393
G02 X46.335257 Y28.388020 Z2 I-2.208759 J-0.095762
G01 X45.249995 Y27.320020 Z2
G03 X44.196707 Y26.375613 Z2 I14.027646 J-16.704458
G02 X43.124995 Y25.363810 Z2 I-75.710449 J79.119807
G01 X38.624995 Y21.136190 Z2
G02 X37.789622 Y20.367126 Z2 I-66.362405 J71.245974
G03 X37.000186 Y19.636190 Z2 I41.719833 J-45.850625
G02 X36.609345 Y19.286459 Z2 I-7.001984 J7.431800
G03 X36.306517 Y18.863810 Z2 I0.694439 J-0.817378
G03 X36.211205 Y18.041530 Z2 I1.488648 J-0.589216
G02 X36.228197 Y17.000000 Z2 I-3.981674 J-0.585863
G02 X35.501620 Y15.777274 Z2 I-1.722379 J0.196246
G02 X34.124994 Y15.435280 Z2 I-1.131259 J1.611992
G02 X32.461462 Y16.837339 Z2 I0.249078 J1.983443
G02 X33.136760 Y18.918500 Z2 I1.830108 J0.556305
G02 X34.756058 Y19.264424 Z2 I1.179239 J-1.557123
G03 X36.000000 Y19.000000 Z2 I8.051504 J34.818940
G00 Z0.000000

(End cutting path id: path17)


(Footer)
M5
M2
(Using default footer. To add your own footer create file "footer" in the output dir.)
(end)
%