%
(Header)
(Generated by gcodetools from Inkscape.)
(Using default header. To add your own header create file "header" in the output dir.)
M3
(Header end.)
G21 (All units in mm)

(Start cutting path id: path10)
(Change tool to Default tool)

G00 Z0.000000
G00 X91.375000 Y114.625000

G01 Z2 F100.0(Penetrate)
G03 X91.146532 Y114.526366 Z2 I1.327537 J-3.388920 F75.000000
G03 X90.499809 Y114.129629 Z2 I1.497483 J-3.166535
G03 X89.970369 Y113.703543 Z2 I11.015107 J-14.228978
G02 X89.375000 Y113.320602 Z2 I-1.821991 J2.178409
G02 X88.816100 Y113.102326 Z2 I-1.745715 J3.645265
G03 X88.250000 Y112.875000 Z2 I1.069792 J-3.482584
G02 X88.097107 Y113.298354 Z2 I1.387046 J0.740214
G02 X88.000000 Y114.250000 Z2 I4.635310 J0.953769
G02 X87.999720 Y116.620095 Z2 I3581.580090 J1.550524
G03 X88.000000 Y119.250000 Z2 I-12358.226010 J3.245679
G01 X87.782215 Y121.126928 Z2
G03 X87.148114 Y121.443182 Z2 I-0.888900 J-0.988454
G02 X86.375000 Y121.766590 Z2 I0.397719 J2.036533
G02 X84.794887 Y123.077899 Z2 I6.227052 J9.111195
G02 X83.250000 Y124.625000 Z2 I3095.718541 J3092.832598
G02 X82.658524 Y125.220328 Z2 I130.236961 J129.985738
G02 X82.236691 Y125.875000 Z2 I1.344021 J1.329248
G02 X82.117869 Y126.519170 Z2 I1.685825 J0.644007
G02 X82.126831 Y127.250000 Z2 I30.023302 J-0.002708
G02 X82.178471 Y127.885894 Z2 I5.637506 J-0.137766
G02 X82.291954 Y128.500000 Z2 I6.859572 J-0.950072
G02 X82.446629 Y129.090432 Z2 I10.476648 J-2.429077
G03 X82.570507 Y129.625000 Z2 I-4.632445 J1.355139
G02 X82.758031 Y130.677710 Z2 I96.693830 J-16.681428
G03 X82.900078 Y131.750000 Z2 I-10.636534 J1.954585
G03 X82.898256 Y132.333682 Z2 I-3.434769 J0.281120
G02 X82.866318 Y132.874519 Z2 I9.330714 J0.822360
G01 X82.914158 Y133.445892 Z2
G01 X83.625095 Y133.797550 Z2
G02 X84.735839 Y133.948787 Z2 I1.854757 J-9.467555
G02 X85.875000 Y134.000481 Z2 I1.380861 J-17.852146
G03 X86.608486 Y134.059499 Z2 I-0.074422 J5.512382
G02 X87.250000 Y134.119984 Z2 I0.890064 J-6.007922
G02 X87.650756 Y134.119625 Z2 I0.196091 J-4.789225
G03 X88.125000 Y134.128884 Z2 I0.162830 J3.810001
G03 X88.663333 Y134.199215 Z2 I-0.459177 J5.610094
G02 X89.125000 Y134.247804 Z2 I0.561706 J-3.119489
G02 X89.716128 Y134.253387 Z2 I0.421759 J-13.359843
G03 X90.250000 Y134.250004 Z2 I0.533872 J42.129472
G01 X91.375000 Y134.250004 Z2
G00 Z0.000000

(End cutting path id: path10)


(Start cutting path id: path10)
(Change tool to Default tool)

G00 Z0.000000
G00 X88.250000 Y134.000000

G01 Z2 F100.0(Penetrate)
G03 X88.255788 Y133.502331 Z2 I21.397102 J0.000000 F75.000000
G02 X88.238810 Y132.750000 Z2 I-8.211557 J-0.191042
G03 X88.159851 Y131.376047 Z2 I62.544498 J-4.283576
G03 X88.124999 Y129.875000 Z2 I32.306857 J-1.501047
G03 X88.428003 Y124.081876 Z2 I55.530694 J-0.000000
G02 X87.874999 Y121.250000 Z2 I-4.896939 J-0.513666
G00 Z0.000000

(End cutting path id: path10)


(Start cutting path id: path10)
(Change tool to Default tool)

G00 Z0.000000
G00 X88.125000 Y112.750000

G01 Z2 F100.0(Penetrate)
G01 X87.878471 Y111.500000 Z2 F75.000000
G01 X87.375000 Y110.500000 Z2
G00 Z0.000000

(End cutting path id: path10)


(Start cutting path id: path10)
(Change tool to Default tool)

G00 Z0.000000
G00 X88.000000 Y107.750000

G01 Z2 F100.0(Penetrate)
G01 X87.988810 Y104.750000 Z2 F75.000000
G01 X87.886188 Y103.875000 Z2
G01 X87.874998 Y103.125000 Z2
G01 X87.870598 Y101.875000 Z2
G01 X87.874998 Y100.875000 Z2
G00 Z0.000000

(End cutting path id: path10)


(Start cutting path id: path10)
(Change tool to Default tool)

G00 Z0.000000
G00 X84.124997 Y97.499995

G01 Z2 F100.0(Penetrate)
G02 X84.058883 Y96.869504 Z2 I-12.286694 J0.969692 F75.000000
G03 X84.000092 Y95.999995 Z2 I6.896513 J-0.903041
G02 X83.925380 Y93.897390 Z2 I-34.320397 J0.166875
G03 X83.874997 Y92.375190 Z2 I22.969479 J-1.522200
G01 X83.874997 Y91.499995 Z2
G00 Z0.000000

(End cutting path id: path10)


(Start cutting path id: path10)
(Change tool to Default tool)

G00 Z0.000000
G00 X79.500000 Y92.500000

G01 Z2 F100.0(Penetrate)
G01 X80.625000 Y92.500000 Z2 F75.000000
G00 Z0.000000

(End cutting path id: path10)


(Start cutting path id: path10)
(Change tool to Default tool)

G00 Z0.000000
G00 X88.125000 Y94.500000

G01 Z2 F100.0(Penetrate)
G01 X87.810764 Y92.857735 Z2 F75.000000
G01 X86.375000 Y92.750000 Z2
G00 Z0.000000

(End cutting path id: path10)


(Start cutting path id: path10)
(Change tool to Default tool)

G00 Z0.000000
G00 X72.500000 Y91.500000

G01 Z2 F100.0(Penetrate)
G01 X72.700424 Y92.246719 Z2 F75.000000
G01 X73.500000 Y92.374905 Z2
G03 X74.837974 Y92.439726 Z2 I-0.111289 J16.138194
G02 X75.875000 Y92.246624 Z2 I0.175028 J-1.941187
G02 X76.442147 Y91.871563 Z2 I-1.194999 J-2.423345
G03 X77.375000 Y91.502411 Z2 I0.998978 J1.161193
G01 X79.354168 Y92.500000 Z2
G01 X79.380688 Y93.000000 Z2
G02 X79.373227 Y94.231673 Z2 I77.769112 J1.086970
G03 X79.374988 Y96.125000 Z2 I-1017.651579 J1.893328
G01 X79.374988 Y97.750000 Z2
G01 X79.374988 Y99.250000 Z2
G03 X79.295125 Y100.700969 Z2 I-13.220666 J-0.000000
G02 X79.679195 Y101.642746 Z2 I1.059764 J0.117016
G02 X80.707014 Y101.939685 Z2 I0.860117 J-1.049889
G03 X81.750000 Y101.875000 Z2 I1.042986 J8.376309
G01 X82.750000 Y101.875000 Z2
G00 Z0.000000

(End cutting path id: path10)


(Start cutting path id: path10)
(Change tool to Default tool)

G00 Z0.000000
G00 X82.125000 Y110.125000

G01 Z2 F100.0(Penetrate)
G02 X82.931439 Y109.495989 Z2 I-0.371040 J-1.307165 F75.000000
G02 X83.101372 Y109.000000 Z2 I-1.187645 J-0.684009
G02 X83.131967 Y108.463622 Z2 I-3.303140 J-0.457473
G03 X83.125002 Y107.875000 Z2 I24.869116 J-0.588622
G02 X83.028586 Y105.506501 Z2 I-29.139781 J-0.000000
G03 X82.879923 Y103.125000 Z2 I62.499597 J-5.096869
G01 X83.075426 Y102.003471 Z2
G01 X84.000002 Y101.875000 Z2
G03 X85.206166 Y101.874383 Z2 I0.799901 J384.645858
G02 X86.375002 Y101.875000 Z2 I1.168986 J-1106.691695
G01 X87.875002 Y101.875000 Z2
G01 X89.000002 Y101.875000 Z2
G01 X90.375002 Y101.875000 Z2
G01 X91.375002 Y101.875000 Z2
G00 Z0.000000

(End cutting path id: path10)


(Start cutting path id: path10)
(Change tool to Default tool)

G00 Z0.000000
G00 X81.625000 Y112.125000

G01 Z2 F100.0(Penetrate)
G03 X78.286807 Y115.519354 Z2 I-126.526146 J-121.094062 F75.000000
G02 X75.053047 Y118.869598 Z2 I71.389828 J72.143473
G03 X74.061230 Y119.528946 Z2 I-1.847007 J-1.702701
G02 X73.313753 Y120.034721 Z2 I0.627061 J1.731954
G02 X73.052073 Y120.486257 Z2 I0.964995 J0.860840
G03 X72.952065 Y120.750000 Z2 I-3.313616 J-1.105652
G03 X72.679765 Y121.225274 Z2 I-2.150109 J-0.916228
G03 X72.124422 Y121.875000 Z2 I-4.944162 J-3.663742
G03 X70.294863 Y123.514935 Z2 I-13.859571 J-13.621619
G02 X68.981771 Y125.375000 Z2 I2.476544 J3.141802
G02 X68.875539 Y126.017883 Z2 I1.909068 J0.645680
G02 X68.875000 Y126.625000 Z2 I606.453430 J0.841670
G03 X68.832996 Y127.381713 Z2 I-6.885105 J-0.002662
G02 X68.897377 Y128.250000 Z2 I2.358133 J0.261681
G02 X69.294888 Y128.898247 Z2 I1.278857 J-0.338205
G02 X70.000000 Y129.400463 Z2 I2.620228 J-2.932706
G02 X72.581569 Y130.619808 Z2 I10.329265 J-18.526386
G02 X75.250000 Y131.649017 Z2 I90.094212 J-229.613554
G02 X76.311671 Y132.046073 Z2 I45.312823 J-119.542061
G02 X77.375000 Y132.334778 Z2 I2.161575 J-5.858772
G02 X78.080443 Y132.437458 Z2 I1.944032 J-10.881460
G03 X78.500000 Y132.500000 Z2 I-0.666034 J5.906567
G00 Z0.000000

(End cutting path id: path10)


(Start cutting path id: path10)
(Change tool to Default tool)

G00 Z0.000000
G00 X82.250000 Y128.625000

G01 Z2 F100.0(Penetrate)
G02 X80.898234 Y129.252022 Z2 I0.310153 J2.439256 F75.000000
G02 X79.625481 Y130.625000 Z2 I7.809424 J8.515763
G02 X79.188906 Y131.249069 Z2 I5.347980 J4.205984
G02 X78.951294 Y131.750000 Z2 I2.117755 J1.311357
G01 X78.884164 Y132.486401 Z2
G01 X79.875000 Y133.071373 Z2
G02 X81.402371 Y133.356197 Z2 I3.580663 J-14.963649
G02 X82.750000 Y133.500000 Z2 I3.283510 J-24.384505
G00 Z0.000000

(End cutting path id: path10)


(Start cutting path id: path10)
(Change tool to Default tool)

G00 Z0.000000
G00 X91.375000 Y129.125000

G01 Z2 F100.0(Penetrate)
G01 X91.375000 Y124.625000 Z2 F75.000000
G00 Z0.000000

(End cutting path id: path10)


(Start cutting path id: path10)
(Change tool to Default tool)

G00 Z0.000000
G00 X63.250000 Y124.500000

G01 Z2 F100.0(Penetrate)
G02 X64.379417 Y123.173212 Z2 I-658.158039 J-561.395582 F75.000000
G03 X66.500000 Y120.875000 Z2 I29.062050 J24.688392
G02 X66.976870 Y120.393636 Z2 I-43.316292 J-43.388773
G03 X67.500000 Y119.998554 Z2 I1.579531 J1.547584
G03 X68.010528 Y119.820819 Z2 I0.795473 J1.462837
G03 X68.500000 Y119.761189 Z2 I0.831815 J4.789181
G03 X69.919307 Y119.692271 Z2 I2.277579 J32.255661
G02 X71.375000 Y119.603781 Z2 I-0.566545 J-21.337433
G03 X72.619702 Y119.684934 Z2 I0.370895 J3.897336
G03 X73.250000 Y120.000000 Z2 I-0.332941 J1.454055
G00 Z0.000000

(End cutting path id: path10)


(Start cutting path id: path10)
(Change tool to Default tool)

G00 Z0.000000
G00 X62.250000 Y118.500000

G01 Z2 F100.0(Penetrate)
G03 X64.121474 Y116.741113 Z2 I43.672360 J44.592755 F75.000000
G02 X67.249517 Y113.750000 Z2 I-49.631636 J-55.034905
G02 X67.750523 Y113.217354 Z2 I-10.950296 J-10.801768
G02 X68.124325 Y112.625000 Z2 I-1.558489 J-1.397598
G02 X68.331265 Y111.224388 Z2 I-2.660386 J-1.108664
G03 X68.250000 Y109.625000 Z2 I15.718037 J-1.600390
G02 X68.117772 Y108.590143 Z2 I-4.117755 J0.000266
G03 X68.022280 Y107.875000 Z2 I2.884091 J-0.749057
G03 X68.113895 Y107.186244 Z2 I2.427843 J-0.027530
G02 X68.248167 Y106.125000 Z2 I-3.444644 J-0.974943
G02 X68.178899 Y104.358411 Z2 I-58.595249 J1.412863
G03 X68.125000 Y102.375000 Z2 I36.553215 J-1.985771
G02 X68.085840 Y101.398575 Z2 I-12.212692 J0.000793
G02 X67.969425 Y100.875000 Z2 I-1.933721 J0.155227
G02 X67.889327 Y100.697152 Z2 I-1.391051 J0.519530
G03 X67.758295 Y100.250000 Z2 I1.016114 J-0.540534
G03 X67.848834 Y99.623225 Z2 I1.416446 J-0.115318
G03 X68.284721 Y98.876930 Z2 I2.523315 J0.973346
G03 X68.928815 Y98.311073 Z2 I2.065556 J1.701643
G03 X69.619503 Y98.149017 Z2 I0.582297 J0.928873
G01 X70.125000 Y99.250000 Z2
G00 Z0.000000

(End cutting path id: path10)


(Start cutting path id: path10)
(Change tool to Default tool)

G00 Z0.000000
G00 X72.874997 Y97.874999

G01 Z2 F100.0(Penetrate)
G03 X75.550156 Y97.692243 Z2 I2.126230 J11.452791 F75.000000
G02 X77.999997 Y97.749999 Z2 I2.449841 J-51.928820
G01 X79.374997 Y97.749999 Z2
G01 X81.249997 Y97.749999 Z2
G02 X82.804602 Y97.691626 Z2 I0.000000 J-20.730564
G03 X83.999997 Y97.612555 Z2 I4.984971 J66.287109
G03 X84.741862 Y97.608004 Z2 I0.415601 J7.279546
G02 X85.499997 Y97.624995 Z2 I0.759045 J-16.946251
G02 X87.292464 Y97.563215 Z2 I0.001728 J-25.985264
G03 X89.124997 Y97.499995 Z2 I1.832484 J26.527801
G01 X90.499806 Y97.499995 Z2
G01 X91.374997 Y97.499995 Z2
G00 Z0.000000

(End cutting path id: path10)


(Start cutting path id: path10)
(Change tool to Default tool)

G00 Z0.000000
G00 X70.125000 Y93.000000

G01 Z2 F100.0(Penetrate)
G01 X70.125000 Y92.750000 Z2 F75.000000
G00 Z0.000000

(End cutting path id: path10)


(Start cutting path id: path10)
(Change tool to Default tool)

G00 Z0.000000
G00 X64.125000 Y103.250000

G01 Z2 F100.0(Penetrate)
G02 X65.050501 Y102.182009 Z2 I-17.156650 J-15.802642 F75.000000
G03 X66.500000 Y100.812401 Z2 I5.963352 J4.859373
G03 X67.101689 Y100.505282 Z2 I1.282839 J1.770302
G03 X67.625000 Y100.375000 Z2 I1.154366 J3.520668
G00 Z0.000000

(End cutting path id: path10)


(Start cutting path id: path10)
(Change tool to Default tool)

G00 Z0.000000
G00 X60.125000 Y114.000000

G01 Z2 F100.0(Penetrate)
G02 X60.787744 Y114.028841 Z2 I0.549520 J-4.998480 F75.000000
G02 X61.625000 Y113.978780 Z2 I-0.253879 J-11.272566
G02 X62.411051 Y113.840854 Z2 I-0.503416 J-5.177850
G02 X63.119984 Y113.471450 Z2 I-0.434787 J-1.699381
G02 X64.721207 Y111.611374 Z2 I-5.361624 J-6.234719
G02 X66.110245 Y109.374999 Z2 I-216.055951 J-135.744418
G03 X66.904685 Y108.421599 Z2 I3.683288 J2.261483
G03 X67.875000 Y107.999999 Z2 I1.116727 J1.242761
G00 Z0.000000

(End cutting path id: path10)


(Start cutting path id: path10)
(Change tool to Default tool)

G00 Z0.000000
G00 X59.875000 Y115.000000

G01 Z2 F100.0(Penetrate)
G03 X59.886122 Y114.323045 Z2 I31.027419 J0.171210 F75.000000
G02 X59.875000 Y113.625000 Z2 I-8.066452 J-0.220584
G00 Z0.000000

(End cutting path id: path10)


(Start cutting path id: path10)
(Change tool to Default tool)

G00 Z0.000000
G00 X53.500000 Y113.625000

G01 Z2 F100.0(Penetrate)
G03 X53.626477 Y113.511986 Z2 I14.731048 J16.358661 F75.000000
G03 X54.128087 Y113.104553 Z2 I4.961084 J5.595328
G02 X54.544760 Y112.779306 Z2 I-6.611790 J-8.899867
G02 X55.000000 Y112.373072 Z2 I-4.611926 J-5.626482
G02 X56.924529 Y110.443854 Z2 I-58.964933 J-60.746166
G02 X58.853684 Y108.375000 Z2 I-57.748727 J-55.783114
G02 X59.378375 Y107.708474 Z2 I-4.782453 J-4.304542
G03 X59.896316 Y107.264660 Z2 I1.088477 J0.746144
G03 X60.621923 Y107.185153 Z2 I0.475924 J0.992625
G02 X61.375000 Y107.321950 Z2 I1.768018 J-7.591817
G02 X62.443024 Y107.327084 Z2 I0.554321 J-4.222026
G02 X63.486496 Y106.846448 Z2 I-0.226654 J-1.865088
G02 X64.111988 Y105.830906 Z2 I-1.477350 J-1.610325
G02 X64.244598 Y104.749997 Z2 I-3.425194 J-0.968806
G02 X64.206076 Y104.103229 Z2 I-11.564939 J0.364282
G02 X64.051407 Y103.526715 Z2 I-1.711298 J0.150108
G01 X63.249905 Y103.003663 Z2
G02 X62.666449 Y102.850520 Z2 I-5.174925 J18.527784
G02 X62.000000 Y102.755112 Z2 I-0.814416 J3.313545
G02 X61.357724 Y102.788426 Z2 I-0.146699 J3.379765
G02 X60.751833 Y102.989967 Z2 I0.270000 J1.823211
G02 X59.480227 Y105.131972 Z2 I1.151609 J2.132104
G02 X60.000000 Y107.125000 Z2 I4.145897 J-0.016941
G00 Z0.000000

(End cutting path id: path10)


(Start cutting path id: path10)
(Change tool to Default tool)

G00 Z0.000000
G00 X52.374997 Y96.874995

G01 Z2 F100.0(Penetrate)
G03 X52.291665 Y96.245392 Z2 I6.010476 J-1.115841 F75.000000
G02 X52.198782 Y95.249995 Z2 I-37.131573 J2.962809
G03 X52.539193 Y93.524877 Z2 I2.945966 J-0.314829
G03 X53.750093 Y92.291854 Z2 I2.747531 J1.487136
G02 X54.344076 Y91.896976 Z2 I-2.421767 J-4.287046
G03 X54.624997 Y91.698684 Z2 I2.364441 J3.051579
G01 X55.124997 Y91.558253 Z2
G01 X56.000000 Y92.078705 Z2
G02 X56.595010 Y92.475116 Z2 I4.108604 J-5.522224
G02 X57.625000 Y93.000000 Z2 I4.582138 J-7.718592
G00 Z0.000000

(End cutting path id: path10)


(Start cutting path id: path10)
(Change tool to Default tool)

G00 Z0.000000
G00 X46.625000 Y95.500000

G01 Z2 F100.0(Penetrate)
G01 X46.887539 Y95.769867 Z2 F75.000000
G02 X47.014810 Y95.910404 Z2 I2.357830 J-2.007373
G03 X47.178144 Y96.128086 Z2 I-0.800118 J0.770472
G03 X47.530920 Y97.326341 Z2 I-2.330574 J1.337198
G02 X47.762442 Y99.125000 Z2 I11.882521 J-0.615276
G02 X48.023988 Y99.725412 Z2 I1.563642 J-0.323968
G03 X48.335841 Y100.396217 Z2 I-1.664703 J1.181801
G03 X48.445781 Y101.209954 Z2 I-3.356770 J0.867814
G02 X48.506366 Y102.125000 Z2 I9.079706 J-0.141633
G02 X49.565396 Y106.183593 Z2 I15.074851 J-1.766095
G02 X51.288580 Y110.125000 Z2 I108.572018 J-45.120310
G02 X52.292335 Y111.980602 Z2 I14.667812 J-6.735011
G02 X53.395061 Y113.678047 Z2 I57.644500 J-36.241187
G03 X54.929575 Y116.168160 Z2 I-31.381424 J21.056446
G02 X56.701871 Y118.611883 Z2 I11.567216 J-6.524522
G02 X57.355832 Y119.080688 Z2 I1.440547 J-1.318970
G03 X57.965181 Y119.462383 Z2 I-1.001241 J2.275650
G03 X58.503849 Y120.319484 Z2 I-1.091978 J1.284103
G02 X59.127315 Y121.361496 Z2 I2.102797 J-0.550640
G02 X59.900395 Y121.825075 Z2 I1.482823 J-1.596409
G03 X60.590664 Y122.212770 Z2 I-0.720445 J2.091050
G03 X61.000591 Y122.795981 Z2 I-0.863467 J1.042584
G02 X61.409336 Y123.488331 Z2 I2.033006 J-0.733401
G02 X62.417585 Y124.129809 Z2 I1.603949 J-1.407920
G03 X63.201292 Y124.564140 Z2 I-0.564957 J1.943635
G03 X63.684156 Y125.150450 Z2 I-1.664712 J1.862986
G02 X64.251928 Y125.810669 Z2 I2.162864 J-1.285765
G02 X65.778241 Y127.002628 Z2 I25.993581 J-31.711766
G02 X67.375000 Y127.810184 Z2 I3.134373 J-4.215124
G02 X68.015881 Y127.973793 Z2 I2.054914 J-6.712389
G03 X68.750000 Y128.125000 Z2 I-243.746358 J1185.261097
G00 Z0.000000

(End cutting path id: path10)


(Start cutting path id: path10)
(Change tool to Default tool)

G00 Z0.000000
G00 X60.750000 Y122.250000

G01 Z2 F100.0(Penetrate)
G03 X61.090545 Y121.949220 Z2 I3.928975 J4.105241 F75.000000
G02 X61.731964 Y121.353781 Z2 I-4.270293 J-5.243238
G02 X62.203826 Y120.465105 Z2 I-1.371584 J-1.297883
G02 X62.353684 Y119.500000 Z2 I-7.408742 J-1.644590
G01 X62.174576 Y118.534819 Z2
G01 X61.375000 Y118.101755 Z2
G02 X60.200863 Y117.928639 Z2 I-1.096294 J3.367198
G02 X59.011189 Y118.401716 Z2 I0.040321 J1.833808
G02 X58.412919 Y119.038838 Z2 I3.583755 J3.964672
G03 X58.125000 Y119.375000 Z2 I-4.791745 J-3.812692
G00 Z0.000000

(End cutting path id: path10)


(Start cutting path id: path10)
(Change tool to Default tool)

G00 Z0.000000
G00 X48.500000 Y100.000000

G01 Z2 F100.0(Penetrate)
G02 X49.287270 Y99.510446 Z2 I-1.063853 J-2.588620 F75.000000
G03 X51.375000 Y97.750000 Z2 I40.759105 J46.218455
G02 X51.879950 Y97.319585 Z2 I-7.575030 J-9.398209
G03 X52.500000 Y97.045044 Z2 I0.729104 J0.809216
G03 X53.498670 Y97.274627 Z2 I0.160072 J1.590560
G02 X54.625000 Y97.690105 Z2 I1.594140 J-2.587160
G02 X55.628682 Y97.658494 Z2 I0.417864 J-2.682147
G02 X56.624517 Y97.236401 Z2 I-0.640015 J-2.895748
G02 X57.180444 Y96.744142 Z2 I-1.462858 J-2.212104
G02 X57.566454 Y96.125000 Z2 I-1.881733 J-1.603087
G02 X57.794400 Y95.394222 Z2 I-3.287276 J-1.426315
G02 X57.874517 Y94.625000 Z2 I-4.148746 J-0.820888
G02 X57.849719 Y93.996170 Z2 I-6.095016 J-0.074543
G03 X57.861687 Y93.382332 Z2 I2.770834 J-0.253012
G01 X59.124997 Y92.875000 Z2
G03 X60.408146 Y92.874852 Z2 I0.873955 J1911.641843
G02 X61.749997 Y92.875000 Z2 I1.224490 J-6088.744937
G02 X64.501376 Y92.838236 Z2 I-0.000000 J-102.973274
G03 X67.249997 Y92.885800 Z2 I0.834472 J31.219832
G03 X67.861013 Y92.940940 Z2 I-0.656346 J10.686075
G02 X68.374997 Y92.983700 Z2 I0.856424 J-7.183887
G02 X68.675866 Y92.991655 Z2 I0.338398 J-7.105281
G03 X69.124997 Y93.004920 Z2 I-0.048881 J9.264903
G01 X70.124997 Y93.749999 Z2
G00 Z0.000000

(End cutting path id: path10)


(Footer)
M5
M2
(Using default footer. To add your own footer create file "footer" in the output dir.)
(end)
%