%
(Header)
(Generated by gcodetools from Inkscape.)
(Using default header. To add your own header create file "header" in the output dir.)
M3
(Header end.)
G21 (All units in mm)

(Start cutting path id: path13)
(Change tool to Default tool)

G00 Z0.000000
G00 X46.375000 Y91.250000

G01 Z2 F100.0(Penetrate)
G01 X46.375000 Y87.375000 Z2 F75.000000
G00 Z0.000000

(End cutting path id: path13)


(Start cutting path id: path13)
(Change tool to Default tool)

G00 Z0.000000
G00 X16.125000 Y88.625000

G01 Z2 F100.0(Penetrate)
G02 X16.208841 Y88.041596 Z2 I-7.098535 J-1.317852 F75.000000
G02 X16.250000 Y87.250000 Z2 I-7.896052 J-0.807427
G03 X16.289700 Y85.901201 Z2 I24.592373 J0.048867
G03 X16.396219 Y84.500000 Z2 I36.903701 J2.100750
G03 X16.606253 Y82.433248 Z2 I161.588091 J15.377354
G03 X16.839314 Y80.375000 Z2 I202.859659 J21.928046
G02 X16.871436 Y79.736608 Z2 I-4.702048 J-0.556598
G03 X16.932004 Y79.125000 Z2 I2.655049 J-0.045872
G03 X17.092718 Y78.514970 Z2 I7.170683 J1.562950
G02 X17.224924 Y78.000000 Z2 I-5.153260 J-1.597429
G02 X17.378726 Y77.220090 Z2 I-53.340602 J-10.924125
G02 X17.506270 Y76.375000 Z2 I-11.165034 J-2.117240
G02 X17.574251 Y75.573137 Z2 I-14.483230 J-1.631681
G03 X17.687308 Y74.875000 Z2 I3.414455 J0.194718
G03 X17.950492 Y74.097059 Z2 I6.387938 J1.727601
G02 X18.266204 Y73.125000 Z2 I-6.373865 J-2.607449
G03 X19.099966 Y70.271290 Z2 I32.467656 J7.937354
G02 X19.766204 Y67.500000 Z2 I-14.553023 J-4.964378
G03 X19.866255 Y66.912611 Z2 I11.515358 J1.659226
G02 X19.852144 Y66.388600 Z2 I-1.171893 J-0.230637
G01 X19.370760 Y65.900660 Z2
G03 X18.838048 Y65.589153 Z2 I1.822859 J-3.728550
G03 X18.125004 Y64.999520 Z2 I3.008262 J-4.363852
G03 X17.195647 Y64.048832 Z2 I25.367763 J-25.728174
G02 X16.125004 Y63.340470 Z2 I-2.043642 J1.925546
G02 X15.455751 Y63.183267 Z2 I-0.969742 J2.625248
G02 X14.750004 Y63.129920 Z2 I-1.182736 J10.951831
G02 X14.224447 Y63.111541 Z2 I-1.371587 J31.698125
G02 X13.768522 Y63.200420 Z2 I-0.028481 J1.067724
G01 X13.368735 Y63.875480 Z2
G01 X13.070799 Y64.549580 Z2
G01 X12.250004 Y64.748940 Z2
G01 X11.325428 Y64.532220 Z2
G01 X11.125004 Y63.500000 Z2
G02 X11.014047 Y62.418465 Z2 I-5.460994 J0.013798
G03 X11.320605 Y61.450420 Z2 I1.021387 J-0.209112
G01 X12.000100 Y61.252510 Z2
G01 X12.960266 Y61.450420 Z2
G03 X13.341773 Y62.271448 Z2 I-0.690548 J0.820029
G02 X13.375004 Y63.125000 Z2 I10.721854 J0.009997
G00 Z0.000000

(End cutting path id: path13)


(Start cutting path id: path13)
(Change tool to Default tool)

G00 Z0.000000
G00 X20.125000 Y66.000000

G01 Z2 F100.0(Penetrate)
G02 X20.313384 Y65.796624 Z2 I-1.182783 J-1.284528 F75.000000
G02 X20.623264 Y65.249420 Z2 I-1.626260 J-1.282291
G02 X20.939208 Y64.399716 Z2 I-61.671559 J-23.414804
G03 X21.274017 Y63.500000 Z2 I63.219976 J23.013753
G03 X22.318896 Y61.091070 Z2 I26.758652 J10.175552
G02 X23.212481 Y58.750000 Z2 I-12.451158 J-6.093675
G02 X23.313908 Y58.176653 Z2 I-2.834497 J-0.797076
G03 X23.448496 Y57.671870 Z2 I1.419654 J0.108183
G03 X23.834761 Y57.117670 Z2 I1.871643 J0.892783
G02 X24.482542 Y56.250000 Z2 I-2.968868 J-2.892128
G03 X25.191103 Y55.044520 Z2 I28.938604 J16.198645
G02 X25.711998 Y53.875000 Z2 I-4.095181 J-2.524723
G02 X25.802484 Y53.406232 Z2 I-2.417728 J-0.709811
G03 X25.945505 Y52.923710 Z2 I1.310312 J0.125923
G03 X26.373380 Y52.466482 Z2 I1.034350 J0.539130
G02 X26.776814 Y52.111880 Z2 I-0.805283 J-1.322974
G02 X27.330233 Y51.294520 Z2 I-4.804076 J-3.848783
G03 X27.881655 Y50.375000 Z2 I18.463413 J10.447127
G03 X28.419078 Y49.553853 Z2 I29.471411 J18.701952
G02 X28.816551 Y48.750000 Z2 I-2.774447 J-1.872047
G02 X28.953649 Y48.295384 Z2 I-7.045663 J-2.372738
G03 X29.287809 Y47.771220 Z2 I0.994961 J0.265700
G02 X30.133491 Y46.778476 Z2 I-2.493813 J-2.980960
G02 X30.250000 Y46.500000 Z2 I-0.924449 J-0.550384
G00 Z0.000000

(End cutting path id: path13)


(Start cutting path id: path13)
(Change tool to Default tool)

G00 Z0.000000
G00 X29.000000 Y47.875000

G01 Z2 F100.0(Penetrate)
G01 X27.125000 Y46.750000 Z2 F75.000000
G00 Z0.000000

(End cutting path id: path13)


(Start cutting path id: path13)
(Change tool to Default tool)

G00 Z0.000000
G00 X25.875000 Y52.750000

G01 Z2 F100.0(Penetrate)
G02 X25.589642 Y52.544635 Z2 I-5.128199 J6.824767 F75.000000
G03 X25.095293 Y52.098670 Z2 I1.448223 J-2.102319
G03 X24.387630 Y50.543757 Z2 I2.360740 J-2.012897
G03 X24.659336 Y48.750000 Z2 I3.050753 J-0.455349
G03 X25.517323 Y47.741822 Z2 I2.352762 J1.133092
G03 X26.249905 Y47.290030 Z2 I4.337824 J6.213948
G02 X26.932206 Y46.742741 Z2 I-1.160854 J-2.146181
G02 X27.125000 Y46.500000 Z2 I-2.702601 J-2.344442
G00 Z0.000000

(End cutting path id: path13)


(Start cutting path id: path13)
(Change tool to Default tool)

G00 Z0.000000
G00 X23.375000 Y57.500000

G01 Z2 F100.0(Penetrate)
G02 X23.076748 Y57.284907 Z2 I-2.537106 J3.203660 F75.000000
G03 X22.250000 Y56.690680 Z2 I6.427307 J-9.814564
G03 X21.550210 Y56.132017 Z2 I38.855454 J-49.388614
G02 X20.750000 Y55.776720 Z2 I-1.059961 J1.308495
G02 X18.024752 Y55.970817 Z2 I-0.940497 J6.023982
G03 X15.125000 Y56.488330 Z2 I-3.587365 J-11.718120
G03 X14.413321 Y56.417012 Z2 I-0.129097 J-2.298305
G03 X13.750000 Y56.092010 Z2 I0.471146 J-1.801011
G03 X12.480019 Y55.039754 Z2 I13.722208 J-17.854006
G03 X11.301988 Y53.839310 Z2 I8.454009 J-9.474410
G03 X11.011405 Y53.384605 Z2 I1.455793 J-1.250537
G03 X10.923708 Y52.875000 Z2 I0.925013 J-0.421533
G03 X11.383522 Y51.661395 Z2 I2.377079 J0.206724
G02 X11.887635 Y50.250000 Z2 I-2.074165 J-1.536562
G02 X11.564795 Y48.575977 Z2 I-3.596256 J-0.174594
G02 X10.624904 Y47.322050 Z2 I-3.359282 J1.538761
G03 X10.068686 Y46.837498 Z2 I87.757778 J-101.298713
G02 X9.500000 Y46.539740 Z2 I-0.900556 J1.028023
G02 X8.570850 Y46.438324 Z2 I-0.833378 J3.328175
G02 X7.879919 Y46.575340 Z2 I0.058848 J2.107337
G02 X7.201162 Y46.991429 Z2 I0.764195 J2.008281
G02 X6.100502 Y48.250000 Z2 I4.851875 J5.353686
G02 X5.732361 Y49.099048 Z2 I1.982672 J1.364006
G02 X5.634838 Y50.000000 Z2 I4.112897 J0.900952
G02 X6.162001 Y51.804031 Z2 I3.350415 J0.000000
G02 X7.625000 Y52.941460 Z2 I2.332346 J-1.490346
G02 X8.191471 Y53.075536 Z2 I1.051263 J-3.177883
G02 X8.750000 Y53.123170 Z2 I0.673993 J-4.604531
G02 X9.814476 Y53.074537 Z2 I0.187800 J-7.563373
G03 X10.750000 Y53.000000 Z2 I1.484752 J12.727084
G00 Z0.000000

(End cutting path id: path13)


(Start cutting path id: path13)
(Change tool to Default tool)

G00 Z0.000000
G00 X8.375000 Y70.500000

G01 Z2 F100.0(Penetrate)
G02 X8.194230 Y69.859357 Z2 I-7.651620 J1.813231 F75.000000
G02 X7.715663 Y69.053530 Z2 I-2.053403 J0.674460
G02 X6.743115 Y68.202583 Z2 I-4.835050 J4.544745
G03 X5.909819 Y67.250000 Z2 I1.610149 J-2.249286
G03 X5.622167 Y66.078356 Z2 I2.178085 J-1.155878
G02 X5.625000 Y65.125000 Z2 I-139.296844 J-0.890671
G03 X5.634167 Y64.624121 Z2 I13.359288 J-0.006017
G02 X5.549576 Y64.131750 Z2 I-1.213433 J-0.044979
G02 X5.060515 Y63.593403 Z2 I-0.959392 J0.380243
G03 X4.486208 Y63.101470 Z2 I0.739798 J-1.444880
G03 X4.190034 Y61.694033 Z2 I1.427736 J-1.035326
G03 X5.126833 Y60.592780 Z2 I1.495051 J0.322711
G03 X6.677782 Y60.892732 Z2 I0.538715 J1.374177
G03 X7.243152 Y62.250000 Z2 I-1.235300 J1.310952
G03 X6.750113 Y63.266714 Z2 I-1.367347 J-0.035171
G03 X5.750000 Y63.750000 Z2 I-1.473471 J-1.772740
G00 Z0.000000

(End cutting path id: path13)


(Start cutting path id: path13)
(Change tool to Default tool)

G00 Z0.000000
G00 X2.125000 Y71.000000

G01 Z2 F100.0(Penetrate)
G02 X3.234910 Y70.944513 Z2 I-0.109254 J-13.313884 F75.000000
G03 X4.750000 Y70.875000 Z2 I1.515090 J16.476595
G01 X6.000000 Y70.875000 Z2
G00 Z0.000000

(End cutting path id: path13)


(Start cutting path id: path13)
(Change tool to Default tool)

G00 Z0.000000
G00 X1.500000 Y74.875000

G01 Z2 F100.0(Penetrate)
G03 X1.706555 Y74.873414 Z2 I0.336008 J30.317529 F75.000000
G02 X2.625000 Y74.664550 Z2 I-0.009241 J-2.164421
G02 X4.127547 Y73.822762 Z2 I-5.455327 J-11.499353
G02 X5.611401 Y72.744980 Z2 I-10.069266 J-15.423369
G02 X6.030527 Y71.879420 Z2 I-0.705304 J-0.875782
G03 X6.200425 Y71.164740 Z2 I1.651253 J0.015011
G01 X7.250000 Y70.873070 Z2
G02 X7.977353 Y70.719869 Z2 I-0.070525 J-2.138063
G03 X8.625000 Y70.598480 Z2 I0.628028 J1.562328
G03 X9.506348 Y70.669716 Z2 I-0.069819 J6.351574
G02 X10.500000 Y70.750480 Z2 I1.079389 J-7.126959
G03 X11.282093 Y70.807462 Z2 I-0.080011 J6.493935
G03 X12.000000 Y70.997490 Z2 I-0.393395 J2.937304
G03 X13.364974 Y71.834097 Z2 I-1.821598 J4.503867
G02 X14.625000 Y72.860530 Z2 I16.768066 J-19.297493
G03 X15.492762 Y73.565807 Z2 I-11.063550 J14.498911
G02 X16.375000 Y74.207180 Z2 I4.226166 J-4.885816
G02 X17.066209 Y74.503953 Z2 I1.409903 J-2.330453
G03 X17.500000 Y74.625000 Z2 I-11.652320 J42.595707
G00 Z0.000000

(End cutting path id: path13)


(Start cutting path id: path13)
(Change tool to Default tool)

G00 Z0.000000
G00 X11.875000 Y79.000000

G01 Z2 F100.0(Penetrate)
G03 X11.318777 Y77.680024 Z2 I87.741402 J-37.750417 F75.000000
G02 X9.875000 Y76.210550 Z2 I-2.533664 J1.045357
G02 X8.717149 Y75.958202 Z2 I-1.219919 J2.814902
G02 X7.500000 Y76.155850 Z2 I-0.069212 J3.420308
G02 X5.351172 Y78.947091 Z2 I1.090999 J3.062657
G02 X7.125000 Y82.070200 Z2 I3.168876 J0.265472
G02 X9.445074 Y82.309071 Z2 I1.485660 J-3.043230
G02 X11.373940 Y80.874990 Z2 I-0.778171 J-3.060876
G01 X12.039641 Y79.128460 Z2
G01 X13.000000 Y78.999990 Z2
G03 X13.585659 Y79.005090 Z2 I0.056076 J27.191351
G02 X14.250000 Y78.988790 Z2 I0.147098 J-7.551280
G02 X15.792803 Y78.827456 Z2 I-1.479565 J-21.606154
G03 X16.875000 Y78.999990 Z2 I0.260346 J1.847250
G00 Z0.000000

(End cutting path id: path13)


(Start cutting path id: path13)
(Change tool to Default tool)

G00 Z0.000000
G00 X16.125000 Y90.500000

G01 Z2 F100.0(Penetrate)
G01 X15.731482 Y88.760708 Z2 F75.000000
G02 X15.074946 Y88.431667 Z2 I-1.505178 J2.183767
G03 X14.250000 Y87.975113 Z2 I0.843595 J-2.497863
G02 X13.599151 Y87.445228 Z2 I-136.464639 J166.952492
G02 X12.875000 Y87.067902 Z2 I-1.287986 J1.588314
G02 X11.027869 Y86.841398 Z2 I-1.637457 J5.708506
G03 X9.125000 Y86.875000 Z2 I-1.902869 J-53.862500
G03 X6.106744 Y86.824960 Z2 I-0.000000 J-91.051430
G02 X3.125000 Y87.125000 Z2 I-0.373329 J11.255976
G00 Z0.000000

(End cutting path id: path13)


(Footer)
M5
M2
(Using default footer. To add your own footer create file "footer" in the output dir.)
(end)
%