%
(Header)
(Generated by gcodetools from Inkscape.)
(Using default header. To add your own header create file "header" in the output dir.)
M3
(Header end.)
G21 (All units in mm)

(Start cutting path id: path16)
(Change tool to Default tool)

G00 Z0.000000
G00 X174.875000 Y109.869637

G01 Z2 F100.0(Penetrate)
G02 X176.842882 Y110.017054 Z2 I1.771006 J-10.432869 F75
G02 X178.374520 Y109.495892 Z2 I-0.049432 J-2.656513
G02 X179.466636 Y108.015243 Z2 I-1.864807 J-2.518561
G02 X179.749520 Y106.300000 Z2 I-4.734070 J-1.661709
G02 X179.377683 Y104.582750 Z2 I-4.366696 J0.046640
G02 X178.373170 Y103.198148 Z2 I-3.721386 J1.643141
G02 X177.568576 Y102.642545 Z2 I-2.578202 J2.873222
G02 X176.625000 Y102.273186 Z2 I-2.236811 J4.324311
G02 X175.535888 Y102.162093 Z2 I-0.873664 J3.170901
G02 X174.500000 Y102.410050 Z2 I0.206935 J3.152301
G02 X173.067878 Y103.435327 Z2 I1.609240 J3.760651
G02 X172.261960 Y105.050000 Z2 I2.519457 J2.265978
G02 X172.157616 Y105.614785 Z2 I26.458448 J5.180219
G02 X172.109760 Y106.175000 Z2 I3.194255 J0.555020
G02 X172.285966 Y107.233946 Z2 I3.299273 J-0.004857
G02 X172.710460 Y108.175000 Z2 I5.126639 J-1.746276
G02 X173.730819 Y109.360740 Z2 I3.570143 J-2.040305
G02 X174.875000 Y109.869637 Z2 I1.567145 J-1.982787
G00 Z0.000000

(End cutting path id: path16)


(Start cutting path id: path16)
(Change tool to Default tool)

G00 Z0.000000
G00 X166.750000 Y109.550000

G01 Z2 F100.0(Penetrate)
G01 X166.750000 Y107.550000 Z2 F75
G01 X166.878470 Y106.517785 Z2
G01 X168.125000 Y106.300000 Z2
G01 X169.000000 Y106.288811 Z2
G01 X170.750000 Y106.175000 Z2
G01 X172.000000 Y106.175000 Z2
G00 Z0.000000

(End cutting path id: path16)


(Start cutting path id: path16)
(Change tool to Default tool)

G00 Z0.000000
G00 X166.625000 Y106.300000

G01 Z2 F100.0(Penetrate)
G02 X166.597788 Y104.446094 Z2 I-63.165872 J0.000000 F75
G02 X166.428050 Y102.300000 Z2 I-21.712764 J0.637540
G01 X166.882330 Y101.003410 Z2
G01 X167.375000 Y101.172780 Z2
G02 X167.713859 Y101.383297 Z2 I14.064756 J-22.261393
G02 X168.625000 Y101.733450 Z2 I1.409973 J-2.308395
G02 X169.556706 Y101.670646 Z2 I0.344284 J-1.834903
G02 X170.322630 Y101.158310 Z2 I-0.544551 J-1.642767
G02 X170.766551 Y100.174701 Z2 I-1.439290 J-1.241558
G02 X170.602620 Y99.313600 Z2 I-1.362941 J-0.186687
G01 X169.250000 Y98.800100 Z2
G01 X168.254920 Y98.928470 Z2
G02 X167.393035 Y99.671780 Z2 I1.157358 J2.213327
G03 X166.750000 Y100.425000 Z2 I-5.179344 J-3.770584
G03 X166.370831 Y100.015690 Z2 I9.211274 J-8.913252
G03 X165.982830 Y99.300000 Z2 I1.343743 J-1.191510
G03 X165.672538 Y97.198396 Z2 I8.446181 J-2.320748
G02 X165.500000 Y95.550000 Z2 I-10.461931 J0.261825
G01 X166.875000 Y95.425000 Z2
G01 X169.125000 Y95.311190 Z2
G01 X173.750000 Y95.300090 Z2
G01 X176.125000 Y95.603710 Z2
G01 X178.375000 Y97.549990 Z2
G00 Z0.000000

(End cutting path id: path16)


(Start cutting path id: path16)
(Change tool to Default tool)

G00 Z0.000000
G00 X166.875000 Y100.799990

G01 Z2 F100.0(Penetrate)
G01 X166.875000 Y100.549990 Z2 F75
G00 Z0.000000

(End cutting path id: path16)


(Start cutting path id: path16)
(Change tool to Default tool)

G00 Z0.000000
G00 X165.500000 Y95.549990

G01 Z2 F100.0(Penetrate)
G03 X165.276057 Y94.950522 Z2 I1.889971 J-1.047598 F75
G03 X165.113910 Y93.799990 Z2 I8.256517 J-1.750303
G01 X165.133410 Y92.813590 Z2
G01 X166.125020 Y92.188200 Z2
G02 X167.544262 Y91.019535 Z2 I-1.788299 J-3.617841
G03 X168.875020 Y89.918620 Z2 I3.042974 J2.323517
G03 X169.422439 Y89.740361 Z2 I0.868106 J1.736212
G03 X170.000020 Y89.679910 Z2 I0.778176 J4.645645
G03 X172.119001 Y89.717122 Z2 I0.750657 J17.604473
G02 X174.250020 Y89.799990 Z2 I2.131019 J-27.359151
G01 X175.818500 Y89.510250 Z2
G01 X175.880300 Y88.674990 Z2
G03 X175.978311 Y88.047574 Z2 I2.781131 J0.113088
G02 X176.051980 Y87.549990 Z2 I-1.987325 J-0.548475
G02 X176.021712 Y87.220957 Z2 I-1.440548 J-0.033391
G02 X175.842390 Y86.550090 Z2 I-6.232541 J1.306550
G02 X175.612452 Y86.111780 Z2 I-1.412090 J0.461317
G02 X175.247580 Y85.803460 Z2 I-0.876060 J0.666688
G02 X174.032521 Y85.446629 Z2 I-1.500309 J2.861622
G03 X172.754910 Y84.898470 Z2 I0.196930 J-2.221954
G03 X172.187946 Y84.357169 Z2 I6.471600 J-7.345990
G03 X171.783460 Y83.778770 Z2 I1.610125 J-1.556625
G03 X171.626740 Y83.139096 Z2 I1.409222 J-0.684294
G03 X171.646400 Y82.549990 Z2 I4.766450 J-0.135814
G03 X171.880243 Y81.429695 Z2 I5.160357 J0.492584
G03 X172.540690 Y80.323140 Z2 I2.784693 J0.911674
G03 X175.482288 Y79.468652 Z2 I2.202882 J2.092973
G03 X177.691450 Y81.424990 Z2 I-0.777943 J3.103978
G03 X177.841130 Y82.038761 Z2 I-2.317102 J0.890206
G03 X177.874410 Y82.674990 Z2 I-5.338240 J0.598221
G03 X177.840764 Y83.247924 Z2 I-5.604956 J-0.041705
G03 X177.721920 Y83.799990 Z2 I-2.752060 J-0.303613
G03 X177.434509 Y84.390966 Z2 I-2.263502 J-0.735439
G03 X176.994590 Y84.911490 Z2 I-2.565389 J-1.721969
G03 X176.206322 Y85.405471 Z2 I-1.620099 J-1.709338
G02 X175.374990 Y85.799990 Z2 I1.981604 J5.248792
G00 Z0.000000

(End cutting path id: path16)


(Start cutting path id: path16)
(Change tool to Default tool)

G00 Z0.000000
G00 X164.999990 Y92.799990

G01 Z2 F100.0(Penetrate)
G03 X164.365904 Y91.343639 Z2 I3.718721 J-2.485320 F75
G03 X163.980600 Y89.174990 Z2 I19.048311 J-4.502872
G03 X163.930198 Y88.645795 Z2 I10.776684 J-1.293395
G02 X163.801980 Y88.071210 Z2 I-1.976826 J0.139529
G02 X163.464318 Y87.482007 Z2 I-2.096118 J0.809892
G03 X163.213820 Y87.049510 Z2 I1.334229 J-1.061564
G03 X162.866682 Y86.063481 Z2 I12.342603 J-4.899409
G02 X162.475970 Y84.924990 Z2 I-18.286618 J5.639396
G02 X162.038436 Y83.773880 Z2 I-479.272089 J181.511427
G03 X161.708130 Y82.674990 Z2 I7.406040 J-2.825205
G01 X161.664230 Y81.714730 Z2
G01 X162.624970 Y81.425090 Z2
G03 X164.543369 Y81.748926 Z2 I0.029447 J5.669756
G02 X166.374970 Y81.567740 Z2 I0.722493 J-2.044727
G02 X167.516605 Y80.613731 Z2 I-2.399221 J-4.031165
G03 X168.624970 Y79.424990 Z2 I17.540910 J15.243804
G01 X173.624970 Y74.424990 Z2
G02 X174.260870 Y73.754942 Z2 I-12.457938 J-12.459801
G03 X174.874970 Y73.367800 Z2 I0.992404 J0.893565
G01 X175.874970 Y73.503120 Z2
G01 X177.820760 Y73.156950 Z2
G02 X177.688245 Y70.954252 Z2 I-1.836608 J-0.994844
G02 X175.507200 Y70.447370 Z2 I-1.376104 J0.975376
G02 X174.936050 Y71.278388 Z2 I0.530052 J0.976081
G02 X174.875070 Y72.174990 Z2 I7.068050 J0.931086
G02 X174.874373 Y72.723636 Z2 I70.072464 J0.363324
G03 X174.874970 Y73.174990 Z2 I-170.663738 J0.451350
G00 Z0.000000

(End cutting path id: path16)


(Start cutting path id: path16)
(Change tool to Default tool)

G00 Z0.000000
G00 X176.000000 Y89.800000

G01 Z2 F100.0(Penetrate)
G03 X176.081406 Y90.330989 Z2 I-3.210644 J0.763960 F75
G02 X176.179980 Y91.175000 Z2 I9.294184 J-0.657727
G01 X176.554110 Y92.046530 Z2
G01 X177.375000 Y92.174900 Z2
G02 X177.986141 Y92.166619 Z2 I0.114514 J-14.103591
G02 X178.750000 Y92.103100 Z2 I-0.282749 J-8.025013
G01 X179.960260 Y91.902670 Z2
G01 X180.248170 Y90.300050 Z2
G02 X180.179338 Y89.066169 Z2 I-19.728297 J0.481681
G02 X180.028360 Y88.051980 Z2 I-8.414236 J0.734259
G01 X179.492670 Y87.318660 Z2
G02 X179.004917 Y87.218587 Z2 I-0.493077 J1.164564
G02 X178.500000 Y87.247460 Z2 I-0.017369 J4.125630
G03 X177.241797 Y87.377504 Z2 I-4.817406 J-40.457579
G03 X176.250000 Y87.425020 Z2 I-1.095589 J-12.493620
G00 Z0.000000

(End cutting path id: path16)


(Start cutting path id: path16)
(Change tool to Default tool)

G00 Z0.000000
G00 X164.000000 Y87.675000

G01 Z2 F100.0(Penetrate)
G02 X165.216105 Y86.878531 Z2 I-0.993897 J-2.844203 F75
G02 X167.051310 Y84.800000 Z2 I-42.378259 J-39.266651
G02 X167.443916 Y84.315087 Z2 I-12.751569 J-10.725589
G03 X167.896220 Y83.928470 Z2 I1.171661 J0.912845
G03 X168.759962 Y83.747896 Z2 I0.724282 J1.308405
G02 X169.875000 Y83.800000 Z2 I1.115038 J-11.904968
G03 X170.923588 Y83.836781 Z2 I-0.000000 J14.965560
G03 X171.500000 Y83.925000 Z2 I-0.250183 J3.561870
G00 Z0.000000

(End cutting path id: path16)


(Start cutting path id: path16)
(Change tool to Default tool)

G00 Z0.000000
G00 X161.500000 Y81.675000

G01 Z2 F100.0(Penetrate)
G03 X161.062903 Y80.994919 Z2 I1.953073 J-1.735769 F75
G03 X160.739870 Y79.925000 Z2 I4.176740 J-1.844780
G03 X160.690243 Y79.612647 Z2 I12.119075 J-2.085595
G02 X160.501540 Y79.051830 Z2 I-1.636397 J0.238458
G02 X160.041399 Y78.477339 Z2 I-1.895291 J1.046520
G03 X159.670430 Y78.038810 Z2 I1.326576 J-1.498376
G03 X159.294449 Y77.294787 Z2 I3.923892 J-2.449892
G02 X158.905860 Y76.425000 Z2 I-10.426138 J4.136316
G02 X158.385348 Y75.405053 Z2 I-55.310086 J27.583734
G03 X157.989100 Y74.425000 Z2 I4.841813 J-2.527738
G03 X157.854528 Y73.874420 Z2 I5.714971 J-1.688582
G02 X157.632910 Y73.313020 Z2 I-1.620480 J0.315257
G02 X157.149191 Y72.776659 Z2 I-1.767378 J1.107612
G03 X156.608120 Y72.173070 Z2 I1.416480 J-1.814075
G03 X155.358571 Y70.126383 Z2 I178.833628 J-110.586798
G02 X154.041670 Y68.050000 Z2 I-46.206771 J27.849842
G02 X153.468459 Y67.213036 Z2 I-33.788798 J22.526140
G03 X153.030670 Y66.550000 Z2 I11.045704 J-7.769302
G03 X152.698601 Y65.802675 Z2 I2.564757 J-1.587070
G02 X152.625000 Y65.550000 Z2 I-97.610960 J28.295921
G00 Z0.000000

(End cutting path id: path16)


(Start cutting path id: path16)
(Change tool to Default tool)

G00 Z0.000000
G00 X160.625000 Y78.800000

G01 Z2 F100.0(Penetrate)
G02 X161.733437 Y78.925462 Z2 I1.070055 J-4.494614 F75
G02 X163.248170 Y78.297590 Z2 I-0.018151 J-2.184863
G02 X163.659283 Y77.866130 Z2 I-6.546945 J-6.649789
G02 X163.913390 Y77.425000 Z2 I-0.924768 J-0.826454
G02 X163.927929 Y76.662327 Z2 I-1.239462 J-0.405104
G03 X163.792530 Y75.675000 Z2 I3.398177 J-0.968965
G03 X164.247591 Y74.371476 Z2 I2.125642 J0.010871
G03 X165.500000 Y73.688210 Z2 I1.423697 J1.120149
G03 X167.218216 Y74.440761 Z2 I0.182458 J1.921194
G03 X167.495950 Y76.300000 Z2 I-1.553961 J1.182495
G03 X166.530768 Y77.233430 Z2 I-1.453196 J-0.536907
G03 X165.375000 Y77.424420 Z2 I-1.182315 J-3.562192
G03 X164.722048 Y77.389568 Z2 I-0.040721 J-5.371101
G03 X164.125000 Y77.300000 Z2 I0.992421 J-8.650006
G00 Z0.000000

(End cutting path id: path16)


(Start cutting path id: path16)
(Change tool to Default tool)

G00 Z0.000000
G00 X157.875000 Y73.050000

G01 Z2 F100.0(Penetrate)
G03 X158.330657 Y73.089091 Z2 I-0.230444 J5.361268 F75
G02 X159.125000 Y73.175000 Z2 I2.494817 J-19.352638
G03 X159.811413 Y73.259957 Z2 I-0.838544 J9.590477
G02 X160.495080 Y73.187800 Z2 I0.208483 J-1.299538
G02 X162.348549 Y71.627161 Z2 I-1.347653 J-3.481461
G03 X163.966920 Y69.299970 Z2 I18.100940 J10.861405
G02 X164.471984 Y68.607033 Z2 I-7.444688 J-5.956777
G02 X164.672650 Y67.924970 Z2 I-1.007107 J-0.666844
G02 X164.530640 Y67.413688 Z2 I-1.041001 J0.013778
G03 X164.319250 Y67.049970 Z2 I84.935983 J-49.607372
G03 X163.836072 Y65.908695 Z2 I4.342809 J-2.511520
G03 X163.750000 Y65.549970 Z2 I4.311877 J-1.224274
G00 Z0.000000

(End cutting path id: path16)


(Start cutting path id: path16)
(Change tool to Default tool)

G00 Z0.000000
G00 X165.000000 Y67.924970

G01 Z2 F100.0(Penetrate)
G02 X165.643280 Y68.101068 Z2 I1.806931 J-5.337668 F75
G02 X166.625000 Y68.153170 Z2 I0.657615 J-3.115998
G02 X167.673663 Y67.936653 Z2 I-0.536997 J-5.248634
G02 X168.619600 Y67.398250 Z2 I-0.776638 J-2.464671
G02 X168.997024 Y66.986184 Z2 I-1.872694 J-2.094135
G02 X169.260030 Y66.549970 Z2 I-2.056434 J-1.537281
G02 X169.479751 Y65.763397 Z2 I-2.169916 J-1.030118
G02 X169.500000 Y65.549970 Z2 I-15.292201 J-1.558540
G00 Z0.000000

(End cutting path id: path16)


(Footer)
M5
;G00 X0.0000 Y0.0000
M2
(Using default footer. To add your own footer create file "footer" in the output dir.)
(end)
%