%
(Header)
(Generated by gcodetools from Inkscape.)
(Using default header. To add your own header create file "header" in the output dir.)
M3
(Header end.)
G21 (All units in mm)

(Start cutting path id: path14)
(Change tool to Default tool)

G00 Z0.000000
G00 X54.125000 Y110.425000

G01 Z2 F100.0(Penetrate)
G01 X56.000000 Y110.300000 Z2 F75
G00 Z0.000000

(End cutting path id: path14)


(Start cutting path id: path14)
(Change tool to Default tool)

G00 Z0.000000
G00 X56.125000 Y110.425000

G01 Z2 F100.0(Penetrate)
G01 X56.000000 Y110.300000 Z2 F75
G00 Z0.000000

(End cutting path id: path14)


(Start cutting path id: path14)
(Change tool to Default tool)

G00 Z0.000000
G00 X46.625000 Y108.925000

G01 Z2 F100.0(Penetrate)
G01 X46.833912 Y109.133912 Z2 F75
G01 X47.020062 Y109.319966 Z2
G01 X48.375000 Y110.141434 Z2
G02 X48.980171 Y109.997636 Z2 I-0.101253 J-1.771444
G02 X49.500000 Y109.712617 Z2 I-1.283894 J-2.958171
G02 X50.207542 Y109.091505 Z2 I-2.081225 J-3.084392
G02 X50.726466 Y108.300000 Z2 I-2.485445 J-2.195359
G02 X50.876678 Y107.890114 Z2 I-2.306383 J-1.077696
G03 X51.135706 Y107.313599 Z2 I1.952310 J0.530723
G03 X51.861639 Y106.865343 Z2 I0.840899 J0.549866
G03 X53.000000 Y106.800000 Z2 I1.138361 J9.883139
G02 X55.743275 Y106.736461 Z2 I-0.000008 J-59.251671
G03 X58.375000 Y106.675000 Z2 I2.653739 J57.256170
G02 X59.289567 Y106.581202 Z2 I-0.001735 J-4.522531
G03 X60.125000 Y106.486825 Z2 I0.931835 J4.503806
G03 X61.011611 Y106.514243 Z2 I0.179305 J8.550793
G02 X61.875000 Y106.550005 Z2 I0.863389 J-10.404238
G02 X64.859411 Y106.490328 Z2 I0.000001 J-74.653634
G03 X68.000000 Y106.425005 Z2 I3.271996 J81.782030
G03 X69.012222 Y106.503251 Z2 I0.010006 J6.456912
G02 X69.799576 Y106.296534 Z2 I0.157549 J-1.002733
G01 X70.000000 Y105.300000 Z2
G00 Z0.000000

(End cutting path id: path14)


(Start cutting path id: path14)
(Change tool to Default tool)

G00 Z0.000000
G00 X83.750000 Y109.675000

G01 Z2 F100.0(Penetrate)
G02 X83.747644 Y109.079686 Z2 I-75.227597 J0.000000 F75
G03 X83.750580 Y108.550095 Z2 I19.678067 J-0.155727
G01 X84.039738 Y107.697377 Z2
G03 X84.670674 Y107.527762 Z2 I0.566485 J0.848932
G02 X85.375000 Y107.550000 Z2 I0.703564 J-11.118744
G03 X86.650562 Y107.603418 Z2 I0.000991 J15.232669
G02 X87.570892 Y107.260262 Z2 I0.096340 J-1.147342
G02 X87.887896 Y106.658310 Z2 I-0.855572 J-0.835014
G02 X87.978683 Y106.050000 Z2 I-6.279530 J-1.248121
G02 X88.014134 Y105.071601 Z2 I-7.629024 J-0.766273
G03 X88.000000 Y104.050000 Z2 I36.912197 J-1.021601
G03 X88.000101 Y102.976471 Z2 I5683.177776 J-0.473703
G02 X88.000000 Y101.925000 Z2 I-1842.583272 J-0.297218
G02 X87.997063 Y101.432044 Z2 I-44.242310 J0.017137
G02 X87.964310 Y100.925000 Z2 I-4.797507 J0.055317
G03 X87.890718 Y100.094064 Z2 I14.233224 J-1.679288
G02 X87.803043 Y99.175000 Z2 I-12.845483 J0.761699
G01 X87.621525 Y98.089740 Z2
G01 X86.249996 Y97.800000 Z2
G03 X85.770043 Y97.790545 Z2 I0.022367 J-13.322349
G03 X85.249996 Y97.747000 Z2 I0.214773 J-5.692092
G02 X84.672365 Y97.692278 Z2 I-1.047115 J7.977064
G02 X84.124996 Y97.674900 Z2 I-0.599663 J10.258835
G03 X83.574051 Y97.663925 Z2 I0.081166 J-17.909157
G02 X82.999996 Y97.657600 Z2 I-0.417235 J11.813994
G02 X82.322953 Y97.668240 Z2 I1.358635 J108.001803
G03 X81.624996 Y97.675000 Z2 I-0.717876 J-38.082798
G02 X80.645158 Y97.675516 Z2 I1.462123 J3708.102044
G02 X79.679203 Y98.089250 Z2 I0.000880 J1.336540
G02 X79.314421 Y99.125306 Z2 I0.966727 J0.922618
G03 X79.375000 Y100.550000 Z2 I-16.722694 J1.424694
G01 X79.375000 Y101.925000 Z2
G01 X78.000000 Y101.925000 Z2
G03 X75.672499 Y101.865320 Z2 I0.000000 J-45.416104
G02 X73.125000 Y101.800000 Z2 I-2.547499 J49.643576
G00 Z0.000000

(End cutting path id: path14)


(Start cutting path id: path14)
(Change tool to Default tool)

G00 Z0.000000
G00 X79.375000 Y109.550000

G01 Z2 F100.0(Penetrate)
G02 X79.371257 Y108.759968 Z2 I-83.380460 J-0.000000 F75
G03 X79.377200 Y108.175000 Z2 I14.897747 J-0.141163
G03 X79.411317 Y107.772826 Z2 I3.683380 J0.109932
G02 X79.421280 Y107.050000 Z2 I-2.856474 J-0.400853
G03 X79.375085 Y106.286539 Z2 I7.392443 J-0.830421
G03 X79.374600 Y105.800000 Z2 I30.393631 J-0.273592
G02 X79.376408 Y104.931304 Z2 I-87.160353 J-0.615732
G03 X79.374985 Y103.800000 Z2 I343.947899 J-0.998217
G03 X79.444483 Y102.823405 Z2 I6.933853 J0.002665
G02 X79.374985 Y101.925000 Z2 I-2.053905 J-0.293007
G00 Z0.000000

(End cutting path id: path14)


(Start cutting path id: path14)
(Change tool to Default tool)

G00 Z0.000000
G00 X79.624985 Y107.300000

G01 Z2 F100.0(Penetrate)
G01 X80.624985 Y107.174905 Z2 F75
G01 X81.553421 Y106.870793 Z2
G01 X81.879822 Y105.675000 Z2
G01 X82.000000 Y103.800000 Z2
G01 X82.128471 Y102.377255 Z2
G01 X83.125000 Y102.289295 Z2
G01 X85.375000 Y102.175003 Z2
G00 Z0.000000

(End cutting path id: path14)


(Start cutting path id: path14)
(Change tool to Default tool)

G00 Z0.000000
G00 X51.125000 Y107.175003

G01 Z2 F100.0(Penetrate)
G02 X50.663780 Y106.964721 Z2 I-0.760717 J1.057565 F75
G02 X49.250000 Y106.800003 Z2 I-1.413780 J5.984893
G02 X48.079233 Y106.812442 Z2 I-0.000000 J55.101984
G03 X47.333912 Y106.677124 Z2 I-0.040338 J-1.898066
G01 X47.125000 Y106.550000 Z2
G02 X47.656217 Y104.630916 Z2 I-3.779908 J-2.079373
G03 X48.014853 Y101.925000 Z2 I14.437537 J0.536792
G01 X48.439236 Y100.786110 Z2
G01 X50.250000 Y100.675000 Z2
G02 X51.194600 Y100.623130 Z2 I0.000000 J-8.626898
G03 X52.000000 Y100.555690 Z2 I1.690640 J15.347536
G03 X52.804845 Y100.604238 Z2 I0.196764 J3.433774
G02 X53.625000 Y100.674420 Z2 I0.788902 J-4.391873
G02 X54.563913 Y100.628568 Z2 I-0.076988 J-11.212411
G03 X55.375000 Y100.771120 Z2 I0.142596 J1.567382
G03 X56.101253 Y101.318453 Z2 I-0.939498 J2.002114
G02 X56.761189 Y102.049960 Z2 I23.028231 J-20.111673
G02 X57.549860 Y102.892366 Z2 I179.721943 J-167.467456
G03 X58.271219 Y103.674960 Z2 I-38.344789 J36.068229
G02 X58.830088 Y104.263397 Z2 I12.029181 J-10.865119
G03 X59.375868 Y104.924960 Z2 I-3.203123 J3.198444
G03 X59.736920 Y105.723222 Z2 I-2.142517 J1.449838
G03 X59.875000 Y106.424960 Z2 I-5.740300 J1.493963
G00 Z0.000000

(End cutting path id: path14)


(Start cutting path id: path14)
(Change tool to Default tool)

G00 Z0.000000
G00 X46.500000 Y106.925000

G01 Z2 F100.0(Penetrate)
G01 X47.125000 Y106.550000 Z2 F75
G00 Z0.000000

(End cutting path id: path14)


(Start cutting path id: path14)
(Change tool to Default tool)

G00 Z0.000000
G00 X72.625000 Y106.925000

G01 Z2 F100.0(Penetrate)
G03 X74.565976 Y106.825666 Z2 I2.767600 J35.065814 F75
G03 X76.750000 Y106.800000 Z2 I2.184024 J92.909883
G03 X77.481044 Y106.800698 Z2 I0.000010 J382.669932
G02 X78.125000 Y106.799905 Z2 I0.195750 J-102.466817
G02 X78.759764 Y106.754189 Z2 I-0.019664 J-4.702713
G02 X79.125000 Y106.675000 Z2 I-0.352196 J-2.506272
G00 Z0.000000

(End cutting path id: path14)


(Start cutting path id: path14)
(Change tool to Default tool)

G00 Z0.000000
G00 X82.000000 Y102.300000

G01 Z2 F100.0(Penetrate)
G02 X80.642103 Y102.061803 Z2 I-1.042516 J1.953510 F75
G03 X79.625000 Y102.175000 Z2 I-2.272277 J-15.790988
G00 Z0.000000

(End cutting path id: path14)


(Start cutting path id: path14)
(Change tool to Default tool)

G00 Z0.000000
G00 X59.250000 Y97.050000

G01 Z2 F100.0(Penetrate)
G02 X58.301935 Y97.234290 Z2 I0.356199 J4.363202 F75
G03 X57.250000 Y97.468110 Z2 I-1.917706 J-6.144403
G03 X55.809892 Y97.245257 Z2 I-0.344529 J-2.538126
G03 X54.626060 Y96.174900 Z2 I1.181258 J-2.496337
G03 X54.352877 Y95.500522 Z2 I1.983948 J-1.196197
G03 X54.282407 Y94.800000 Z2 I2.709267 J-0.626346
G03 X54.719669 Y93.341437 Z2 I2.910348 J0.077667
G03 X55.875000 Y92.345910 Z2 I2.165890 J1.345406
G03 X56.779756 Y92.142868 Z2 I0.989614 J2.292404
G03 X57.750000 Y92.241650 Z2 I0.122722 J3.608906
G03 X58.347457 Y92.482904 Z2 I-0.516689 J2.139983
G03 X58.851466 Y92.858550 Z2 I-1.450909 J2.472641
G03 X59.456063 Y93.812264 Z2 I-1.523664 J1.634408
G03 X59.622685 Y94.925000 Z2 I-3.344260 J1.069614
G03 X59.442758 Y95.945034 Z2 I-3.202868 J-0.039079
G02 X59.380304 Y96.925000 Z2 I1.716417 J0.601361
G02 X59.847816 Y97.723930 Z2 I1.440227 J-0.306529
G03 X60.750000 Y98.528780 Z2 I-58.456229 J66.433627
G02 X61.536153 Y99.215804 Z2 I20.534136 J-22.703660
G02 X62.375000 Y99.710690 Z2 I1.877072 J-2.223316
G02 X64.058748 Y100.035384 Z2 I1.763599 J-4.617394
G02 X65.875000 Y100.050000 Z2 I1.809362 J-111.984261
G02 X66.631874 Y100.011293 Z2 I-0.000396 J-7.427055
G03 X67.375000 Y99.965000 Z2 I0.951020 J9.278671
G03 X67.957398 Y100.067787 Z2 I0.033593 J1.511008
G03 X68.500000 Y100.336910 Z2 I-1.239662 J3.180941
G02 X69.499950 Y100.838947 Z2 I3.482917 J-5.690366
G02 X70.231482 Y100.883400 Z2 I0.432691 J-1.079112
G01 X70.625000 Y99.549970 Z2
G00 Z0.000000

(End cutting path id: path14)


(Start cutting path id: path14)
(Change tool to Default tool)

G00 Z0.000000
G00 X48.500000 Y100.549970

G01 Z2 F100.0(Penetrate)
G02 X48.612118 Y99.749031 Z2 I-8.920253 J-1.657006 F75
G03 X48.924768 Y98.424970 Z2 I4.944718 J0.468649
G03 X49.114466 Y98.044903 Z2 I2.117675 J0.819595
G02 X49.383295 Y97.549970 Z2 I-4.052668 J-2.521729
G02 X49.569045 Y96.894537 Z2 I-1.907446 J-0.894608
G03 X49.708526 Y96.049970 Z2 I8.524545 J0.974038
G03 X50.909975 Y92.636751 Z2 I14.195935 J3.078891
G03 X52.607543 Y89.424970 Z2 I70.994622 J35.469266
G03 X54.228047 Y86.728719 Z2 I42.847315 J23.917039
G03 X56.046779 Y84.177290 Z2 I28.589490 J18.455475
G03 X56.658041 Y83.632430 Z2 I1.824841 J1.431925
G02 X57.197723 Y83.218950 Z2 I-1.726902 J-2.812930
G02 X57.624836 Y82.551405 Z2 I-1.123247 J-1.189095
G03 X58.111014 Y81.674970 Z2 I2.624931 J0.883043
G03 X59.110425 Y80.710573 Z2 I4.680721 J3.850619
G02 X60.090278 Y79.945130 Z2 I-36.259675 J-47.426300
G02 X60.769792 Y79.132014 Z2 I-1.654623 J-2.073245
G03 X61.500000 Y78.186160 Z2 I3.251450 J1.755358
G03 X64.516874 Y75.646936 Z2 I26.228656 J28.100694
G03 X67.750000 Y73.386490 Z2 I31.212610 J41.201137
G03 X73.181481 Y70.404668 Z2 I24.003749 J37.285851
G03 X79.000000 Y68.247310 Z2 I16.874973 J36.587662
G03 X79.989087 Y67.994571 Z2 I5.037667 J17.652983
G03 X80.875000 Y67.835270 Z2 I2.233583 J9.878505
G01 X81.971931 Y67.824670 Z2
G01 X82.960453 Y69.335670 Z2
G02 X83.640789 Y70.029950 Z2 I5.854103 J-5.056056
G03 X84.008873 Y70.674980 Z2 I-0.790572 J0.878674
G01 X83.868637 Y71.424980 Z2
G02 X83.636680 Y72.148018 Z2 I17.990076 J6.170098
G02 X83.516106 Y73.049980 Z2 I2.777900 J0.830390
G02 X83.575626 Y73.682433 Z2 I4.595396 J-0.113443
G02 X83.766975 Y74.299980 Z2 I2.327343 J-0.382717
G02 X84.173091 Y74.927959 Z2 I2.495868 J-1.168778
G02 X84.751831 Y75.424300 Z2 I1.912291 J-1.644176
G02 X85.476767 Y75.768005 Z2 I1.857388 J-2.981202
G02 X86.250000 Y75.881770 Z2 I0.695366 J-2.041611
G02 X86.800586 Y75.794758 Z2 I-0.083302 J-2.312590
G02 X87.375000 Y75.616530 Z2 I-3.522499 J-12.367482
G02 X89.080621 Y73.611585 Z2 I-0.813312 J-2.419855
G02 X88.243153 Y71.063100 Z2 I-2.861862 J-0.471396
G02 X85.879416 Y70.303540 Z2 I-1.945283 J1.995952
G03 X84.125000 Y70.550000 Z2 I-11.936361 J-78.600834
G00 Z0.000000

(End cutting path id: path14)


(Start cutting path id: path14)
(Change tool to Default tool)

G00 Z0.000000
G00 X51.875000 Y100.300000

G01 Z2 F100.0(Penetrate)
G02 X51.354619 Y99.141634 Z2 I-10.491418 J4.017065 F75
G02 X50.005594 Y97.888730 Z2 I-2.425640 J1.259020
G02 X49.720546 Y97.769326 Z2 I-7.574941 J17.683346
G03 X49.500000 Y97.675000 Z2 I2.933139 J-7.163061
G00 Z0.000000

(End cutting path id: path14)


(Start cutting path id: path14)
(Change tool to Default tool)

G00 Z0.000000
G00 X67.500000 Y99.800000

G01 Z2 F100.0(Penetrate)
G02 X67.496144 Y99.281732 Z2 I-34.829249 J-0.000000 F75
G03 X67.504900 Y98.675000 Z2 I10.351108 J-0.154044
G03 X67.741888 Y97.059510 Z2 I8.020136 J0.351404
G02 X67.710243 Y95.550100 Z2 I-2.758863 J-0.697197
G02 X67.317192 Y94.933505 Z2 I-1.276567 J0.380180
G02 X66.751814 Y94.456830 Z2 I-9.908274 J11.178434
G03 X66.164290 Y93.835251 Z2 I1.946857 J-2.428651
G03 X65.869194 Y93.050000 Z2 I1.328707 J-0.947399
G03 X65.852137 Y92.186096 Z2 I5.393715 J-0.538616
G02 X65.874994 Y91.425000 Z2 I-12.659941 J-0.761096
G03 X65.895736 Y89.329353 Z2 I105.875257 J-0.000000
G02 X65.518223 Y87.426830 Z2 I-4.530717 J-0.089697
G02 X63.992283 Y85.642115 Z2 I-3.690955 J1.611085
G03 X61.999994 Y84.158700 Z2 I9.224236 J-14.468105
G02 X61.518463 Y83.752078 Z2 I-18.359914 J21.253814
G03 X61.181514 Y83.288810 Z2 I0.731434 J-0.886164
G03 X61.101123 Y82.668977 Z2 I1.184111 J-0.468705
G02 X61.113804 Y82.175000 Z2 I-2.633618 J-0.314757
G02 X60.708028 Y80.715361 Z2 I-3.738797 J0.253154
G02 X60.249993 Y80.050000 Z2 I-2.809709 J1.443871
G00 Z0.000000

(End cutting path id: path14)


(Start cutting path id: path14)
(Change tool to Default tool)

G00 Z0.000000
G00 X87.874993 Y97.800000

G01 Z2 F100.0(Penetrate)
G02 X88.220766 Y97.058635 Z2 I-0.813539 J-0.830752 F75
G02 X88.249993 Y96.300000 Z2 I-9.846973 J-0.759238
G01 X88.249993 Y91.675000 Z2
G00 Z0.000000

(End cutting path id: path14)


(Start cutting path id: path14)
(Change tool to Default tool)

G00 Z0.000000
G00 X88.249993 Y97.800000

G01 Z2 F100.0(Penetrate)
G01 X89.374993 Y97.800000 Z2 F75
G01 X90.499802 Y97.800000 Z2
G01 X91.374993 Y97.800000 Z2
G00 Z0.000000

(End cutting path id: path14)


(Start cutting path id: path14)
(Change tool to Default tool)

G00 Z0.000000
G00 X83.124993 Y97.550000

G01 Z2 F100.0(Penetrate)
G01 X83.124993 Y96.300000 Z2 F75
G03 X83.183222 Y94.025212 Z2 I44.462663 J-0.000000
G02 X83.249993 Y91.550000 Z2 I-51.065960 J-2.616051
G00 Z0.000000

(End cutting path id: path14)


(Start cutting path id: path14)
(Change tool to Default tool)

G00 Z0.000000
G00 X55.124993 Y89.675000

G01 Z2 F100.0(Penetrate)
G02 X56.999411 Y89.594261 Z2 I0.000000 J-21.798317 F75
G03 X58.874993 Y89.554920 Z2 I1.239411 J14.360195
G03 X59.451982 Y89.612940 Z2 I-0.228021 J5.165548
G03 X59.999993 Y89.757850 Z2 I-0.432579 J2.744573
G03 X61.784645 Y90.811328 Z2 I-2.129609 J5.646068
G02 X63.499993 Y92.138160 Z2 I14.828146 J-17.397819
G02 X64.880479 Y92.800661 Z2 I2.698436 J-3.853318
G02 X65.749993 Y93.050000 Z2 I26.949806 J-92.340736
G00 Z0.000000

(End cutting path id: path14)


(Start cutting path id: path14)
(Change tool to Default tool)

G00 Z0.000000
G00 X82.124993 Y88.800000

G01 Z2 F100.0(Penetrate)
G01 X83.000000 Y88.800000 Z2 F75
G00 Z0.000000

(End cutting path id: path14)


(Start cutting path id: path14)
(Change tool to Default tool)

G00 Z0.000000
G00 X87.625000 Y88.675000

G01 Z2 F100.0(Penetrate)
G02 X87.924084 Y88.005639 Z2 I-1.473425 J-1.059855 F75
G02 X87.999905 Y87.300000 Z2 I-3.162370 J-0.696690
G02 X87.953692 Y85.897778 Z2 I-23.239267 J0.064030
G02 X87.863811 Y84.550000 Z2 I-195.150013 J12.337275
G02 X87.527414 Y83.600923 Z2 I-1.878849 J0.131796
G02 X86.625000 Y83.071320 Z2 I-1.030343 J0.722013
G02 X85.519437 Y83.050339 Z2 I-0.679163 J6.649024
G03 X84.375000 Y83.028720 Z2 I-0.441854 J-6.911740
G01 X83.153549 Y82.174460 Z2
G03 X83.085907 Y81.143348 Z2 I4.311171 J-0.800593
G02 X83.125479 Y79.925040 Z2 I-30.243783 J-1.592156
G03 X83.156649 Y79.368445 Z2 I6.386109 J0.078465
G03 X83.357252 Y78.816630 Z2 I1.185014 J0.118421
G03 X84.970275 Y77.605516 Z2 I2.580150 J1.756665
G02 X86.124998 Y76.050040 Z2 I-0.518571 J-1.591314
G00 Z0.000000

(End cutting path id: path14)


(Start cutting path id: path14)
(Change tool to Default tool)

G00 Z0.000000
G00 X79.374998 Y87.925040

G01 Z2 F100.0(Penetrate)
G03 X78.413180 Y87.032172 Z2 I14.303422 J-16.372453 F75
G02 X77.499998 Y86.352120 Z2 I-2.899104 J2.939811
G02 X76.848297 Y86.117364 Z2 I-1.072066 J1.954174
G03 X76.227236 Y85.808240 Z2 I0.243409 J-1.267484
G03 X75.861889 Y85.233752 Z2 I0.853495 J-0.946199
G02 X75.483313 Y84.425040 Z2 I-3.021526 J0.921476
G03 X74.952830 Y80.890820 Z2 I3.581300 J-2.344472
G02 X74.765140 Y77.300040 Z2 I-5.269868 J-1.524840
G02 X74.378618 Y76.695288 Z2 I-1.830716 J0.744191
G02 X73.874903 Y76.175520 Z2 I-14.371027 J13.423194
G02 X72.602455 Y74.945420 Z2 I-43.961380 J44.201614
G02 X71.249998 Y73.800040 Z2 I-11.765363 J12.521293
G00 Z0.000000

(End cutting path id: path14)


(Start cutting path id: path14)
(Change tool to Default tool)

G00 Z0.000000
G00 X67.749998 Y79.800040

G01 Z2 F100.0(Penetrate)
G02 X68.195263 Y79.891083 Z2 I0.752772 J-2.547230 F75
G02 X68.999998 Y79.920120 Z2 I0.583537 J-5.006474
G02 X69.774941 Y79.804866 Z2 I-0.165480 J-3.775549
G02 X70.571276 Y79.292710 Z2 I-0.374437 J-1.457375
G02 X70.926533 Y77.267986 Z2 I-1.651418 J-1.333286
G02 X69.249998 Y76.057370 Z2 I-1.697784 J0.585004
G02 X67.787238 Y76.967012 Z2 I-0.018923 J1.600496
G02 X67.398146 Y78.425040 Z2 I3.690211 J1.765708
G02 X67.431531 Y79.017573 Z2 I2.255426 J0.170128
G03 X67.512442 Y79.675040 Z2 I-4.978279 J0.946359
G03 X67.518016 Y80.458328 Z2 I-7.837218 J0.447436
G02 X67.500002 Y81.300040 Z2 I19.655582 J0.841712
G03 X67.499502 Y82.305410 Z2 I-1011.159467 J0.000000
G02 X67.674288 Y83.175040 Z2 I2.239695 J0.002227
G02 X67.984201 Y83.699566 Z2 I2.071873 J-0.870333
G02 X68.381369 Y84.175040 Z2 I9.244732 J-7.318611
G03 X69.352579 Y85.371942 Z2 I-14.284481 J12.583443
G02 X70.379921 Y86.332260 Z2 I3.183793 J-2.376319
G02 X71.264153 Y86.572020 Z2 I0.817680 J-1.265193
G03 X72.250002 Y86.550040 Z2 I0.994639 J22.491794
G02 X74.969084 Y86.379361 Z2 I-0.008383 J-21.877657
G02 X76.125002 Y85.925040 Z2 I-0.313544 J-2.495390
G00 Z0.000000

(End cutting path id: path14)


(Start cutting path id: path14)
(Change tool to Default tool)

G00 Z0.000000
G00 X57.375002 Y83.300040

G01 Z2 F100.0(Penetrate)
G02 X58.898849 Y83.820208 Z2 I1.579224 J-2.134221 F75
G02 X61.000002 Y83.300040 Z2 I0.086658 J-4.153714
G00 Z0.000000

(End cutting path id: path14)


(Start cutting path id: path14)
(Change tool to Default tool)

G00 Z0.000000
G00 X91.375002 Y71.175040

G01 Z2 F100.0(Penetrate)
G03 X91.404456 Y70.229132 Z2 I15.203648 J-0.000000 F75
G02 X91.335262 Y69.563060 Z2 I-2.025205 J-0.126245
G01 X90.460552 Y68.544640 Z2
G03 X90.183473 Y68.121872 Z2 I2.098379 J-1.677443
G03 X90.028358 Y67.675040 Z2 I1.382798 J-0.730369
G01 X89.710262 Y66.678510 Z2
G02 X88.778021 Y66.451859 Z2 I-0.776640 J1.163876
G03 X87.625000 Y66.571260 Z2 I-7.813003 J-69.820886
G02 X85.128892 Y66.864599 Z2 I5.405377 J56.762632
G02 X83.000191 Y67.307080 Z2 I2.286826 J16.343190
G02 X82.455367 Y67.557706 Z2 I0.502274 J1.809367
G02 X82.125000 Y67.800000 Z2 I2.768026 J4.120564
G00 Z0.000000

(End cutting path id: path14)


(Start cutting path id: path14)
(Change tool to Default tool)

G00 Z0.000000
G00 X90.000000 Y66.425000

G01 Z2 F100.0(Penetrate)
G03 X91.057887 Y66.418057 Z2 I0.646788 J17.953077 F75
G02 X91.375000 Y66.425000 Z2 I3.644586 J-159.224271
G00 Z0.000000

(End cutting path id: path14)


(Start cutting path id: path14)
(Change tool to Default tool)

G00 Z0.000000
G00 X90.625000 Y66.300000

G01 Z2 F100.0(Penetrate)
G01 X90.625000 Y65.550000 Z2 F75
G00 Z0.000000

(End cutting path id: path14)


(Footer)
M5
;G00 X0.0000 Y0.0000
M2
(Using default footer. To add your own footer create file "footer" in the output dir.)
(end)
%