%
(Header)
(Generated by gcodetools from Inkscape.)
(Using default header. To add your own header create file "header" in the output dir.)
M3
(Header end.)
G21 (All units in mm)

(Start cutting path id: path20)
(Change tool to Default tool)

G00 Z0.000000
G00 X163.750000 Y64.675000

G01 Z2 F100.0(Penetrate)
G03 X164.545065 Y63.194143 Z2 I3.544225 J0.949015 F75
G03 X166.500000 Y62.283120 Z2 I2.022989 J1.788039
G03 X167.201919 Y62.322218 Z2 I0.109576 J4.353109
G03 X167.875000 Y62.510550 Z2 I-0.349664 J2.546594
G03 X168.462639 Y62.844511 Z2 I-1.252815 J2.888441
G03 X168.950710 Y63.305020 Z2 I-1.490036 J2.068114
G03 X169.317906 Y63.983953 Z2 I-1.613672 J1.311508
G03 X169.500000 Y64.675000 Z2 I-6.617585 J2.113275
G00 Z0.000000

(End cutting path id: path20)


(Start cutting path id: path20)
(Change tool to Default tool)

G00 Z0.000000
G00 X136.625000 Y49.800000

G01 Z2 F100.0(Penetrate)
G03 X137.091454 Y50.004877 Z2 I-0.828587 J2.519919 F75
G02 X138.125000 Y50.459920 Z2 I2.897025 J-5.178785
G02 X138.418362 Y50.551661 Z2 I2.943645 J-8.898000
G03 X138.863330 Y50.765950 Z2 I-0.432632 J1.467484
G03 X139.525730 Y51.469579 Z2 I-1.364448 J1.948106
G02 X140.161170 Y52.235280 Z2 I2.994757 J-1.838769
G02 X141.207235 Y52.815900 Z2 I1.766577 J-1.950103
G03 X142.144580 Y53.387870 Z2 I-0.562579 J1.976001
G03 X142.501421 Y54.027182 Z2 I-1.109425 J1.038484
G02 X142.903070 Y54.800000 Z2 I1.983090 J-0.539871
G02 X144.518794 Y56.482968 Z2 I12.438994 J-10.324919
G03 X146.238810 Y58.175000 Z2 I-18.514721 J20.541176
G03 X148.257604 Y60.374084 Z2 I-149.999459 J139.728051
G03 X150.201200 Y62.571220 Z2 I-97.507716 J88.213982
G03 X150.840335 Y63.535184 Z2 I-3.437056 J2.972727
G02 X151.750000 Y64.263060 Z2 I1.231744 J-0.607008
G02 X152.853192 Y63.962759 Z2 I0.278392 J-1.153800
G03 X153.750000 Y63.226700 Z2 I4.980291 J5.153582
G03 X154.871641 Y62.530141 Z2 I7.448591 J10.742827
G02 X155.662130 Y61.669980 Z2 I-0.892323 J-1.613356
G02 X155.908055 Y60.374695 Z2 I-2.603422 J-1.165279
G03 X155.875000 Y58.925000 Z2 I31.773008 J-1.449695
G00 Z0.000000

(End cutting path id: path20)


(Start cutting path id: path20)
(Change tool to Default tool)

G00 Z0.000000
G00 X152.375000 Y55.925000

G01 Z2 F100.0(Penetrate)
G03 X155.387757 Y56.013403 Z2 I-0.000000 J51.381469 F75
G02 X158.750000 Y55.925000 Z2 I1.162085 J-19.784844
G00 Z0.000000

(End cutting path id: path20)


(Start cutting path id: path20)
(Change tool to Default tool)

G00 Z0.000000
G00 X154.375000 Y53.800000

G01 Z2 F100.0(Penetrate)
G01 X156.875000 Y53.925000 Z2 F75
G00 Z0.000000

(End cutting path id: path20)


(Start cutting path id: path20)
(Change tool to Default tool)

G00 Z0.000000
G00 X142.250000 Y53.300000

G01 Z2 F100.0(Penetrate)
G03 X142.454990 Y53.159154 Z2 I3.112027 J4.309703 F75
G03 X143.000580 Y52.921240 Z2 I0.976738 J1.495344
G02 X144.458661 Y52.306413 Z2 I-1.235202 J-4.965674
G02 X145.623070 Y50.925000 Z2 I-1.529325 J-2.470540
G02 X145.742875 Y48.692027 Z2 I-3.193030 J-1.291015
G02 X144.373170 Y46.876190 Z2 I-3.031037 J0.861833
G02 X143.518267 Y46.510307 Z2 I-1.630488 J2.628012
G02 X142.625000 Y46.388830 Z2 I-0.957574 J3.696400
G02 X141.857877 Y46.457362 Z2 I-0.061414 J3.640257
G02 X141.125000 Y46.715990 Z2 I0.524226 J2.653201
G02 X139.902892 Y47.800912 Z2 I1.581024 J3.011721
G02 X139.304880 Y49.300000 Z2 I3.011974 J2.070351
G03 X139.119775 Y50.339465 Z2 I-27.033906 J-4.277914
G03 X139.000000 Y50.675000 Z2 I-1.190207 J-0.235719
G00 Z0.000000

(End cutting path id: path20)


(Start cutting path id: path20)
(Change tool to Default tool)

G00 Z0.000000
G00 X136.500000 Y45.425000

G01 Z2 F100.0(Penetrate)
G02 X136.724431 Y45.340440 Z2 I-6.216181 J-16.838538 F75
G02 X137.375190 Y45.015950 Z2 I-1.367505 J-3.557294
G02 X138.300555 Y44.233832 Z2 I-2.242443 J-3.591635
G03 X139.504920 Y42.925000 Z2 I36.306033 J32.199670
G03 X141.881550 Y40.607764 Z2 I33.470777 J31.951294
G02 X143.228780 Y37.925000 Z2 I-2.799852 J-3.085687
G02 X143.318845 Y36.200413 Z2 I-19.224411 J-1.868628
G03 X143.386190 Y34.425000 Z2 I29.171787 J0.217554
G03 X143.517417 Y33.493181 Z2 I6.560291 J0.448732
G02 X143.424590 Y32.568520 Z2 I-1.481912 J-0.318220
G01 X142.872600 Y32.191590 Z2
G03 X142.184962 Y32.017269 Z2 I1.218709 J-6.250819
G03 X141.511780 Y31.633820 Z2 I0.546572 J-1.742201
G03 X140.750131 Y30.038758 Z2 I1.538841 J-1.714179
G03 X141.225510 Y28.430020 Z2 I2.518466 J-0.130404
G03 X141.687801 Y27.947884 Z2 I1.966741 J1.423090
G03 X142.250010 Y27.636130 Z2 I1.234335 J1.563153
G03 X143.936925 Y27.614975 Z2 I0.874172 J2.438604
G03 X145.236410 Y28.800000 Z2 I-0.676207 J2.046533
G03 X145.169773 Y30.898760 Z2 I-2.245532 J0.979141
G03 X143.625010 Y32.175000 Z2 I-2.258276 J-1.160409
G00 Z0.000000

(End cutting path id: path20)


(Start cutting path id: path20)
(Change tool to Default tool)

G00 Z0.000000
G00 X162.625010 Y43.491940

G01 Z2 F100.0(Penetrate)
G02 X165.727826 Y43.474161 Z2 I1.503572 J-8.357373 F75
G02 X168.750010 Y42.291800 Z2 I-1.675142 J-8.735380
G02 X171.965390 Y38.594182 Z2 I-4.397343 J-7.070674
G02 X172.660220 Y33.800000 Z2 I-8.208779 J-3.637157
G02 X172.546087 Y33.052175 Z2 I-16.923329 J2.200206
G02 X172.347810 Y32.300000 Z2 I-4.559114 J0.799587
G02 X171.398649 Y30.288966 Z2 I-10.586660 J3.767145
G02 X169.999910 Y28.561280 Z2 I-6.808126 J4.081824
G02 X168.219445 Y27.254640 Z2 I-6.465811 J6.944125
G02 X166.125010 Y26.482580 Z2 I-3.390271 J5.970173
G02 X165.117016 Y26.313888 Z2 I-4.008892 J20.858666
G02 X164.125010 Y26.231910 Z2 I-1.186348 J8.312767
G02 X162.102832 Y26.453014 Z2 I-0.178757 J7.722915
G02 X160.125010 Y27.229880 Z2 I1.907381 J7.762098
G02 X158.697466 Y28.182550 Z2 I5.162382 J9.281553
G02 X157.433070 Y29.425000 Z2 I5.136070 J6.491381
G02 X156.890482 Y30.149127 Z2 I7.989520 J6.551890
G02 X156.413980 Y30.925000 Z2 I7.755250 J5.297138
G02 X155.657761 Y33.181371 Z2 I5.861129 J3.219257
G02 X155.500490 Y35.550000 Z2 I15.036118 J2.187894
G02 X155.651320 Y36.814470 Z2 I5.973110 J-0.071260
G02 X156.024120 Y38.050000 Z2 I9.320330 J-2.138243
G02 X157.131622 Y40.108568 Z2 I8.246839 J-3.109571
G02 X158.750010 Y41.770490 Z2 I6.478205 J-4.689548
G02 X160.595211 Y42.867059 Z2 I5.590655 J-7.306672
G02 X162.625010 Y43.491940 Z2 I3.592208 J-8.059421
G00 Z0.000000

(End cutting path id: path20)


(Footer)
M5
;G00 X0.0000 Y0.0000
M2
(Using default footer. To add your own footer create file "footer" in the output dir.)
(end)
%