%
(Header)
(Generated by gcodetools from Inkscape.)
(Using default header. To add your own header create file "header" in the output dir.)
M3
(Header end.)
G21 (All units in mm)

(Start cutting path id: path10)
(Change tool to Default tool)

G00 Z0.000000
G00 X91.375000 Y133.675000

G01 Z2 F100.0(Penetrate)
G03 X91.146532 Y133.576366 Z2 I1.327537 J-3.388920 F75
G03 X90.499809 Y133.179629 Z2 I1.497483 J-3.166535
G03 X89.970369 Y132.753543 Z2 I11.015107 J-14.228978
G02 X89.375000 Y132.370602 Z2 I-1.821991 J2.178409
G02 X88.816100 Y132.152326 Z2 I-1.745715 J3.645265
G03 X88.250000 Y131.925000 Z2 I1.069792 J-3.482584
G02 X88.097107 Y132.348354 Z2 I1.387046 J0.740214
G02 X88.000000 Y133.300000 Z2 I4.635310 J0.953769
G02 X87.999720 Y135.670095 Z2 I3581.580090 J1.550524
G03 X88.000000 Y138.300000 Z2 I-12358.226010 J3.245679
G01 X87.782215 Y140.176928 Z2
G03 X87.148114 Y140.493182 Z2 I-0.888900 J-0.988454
G02 X86.375000 Y140.816590 Z2 I0.397719 J2.036533
G02 X84.794887 Y142.127899 Z2 I6.227052 J9.111195
G02 X83.250000 Y143.675000 Z2 I3095.718541 J3092.832598
G02 X82.658524 Y144.270328 Z2 I130.236961 J129.985738
G02 X82.236691 Y144.925000 Z2 I1.344021 J1.329248
G02 X82.117869 Y145.569170 Z2 I1.685825 J0.644007
G02 X82.126831 Y146.300000 Z2 I30.023302 J-0.002708
G02 X82.178471 Y146.935894 Z2 I5.637506 J-0.137766
G02 X82.291954 Y147.550000 Z2 I6.859572 J-0.950072
G02 X82.446629 Y148.140432 Z2 I10.476648 J-2.429077
G03 X82.570507 Y148.675000 Z2 I-4.632445 J1.355139
G02 X82.758031 Y149.727710 Z2 I96.693830 J-16.681428
G03 X82.900078 Y150.800000 Z2 I-10.636534 J1.954585
G03 X82.898256 Y151.383682 Z2 I-3.434769 J0.281120
G02 X82.866318 Y151.924519 Z2 I9.330714 J0.822360
G01 X82.914158 Y152.495892 Z2
G01 X83.625095 Y152.847550 Z2
G02 X84.735839 Y152.998787 Z2 I1.854757 J-9.467555
G02 X85.875000 Y153.050481 Z2 I1.380861 J-17.852146
G03 X86.608486 Y153.109499 Z2 I-0.074422 J5.512382
G02 X87.250000 Y153.169984 Z2 I0.890064 J-6.007922
G02 X87.650756 Y153.169625 Z2 I0.196091 J-4.789225
G03 X88.125000 Y153.178884 Z2 I0.162830 J3.810001
G03 X88.663333 Y153.249215 Z2 I-0.459177 J5.610094
G02 X89.125000 Y153.297804 Z2 I0.561706 J-3.119489
G02 X89.716128 Y153.303387 Z2 I0.421759 J-13.359843
G03 X90.250000 Y153.300004 Z2 I0.533872 J42.129472
G01 X91.375000 Y153.300004 Z2
G00 Z0.000000

(End cutting path id: path10)


(Start cutting path id: path10)
(Change tool to Default tool)

G00 Z0.000000
G00 X88.250000 Y153.050000

G01 Z2 F100.0(Penetrate)
G03 X88.255788 Y152.552331 Z2 I21.397102 J0.000000 F75
G02 X88.238810 Y151.800000 Z2 I-8.211557 J-0.191042
G03 X88.159851 Y150.426047 Z2 I62.544498 J-4.283576
G03 X88.124999 Y148.925000 Z2 I32.306857 J-1.501047
G03 X88.428003 Y143.131876 Z2 I55.530694 J-0.000000
G02 X87.874999 Y140.300000 Z2 I-4.896939 J-0.513666
G00 Z0.000000

(End cutting path id: path10)


(Start cutting path id: path10)
(Change tool to Default tool)

G00 Z0.000000
G00 X82.250000 Y147.675000

G01 Z2 F100.0(Penetrate)
G02 X80.898234 Y148.302022 Z2 I0.310153 J2.439256 F75
G02 X79.625481 Y149.675000 Z2 I7.809424 J8.515763
G02 X79.188906 Y150.299069 Z2 I5.347980 J4.205984
G02 X78.951294 Y150.800000 Z2 I2.117755 J1.311357
G01 X78.884164 Y151.536401 Z2
G01 X79.875000 Y152.121373 Z2
G02 X81.402371 Y152.406197 Z2 I3.580663 J-14.963649
G02 X82.750000 Y152.550000 Z2 I3.283510 J-24.384505
G00 Z0.000000

(End cutting path id: path10)


(Start cutting path id: path10)
(Change tool to Default tool)

G00 Z0.000000
G00 X81.625000 Y131.175000

G01 Z2 F100.0(Penetrate)
G03 X78.286807 Y134.569354 Z2 I-126.526146 J-121.094062 F75
G02 X75.053047 Y137.919598 Z2 I71.389828 J72.143473
G03 X74.061230 Y138.578946 Z2 I-1.847007 J-1.702701
G02 X73.313753 Y139.084721 Z2 I0.627061 J1.731954
G02 X73.052073 Y139.536257 Z2 I0.964995 J0.860840
G03 X72.952065 Y139.800000 Z2 I-3.313616 J-1.105652
G03 X72.679765 Y140.275274 Z2 I-2.150109 J-0.916228
G03 X72.124422 Y140.925000 Z2 I-4.944162 J-3.663742
G03 X70.294863 Y142.564935 Z2 I-13.859571 J-13.621619
G02 X68.981771 Y144.425000 Z2 I2.476544 J3.141802
G02 X68.875539 Y145.067883 Z2 I1.909068 J0.645680
G02 X68.875000 Y145.675000 Z2 I606.453430 J0.841670
G03 X68.832996 Y146.431713 Z2 I-6.885105 J-0.002662
G02 X68.897377 Y147.300000 Z2 I2.358133 J0.261681
G02 X69.294888 Y147.948247 Z2 I1.278857 J-0.338205
G02 X70.000000 Y148.450463 Z2 I2.620228 J-2.932706
G02 X72.581569 Y149.669808 Z2 I10.329265 J-18.526386
G02 X75.250000 Y150.699017 Z2 I90.094212 J-229.613554
G02 X76.311671 Y151.096073 Z2 I45.312823 J-119.542061
G02 X77.375000 Y151.384778 Z2 I2.161575 J-5.858772
G02 X78.080443 Y151.487458 Z2 I1.944032 J-10.881460
G03 X78.500000 Y151.550000 Z2 I-0.666034 J5.906567
G00 Z0.000000

(End cutting path id: path10)


(Start cutting path id: path10)
(Change tool to Default tool)

G00 Z0.000000
G00 X91.375000 Y148.175000

G01 Z2 F100.0(Penetrate)
G01 X91.375000 Y143.675000 Z2 F75
G00 Z0.000000

(End cutting path id: path10)


(Start cutting path id: path10)
(Change tool to Default tool)

G00 Z0.000000
G00 X46.625000 Y114.550000

G01 Z2 F100.0(Penetrate)
G01 X46.887539 Y114.819867 Z2 F75
G02 X47.014810 Y114.960404 Z2 I2.357830 J-2.007373
G03 X47.178144 Y115.178086 Z2 I-0.800118 J0.770472
G03 X47.530920 Y116.376341 Z2 I-2.330574 J1.337198
G02 X47.762442 Y118.175000 Z2 I11.882521 J-0.615276
G02 X48.023988 Y118.775412 Z2 I1.563642 J-0.323968
G03 X48.335841 Y119.446217 Z2 I-1.664703 J1.181801
G03 X48.445781 Y120.259954 Z2 I-3.356770 J0.867814
G02 X48.506366 Y121.175000 Z2 I9.079706 J-0.141633
G02 X49.565396 Y125.233593 Z2 I15.074851 J-1.766095
G02 X51.288580 Y129.175000 Z2 I108.572018 J-45.120310
G02 X52.292335 Y131.030602 Z2 I14.667812 J-6.735011
G02 X53.395061 Y132.728047 Z2 I57.644500 J-36.241187
G03 X54.929575 Y135.218160 Z2 I-31.381424 J21.056446
G02 X56.701871 Y137.661883 Z2 I11.567216 J-6.524522
G02 X57.355832 Y138.130688 Z2 I1.440547 J-1.318970
G03 X57.965181 Y138.512383 Z2 I-1.001241 J2.275650
G03 X58.503849 Y139.369484 Z2 I-1.091978 J1.284103
G02 X59.127315 Y140.411496 Z2 I2.102797 J-0.550640
G02 X59.900395 Y140.875075 Z2 I1.482823 J-1.596409
G03 X60.590664 Y141.262770 Z2 I-0.720445 J2.091050
G03 X61.000591 Y141.845981 Z2 I-0.863467 J1.042584
G02 X61.409336 Y142.538331 Z2 I2.033006 J-0.733401
G02 X62.417585 Y143.179809 Z2 I1.603949 J-1.407920
G03 X63.201292 Y143.614140 Z2 I-0.564957 J1.943635
G03 X63.684156 Y144.200450 Z2 I-1.664712 J1.862986
G02 X64.251928 Y144.860669 Z2 I2.162864 J-1.285765
G02 X65.778241 Y146.052628 Z2 I25.993581 J-31.711766
G02 X67.375000 Y146.860184 Z2 I3.134373 J-4.215124
G02 X68.015881 Y147.023793 Z2 I2.054914 J-6.712389
G03 X68.750000 Y147.175000 Z2 I-243.746357 J1185.261097
G00 Z0.000000

(End cutting path id: path10)


(Start cutting path id: path10)
(Change tool to Default tool)

G00 Z0.000000
G00 X63.250000 Y143.550000

G01 Z2 F100.0(Penetrate)
G02 X64.379417 Y142.223212 Z2 I-658.158039 J-561.395582 F75
G03 X66.500000 Y139.925000 Z2 I29.062050 J24.688392
G02 X66.976870 Y139.443636 Z2 I-43.316292 J-43.388773
G03 X67.500000 Y139.048554 Z2 I1.579531 J1.547584
G03 X68.010528 Y138.870819 Z2 I0.795473 J1.462837
G03 X68.500000 Y138.811189 Z2 I0.831815 J4.789181
G03 X69.919307 Y138.742271 Z2 I2.277579 J32.255661
G02 X71.375000 Y138.653781 Z2 I-0.566545 J-21.337433
G03 X72.619702 Y138.734934 Z2 I0.370895 J3.897336
G03 X73.250000 Y139.050000 Z2 I-0.332941 J1.454055
G00 Z0.000000

(End cutting path id: path10)


(Start cutting path id: path10)
(Change tool to Default tool)

G00 Z0.000000
G00 X60.750000 Y141.300000

G01 Z2 F100.0(Penetrate)
G03 X61.090545 Y140.999220 Z2 I3.928975 J4.105241 F75
G02 X61.731964 Y140.403781 Z2 I-4.270293 J-5.243238
G02 X62.203826 Y139.515105 Z2 I-1.371584 J-1.297883
G02 X62.353684 Y138.550000 Z2 I-7.408742 J-1.644590
G01 X62.174576 Y137.584819 Z2
G01 X61.375000 Y137.151755 Z2
G02 X60.200863 Y136.978639 Z2 I-1.096294 J3.367198
G02 X59.011189 Y137.451716 Z2 I0.040321 J1.833808
G02 X58.412919 Y138.088838 Z2 I3.583755 J3.964672
G03 X58.125000 Y138.425000 Z2 I-4.791745 J-3.812692
G00 Z0.000000

(End cutting path id: path10)


(Start cutting path id: path10)
(Change tool to Default tool)

G00 Z0.000000
G00 X62.250000 Y137.550000

G01 Z2 F100.0(Penetrate)
G03 X64.121474 Y135.791113 Z2 I43.672360 J44.592755 F75
G02 X67.249517 Y132.800000 Z2 I-49.631636 J-55.034905
G02 X67.750523 Y132.267354 Z2 I-10.950296 J-10.801768
G02 X68.124325 Y131.675000 Z2 I-1.558489 J-1.397598
G02 X68.331265 Y130.274388 Z2 I-2.660386 J-1.108664
G03 X68.250000 Y128.675000 Z2 I15.718037 J-1.600390
G02 X68.117772 Y127.640143 Z2 I-4.117755 J0.000266
G03 X68.022280 Y126.925000 Z2 I2.884091 J-0.749057
G03 X68.113895 Y126.236244 Z2 I2.427843 J-0.027530
G02 X68.248167 Y125.175000 Z2 I-3.444644 J-0.974943
G02 X68.178899 Y123.408411 Z2 I-58.595249 J1.412863
G03 X68.125000 Y121.425000 Z2 I36.553215 J-1.985771
G02 X68.085840 Y120.448575 Z2 I-12.212692 J0.000793
G02 X67.969425 Y119.925000 Z2 I-1.933721 J0.155227
G02 X67.889327 Y119.747152 Z2 I-1.391051 J0.519530
G03 X67.758295 Y119.300000 Z2 I1.016114 J-0.540534
G03 X67.848834 Y118.673225 Z2 I1.416446 J-0.115318
G03 X68.284721 Y117.926930 Z2 I2.523315 J0.973346
G03 X68.928815 Y117.361073 Z2 I2.065556 J1.701643
G03 X69.619503 Y117.199017 Z2 I0.582297 J0.928873
G01 X70.125000 Y118.300000 Z2
G00 Z0.000000

(End cutting path id: path10)


(Start cutting path id: path10)
(Change tool to Default tool)

G00 Z0.000000
G00 X59.875000 Y134.050000

G01 Z2 F100.0(Penetrate)
G03 X59.886122 Y133.373045 Z2 I31.027419 J0.171210 F75
G02 X59.875000 Y132.675000 Z2 I-8.066452 J-0.220584
G00 Z0.000000

(End cutting path id: path10)


(Start cutting path id: path10)
(Change tool to Default tool)

G00 Z0.000000
G00 X60.125000 Y133.050000

G01 Z2 F100.0(Penetrate)
G02 X60.787744 Y133.078841 Z2 I0.549520 J-4.998480 F75
G02 X61.625000 Y133.028780 Z2 I-0.253879 J-11.272566
G02 X62.411051 Y132.890854 Z2 I-0.503416 J-5.177850
G02 X63.119984 Y132.521450 Z2 I-0.434787 J-1.699381
G02 X64.721207 Y130.661374 Z2 I-5.361624 J-6.234719
G02 X66.110245 Y128.424999 Z2 I-216.055951 J-135.744418
G03 X66.904685 Y127.471599 Z2 I3.683288 J2.261483
G03 X67.875000 Y127.049999 Z2 I1.116727 J1.242761
G00 Z0.000000

(End cutting path id: path10)


(Start cutting path id: path10)
(Change tool to Default tool)

G00 Z0.000000
G00 X53.500000 Y132.675000

G01 Z2 F100.0(Penetrate)
G03 X53.626477 Y132.561986 Z2 I14.731048 J16.358661 F75
G03 X54.128087 Y132.154553 Z2 I4.961084 J5.595328
G02 X54.544760 Y131.829306 Z2 I-6.611790 J-8.899867
G02 X55.000000 Y131.423072 Z2 I-4.611926 J-5.626482
G02 X56.924529 Y129.493854 Z2 I-58.964933 J-60.746166
G02 X58.853684 Y127.425000 Z2 I-57.748727 J-55.783114
G02 X59.378375 Y126.758474 Z2 I-4.782453 J-4.304542
G03 X59.896316 Y126.314660 Z2 I1.088477 J0.746144
G03 X60.621923 Y126.235153 Z2 I0.475924 J0.992625
G02 X61.375000 Y126.371950 Z2 I1.768018 J-7.591817
G02 X62.443024 Y126.377084 Z2 I0.554321 J-4.222026
G02 X63.486496 Y125.896448 Z2 I-0.226654 J-1.865088
G02 X64.111988 Y124.880906 Z2 I-1.477350 J-1.610325
G02 X64.244598 Y123.799997 Z2 I-3.425194 J-0.968806
G02 X64.206076 Y123.153229 Z2 I-11.564939 J0.364282
G02 X64.051407 Y122.576715 Z2 I-1.711298 J0.150108
G01 X63.249905 Y122.053663 Z2
G02 X62.666449 Y121.900520 Z2 I-5.174925 J18.527784
G02 X62.000000 Y121.805112 Z2 I-0.814416 J3.313545
G02 X61.357724 Y121.838426 Z2 I-0.146699 J3.379765
G02 X60.751833 Y122.039967 Z2 I0.270000 J1.823211
G02 X59.480227 Y124.181972 Z2 I1.151609 J2.132104
G02 X60.000000 Y126.175000 Z2 I4.145897 J-0.016941
G00 Z0.000000

(End cutting path id: path10)


(Start cutting path id: path10)
(Change tool to Default tool)

G00 Z0.000000
G00 X88.125000 Y131.800000

G01 Z2 F100.0(Penetrate)
G01 X87.878471 Y130.550000 Z2 F75
G01 X87.375000 Y129.550000 Z2
G00 Z0.000000

(End cutting path id: path10)


(Start cutting path id: path10)
(Change tool to Default tool)

G00 Z0.000000
G00 X82.125000 Y129.175000

G01 Z2 F100.0(Penetrate)
G02 X82.931439 Y128.545989 Z2 I-0.371040 J-1.307165 F75
G02 X83.101372 Y128.050000 Z2 I-1.187645 J-0.684009
G02 X83.131967 Y127.513622 Z2 I-3.303140 J-0.457473
G03 X83.125002 Y126.925000 Z2 I24.869116 J-0.588622
G02 X83.028586 Y124.556501 Z2 I-29.139781 J-0.000000
G03 X82.879923 Y122.175000 Z2 I62.499597 J-5.096869
G01 X83.075426 Y121.053471 Z2
G01 X84.000002 Y120.925000 Z2
G03 X85.206166 Y120.924383 Z2 I0.799901 J384.645858
G02 X86.375002 Y120.925000 Z2 I1.168986 J-1106.691695
G01 X87.875002 Y120.925000 Z2
G01 X89.000002 Y120.925000 Z2
G01 X90.375002 Y120.925000 Z2
G01 X91.375002 Y120.925000 Z2
G00 Z0.000000

(End cutting path id: path10)


(Start cutting path id: path10)
(Change tool to Default tool)

G00 Z0.000000
G00 X88.000000 Y126.800000

G01 Z2 F100.0(Penetrate)
G01 X87.988810 Y123.800000 Z2 F75
G01 X87.886188 Y122.925000 Z2
G01 X87.874998 Y122.175000 Z2
G01 X87.870598 Y120.925000 Z2
G01 X87.874998 Y119.925000 Z2
G00 Z0.000000

(End cutting path id: path10)


(Start cutting path id: path10)
(Change tool to Default tool)

G00 Z0.000000
G00 X64.125000 Y122.300000

G01 Z2 F100.0(Penetrate)
G02 X65.050501 Y121.232009 Z2 I-17.156650 J-15.802642 F75
G03 X66.500000 Y119.862401 Z2 I5.963352 J4.859373
G03 X67.101689 Y119.555282 Z2 I1.282839 J1.770302
G03 X67.625000 Y119.425000 Z2 I1.154366 J3.520668
G00 Z0.000000

(End cutting path id: path10)


(Start cutting path id: path10)
(Change tool to Default tool)

G00 Z0.000000
G00 X72.500000 Y110.550000

G01 Z2 F100.0(Penetrate)
G01 X72.700424 Y111.296719 Z2 F75
G01 X73.500000 Y111.424905 Z2
G03 X74.837974 Y111.489726 Z2 I-0.111289 J16.138194
G02 X75.875000 Y111.296624 Z2 I0.175028 J-1.941187
G02 X76.442147 Y110.921563 Z2 I-1.194999 J-2.423345
G03 X77.375000 Y110.552411 Z2 I0.998978 J1.161193
G01 X79.354168 Y111.550000 Z2
G01 X79.380688 Y112.050000 Z2
G02 X79.373227 Y113.281673 Z2 I77.769112 J1.086970
G03 X79.374988 Y115.175000 Z2 I-1017.651579 J1.893328
G01 X79.374988 Y116.800000 Z2
G01 X79.374988 Y118.300000 Z2
G03 X79.295125 Y119.750969 Z2 I-13.220666 J0.000000
G02 X79.679195 Y120.692746 Z2 I1.059764 J0.117016
G02 X80.707014 Y120.989685 Z2 I0.860117 J-1.049889
G03 X81.750000 Y120.925000 Z2 I1.042986 J8.376309
G01 X82.750000 Y120.925000 Z2
G00 Z0.000000

(End cutting path id: path10)


(Start cutting path id: path10)
(Change tool to Default tool)

G00 Z0.000000
G00 X48.500000 Y119.050000

G01 Z2 F100.0(Penetrate)
G02 X49.287270 Y118.560446 Z2 I-1.063853 J-2.588620 F75
G03 X51.375000 Y116.800000 Z2 I40.759105 J46.218455
G02 X51.879950 Y116.369585 Z2 I-7.575030 J-9.398209
G03 X52.500000 Y116.095044 Z2 I0.729104 J0.809216
G03 X53.498670 Y116.324627 Z2 I0.160072 J1.590560
G02 X54.625000 Y116.740105 Z2 I1.594140 J-2.587160
G02 X55.628682 Y116.708494 Z2 I0.417864 J-2.682147
G02 X56.624517 Y116.286401 Z2 I-0.640015 J-2.895748
G02 X57.180444 Y115.794142 Z2 I-1.462858 J-2.212104
G02 X57.566454 Y115.175000 Z2 I-1.881733 J-1.603087
G02 X57.794400 Y114.444222 Z2 I-3.287276 J-1.426315
G02 X57.874517 Y113.675000 Z2 I-4.148746 J-0.820888
G02 X57.849719 Y113.046170 Z2 I-6.095016 J-0.074543
G03 X57.861687 Y112.432332 Z2 I2.770834 J-0.253012
G01 X59.124997 Y111.925000 Z2
G03 X60.408146 Y111.924852 Z2 I0.873955 J1911.641843
G02 X61.749997 Y111.925000 Z2 I1.224490 J-6088.744938
G02 X64.501376 Y111.888236 Z2 I-0.000000 J-102.973274
G03 X67.249997 Y111.935800 Z2 I0.834472 J31.219832
G03 X67.861013 Y111.990940 Z2 I-0.656346 J10.686075
G02 X68.374997 Y112.033700 Z2 I0.856424 J-7.183887
G02 X68.675866 Y112.041655 Z2 I0.338398 J-7.105281
G03 X69.124997 Y112.054920 Z2 I-0.048881 J9.264903
G01 X70.124997 Y112.799999 Z2
G00 Z0.000000

(End cutting path id: path10)


(Start cutting path id: path10)
(Change tool to Default tool)

G00 Z0.000000
G00 X72.874997 Y116.924999

G01 Z2 F100.0(Penetrate)
G03 X75.550156 Y116.742243 Z2 I2.126230 J11.452791 F75
G02 X77.999997 Y116.799999 Z2 I2.449841 J-51.928820
G01 X79.374997 Y116.799999 Z2
G01 X81.249997 Y116.799999 Z2
G02 X82.804602 Y116.741626 Z2 I0.000000 J-20.730564
G03 X83.999997 Y116.662555 Z2 I4.984971 J66.287109
G03 X84.741862 Y116.658004 Z2 I0.415601 J7.279546
G02 X85.499997 Y116.674995 Z2 I0.759045 J-16.946251
G02 X87.292464 Y116.613215 Z2 I0.001728 J-25.985264
G03 X89.124997 Y116.549995 Z2 I1.832484 J26.527801
G01 X90.499806 Y116.549995 Z2
G01 X91.374997 Y116.549995 Z2
G00 Z0.000000

(End cutting path id: path10)


(Start cutting path id: path10)
(Change tool to Default tool)

G00 Z0.000000
G00 X84.124997 Y116.549995

G01 Z2 F100.0(Penetrate)
G02 X84.058883 Y115.919504 Z2 I-12.286694 J0.969692 F75
G03 X84.000092 Y115.049995 Z2 I6.896513 J-0.903041
G02 X83.925380 Y112.947390 Z2 I-34.320397 J0.166875
G03 X83.874997 Y111.425190 Z2 I22.969479 J-1.522200
G01 X83.874997 Y110.549995 Z2
G00 Z0.000000

(End cutting path id: path10)


(Start cutting path id: path10)
(Change tool to Default tool)

G00 Z0.000000
G00 X52.374997 Y115.924995

G01 Z2 F100.0(Penetrate)
G03 X52.291665 Y115.295392 Z2 I6.010476 J-1.115841 F75
G02 X52.198782 Y114.299995 Z2 I-37.131573 J2.962809
G03 X52.539193 Y112.574877 Z2 I2.945966 J-0.314829
G03 X53.750093 Y111.341854 Z2 I2.747531 J1.487136
G02 X54.344076 Y110.946976 Z2 I-2.421767 J-4.287046
G03 X54.624997 Y110.748684 Z2 I2.364441 J3.051579
G01 X55.124997 Y110.608253 Z2
G01 X56.000000 Y111.128705 Z2
G02 X56.595010 Y111.525116 Z2 I4.108604 J-5.522224
G02 X57.625000 Y112.050000 Z2 I4.582138 J-7.718592
G00 Z0.000000

(End cutting path id: path10)


(Start cutting path id: path10)
(Change tool to Default tool)

G00 Z0.000000
G00 X88.125000 Y113.550000

G01 Z2 F100.0(Penetrate)
G01 X87.810764 Y111.907735 Z2 F75
G01 X86.375000 Y111.800000 Z2
G00 Z0.000000

(End cutting path id: path10)


(Start cutting path id: path10)
(Change tool to Default tool)

G00 Z0.000000
G00 X70.125000 Y112.050000

G01 Z2 F100.0(Penetrate)
G01 X70.125000 Y111.800000 Z2 F75
G00 Z0.000000

(End cutting path id: path10)


(Start cutting path id: path10)
(Change tool to Default tool)

G00 Z0.000000
G00 X79.500000 Y111.550000

G01 Z2 F100.0(Penetrate)
G01 X80.625000 Y111.550000 Z2 F75
G00 Z0.000000

(End cutting path id: path10)


(Footer)
M5
G00 X0.0000 Y0.0000
M2
(Using default footer. To add your own footer create file "footer" in the output dir.)
(end)
%