%
(Header)
(Generated by gcodetools from Inkscape.)
(Using default header. To add your own header create file "header" in the output dir.)
M3
(Header end.)
G21 (All units in mm)

(Start cutting path id: path8)
(Change tool to Default tool)

G00 Z0.000000
G00 X149.750000 Y177.661171

G01 Z2 F100.0(Penetrate)
G02 X151.068191 Y177.532993 Z2 I0.102689 J-5.786213 F75.000000
G02 X152.249520 Y176.958816 Z2 I-0.578387 J-2.692331
G02 X152.797114 Y176.402818 Z2 I-2.503108 J-3.012928
G02 X153.191450 Y175.750000 Z2 I-2.213016 J-1.782286
G02 X153.431730 Y175.004273 Z2 I-3.708473 J-1.606477
G02 X153.531350 Y174.250000 Z2 I-4.466684 J-0.973649
G02 X153.516228 Y173.604461 Z2 I-4.512445 J-0.217240
G02 X153.401520 Y173.000000 Z2 I-3.312168 J0.315431
G02 X153.045337 Y172.145526 Z2 I-3.909233 J1.128071
G02 X152.476850 Y171.416088 Z2 I-2.648315 J1.477717
G02 X151.732376 Y170.907504 Z2 I-1.984981 J2.106473
G02 X151.000000 Y170.624130 Z2 I-2.283865 J4.814514
G03 X150.621657 Y170.497588 Z2 I2.125707 J-6.984427
G02 X150.125000 Y170.394966 Z2 I-0.596461 J1.633538
G02 X149.640730 Y170.430266 Z2 I-0.107318 J1.867170
G03 X149.250000 Y170.500385 Z2 I-1.576705 J-7.662288
G02 X148.527366 Y170.686205 Z2 I0.569285 J3.711925
G02 X147.750480 Y171.098671 Z2 I1.108804 J3.026321
G02 X146.682720 Y172.322654 Z2 I2.097748 J2.907733
G02 X146.242380 Y173.875000 Z2 I3.378229 J1.796898
G02 X146.456255 Y175.356601 Z2 I3.629204 J0.232348
G02 X147.255020 Y176.623070 Z2 I3.341051 J-1.222084
G02 X148.385533 Y177.381826 Z2 I2.390108 J-2.339572
G02 X149.750000 Y177.661171 Z2 I1.431931 J-3.522235
G00 Z0.000000

(End cutting path id: path8)


(Start cutting path id: path8)
(Change tool to Default tool)

G00 Z0.000000
G00 X150.250000 Y170.250000

G01 Z2 F100.0(Penetrate)
G01 X150.250000 Y169.000000 Z2 F75.000000
G03 X150.276399 Y168.206793 Z2 I11.929813 J0.000000
G03 X150.353780 Y167.250000 Z2 I33.819119 J2.253603
G02 X150.377825 Y166.682662 Z2 I-5.379939 J-0.512194
G03 X150.374980 Y166.125000 Z2 I54.649457 J-0.557662
G01 X150.374980 Y161.875000 Z2
G03 X150.376497 Y161.139432 Z2 I178.350719 J0.000000
G03 X150.428080 Y160.375000 Z2 I6.060426 J0.024995
G02 X150.489996 Y159.594383 Z2 I-7.556517 J-0.992123
G02 X150.499980 Y158.875000 Z2 I-25.912173 J-0.719383
G03 X150.572249 Y157.327768 Z2 I16.598656 J0.000000
G02 X150.320780 Y155.875095 Z2 I-2.804718 J-0.262583
G02 X149.406280 Y154.765246 Z2 I-2.603450 J1.213514
G03 X148.249980 Y153.839314 Z2 I9.342976 J-12.852431
G03 X145.878575 Y151.701747 Z2 I89.860845 J-102.075309
G02 X143.499980 Y149.571953 Z2 I-71.919790 J77.928288
G03 X142.964711 Y149.084829 Z2 I10.260039 J-11.811741
G03 X142.501040 Y148.625000 Z2 I11.399436 J-11.958367
G01 X141.938540 Y147.750000 Z2
G03 X142.200562 Y146.980567 Z2 I1.080409 J-0.061409
G03 X142.875460 Y146.250000 Z2 I11.542290 J9.985752
G02 X145.081550 Y143.972539 Z2 I-126.498076 J-124.741102
G03 X147.271200 Y141.766590 Z2 I53.279414 J50.696036
G03 X147.927250 Y141.294597 Z2 I1.951943 J2.021181
G03 X148.498050 Y141.116707 Z2 I0.781989 J1.504470
G01 X149.159030 Y141.507813 Z2
G03 X149.429316 Y142.140606 Z2 I-14.023841 J6.364142
G02 X150.125560 Y143.116417 Z2 I2.355796 J-0.944576
G02 X150.994491 Y143.588249 Z2 I1.513708 J-1.751627
G03 X151.633180 Y143.980419 Z2 I-0.393541 J1.357093
G03 X151.973852 Y144.603272 Z2 I-1.043201 J0.975176
G02 X152.506830 Y145.450809 Z2 I1.580045 J-0.402267
G02 X153.344943 Y145.880848 Z2 I1.365941 J-1.630387
G03 X154.061230 Y146.302372 Z2 I-0.371701 J1.450970
G03 X154.432428 Y146.947906 Z2 I-1.157212 J1.094916
G02 X154.784700 Y147.625000 Z2 I1.901363 J-0.559038
G02 X156.162939 Y148.969013 Z2 I6.060143 J-4.835793
G03 X157.162690 Y150.250000 Z2 I-1.910400 J2.521602
G03 X157.099160 Y151.447240 Z2 I-1.252272 J0.533855
G02 X156.807080 Y152.625000 Z2 I2.016054 J1.125071
G02 X157.095114 Y153.787516 Z2 I2.743087 J-0.062708
G02 X158.000080 Y154.678434 Z2 I1.751629 J-0.874172
G02 X159.419677 Y154.924850 Z2 I1.145835 J-2.388784
G02 X160.707060 Y154.325714 Z2 I-0.225045 J-2.166249
G02 X161.321405 Y153.029122 Z2 I-1.411693 J-1.462721
G02 X161.070780 Y151.625000 Z2 I-2.781026 J-0.228036
G02 X159.198670 Y150.372284 Z2 I-1.966922 J0.914211
G02 X157.374980 Y150.500000 Z2 I-0.352352 J8.052985
G00 Z0.000000

(End cutting path id: path8)


(Start cutting path id: path8)
(Change tool to Default tool)

G00 Z0.000000
G00 X151.750000 Y143.875000

G01 Z2 F100.0(Penetrate)
G03 X152.960068 Y143.530263 Z2 I1.044533 J1.370326 F75.000000
G02 X154.750000 Y143.435669 Z2 I0.579930 J-6.008504
G02 X155.348114 Y143.302332 Z2 I-3.504377 J-17.127813
G02 X156.000000 Y143.071278 Z2 I-0.783527 J-3.245745
G02 X158.276675 Y141.252804 Z2 I-2.752098 J-5.779946
G03 X160.500000 Y138.750000 Z2 I22.261837 J17.537009
G03 X161.283917 Y137.985334 Z2 I31.231325 J31.233421
G03 X162.000000 Y137.375000 Z2 I5.928342 J6.230271
G02 X162.671869 Y136.835587 Z2 I-10.294680 J-13.510720
G03 X163.250000 Y136.539738 Z2 I0.924109 J1.093042
G03 X164.517292 Y136.433447 Z2 I0.962014 J3.861953
G02 X166.250000 Y136.499998 Z2 I1.732708 J-22.523071
G00 Z0.000000

(End cutting path id: path8)


(Start cutting path id: path8)
(Change tool to Default tool)

G00 Z0.000000
G00 X149.000000 Y140.875000

G01 Z2 F100.0(Penetrate)
G03 X149.166074 Y140.094546 Z2 I69.782465 J14.441199 F75.000000
G03 X149.565490 Y139.125000 Z2 I2.933323 J0.641372
G03 X150.250352 Y138.222282 Z2 I5.785080 J3.677799
G02 X150.819540 Y137.500000 Z2 I-5.318969 J-4.776977
G02 X151.184189 Y136.757277 Z2 I-2.331502 J-1.605556
G02 X151.250000 Y136.500000 Z2 I-2.133940 J-0.682912
G00 Z0.000000

(End cutting path id: path8)


(Start cutting path id: path8)
(Change tool to Default tool)

G00 Z0.000000
G00 X136.500000 Y151.750000

G01 Z2 F100.0(Penetrate)
G03 X136.784082 Y151.476649 Z2 I15.646553 J15.976503 F75.000000
G03 X137.500000 Y150.850597 Z2 I8.421081 J8.907509
G03 X138.068667 Y150.404377 Z2 I15.784987 J19.531082
G02 X138.750000 Y149.864487 Z2 I-13.749097 J-18.051004
G03 X140.357485 Y148.607138 Z2 I25.485201 J30.925871
G03 X141.625000 Y147.875000 Z2 I3.816379 J5.143848
G00 Z0.000000

(End cutting path id: path8)


(Start cutting path id: path8)
(Change tool to Default tool)

G00 Z0.000000
G00 X141.750000 Y162.375000

G01 Z2 F100.0(Penetrate)
G01 X141.750000 Y161.125000 Z2 F75.000000
G01 X141.750000 Y159.750000 Z2
G03 X141.825567 Y157.819104 Z2 I24.706885 J-0.000000
G02 X141.382720 Y156.021219 Z2 I-2.936434 J-0.230193
G02 X139.975727 Y154.577993 Z2 I-4.065495 J2.555981
G03 X138.375000 Y153.496914 Z2 I73.016528 J-109.839388
G02 X137.911347 Y153.179596 Z2 I-137.290339 J200.106478
G03 X137.500190 Y152.890722 Z2 I10.532329 J-15.427761
G03 X136.842942 Y152.337725 Z2 I3.424461 J-4.737116
G03 X136.625000 Y152.125000 Z2 I385.484058 J-395.155757
G00 Z0.000000

(End cutting path id: path8)


(Start cutting path id: path8)
(Change tool to Default tool)

G00 Z0.000000
G00 X140.875100 Y166.534046

G01 Z2 F100.0(Penetrate)
G02 X141.617056 Y166.648003 Z2 I0.663291 J-1.846228 F75.000000
G02 X142.250000 Y166.545236 Z2 I-0.106643 J-2.657360
G02 X142.847428 Y166.261098 Z2 I-0.569850 J-1.968309
G02 X143.322820 Y165.744599 Z2 I-0.913136 J-1.317489
G02 X143.406668 Y163.768584 Z2 I-1.851988 J-1.068372
G02 X142.000000 Y162.600020 Z2 I-1.947118 J0.912933
G02 X141.203772 Y162.577006 Z2 I-0.448359 J1.726825
G02 X140.143420 Y163.148631 Z2 I0.399748 J2.010800
G02 X139.584443 Y165.051527 Z2 I1.493745 J1.472336
G02 X140.875100 Y166.534047 Z2 I1.971864 J-0.413600
G00 Z0.000000

(End cutting path id: path8)


(Start cutting path id: path8)
(Change tool to Default tool)

G00 Z0.000000
G00 X136.625000 Y168.625000

G01 Z2 F100.0(Penetrate)
G03 X136.827410 Y168.700289 Z2 I-1.223967 J3.600276 F75.000000
G03 X137.375580 Y169.028549 Z2 I-0.775973 J1.917651
G03 X138.864487 Y170.427621 Z2 I-10.961127 J13.156735
G02 X140.624520 Y172.250000 Z2 I82.291566 J-77.715170
G03 X141.269468 Y173.141090 Z2 I-2.573013 J2.541223
G02 X141.926890 Y173.871529 Z2 I1.707093 J-0.875377
G01 X142.875000 Y174.000000 Z2
G03 X143.800171 Y174.010414 Z2 I-0.103501 J50.296250
G02 X144.750000 Y173.964313 Z2 I0.141145 J-6.899779
G03 X145.462691 Y173.897888 Z2 I1.711201 J14.503310
G03 X146.125000 Y173.875000 Z2 I0.668776 J9.758435
G00 Z0.000000

(End cutting path id: path8)


(Start cutting path id: path8)
(Change tool to Default tool)

G00 Z0.000000
G00 X169.375000 Y154.750000

G01 Z2 F100.0(Penetrate)
G01 X168.981480 Y153.128473 Z2 F75.000000
G01 X168.000000 Y152.995564 Z2
G01 X166.878470 Y153.280382 Z2
G01 X166.750000 Y154.375000 Z2
G02 X166.749900 Y155.218418 Z2 I1245.221351 J0.561048
G03 X166.750000 Y156.125000 Z2 I-4115.673839 J0.988678
G03 X166.694494 Y157.062087 Z2 I-7.938068 J0.000000
G02 X166.878470 Y157.835360 Z2 I1.144963 J0.136114
G01 X169.000000 Y158.303047 Z2
G02 X169.852809 Y158.367331 Z2 I1.006179 J-7.659312
G02 X170.625000 Y158.374997 Z2 I0.772191 J-38.886907
G03 X171.246317 Y158.415079 Z2 I0.000000 J4.835584
G02 X171.945790 Y158.246524 Z2 I0.129391 J-0.998673
G01 X172.373170 Y156.624997 Z2
G02 X172.380695 Y155.553121 Z2 I-30.597665 J-0.750762
G03 X172.375170 Y154.499997 Z2 I100.372380 J-1.053124
G02 X172.374191 Y153.891513 Z2 I-189.087004 J-0.000000
G03 X172.410870 Y153.249997 Z2 I5.328492 J-0.017147
G02 X172.539954 Y151.762475 Z2 I-24.011422 J-2.833021
G02 X172.476570 Y150.250480 Z2 I-7.754965 J-0.432232
G01 X170.750200 Y149.374997 Z2
G03 X168.264336 Y149.374716 Z2 I0.232938 J-25792.443319
G02 X165.750200 Y149.374997 Z2 I-0.697026 J4604.196539
G02 X164.603415 Y149.448690 Z2 I0.003465 J9.013709
G02 X163.778750 Y150.127408 Z2 I0.128158 J0.996073
G02 X163.617204 Y151.172713 Z2 I2.997662 J0.998407
G03 X163.625200 Y152.249997 Z2 I-72.568109 J1.077284
G02 X163.635716 Y153.448510 Z2 I68.302194 J0.000000
G03 X163.620200 Y154.624997 Z2 I-19.140408 J0.335913
G03 X163.569580 Y155.118424 Z2 I-4.243283 J-0.186002
G02 X163.511310 Y155.624997 Z2 I5.457591 J0.884413
G02 X163.497081 Y156.131936 Z2 I6.271480 J0.429702
G03 X163.500110 Y156.624997 Z2 I-40.126238 J0.493061
G01 X163.500110 Y158.624997 Z2
G03 X163.355145 Y160.130123 Z2 I-7.886102 J0.000000
G02 X163.700530 Y161.460259 Z2 I1.563355 J0.303966
G02 X164.644776 Y161.828362 Z2 I0.809884 J-0.682363
G03 X165.875110 Y161.749997 Z2 I1.230334 J9.618973
G02 X168.573643 Y161.742248 Z2 I0.000001 J-469.879209
G03 X171.250110 Y161.750480 Z2 I0.871515 J151.749060
G03 X171.819067 Y161.790965 Z2 I-0.057862 J4.831376
G02 X172.375110 Y161.853778 Z2 I2.061426 J-15.755838
G02 X172.880598 Y161.876363 Z2 I0.477386 J-5.016579
G03 X173.375110 Y161.874998 Z2 I0.489559 J87.787726
G01 X175.246060 Y161.244501 Z2
G02 X175.457631 Y159.678537 Z2 I-3.087833 J-1.214458
G03 X175.375110 Y158.124998 Z2 I14.582260 J-1.553539
G01 X175.375110 Y149.749998 Z2
G03 X175.378499 Y148.536844 Z2 I217.158620 J-0.000000
G02 X175.374630 Y147.374998 Z2 I-65.153384 J-0.363984
G01 X174.965290 Y146.117281 Z2
G02 X174.388087 Y145.905389 Z2 I-0.671268 J0.936453
G02 X173.750110 Y145.875479 Z2 I-0.747525 J9.125779
G02 X171.957586 Y145.869822 Z2 I-1.217491 J101.791929
G03 X170.125110 Y145.874998 Z2 I-1.832477 J-324.402025
G01 X158.750000 Y145.874998 Z2
G03 X155.503496 Y145.827753 Z2 I-0.000000 J-111.567970
G02 X154.125000 Y146.249998 Z2 I-0.065433 J2.247683
G00 Z0.000000

(End cutting path id: path8)


(Footer)
M5
M2
(Using default footer. To add your own footer create file "footer" in the output dir.)
(end)
%