%
(Header)
(Generated by gcodetools from Inkscape.)
(Using default header. To add your own header create file "header" in the output dir.)
M3
(Header end.)
G21 (All units in mm)

(Start cutting path id: path5)
(Change tool to Default tool)

G00 Z0.000000
G00 X4.250000 Y155.550000

G01 Z2 F100.0(Penetrate)
G01 X4.250000 Y156.425195 Z2 F75
G01 X4.250000 Y158.175000 Z2
G01 X4.250000 Y162.925000 Z2
G01 X4.250000 Y172.175000 Z2
G03 X4.197871 Y173.320611 Z2 I-12.614198 J-0.000000
G02 X4.126832 Y174.550000 Z2 I18.458356 J1.683330
G02 X4.107544 Y177.556735 Z2 I83.138364 J2.036777
G03 X4.125000 Y180.550000 Z2 I-256.622456 J2.993265
G01 X4.125000 Y183.175000 Z2
G01 X4.125000 Y189.925000 Z2
G01 X4.429205 Y191.923360 Z2
G02 X5.535447 Y192.228199 Z2 I0.962477 J-1.333108
G03 X6.750000 Y192.175000 Z2 I1.214553 J13.837698
G01 X13.250000 Y192.175000 Z2
G03 X13.739011 Y192.176475 Z2 I0.005326 J79.279468
G02 X14.250000 Y192.153779 Z2 I0.030918 J-5.067513
G03 X14.961624 Y192.086783 Z2 I33.612461 J353.216650
G03 X15.750000 Y192.050000 Z2 I0.791665 J8.500768
G03 X18.749990 Y192.049713 Z2 I1.939965 J5214.974385
G02 X21.750000 Y192.050000 Z2 I3.540289 J-15645.058494
G01 X25.375000 Y192.050000 Z2
G03 X26.200279 Y192.055744 Z2 I-0.000000 J59.290286
G02 X27.000000 Y192.014310 Z2 I0.084910 J-6.099599
G03 X27.553015 Y191.954515 Z2 I3.347558 J28.372686
G03 X28.125000 Y191.925090 Z2 I0.601657 J6.121425
G03 X30.676943 Y191.921946 Z2 I1.712401 J354.222770
G02 X33.250000 Y191.924995 Z2 I2.573047 J-1085.642893
G01 X38.375000 Y191.924995 Z2
G03 X38.945985 Y191.927574 Z2 I-0.000000 J63.223571
G02 X39.500000 Y191.903775 Z2 I0.048212 J-5.338153
G02 X40.125017 Y191.837760 Z2 I-2.877574 J-30.236148
G03 X40.750000 Y191.800091 Z2 I0.652254 J5.618296
G03 X42.430815 Y191.797996 Z2 I1.130775 J232.892692
G02 X44.125000 Y191.799996 Z2 I1.694192 J-717.344102
G01 X45.499809 Y191.799996 Z2
G01 X46.375000 Y191.799996 Z2
G00 Z0.000000

(End cutting path id: path5)


(Start cutting path id: path5)
(Change tool to Default tool)

G00 Z0.000000
G00 X28.500000 Y185.728432

G01 Z2 F100.0(Penetrate)
G02 X29.969546 Y185.539701 Z2 I0.516021 J-1.797672 F75
G02 X30.738716 Y184.300000 Z2 I-0.804625 J-1.357693
G01 X30.118153 Y182.517785 Z2
G02 X29.694406 Y182.429572 Z2 I-0.446119 J1.081133
G02 X29.250000 Y182.446412 Z2 I-0.074655 J3.902169
G02 X28.138806 Y182.819238 Z2 I0.244746 J2.571805
G02 X27.443480 Y183.800000 Z2 I0.807279 J1.309195
G02 X27.584446 Y184.962167 Z2 I1.734870 J0.379201
G02 X28.500000 Y185.728432 Z2 I1.321908 J-0.649355
G00 Z0.000000

(End cutting path id: path5)


(Start cutting path id: path5)
(Change tool to Default tool)

G00 Z0.000000
G00 X35.750000 Y182.800000

G01 Z2 F100.0(Penetrate)
G01 X35.750000 Y181.050000 Z2 F75
G01 X36.039738 Y179.527238 Z2
G03 X37.138330 Y178.938300 Z2 I1.880168 J2.188112
G03 X38.375000 Y178.612790 Z2 I10.209517 J36.275831
G01 X39.388309 Y178.036401 Z2
G02 X39.554975 Y176.982468 Z2 I-1.986465 J-0.854278
G03 X39.500000 Y175.800000 Z2 I12.814788 J-1.188290
G02 X39.450751 Y175.056284 Z2 I-5.678712 J0.002558
G03 X39.414540 Y174.300000 Z2 I4.475487 J-0.593296
G03 X39.469337 Y173.396184 Z2 I18.522917 J0.669453
G02 X39.500000 Y172.675000 Z2 I-8.465750 J-0.721184
G03 X39.541129 Y171.323880 Z2 I22.213357 J-0.000000
G02 X39.441460 Y169.800000 Z2 I-6.056571 J-0.369072
G02 X39.153362 Y169.106182 Z2 I-1.837285 J0.356184
G03 X38.779133 Y168.550000 Z2 I82.051980 J-55.612884
G01 X38.594525 Y167.925000 Z2
G03 X38.861274 Y167.349721 Z2 I1.128965 J0.174003
G02 X39.311154 Y166.800000 Z2 I-9.062938 J-7.875859
G01 X39.829769 Y165.675000 Z2
G02 X39.316107 Y164.678717 Z2 I-1.511657 J0.148820
G03 X38.375004 Y163.800000 Z2 I12.345785 J-14.165605
G03 X36.099634 Y161.391878 Z2 I41.341422 J-41.341422
G03 X33.908859 Y158.926930 Z2 I572.948079 J-511.425949
G02 X33.152870 Y158.330255 Z2 I-2.034326 J1.800241
G03 X32.570509 Y157.872723 Z2 I0.995338 J-1.866286
G03 X32.325731 Y157.404665 Z2 I0.805562 J-0.719314
G02 X32.218170 Y157.050000 Z2 I-3.022722 J0.723077
G02 X31.751582 Y155.927142 Z2 I-14.363772 J5.310291
G03 X31.625000 Y155.550000 Z2 I1.648515 J-0.763114
G00 Z0.000000

(End cutting path id: path5)


(Start cutting path id: path5)
(Change tool to Default tool)

G00 Z0.000000
G00 X30.625000 Y182.425000

G01 Z2 F100.0(Penetrate)
G03 X31.550167 Y181.205345 Z2 I4.006543 J2.078437 F75
G02 X32.875000 Y179.925000 Z2 I-37.253028 J-39.873057
G02 X33.527513 Y179.226251 Z2 I-9.827153 J-9.830944
G03 X34.250000 Y178.733256 Z2 I1.306046 J1.138116
G01 X35.121914 Y179.054822 Z2
G03 X35.570065 Y179.490103 Z2 I-4.937566 J5.531895
G02 X35.750000 Y179.675000 Z2 I6.705619 J-6.345665
G00 Z0.000000

(End cutting path id: path5)


(Start cutting path id: path5)
(Change tool to Default tool)

G00 Z0.000000
G00 X46.375000 Y177.050000

G01 Z2 F100.0(Penetrate)
G02 X46.104177 Y177.142387 Z2 I0.716273 J2.542831 F75
G02 X45.570312 Y177.557330 Z2 I0.460670 J1.143603
G02 X45.219189 Y178.669871 Z2 I1.466675 J1.074567
G02 X45.590759 Y179.786401 Z2 I1.988114 J-0.041532
G02 X46.106541 Y180.197755 Z2 I0.984289 J-0.705128
G02 X46.375000 Y180.300000 Z2 I1.663605 J-3.964471
G00 Z0.000000

(End cutting path id: path5)


(Start cutting path id: path5)
(Change tool to Default tool)

G00 Z0.000000
G00 X34.750000 Y178.425000

G01 Z2 F100.0(Penetrate)
G03 X36.017183 Y176.719691 Z2 I4.782111 J2.230033 F75
G03 X37.750000 Y175.191685 Z2 I121.038332 J135.515502
G03 X38.501198 Y174.740652 Z2 I1.646749 J1.891588
G03 X39.125000 Y174.550000 Z2 I1.700719 J4.448814
G00 Z0.000000

(End cutting path id: path5)


(Start cutting path id: path5)
(Change tool to Default tool)

G00 Z0.000000
G00 X32.625000 Y175.478432

G01 Z2 F100.0(Penetrate)
G02 X34.307824 Y175.183135 Z2 I0.538257 J-1.875253 F75
G02 X35.120079 Y173.675000 Z2 I-1.155601 J-1.595187
G01 X34.492767 Y171.892785 Z2
G02 X33.978167 Y171.793037 Z2 I-0.499641 J1.200359
G02 X33.375000 Y171.800485 Z2 I4.120326 J358.093079
G02 X31.897362 Y172.442629 Z2 I0.027473 J2.084388
G02 X31.403067 Y173.925002 Z2 I1.318214 J1.263153
G02 X31.714855 Y174.797679 Z2 I2.082034 J-0.251829
G02 X32.625000 Y175.478434 Z2 I1.352062 J-0.858865
G00 Z0.000000

(End cutting path id: path5)


(Start cutting path id: path5)
(Change tool to Default tool)

G00 Z0.000000
G00 X34.875000 Y171.925002

G01 Z2 F100.0(Penetrate)
G02 X36.227727 Y170.093076 Z2 I-18.641730 J-15.180795 F75
G03 X38.250000 Y168.300002 Z2 I4.426205 J2.955060
G00 Z0.000000

(End cutting path id: path5)


(Start cutting path id: path5)
(Change tool to Default tool)

G00 Z0.000000
G00 X46.375000 Y170.425002

G01 Z2 F100.0(Penetrate)
G02 X46.118161 Y170.316100 Z2 I-2.311921 J5.095228 F75
G03 X45.375000 Y169.926448 Z2 I1.445442 J-3.660326
G03 X44.690327 Y169.417141 Z2 I4.762510 J-7.117221
G02 X43.875000 Y168.746955 Z2 I-238.865745 J289.765233
G03 X41.748108 Y166.961109 Z2 I74.260072 J-90.601092
G02 X40.125000 Y165.925002 Z2 I-4.430901 J5.151815
G00 Z0.000000

(End cutting path id: path5)


(Start cutting path id: path5)
(Change tool to Default tool)

G00 Z0.000000
G00 X17.750000 Y163.550000

G01 Z2 F100.0(Penetrate)
G03 X17.068779 Y163.314707 Z2 I1.810430 J-6.345355 F75
G02 X16.375000 Y163.108353 Z2 I-1.395206 J3.421344
G02 X15.048832 Y162.999687 Z2 I-1.158477 J5.991460
G02 X13.625483 Y163.487405 Z2 I0.069363 J2.523224
G02 X12.512377 Y166.344453 Z2 I1.689210 J2.303473
G02 X14.625000 Y168.471200 Z2 I2.654719 J-0.524419
G02 X16.381649 Y168.325897 Z2 I0.629630 J-3.079260
G02 X17.742670 Y167.050000 Z2 I-0.887599 J-2.310677
G02 X17.958684 Y166.254683 Z2 I-2.264275 J-1.041987
G02 X18.000000 Y165.425000 Z2 I-8.375331 J-0.832942
G02 X17.928327 Y164.369135 Z2 I-7.769013 J-0.002998
G03 X18.039160 Y163.714738 Z2 I1.099410 J-0.150381
G01 X19.250002 Y163.426831 Z2
G03 X19.834548 Y163.478729 Z2 I-0.109503 J4.551310
G02 X20.375002 Y163.538811 Z2 I0.979464 J-6.349715
G02 X21.085286 Y163.556897 Z2 I0.565701 J-8.260280
G03 X21.875002 Y163.550001 Z2 I0.789716 J45.216736
G03 X22.667672 Y163.560096 Z2 I-0.000000 J31.126046
G02 X23.374907 Y163.438310 Z2 I0.046923 J-1.841931
G02 X23.872970 Y163.125088 Z2 I-0.544417 J-1.418295
G02 X24.298130 Y162.674421 Z2 I-3.651230 J-3.870460
G02 X26.305732 Y159.951659 Z2 I-20.686760 J-17.354704
G03 X28.161171 Y158.026468 Z2 I5.819840 J3.752278
G03 X29.361520 Y158.018672 Z2 I0.605835 J0.867619
G02 X30.750002 Y158.528299 Z2 I1.714254 J-2.524219
G02 X31.872026 Y158.339514 Z2 I0.224742 J-2.092977
G02 X32.500002 Y157.925001 Z2 I-1.124733 J-2.386882
G00 Z0.000000

(End cutting path id: path5)


(Start cutting path id: path5)
(Change tool to Default tool)

G00 Z0.000000
G00 X14.125000 Y155.550000

G01 Z2 F100.0(Penetrate)
G03 X14.199829 Y155.804268 Z2 I-12.671056 J3.867125 F75
G02 X14.484858 Y156.423360 Z2 I2.120195 J-0.600975
G02 X15.415828 Y157.309479 Z2 I2.416123 J-1.606309
G02 X17.250000 Y157.783315 Z2 I1.727057 J-2.898398
G02 X19.050847 Y157.300048 Z2 I-0.129587 J-4.079869
G02 X19.965181 Y156.420274 Z2 I-1.110691 J-2.069335
G02 X20.202977 Y155.784124 Z2 I-1.696978 J-0.996858
G03 X20.250000 Y155.550000 Z2 I8.448953 J1.575170
G00 Z0.000000

(End cutting path id: path5)


(Start cutting path id: path5)
(Change tool to Default tool)

G00 Z0.000000
G00 X28.625000 Y157.675000

G01 Z2 F100.0(Penetrate)
G01 X28.625000 Y155.550000 Z2 F75
G00 Z0.000000

(End cutting path id: path5)


(Footer)
M5
G00 X0.0000 Y0.0000
M2
(Using default footer. To add your own footer create file "footer" in the output dir.)
(end)
%