%
(Header)
(Generated by gcodetools from Inkscape.)
(Using default header. To add your own header create file "header" in the output dir.)
M3
(Header end.)
G21 (All units in mm)

(Start cutting path id: path16)
(Change tool to Default tool)

G00 Z0.000000
G00 X174.875000 Y90.819637

G01 Z2 F100.0(Penetrate)
G02 X176.842882 Y90.967054 Z2 I1.771006 J-10.432869 F75.000000
G02 X178.374520 Y90.445892 Z2 I-0.049432 J-2.656513
G02 X179.466636 Y88.965243 Z2 I-1.864807 J-2.518561
G02 X179.749520 Y87.250000 Z2 I-4.734070 J-1.661709
G02 X179.377683 Y85.532750 Z2 I-4.366696 J0.046640
G02 X178.373170 Y84.148148 Z2 I-3.721386 J1.643141
G02 X177.568576 Y83.592545 Z2 I-2.578202 J2.873222
G02 X176.625000 Y83.223186 Z2 I-2.236811 J4.324311
G02 X175.535888 Y83.112093 Z2 I-0.873664 J3.170901
G02 X174.500000 Y83.360050 Z2 I0.206935 J3.152301
G02 X173.067878 Y84.385327 Z2 I1.609240 J3.760651
G02 X172.261960 Y86.000000 Z2 I2.519457 J2.265978
G02 X172.157616 Y86.564785 Z2 I26.458448 J5.180219
G02 X172.109760 Y87.125000 Z2 I3.194255 J0.555020
G02 X172.285966 Y88.183946 Z2 I3.299273 J-0.004857
G02 X172.710460 Y89.125000 Z2 I5.126639 J-1.746276
G02 X173.730819 Y90.310740 Z2 I3.570143 J-2.040305
G02 X174.875000 Y90.819637 Z2 I1.567145 J-1.982787
G00 Z0.000000

(End cutting path id: path16)


(Start cutting path id: path16)
(Change tool to Default tool)

G00 Z0.000000
G00 X166.750000 Y90.500000

G01 Z2 F100.0(Penetrate)
G01 X166.750000 Y88.500000 Z2 F75.000000
G01 X166.878470 Y87.467785 Z2
G01 X168.125000 Y87.250000 Z2
G01 X169.000000 Y87.238811 Z2
G01 X170.750000 Y87.125000 Z2
G01 X172.000000 Y87.125000 Z2
G00 Z0.000000

(End cutting path id: path16)


(Start cutting path id: path16)
(Change tool to Default tool)

G00 Z0.000000
G00 X166.625000 Y87.250000

G01 Z2 F100.0(Penetrate)
G02 X166.597788 Y85.396094 Z2 I-63.165872 J0.000000 F75.000000
G02 X166.428050 Y83.250000 Z2 I-21.712764 J0.637540
G01 X166.882330 Y81.953410 Z2
G01 X167.375000 Y82.122780 Z2
G02 X167.713859 Y82.333297 Z2 I14.064756 J-22.261393
G02 X168.625000 Y82.683450 Z2 I1.409973 J-2.308395
G02 X169.556706 Y82.620646 Z2 I0.344284 J-1.834903
G02 X170.322630 Y82.108310 Z2 I-0.544551 J-1.642767
G02 X170.766551 Y81.124701 Z2 I-1.439290 J-1.241558
G02 X170.602620 Y80.263600 Z2 I-1.362941 J-0.186687
G01 X169.250000 Y79.750100 Z2
G01 X168.254920 Y79.878470 Z2
G02 X167.393035 Y80.621780 Z2 I1.157358 J2.213327
G03 X166.750000 Y81.375000 Z2 I-5.179344 J-3.770584
G03 X166.370831 Y80.965690 Z2 I9.211274 J-8.913252
G03 X165.982830 Y80.250000 Z2 I1.343743 J-1.191510
G03 X165.672538 Y78.148396 Z2 I8.446181 J-2.320748
G02 X165.500000 Y76.500000 Z2 I-10.461931 J0.261825
G01 X166.875000 Y76.375000 Z2
G01 X169.125000 Y76.261190 Z2
G01 X173.750000 Y76.250090 Z2
G01 X176.125000 Y76.553710 Z2
G01 X178.375000 Y78.499990 Z2
G00 Z0.000000

(End cutting path id: path16)


(Start cutting path id: path16)
(Change tool to Default tool)

G00 Z0.000000
G00 X176.000000 Y70.750000

G01 Z2 F100.0(Penetrate)
G03 X176.081406 Y71.280989 Z2 I-3.210644 J0.763960 F75.000000
G02 X176.179980 Y72.125000 Z2 I9.294184 J-0.657727
G01 X176.554110 Y72.996530 Z2
G01 X177.375000 Y73.124900 Z2
G02 X177.986141 Y73.116619 Z2 I0.114514 J-14.103591
G02 X178.750000 Y73.053100 Z2 I-0.282749 J-8.025013
G01 X179.960260 Y72.852670 Z2
G01 X180.248170 Y71.250050 Z2
G02 X180.179338 Y70.016169 Z2 I-19.728297 J0.481681
G02 X180.028360 Y69.001980 Z2 I-8.414236 J0.734259
G01 X179.492670 Y68.268660 Z2
G02 X179.004917 Y68.168587 Z2 I-0.493077 J1.164564
G02 X178.500000 Y68.197460 Z2 I-0.017369 J4.125630
G03 X177.241797 Y68.327504 Z2 I-4.817406 J-40.457579
G03 X176.250000 Y68.375020 Z2 I-1.095589 J-12.493620
G00 Z0.000000

(End cutting path id: path16)


(Start cutting path id: path16)
(Change tool to Default tool)

G00 Z0.000000
G00 X164.000000 Y68.625000

G01 Z2 F100.0(Penetrate)
G02 X165.216105 Y67.828531 Z2 I-0.993897 J-2.844203 F75.000000
G02 X167.051310 Y65.750000 Z2 I-42.378259 J-39.266651
G02 X167.443916 Y65.265087 Z2 I-12.751569 J-10.725589
G03 X167.896220 Y64.878470 Z2 I1.171661 J0.912845
G03 X168.759962 Y64.697896 Z2 I0.724282 J1.308405
G02 X169.875000 Y64.750000 Z2 I1.115038 J-11.904968
G03 X170.923588 Y64.786781 Z2 I-0.000000 J14.965560
G03 X171.500000 Y64.875000 Z2 I-0.250183 J3.561870
G00 Z0.000000

(End cutting path id: path16)


(Start cutting path id: path16)
(Change tool to Default tool)

G00 Z0.000000
G00 X161.500000 Y62.625000

G01 Z2 F100.0(Penetrate)
G03 X161.062903 Y61.944919 Z2 I1.953073 J-1.735769 F75.000000
G03 X160.739870 Y60.875000 Z2 I4.176740 J-1.844780
G03 X160.690243 Y60.562647 Z2 I12.119075 J-2.085595
G02 X160.501540 Y60.001830 Z2 I-1.636397 J0.238458
G02 X160.041399 Y59.427339 Z2 I-1.895291 J1.046520
G03 X159.670430 Y58.988810 Z2 I1.326576 J-1.498376
G03 X159.294449 Y58.244787 Z2 I3.923892 J-2.449892
G02 X158.905860 Y57.375000 Z2 I-10.426138 J4.136316
G02 X158.385348 Y56.355053 Z2 I-55.310086 J27.583734
G03 X157.989100 Y55.375000 Z2 I4.841813 J-2.527738
G03 X157.854528 Y54.824420 Z2 I5.714971 J-1.688582
G02 X157.632910 Y54.263020 Z2 I-1.620480 J0.315257
G02 X157.149191 Y53.726659 Z2 I-1.767378 J1.107612
G03 X156.608120 Y53.123070 Z2 I1.416480 J-1.814075
G03 X155.358571 Y51.076383 Z2 I178.833628 J-110.586798
G02 X154.041670 Y49.000000 Z2 I-46.206771 J27.849842
G02 X153.468459 Y48.163036 Z2 I-33.788798 J22.526140
G03 X153.030670 Y47.500000 Z2 I11.045704 J-7.769302
G03 X152.698601 Y46.752675 Z2 I2.564757 J-1.587070
G02 X152.625000 Y46.500000 Z2 I-97.610960 J28.295921
G00 Z0.000000

(End cutting path id: path16)


(Start cutting path id: path16)
(Change tool to Default tool)

G00 Z0.000000
G00 X157.875000 Y54.000000

G01 Z2 F100.0(Penetrate)
G03 X158.330657 Y54.039091 Z2 I-0.230444 J5.361268 F75.000000
G02 X159.125000 Y54.125000 Z2 I2.494817 J-19.352638
G03 X159.811413 Y54.209957 Z2 I-0.838544 J9.590477
G02 X160.495080 Y54.137800 Z2 I0.208483 J-1.299538
G02 X162.348549 Y52.577161 Z2 I-1.347653 J-3.481461
G03 X163.966920 Y50.249970 Z2 I18.100940 J10.861405
G02 X164.471984 Y49.557033 Z2 I-7.444688 J-5.956777
G02 X164.672650 Y48.874970 Z2 I-1.007107 J-0.666844
G02 X164.530640 Y48.363688 Z2 I-1.041001 J0.013778
G03 X164.319250 Y47.999970 Z2 I84.935983 J-49.607372
G03 X163.836072 Y46.858695 Z2 I4.342809 J-2.511520
G03 X163.750000 Y46.499970 Z2 I4.311877 J-1.224274
G00 Z0.000000

(End cutting path id: path16)


(Start cutting path id: path16)
(Change tool to Default tool)

G00 Z0.000000
G00 X165.000000 Y48.874970

G01 Z2 F100.0(Penetrate)
G02 X165.643280 Y49.051068 Z2 I1.806931 J-5.337668 F75.000000
G02 X166.625000 Y49.103170 Z2 I0.657615 J-3.115998
G02 X167.673663 Y48.886653 Z2 I-0.536997 J-5.248634
G02 X168.619600 Y48.348250 Z2 I-0.776638 J-2.464671
G02 X168.997024 Y47.936184 Z2 I-1.872694 J-2.094135
G02 X169.260030 Y47.499970 Z2 I-2.056434 J-1.537281
G02 X169.479751 Y46.713397 Z2 I-2.169916 J-1.030118
G02 X169.500000 Y46.499970 Z2 I-15.292201 J-1.558540
G00 Z0.000000

(End cutting path id: path16)


(Start cutting path id: path16)
(Change tool to Default tool)

G00 Z0.000000
G00 X160.625000 Y59.750000

G01 Z2 F100.0(Penetrate)
G02 X161.733437 Y59.875462 Z2 I1.070055 J-4.494614 F75.000000
G02 X163.248170 Y59.247590 Z2 I-0.018151 J-2.184863
G02 X163.659283 Y58.816130 Z2 I-6.546945 J-6.649789
G02 X163.913390 Y58.375000 Z2 I-0.924768 J-0.826454
G02 X163.927929 Y57.612327 Z2 I-1.239462 J-0.405104
G03 X163.792530 Y56.625000 Z2 I3.398177 J-0.968965
G03 X164.247591 Y55.321476 Z2 I2.125642 J0.010871
G03 X165.500000 Y54.638210 Z2 I1.423697 J1.120149
G03 X167.218216 Y55.390761 Z2 I0.182458 J1.921194
G03 X167.495950 Y57.250000 Z2 I-1.553961 J1.182495
G03 X166.530768 Y58.183430 Z2 I-1.453196 J-0.536907
G03 X165.375000 Y58.374420 Z2 I-1.182315 J-3.562192
G03 X164.722048 Y58.339568 Z2 I-0.040721 J-5.371101
G03 X164.125000 Y58.250000 Z2 I0.992421 J-8.650006
G00 Z0.000000

(End cutting path id: path16)


(Start cutting path id: path16)
(Change tool to Default tool)

G00 Z0.000000
G00 X164.999990 Y73.749990

G01 Z2 F100.0(Penetrate)
G03 X164.365904 Y72.293639 Z2 I3.718721 J-2.485320 F75.000000
G03 X163.980600 Y70.124990 Z2 I19.048311 J-4.502872
G03 X163.930198 Y69.595795 Z2 I10.776684 J-1.293395
G02 X163.801980 Y69.021210 Z2 I-1.976826 J0.139529
G02 X163.464318 Y68.432007 Z2 I-2.096118 J0.809892
G03 X163.213820 Y67.999510 Z2 I1.334229 J-1.061564
G03 X162.866682 Y67.013481 Z2 I12.342603 J-4.899409
G02 X162.475970 Y65.874990 Z2 I-18.286618 J5.639396
G02 X162.038436 Y64.723880 Z2 I-479.272089 J181.511427
G03 X161.708130 Y63.624990 Z2 I7.406040 J-2.825205
G01 X161.664230 Y62.664730 Z2
G01 X162.624970 Y62.375090 Z2
G03 X164.543369 Y62.698926 Z2 I0.029447 J5.669756
G02 X166.374970 Y62.517740 Z2 I0.722493 J-2.044727
G02 X167.516605 Y61.563731 Z2 I-2.399221 J-4.031165
G03 X168.624970 Y60.374990 Z2 I17.540910 J15.243804
G01 X173.624970 Y55.374990 Z2
G02 X174.260870 Y54.704942 Z2 I-12.457938 J-12.459801
G03 X174.874970 Y54.317800 Z2 I0.992404 J0.893565
G01 X175.874970 Y54.453120 Z2
G01 X177.820760 Y54.106950 Z2
G02 X177.688245 Y51.904252 Z2 I-1.836608 J-0.994844
G02 X175.507200 Y51.397370 Z2 I-1.376104 J0.975376
G02 X174.936050 Y52.228388 Z2 I0.530052 J0.976081
G02 X174.875070 Y53.124990 Z2 I7.068050 J0.931086
G02 X174.874373 Y53.673636 Z2 I70.072464 J0.363324
G03 X174.874970 Y54.124990 Z2 I-170.663738 J0.451350
G00 Z0.000000

(End cutting path id: path16)


(Start cutting path id: path16)
(Change tool to Default tool)

G00 Z0.000000
G00 X165.500000 Y76.499990

G01 Z2 F100.0(Penetrate)
G03 X165.276057 Y75.900522 Z2 I1.889971 J-1.047598 F75.000000
G03 X165.113910 Y74.749990 Z2 I8.256517 J-1.750303
G01 X165.133410 Y73.763590 Z2
G01 X166.125020 Y73.138200 Z2
G02 X167.544262 Y71.969535 Z2 I-1.788299 J-3.617841
G03 X168.875020 Y70.868620 Z2 I3.042974 J2.323517
G03 X169.422439 Y70.690361 Z2 I0.868106 J1.736212
G03 X170.000020 Y70.629910 Z2 I0.778176 J4.645645
G03 X172.119001 Y70.667122 Z2 I0.750657 J17.604473
G02 X174.250020 Y70.749990 Z2 I2.131019 J-27.359151
G01 X175.818500 Y70.460250 Z2
G01 X175.880300 Y69.624990 Z2
G03 X175.978311 Y68.997574 Z2 I2.781131 J0.113088
G02 X176.051980 Y68.499990 Z2 I-1.987325 J-0.548475
G02 X176.021712 Y68.170957 Z2 I-1.440548 J-0.033391
G02 X175.842390 Y67.500090 Z2 I-6.232541 J1.306550
G02 X175.612452 Y67.061780 Z2 I-1.412090 J0.461317
G02 X175.247580 Y66.753460 Z2 I-0.876060 J0.666688
G02 X174.032521 Y66.396629 Z2 I-1.500309 J2.861622
G03 X172.754910 Y65.848470 Z2 I0.196930 J-2.221954
G03 X172.187946 Y65.307169 Z2 I6.471600 J-7.345990
G03 X171.783460 Y64.728770 Z2 I1.610125 J-1.556625
G03 X171.626740 Y64.089096 Z2 I1.409222 J-0.684294
G03 X171.646400 Y63.499990 Z2 I4.766450 J-0.135814
G03 X171.880243 Y62.379695 Z2 I5.160357 J0.492584
G03 X172.540690 Y61.273140 Z2 I2.784693 J0.911674
G03 X175.482288 Y60.418652 Z2 I2.202882 J2.092973
G03 X177.691450 Y62.374990 Z2 I-0.777943 J3.103978
G03 X177.841130 Y62.988761 Z2 I-2.317102 J0.890206
G03 X177.874410 Y63.624990 Z2 I-5.338240 J0.598221
G03 X177.840764 Y64.197924 Z2 I-5.604956 J-0.041705
G03 X177.721920 Y64.749990 Z2 I-2.752060 J-0.303613
G03 X177.434509 Y65.340966 Z2 I-2.263502 J-0.735439
G03 X176.994590 Y65.861490 Z2 I-2.565389 J-1.721969
G03 X176.206322 Y66.355471 Z2 I-1.620099 J-1.709338
G02 X175.374990 Y66.749990 Z2 I1.981604 J5.248792
G00 Z0.000000

(End cutting path id: path16)


(Start cutting path id: path16)
(Change tool to Default tool)

G00 Z0.000000
G00 X166.875000 Y81.749990

G01 Z2 F100.0(Penetrate)
G01 X166.875000 Y81.499990 Z2 F75.000000
G00 Z0.000000

(End cutting path id: path16)


(Footer)
M5
M2
(Using default footer. To add your own footer create file "footer" in the output dir.)
(end)
%