%
(Header)
(Generated by gcodetools from Inkscape.)
(Using default header. To add your own header create file "header" in the output dir.)
M3
(Header end.)
G21 (All units in mm)

(Start cutting path id: path8)
(Change tool to Default tool)

G00 Z0.000000
G00 X149.750000 Y196.711171

G01 Z2 F100.0(Penetrate)
G02 X151.068191 Y196.582993 Z2 I0.102689 J-5.786213 F75
G02 X152.249520 Y196.008817 Z2 I-0.578387 J-2.692331
G02 X152.797114 Y195.452818 Z2 I-2.503108 J-3.012928
G02 X153.191450 Y194.800000 Z2 I-2.213016 J-1.782286
G02 X153.431730 Y194.054273 Z2 I-3.708473 J-1.606477
G02 X153.531350 Y193.300000 Z2 I-4.466684 J-0.973649
G02 X153.516228 Y192.654461 Z2 I-4.512445 J-0.217240
G02 X153.401520 Y192.050000 Z2 I-3.312168 J0.315431
G02 X153.045337 Y191.195526 Z2 I-3.909233 J1.128071
G02 X152.476850 Y190.466088 Z2 I-2.648315 J1.477717
G02 X151.732376 Y189.957504 Z2 I-1.984981 J2.106473
G02 X151.000000 Y189.674130 Z2 I-2.283865 J4.814514
G03 X150.621657 Y189.547588 Z2 I2.125707 J-6.984427
G02 X150.125000 Y189.444966 Z2 I-0.596461 J1.633538
G02 X149.640730 Y189.480266 Z2 I-0.107318 J1.867170
G03 X149.250000 Y189.550385 Z2 I-1.576705 J-7.662288
G02 X148.527366 Y189.736205 Z2 I0.569285 J3.711925
G02 X147.750480 Y190.148671 Z2 I1.108804 J3.026321
G02 X146.682720 Y191.372654 Z2 I2.097748 J2.907733
G02 X146.242380 Y192.925000 Z2 I3.378229 J1.796898
G02 X146.456255 Y194.406601 Z2 I3.629204 J0.232348
G02 X147.255020 Y195.673070 Z2 I3.341051 J-1.222084
G02 X148.385533 Y196.431826 Z2 I2.390108 J-2.339572
G02 X149.750000 Y196.711171 Z2 I1.431931 J-3.522235
G00 Z0.000000

(End cutting path id: path8)


(Start cutting path id: path8)
(Change tool to Default tool)

G00 Z0.000000
G00 X136.625000 Y187.675000

G01 Z2 F100.0(Penetrate)
G03 X136.827410 Y187.750289 Z2 I-1.223967 J3.600276 F75
G03 X137.375580 Y188.078549 Z2 I-0.775973 J1.917651
G03 X138.864487 Y189.477621 Z2 I-10.961127 J13.156735
G02 X140.624520 Y191.300000 Z2 I82.291566 J-77.715170
G03 X141.269468 Y192.191090 Z2 I-2.573013 J2.541223
G02 X141.926890 Y192.921529 Z2 I1.707093 J-0.875377
G01 X142.875000 Y193.050000 Z2
G03 X143.800171 Y193.060414 Z2 I-0.103501 J50.296250
G02 X144.750000 Y193.014313 Z2 I0.141145 J-6.899779
G03 X145.462691 Y192.947888 Z2 I1.711201 J14.503310
G03 X146.125000 Y192.925000 Z2 I0.668776 J9.758435
G00 Z0.000000

(End cutting path id: path8)


(Start cutting path id: path8)
(Change tool to Default tool)

G00 Z0.000000
G00 X150.250000 Y189.300000

G01 Z2 F100.0(Penetrate)
G01 X150.250000 Y188.050000 Z2 F75
G03 X150.276399 Y187.256793 Z2 I11.929813 J0.000000
G03 X150.353780 Y186.300000 Z2 I33.819119 J2.253603
G02 X150.377825 Y185.732662 Z2 I-5.379939 J-0.512194
G03 X150.374980 Y185.175000 Z2 I54.649457 J-0.557662
G01 X150.374980 Y180.925000 Z2
G03 X150.376497 Y180.189432 Z2 I178.350719 J0.000000
G03 X150.428080 Y179.425000 Z2 I6.060426 J0.024995
G02 X150.489996 Y178.644383 Z2 I-7.556517 J-0.992123
G02 X150.499980 Y177.925000 Z2 I-25.912173 J-0.719383
G03 X150.572249 Y176.377768 Z2 I16.598656 J0.000000
G02 X150.320780 Y174.925095 Z2 I-2.804718 J-0.262583
G02 X149.406280 Y173.815246 Z2 I-2.603450 J1.213514
G03 X148.249980 Y172.889314 Z2 I9.342976 J-12.852431
G03 X145.878575 Y170.751747 Z2 I89.860845 J-102.075309
G02 X143.499980 Y168.621953 Z2 I-71.919790 J77.928288
G03 X142.964711 Y168.134829 Z2 I10.260039 J-11.811741
G03 X142.501040 Y167.675000 Z2 I11.399436 J-11.958367
G01 X141.938540 Y166.800000 Z2
G03 X142.200562 Y166.030567 Z2 I1.080409 J-0.061409
G03 X142.875460 Y165.300000 Z2 I11.542290 J9.985752
G02 X145.081550 Y163.022539 Z2 I-126.498076 J-124.741102
G03 X147.271200 Y160.816590 Z2 I53.279414 J50.696036
G03 X147.927250 Y160.344597 Z2 I1.951943 J2.021181
G03 X148.498050 Y160.166707 Z2 I0.781989 J1.504470
G01 X149.159030 Y160.557813 Z2
G03 X149.429316 Y161.190606 Z2 I-14.023841 J6.364142
G02 X150.125560 Y162.166417 Z2 I2.355796 J-0.944576
G02 X150.994491 Y162.638249 Z2 I1.513708 J-1.751627
G03 X151.633180 Y163.030419 Z2 I-0.393541 J1.357093
G03 X151.973852 Y163.653272 Z2 I-1.043201 J0.975176
G02 X152.506830 Y164.500809 Z2 I1.580045 J-0.402267
G02 X153.344943 Y164.930848 Z2 I1.365941 J-1.630387
G03 X154.061230 Y165.352372 Z2 I-0.371701 J1.450970
G03 X154.432428 Y165.997906 Z2 I-1.157212 J1.094916
G02 X154.784700 Y166.675000 Z2 I1.901363 J-0.559038
G02 X156.162939 Y168.019013 Z2 I6.060143 J-4.835793
G03 X157.162690 Y169.300000 Z2 I-1.910400 J2.521602
G03 X157.099160 Y170.497240 Z2 I-1.252272 J0.533855
G02 X156.807080 Y171.675000 Z2 I2.016054 J1.125071
G02 X157.095114 Y172.837516 Z2 I2.743087 J-0.062708
G02 X158.000080 Y173.728434 Z2 I1.751629 J-0.874172
G02 X159.419677 Y173.974850 Z2 I1.145835 J-2.388784
G02 X160.707060 Y173.375714 Z2 I-0.225045 J-2.166249
G02 X161.321405 Y172.079122 Z2 I-1.411693 J-1.462721
G02 X161.070780 Y170.675000 Z2 I-2.781026 J-0.228036
G02 X159.198670 Y169.422284 Z2 I-1.966922 J0.914211
G02 X157.374980 Y169.550000 Z2 I-0.352352 J8.052985
G00 Z0.000000

(End cutting path id: path8)


(Start cutting path id: path8)
(Change tool to Default tool)

G00 Z0.000000
G00 X140.875100 Y185.584046

G01 Z2 F100.0(Penetrate)
G02 X141.617056 Y185.698003 Z2 I0.663291 J-1.846228 F75
G02 X142.250000 Y185.595236 Z2 I-0.106643 J-2.657360
G02 X142.847428 Y185.311098 Z2 I-0.569850 J-1.968309
G02 X143.322820 Y184.794599 Z2 I-0.913136 J-1.317489
G02 X143.406668 Y182.818584 Z2 I-1.851988 J-1.068372
G02 X142.000000 Y181.650020 Z2 I-1.947118 J0.912933
G02 X141.203772 Y181.627006 Z2 I-0.448359 J1.726825
G02 X140.143420 Y182.198631 Z2 I0.399748 J2.010800
G02 X139.584443 Y184.101527 Z2 I1.493745 J1.472336
G02 X140.875100 Y185.584047 Z2 I1.971864 J-0.413600
G00 Z0.000000

(End cutting path id: path8)


(Start cutting path id: path8)
(Change tool to Default tool)

G00 Z0.000000
G00 X141.750000 Y181.425000

G01 Z2 F100.0(Penetrate)
G01 X141.750000 Y180.175000 Z2 F75
G01 X141.750000 Y178.800000 Z2
G03 X141.825567 Y176.869104 Z2 I24.706885 J-0.000000
G02 X141.382720 Y175.071219 Z2 I-2.936434 J-0.230193
G02 X139.975727 Y173.627993 Z2 I-4.065495 J2.555981
G03 X138.375000 Y172.546914 Z2 I73.016528 J-109.839388
G02 X137.911347 Y172.229596 Z2 I-137.290339 J200.106478
G03 X137.500190 Y171.940722 Z2 I10.532329 J-15.427761
G03 X136.842942 Y171.387725 Z2 I3.424461 J-4.737116
G03 X136.625000 Y171.175000 Z2 I385.484059 J-395.155757
G00 Z0.000000

(End cutting path id: path8)


(Start cutting path id: path8)
(Change tool to Default tool)

G00 Z0.000000
G00 X169.375000 Y173.800000

G01 Z2 F100.0(Penetrate)
G01 X168.981480 Y172.178473 Z2 F75
G01 X168.000000 Y172.045564 Z2
G01 X166.878470 Y172.330382 Z2
G01 X166.750000 Y173.425000 Z2
G02 X166.749900 Y174.268418 Z2 I1245.221351 J0.561048
G03 X166.750000 Y175.175000 Z2 I-4115.673839 J0.988678
G03 X166.694494 Y176.112087 Z2 I-7.938068 J0.000000
G02 X166.878470 Y176.885360 Z2 I1.144963 J0.136114
G01 X169.000000 Y177.353047 Z2
G02 X169.852809 Y177.417331 Z2 I1.006179 J-7.659312
G02 X170.625000 Y177.424997 Z2 I0.772191 J-38.886907
G03 X171.246317 Y177.465079 Z2 I0.000000 J4.835584
G02 X171.945790 Y177.296524 Z2 I0.129391 J-0.998673
G01 X172.373170 Y175.674997 Z2
G02 X172.380695 Y174.603121 Z2 I-30.597665 J-0.750762
G03 X172.375170 Y173.549997 Z2 I100.372380 J-1.053124
G02 X172.374191 Y172.941513 Z2 I-189.087004 J0.000000
G03 X172.410870 Y172.299997 Z2 I5.328492 J-0.017147
G02 X172.539954 Y170.812475 Z2 I-24.011422 J-2.833021
G02 X172.476570 Y169.300480 Z2 I-7.754965 J-0.432232
G01 X170.750200 Y168.424997 Z2
G03 X168.264336 Y168.424716 Z2 I0.232938 J-25792.443319
G02 X165.750200 Y168.424997 Z2 I-0.697026 J4604.196539
G02 X164.603415 Y168.498690 Z2 I0.003465 J9.013709
G02 X163.778750 Y169.177408 Z2 I0.128158 J0.996073
G02 X163.617204 Y170.222713 Z2 I2.997662 J0.998407
G03 X163.625200 Y171.299997 Z2 I-72.568109 J1.077284
G02 X163.635716 Y172.498510 Z2 I68.302194 J0.000000
G03 X163.620200 Y173.674997 Z2 I-19.140408 J0.335913
G03 X163.569580 Y174.168424 Z2 I-4.243283 J-0.186002
G02 X163.511310 Y174.674997 Z2 I5.457591 J0.884413
G02 X163.497081 Y175.181936 Z2 I6.271480 J0.429702
G03 X163.500110 Y175.674997 Z2 I-40.126238 J0.493061
G01 X163.500110 Y177.674997 Z2
G03 X163.355145 Y179.180123 Z2 I-7.886102 J0.000000
G02 X163.700530 Y180.510259 Z2 I1.563355 J0.303966
G02 X164.644776 Y180.878362 Z2 I0.809884 J-0.682363
G03 X165.875110 Y180.799997 Z2 I1.230334 J9.618973
G02 X168.573643 Y180.792248 Z2 I-0.000001 J-469.879209
G03 X171.250110 Y180.800480 Z2 I0.871515 J151.749060
G03 X171.819067 Y180.840965 Z2 I-0.057862 J4.831376
G02 X172.375110 Y180.903778 Z2 I2.061426 J-15.755838
G02 X172.880598 Y180.926363 Z2 I0.477386 J-5.016579
G03 X173.375110 Y180.924998 Z2 I0.489559 J87.787726
G01 X175.246060 Y180.294501 Z2
G02 X175.457631 Y178.728537 Z2 I-3.087833 J-1.214458
G03 X175.375110 Y177.174998 Z2 I14.582260 J-1.553539
G01 X175.375110 Y168.799998 Z2
G03 X175.378499 Y167.586844 Z2 I217.158620 J-0.000000
G02 X175.374630 Y166.424998 Z2 I-65.153384 J-0.363984
G01 X174.965290 Y165.167281 Z2
G02 X174.388087 Y164.955389 Z2 I-0.671268 J0.936453
G02 X173.750110 Y164.925479 Z2 I-0.747525 J9.125779
G02 X171.957586 Y164.919822 Z2 I-1.217491 J101.791929
G03 X170.125110 Y164.924998 Z2 I-1.832477 J-324.402025
G01 X158.750000 Y164.924998 Z2
G03 X155.503496 Y164.877753 Z2 I-0.000000 J-111.567970
G02 X154.125000 Y165.299998 Z2 I-0.065433 J2.247683
G00 Z0.000000

(End cutting path id: path8)


(Start cutting path id: path8)
(Change tool to Default tool)

G00 Z0.000000
G00 X136.500000 Y170.800000

G01 Z2 F100.0(Penetrate)
G03 X136.784082 Y170.526649 Z2 I15.646553 J15.976503 F75
G03 X137.500000 Y169.900597 Z2 I8.421081 J8.907509
G03 X138.068667 Y169.454377 Z2 I15.784987 J19.531082
G02 X138.750000 Y168.914487 Z2 I-13.749097 J-18.051004
G03 X140.357485 Y167.657138 Z2 I25.485201 J30.925871
G03 X141.625000 Y166.925000 Z2 I3.816379 J5.143848
G00 Z0.000000

(End cutting path id: path8)


(Start cutting path id: path8)
(Change tool to Default tool)

G00 Z0.000000
G00 X151.750000 Y162.925000

G01 Z2 F100.0(Penetrate)
G03 X152.960068 Y162.580263 Z2 I1.044533 J1.370326 F75
G02 X154.750000 Y162.485669 Z2 I0.579930 J-6.008504
G02 X155.348114 Y162.352332 Z2 I-3.504377 J-17.127813
G02 X156.000000 Y162.121278 Z2 I-0.783527 J-3.245745
G02 X158.276675 Y160.302804 Z2 I-2.752098 J-5.779946
G03 X160.500000 Y157.800000 Z2 I22.261837 J17.537009
G03 X161.283917 Y157.035334 Z2 I31.231325 J31.233421
G03 X162.000000 Y156.425000 Z2 I5.928342 J6.230271
G02 X162.671869 Y155.885587 Z2 I-10.294680 J-13.510720
G03 X163.250000 Y155.589738 Z2 I0.924109 J1.093042
G03 X164.517292 Y155.483447 Z2 I0.962014 J3.861953
G02 X166.250000 Y155.549998 Z2 I1.732708 J-22.523071
G00 Z0.000000

(End cutting path id: path8)


(Start cutting path id: path8)
(Change tool to Default tool)

G00 Z0.000000
G00 X149.000000 Y159.925000

G01 Z2 F100.0(Penetrate)
G03 X149.166074 Y159.144546 Z2 I69.782465 J14.441199 F75
G03 X149.565490 Y158.175000 Z2 I2.933323 J0.641372
G03 X150.250352 Y157.272282 Z2 I5.785080 J3.677799
G02 X150.819540 Y156.550000 Z2 I-5.318969 J-4.776977
G02 X151.184189 Y155.807277 Z2 I-2.331502 J-1.605556
G02 X151.250000 Y155.550000 Z2 I-2.133940 J-0.682912
G00 Z0.000000

(End cutting path id: path8)


(Footer)
M5
;G00 X0.0000 Y0.0000
M2
(Using default footer. To add your own footer create file "footer" in the output dir.)
(end)
%