%
(Header)
(Generated by gcodetools from Inkscape.)
(Using default header. To add your own header create file "header" in the output dir.)
M3
(Header end.)
G21 (All units in mm)

(Start cutting path id: path12)
(Change tool to Default tool)

G00 Z0.000000
G00 X163.375000 Y155.425000

G01 Z2 F100.0(Penetrate)
G02 X162.562170 Y155.303345 Z2 I-0.841736 J2.847736 F75
G02 X161.875000 Y155.300000 Z2 I-0.687170 J70.588448
G00 Z0.000000

(End cutting path id: path12)


(Start cutting path id: path12)
(Change tool to Default tool)

G00 Z0.000000
G00 X152.125000 Y154.800000

G01 Z2 F100.0(Penetrate)
G02 X152.851471 Y153.768911 Z2 I-8.718438 J-6.914187 F75
G03 X153.683060 Y152.701619 Z2 I5.487946 J3.418363
G03 X154.066286 Y152.399999 Z2 I1.283457 J1.236441
G02 X154.518230 Y152.001294 Z2 I-0.792185 J-1.353463
G02 X154.724553 Y151.565671 Z2 I-0.907703 J-0.696585
G03 X154.865550 Y151.050000 Z2 I7.073911 J1.657068
G03 X155.535898 Y149.655155 Z2 I5.134623 J1.609142
G02 X156.394190 Y148.300481 Z2 I-24.143667 J-16.246143
G03 X156.873932 Y147.708886 Z2 I2.277270 J1.356390
G02 X157.311340 Y147.253125 Z2 I-3.531278 J-3.826855
G02 X157.594485 Y146.669750 Z2 I-0.989926 J-0.840869
G03 X157.824750 Y145.800000 Z2 I7.447344 J1.506313
G03 X158.269308 Y144.738980 Z2 I6.946356 J2.286822
G03 X158.793980 Y143.800481 Z2 I13.952352 J7.184208
G03 X159.190173 Y143.314556 Z2 I1.922415 J1.162940
G02 X159.642840 Y142.778779 Z2 I-1.949701 J-2.106375
G02 X159.844863 Y142.259891 Z2 I-1.129810 J-0.738650
G03 X159.951870 Y141.675000 Z2 I16.842416 J2.779117
G03 X160.873240 Y139.019741 Z2 I10.188575 J2.047932
G02 X162.072050 Y136.300000 Z2 I-24.338638 J-12.352081
G02 X162.444463 Y135.245411 Z2 I-24.656605 J-9.300169
G03 X162.798510 Y134.301060 Z2 I11.843937 J3.901876
G01 X163.266690 Y133.752738 Z2
G01 X164.000000 Y133.827298 Z2
G03 X164.626987 Y134.197628 Z2 I-0.517549 J1.592160
G03 X165.250000 Y134.800002 Z2 I-18.737074 J20.002435
G03 X166.098081 Y135.715526 Z2 I-11.231796 J11.254957
G02 X166.875000 Y136.198440 Z2 I1.150784 J-0.984982
G02 X167.595166 Y136.112768 Z2 I0.248916 J-0.977318
G03 X168.500000 Y135.826621 Z2 I1.239077 J2.344443
G03 X169.655235 Y136.123087 Z2 I0.203877 J1.604586
G03 X170.315970 Y137.175002 Z2 I-0.982049 J1.350320
G03 X169.753372 Y138.731951 Z2 I-1.620843 J0.294435
G03 X168.001830 Y138.968308 Z2 I-1.062821 J-1.267973
G03 X167.300751 Y138.264185 Z2 I0.589864 J-1.288400
G03 X167.053630 Y137.425002 Z2 I2.883767 J-1.305183
G03 X167.007502 Y136.902970 Z2 I4.348928 J-0.647332
G03 X167.000030 Y136.425002 Z2 I18.565977 J-0.529301
G00 Z0.000000

(End cutting path id: path12)


(Start cutting path id: path12)
(Change tool to Default tool)

G00 Z0.000000
G00 X154.625030 Y152.175002

G01 Z2 F100.0(Penetrate)
G02 X155.714342 Y152.623538 Z2 I1.681819 J-2.537441 F75
G02 X157.750030 Y152.473323 Z2 I0.745977 J-3.759399
G02 X158.503619 Y152.023364 Z2 I-0.761854 J-2.131985
G02 X159.055300 Y151.300002 Z2 I-1.647326 J-1.828406
G02 X159.297122 Y150.616092 Z2 I-2.583392 J-1.298161
G02 X159.371360 Y149.925002 Z2 I-3.177706 J-0.690888
G02 X159.317370 Y149.357568 Z2 I-3.010420 J0.000150
G02 X159.135060 Y148.800002 Z2 I-2.285979 J0.438868
G02 X158.811032 Y148.286448 Z2 I-2.280439 J1.079849
G02 X158.373290 Y147.862018 Z2 I-2.019028 J1.644401
G02 X157.746812 Y147.453001 Z2 I-3.063952 J4.008670
G03 X157.500000 Y147.300000 Z2 I1.382931 J-2.506429
G00 Z0.000000

(End cutting path id: path12)


(Start cutting path id: path12)
(Change tool to Default tool)

G00 Z0.000000
G00 X172.500000 Y152.360669

G01 Z2 F100.0(Penetrate)
G02 X173.535795 Y152.386864 Z2 I0.591291 J-2.889004 F75
G02 X174.500000 Y152.115105 Z2 I-0.613353 J-4.022571
G02 X176.344331 Y149.909955 Z2 I-1.215815 J-2.890726
G02 X175.683450 Y147.055016 Z2 I-3.301633 J-0.739678
G02 X174.876670 Y146.338808 Z2 I-2.496528 J1.999736
G02 X173.875000 Y145.946797 Z2 I-1.556857 J2.502347
G02 X172.585253 Y145.921394 Z2 I-0.718947 J3.748153
G02 X171.375000 Y146.186478 Z2 I1.415484 J9.357742
G03 X170.953626 Y146.303469 Z2 I-5.862655 J-20.298623
G02 X170.553720 Y146.515954 Z2 I0.258062 J0.968246
G01 X170.170520 Y147.300095 Z2
G02 X169.963789 Y148.047577 Z2 I34.158230 J9.849462
G02 X169.808060 Y148.925000 Z2 I5.179032 J1.371730
G02 X169.828201 Y149.645437 Z2 I2.989965 J0.276910
G02 X169.995660 Y150.300000 Z2 I3.274553 J-0.489036
G02 X170.356014 Y151.009584 Z2 I3.194437 J-1.175965
G02 X170.886670 Y151.616456 Z2 I2.560702 J-1.703666
G02 X171.630794 Y152.087325 Z2 I1.862262 J-2.119557
G02 X172.500000 Y152.360669 Z2 I1.759401 J-4.076059
G00 Z0.000000

(End cutting path id: path12)


(Start cutting path id: path12)
(Change tool to Default tool)

G00 Z0.000000
G00 X170.375000 Y146.425000

G01 Z2 F100.0(Penetrate)
G03 X169.562343 Y145.580157 Z2 I21.407936 J-21.405631 F75
G02 X168.146220 Y144.051831 Z2 I-1108.744578 J1025.925057
G02 X167.680936 Y143.577648 Z2 I-8.723666 J8.094594
G02 X167.124520 Y143.218018 Z2 I-1.197513 J1.242521
G02 X166.645391 Y143.092598 Z2 I-0.740221 J1.849902
G02 X166.125000 Y143.051831 Z2 I-0.642736 J4.862691
G02 X163.435816 Y143.035117 Z2 I-1.790629 J71.754232
G03 X161.000000 Y143.050031 Z2 I-2.383779 J-190.401277
G03 X160.095600 Y142.996173 Z2 I0.002476 J-7.661993
G03 X159.750000 Y142.925031 Z2 I0.247774 J-2.078672
G00 Z0.000000

(End cutting path id: path12)


(Start cutting path id: path12)
(Change tool to Default tool)

G00 Z0.000000
G00 X175.375000 Y132.175031

G01 Z2 F100.0(Penetrate)
G03 X175.504117 Y132.643988 Z2 I-3.985728 J1.349636 F75
G02 X175.654900 Y133.300031 Z2 I21.840883 J-4.674494
G02 X175.871211 Y133.920496 Z2 I3.382608 J-0.831331
G02 X176.218170 Y134.550031 Z2 I4.430784 J-2.031584
G03 X176.503509 Y135.007827 Z2 I-11.219393 J7.310739
G03 X176.793110 Y135.548103 Z2 I-5.831036 J3.473332
G01 X177.381850 Y136.205316 Z2
G01 X178.648050 Y135.548103 Z2
G02 X179.280324 Y134.423240 Z2 I-9.324420 J-5.981288
G02 X179.702930 Y133.300031 Z2 I-5.749543 J-2.804366
G01 X179.763830 Y132.552442 Z2
G01 X178.999940 Y131.943549 Z2
G02 X178.196718 Y131.901595 Z2 I-0.604108 J3.855936
G03 X177.250040 Y131.925029 Z2 I-0.918916 J-17.988904
G02 X176.227224 Y131.957954 Z2 I-0.023392 J15.176769
G03 X175.250040 Y131.861369 Z2 I-0.197529 J-2.993081
G03 X174.329598 Y131.420860 Z2 I0.726997 J-2.700942
G03 X173.490690 Y130.549932 Z2 I2.053287 J-2.817295
G03 X172.689662 Y129.207954 Z2 I11.960811 J-8.049472
G02 X171.948240 Y128.085713 Z2 I-5.967428 J3.136420
G02 X171.295172 Y127.304519 Z2 I-31.455577 J25.632881
G03 X170.625040 Y126.425027 Z2 I7.272195 J-6.236125
G02 X170.142782 Y125.711911 Z2 I-283.695866 J191.334831
G02 X169.588870 Y125.167310 Z2 I-1.634218 J1.108168
G02 X168.582885 Y124.898273 Z2 I-0.912204 J1.395608
G02 X167.250040 Y125.014341 Z2 I1.230356 J21.839292
G03 X166.252806 Y125.001367 Z2 I-0.449175 J-3.806855
G02 X165.534860 Y125.106551 Z2 I-0.182049 J1.260212
G01 X165.112500 Y125.800224 Z2
G02 X164.976318 Y126.402542 Z2 I6.952882 J1.888579
G03 X164.848670 Y127.050000 Z2 I-21.408637 J-3.884448
G03 X163.954056 Y130.893566 Z2 I-102.345765 J-21.795707
G03 X163.250000 Y133.425000 Z2 I-53.685473 J-13.567677
G00 Z0.000000

(End cutting path id: path12)


(Start cutting path id: path12)
(Change tool to Default tool)

G00 Z0.000000
G00 X172.125000 Y128.050000

G01 Z2 F100.0(Penetrate)
G03 X172.790679 Y127.595879 Z2 I2.267869 J2.609428 F75
G03 X174.125000 Y127.196317 Z2 I1.700861 J3.252219
G03 X175.641772 Y127.148042 Z2 I1.111628 J11.074484
G02 X177.125000 Y127.174997 Z2 I1.480543 J-40.646630
G03 X177.739708 Y127.191175 Z2 I0.000743 J11.658102
G02 X178.351950 Y127.046524 Z2 I0.058980 J-1.118362
G02 X178.846920 Y126.572800 Z2 I-0.692894 J-1.219416
G03 X179.203610 Y126.049997 Z2 I7.028175 J4.411997
G02 X179.643572 Y125.426078 Z2 I-13.530704 J-10.008372
G02 X180.000000 Y124.799997 Z2 I-4.046845 J-2.718369
G00 Z0.000000

(End cutting path id: path12)


(Start cutting path id: path12)
(Change tool to Default tool)

G00 Z0.000000
G00 X165.500000 Y124.924997

G01 Z2 F100.0(Penetrate)
G03 X165.608449 Y123.481012 Z2 I22.545283 J0.967180 F75
G03 X165.875580 Y121.424997 Z2 I46.539463 J5.001345
G03 X165.999514 Y120.884424 Z2 I3.708564 J0.565749
G02 X166.155000 Y120.299997 Z2 I-7.348229 J-2.267879
G02 X166.232097 Y119.746425 Z2 I-3.316888 J-0.744105
G02 X166.249900 Y119.174997 Z2 I-11.447387 J-0.642635
G03 X166.298135 Y118.247321 Z2 I9.950847 J0.052311
G03 X166.395740 Y117.299997 Z2 I117.626185 J11.640575
G02 X166.510905 Y114.793658 Z2 I-20.549942 J-2.200071
G03 X166.750000 Y113.049997 Z2 I5.845758 J-0.086637
G02 X167.372912 Y113.154289 Z2 I0.738474 J-2.498330
G02 X168.125000 Y113.175478 Z2 I1.029673 J-23.189640
G03 X170.437326 Y113.241818 Z2 I-0.827792 J69.185263
G02 X173.000000 Y113.300000 Z2 I2.562674 J-56.408470
G02 X173.947930 Y113.289167 Z2 I-0.000000 J-41.477508
G03 X174.875000 Y113.311190 Z2 I0.227441 J9.949304
G03 X175.532622 Y113.394491 Z2 I-0.419000 J5.945254
G03 X176.179500 Y113.746469 Z2 I-0.213594 J1.162969
G03 X176.535328 Y114.470137 Z2 I-0.996756 J0.939420
G03 X176.620080 Y115.300001 Z2 I-7.306251 J1.165427
G03 X176.635083 Y115.981794 Z2 I-14.532607 J0.660857
G03 X176.548880 Y116.675001 Z2 I-2.863471 J-0.004121
G03 X176.393288 Y117.197108 Z2 I-6.040487 J-1.515878
G02 X176.270720 Y117.674421 Z2 I2.841735 J0.984115
G01 X175.960240 Y118.349577 Z2
G01 X174.749980 Y118.436767 Z2
G02 X173.145072 Y119.231040 Z2 I0.208881 J2.440641
G02 X172.490920 Y120.924999 Z2 I1.866220 J1.693959
G02 X172.737025 Y122.046776 Z2 I2.679651 J-0.000000
G02 X173.501810 Y122.968498 Z2 I2.110104 J-0.972682
G02 X174.234845 Y123.316454 Z2 I1.354428 J-1.907246
G02 X174.999980 Y123.398765 Z2 I0.634864 J-2.304090
G02 X176.433296 Y122.894950 Z2 I-0.148039 J-2.711907
G02 X177.279400 Y121.674999 Z2 I-1.285457 J-1.794922
G02 X176.969001 Y119.636141 Z2 I-2.471843 J-0.666740
G02 X175.999980 Y118.424999 Z2 I-6.009574 J3.814970
G00 Z0.000000

(End cutting path id: path12)


(Start cutting path id: path12)
(Change tool to Default tool)

G00 Z0.000000
G00 X166.249980 Y120.424999

G01 Z2 F100.0(Penetrate)
G03 X166.822591 Y120.429011 Z2 I-0.004598 J41.522907 F75
G03 X167.499980 Y120.478049 Z2 I-0.080924 J5.820920
G02 X169.237316 Y120.680461 Z2 I7.778589 J-59.207929
G03 X171.124980 Y120.889316 Z2 I-10.848248 J106.682853
G02 X171.748499 Y120.925740 Z2 I0.611450 J-5.111958
G03 X172.374980 Y120.925006 Z2 I0.626481 J267.243870
G00 Z0.000000

(End cutting path id: path12)


(Start cutting path id: path12)
(Change tool to Default tool)

G00 Z0.000000
G00 X166.750000 Y113.050000

G01 Z2 F100.0(Penetrate)
G01 X166.750000 Y111.425195 Z2 F75
G01 X166.750000 Y110.550000 Z2
G00 Z0.000000

(End cutting path id: path12)


(Start cutting path id: path12)
(Change tool to Default tool)

G00 Z0.000000
G00 X173.875000 Y110.550000

G01 Z2 F100.0(Penetrate)
G01 X178.375000 Y110.550000 Z2 F75
G00 Z0.000000

(End cutting path id: path12)


(Footer)
M5
G00 X0.0000 Y0.0000
M2
(Using default footer. To add your own footer create file "footer" in the output dir.)
(end)
%