%
(Header)
(Generated by gcodetools from Inkscape.)
(Using default header. To add your own header create file "header" in the output dir.)
M3
(Header end.)
G21 (All units in mm)

(Start cutting path id: path6)
(Change tool to Default tool)

G00 Z0.000000
G00 X74.875000 Y197.175000

G01 Z2 F100.0(Penetrate)
G03 X74.872498 Y197.686858 Z2 I-51.195345 J0.005709 F75
G02 X74.896700 Y198.175000 Z2 I4.114439 J0.040680
G02 X75.005036 Y198.732999 Z2 I3.416614 J-0.373823
G02 X75.303720 Y199.247628 Z2 I1.151538 J-0.324346
G02 X75.816316 Y199.552482 Z2 I0.836126 J-0.822525
G02 X76.374998 Y199.608353 Z2 I0.433044 J-1.508997
G02 X77.507831 Y198.831659 Z2 I-0.110439 J-1.375562
G02 X77.392744 Y197.316686 Z2 I-1.366186 J-0.658074
G02 X76.546136 Y196.836892 Z2 I-0.914055 J0.626047
G02 X75.625000 Y196.902238 Z2 I-0.213992 J3.508518
G01 X74.625483 Y197.022706 Z2
G03 X74.065189 Y196.675344 Z2 I0.296851 J-1.104378
G03 X73.668114 Y196.174519 Z2 I4.514258 J-3.986915
G03 X73.117839 Y195.367389 Z2 I21.089009 J-14.968937
G02 X72.529995 Y194.555497 Z2 I-8.891039 J5.818731
G01 X71.200424 Y193.531579 Z2
G03 X71.098074 Y192.964969 Z2 I1.154764 J-0.501141
G02 X71.071953 Y192.300000 Z2 I-3.644870 J-0.189821
G03 X71.006684 Y191.408666 Z2 I7.714765 J-1.012977
G03 X71.000000 Y190.550000 Z2 I54.690478 J-0.855100
G03 X71.004861 Y189.835524 Z2 I52.990165 J0.003270
G03 X71.105999 Y189.050000 Z2 I3.465724 J0.046947
G03 X72.291785 Y186.903510 Z2 I4.592687 J1.136361
G02 X73.502796 Y184.925000 Z2 I-3.868710 J-3.727844
G02 X73.670817 Y184.290620 Z2 I-4.268837 J-1.470080
G02 X73.750000 Y183.800000 Z2 I-9.335957 J-1.758463
G02 X74.419236 Y183.897614 Z2 I0.882234 J-3.705621
G03 X75.125000 Y183.960784 Z2 I-0.594641 J10.617738
G03 X76.508961 Y184.186428 Z2 I-2.196114 J17.826631
G03 X77.874905 Y184.475539 Z2 I-17.582480 J86.442068
G01 X78.621529 Y184.839255 Z2
G03 X78.800351 Y185.518890 Z2 I-0.922754 J0.606132
G02 X78.839314 Y187.050000 Z2 I8.311025 J0.554554
G01 X79.164738 Y188.404168 Z2
G01 X80.375000 Y188.616166 Z2
G03 X81.517648 Y189.215449 Z2 I-0.579872 J2.494618
G03 X82.236496 Y190.300000 Z2 I-1.783927 J1.962904
G03 X82.269462 Y192.233949 Z2 I-2.896782 J1.016634
G03 X80.875000 Y193.717053 Z2 I-2.227791 J-0.697529
G03 X80.261907 Y193.877789 Z2 I-1.043467 J-2.730465
G03 X79.625000 Y193.918248 Z2 I-0.557764 J-3.746993
G03 X77.479009 Y192.717760 Z2 I0.054668 J-2.616054
G03 X77.201679 Y190.300000 Z2 I2.317296 J-1.490592
G03 X78.231910 Y189.124982 Z2 I2.000534 J0.714874
G02 X79.000000 Y188.550000 Z2 I-1.308282 J-2.548186
G00 Z0.000000

(End cutting path id: path6)


(Start cutting path id: path6)
(Change tool to Default tool)

G00 Z0.000000
G00 X87.250000 Y199.425000

G01 Z2 F100.0(Penetrate)
G01 X87.375000 Y199.425000 Z2 F75
G00 Z0.000000

(End cutting path id: path6)


(Start cutting path id: path6)
(Change tool to Default tool)

G00 Z0.000000
G00 X67.250000 Y196.925000

G01 Z2 F100.0(Penetrate)
G03 X66.815559 Y196.352112 Z2 I12.198046 J-9.701368 F75
G02 X65.625000 Y195.687249 Z2 I-1.309275 J0.946107
G02 X64.910152 Y195.749324 Z2 I-0.165313 J2.243359
G02 X64.302372 Y196.099286 Z2 I0.314764 J1.249400
G02 X63.850722 Y197.169303 Z2 I1.140123 J1.111570
G02 X64.198593 Y198.286881 Z2 I1.816755 J0.047425
G02 X65.181690 Y198.871371 Z2 I1.173681 J-0.855086
G02 X66.238716 Y198.657544 Z2 I0.217619 J-1.643781
G02 X66.823705 Y197.960733 Z2 I-0.687458 J-1.171099
G03 X67.323496 Y197.078069 Z2 I3.012145 J1.122736
G03 X67.926858 Y196.654708 Z2 I1.023400 J0.816893
G02 X68.500000 Y196.361249 Z2 I-0.706657 J-2.086561
G02 X70.140020 Y194.862419 Z2 I-5.365707 J-7.517828
G03 X71.125000 Y193.800000 Z2 I14.535788 J12.488481
G00 Z0.000000

(End cutting path id: path6)


(Start cutting path id: path6)
(Change tool to Default tool)

G00 Z0.000000
G00 X91.375000 Y195.425000

G01 Z2 F100.0(Penetrate)
G02 X91.159620 Y195.425140 Z2 I0.000037 J165.990831 F75
G03 X90.250000 Y195.425000 Z2 I-0.406697 J-313.412236
G03 X89.623156 Y195.398598 Z2 I0.012446 J-7.749933
G03 X89.000000 Y195.335686 Z2 I1.432660 J-17.308593
G02 X88.400239 Y195.289764 Z2 I-0.843258 J7.073782
G02 X87.625000 Y195.285534 Z2 I-0.461213 J13.485564
G01 X86.325424 Y195.693516 Z2
G01 X86.252994 Y196.299904 Z2
G01 X86.378474 Y196.890183 Z2
G01 X88.500000 Y197.425000 Z2
G00 Z0.000000

(End cutting path id: path6)


(Start cutting path id: path6)
(Change tool to Default tool)

G00 Z0.000000
G00 X86.000000 Y197.175000

G01 Z2 F100.0(Penetrate)
G01 X86.250000 Y197.175000 Z2 F75
G00 Z0.000000

(End cutting path id: path6)


(Start cutting path id: path6)
(Change tool to Default tool)

G00 Z0.000000
G00 X84.625000 Y195.300000

G01 Z2 F100.0(Penetrate)
G01 X86.250000 Y195.300000 Z2 F75
G00 Z0.000000

(End cutting path id: path6)


(Start cutting path id: path6)
(Change tool to Default tool)

G00 Z0.000000
G00 X87.875000 Y195.175000

G01 Z2 F100.0(Penetrate)
G01 X87.875000 Y193.925000 Z2 F75
G03 X87.888486 Y192.963126 Z2 I34.308581 J-0.000000
G02 X87.853780 Y191.925000 Z2 I-8.452428 J-0.237065
G03 X87.748477 Y189.674745 Z2 I23.312918 J-2.218538
G02 X87.750001 Y187.425000 Z2 I-1661.085770 J-2.249744
G01 X87.878472 Y185.875424 Z2
G01 X88.625096 Y185.675578 Z2
G03 X89.611222 Y185.671169 Z2 I0.645059 J33.992377
G02 X90.375001 Y185.675000 Z2 I0.763779 J-76.131811
G01 X91.375001 Y185.675000 Z2
G00 Z0.000000

(End cutting path id: path6)


(Start cutting path id: path6)
(Change tool to Default tool)

G00 Z0.000000
G00 X49.000000 Y191.675000

G01 Z2 F100.0(Penetrate)
G02 X51.000969 Y194.307257 Z2 I3.927767 J-0.909111 F75
G02 X54.250000 Y194.538236 Z2 I1.878127 J-3.451913
G02 X55.443023 Y193.671407 Z2 I-0.957428 J-2.572114
G02 X56.148149 Y192.425000 Z2 I-3.619845 J-2.870501
G02 X56.357834 Y191.098487 Z2 I-3.126485 J-1.174039
G02 X56.219139 Y189.800000 Z2 I-10.745477 J0.491101
G03 X56.145472 Y189.348537 Z2 I41.676250 J-7.032231
G02 X55.998364 Y188.951619 Z2 I-1.059708 J0.167035
G02 X55.516170 Y188.506290 Z2 I-1.040657 J0.643083
G03 X55.000000 Y188.228047 Z2 I6.584758 J-12.833325
G02 X53.902615 Y187.721519 Z2 I-3.619443 J6.399463
G02 X52.625000 Y187.496373 Z2 I-1.272847 J3.485354
G02 X50.630324 Y188.075920 Z2 I0.004807 J3.738943
G02 X49.292535 Y189.675000 Z2 I1.828006 J2.888444
G02 X49.099647 Y190.683626 Z2 I2.419700 J0.985497
G03 X48.799576 Y191.495793 Z2 I-1.219905 J0.010800
G01 X48.000000 Y191.794503 Z2
G03 X47.585050 Y191.803333 Z2 I-0.314219 J-5.011967
G02 X47.253086 Y191.800003 Z2 I-0.331964 J16.546274
G01 X46.625000 Y191.800003 Z2
G00 Z0.000000

(End cutting path id: path6)


(Start cutting path id: path6)
(Change tool to Default tool)

G00 Z0.000000
G00 X46.500000 Y191.800003

G01 Z2 F100.0(Penetrate)
G01 X46.625000 Y191.800003 Z2 F75
G00 Z0.000000

(End cutting path id: path6)


(Start cutting path id: path6)
(Change tool to Default tool)

G00 Z0.000000
G00 X64.375000 Y187.300003

G01 Z2 F100.0(Penetrate)
G02 X64.040340 Y187.513261 Z2 I14.830195 J23.641829 F75
G02 X63.553530 Y187.946797 Z2 I1.161219 J1.793996
G02 X63.183556 Y188.715618 Z2 I1.375120 J1.135170
G02 X63.192129 Y189.550000 Z2 I1.894748 J0.397766
G02 X64.272884 Y190.721934 Z2 I1.569824 J-0.363386
G02 X65.856964 Y190.385747 Z2 I0.496754 J-1.559449
G02 X66.284282 Y189.690778 Z2 I-0.938673 J-1.056024
G02 X66.361496 Y188.925000 Z2 I-2.365826 J-0.625328
G02 X66.168687 Y188.184116 Z2 I-1.950788 J0.112147
G02 X65.619503 Y187.621472 Z2 I-1.119186 J0.543067
G01 X64.450424 Y186.917670 Z2
G03 X64.372867 Y186.516458 Z2 I0.991703 J-0.399806
G03 X64.375484 Y186.050000 Z2 I54.284887 J0.071377
G03 X64.414755 Y185.419867 Z2 I6.024591 J0.059172
G03 X64.617286 Y184.800000 Z2 I1.621330 J0.186722
G03 X65.378052 Y183.942619 Z2 I2.403430 J1.366387
G02 X66.215280 Y183.163811 Z2 I-3.011420 J-4.076731
G02 X66.573360 Y182.623005 Z2 I-1.996878 J-1.711128
G02 X66.686921 Y182.050483 Z2 I-0.996367 J-0.495155
G01 X65.750001 Y181.137481 Z2
G02 X64.925222 Y180.838411 Z2 I-4.156961 J10.177298
G02 X64.125001 Y180.644233 Z2 I-1.786948 J5.618158
G01 X63.268037 Y180.574213 Z2
G01 X62.194734 Y182.050000 Z2
G03 X58.758375 Y186.063665 Z2 I-113.141247 J-93.389686
G03 X56.000000 Y188.800000 Z2 I-22.951334 J-20.377732
G00 Z0.000000

(End cutting path id: path6)


(Start cutting path id: path6)
(Change tool to Default tool)

G00 Z0.000000
G00 X78.750000 Y184.800000

G01 Z2 F100.0(Penetrate)
G02 X79.250578 Y184.796196 Z2 I-0.000000 J-32.934785 F75
G03 X79.875000 Y184.821220 Z2 I0.085994 J5.657205
G03 X81.070032 Y184.978835 Z2 I-1.601260 J16.749868
G02 X82.375000 Y185.153879 Z2 I3.254751 J-19.312591
G02 X85.212602 Y185.346821 Z2 I4.448746 J-44.464906
G03 X87.625000 Y185.675001 Z2 I-0.443392 J12.289979
G00 Z0.000000

(End cutting path id: path6)


(Start cutting path id: path6)
(Change tool to Default tool)

G00 Z0.000000
G00 X73.750000 Y183.800000

G01 Z2 F100.0(Penetrate)
G01 X72.999420 Y183.412366 Z2 F75
G01 X71.500000 Y182.996953 Z2
G01 X68.250000 Y182.061864 Z2
G01 X66.875000 Y181.925000 Z2
G00 Z0.000000

(End cutting path id: path6)


(Start cutting path id: path6)
(Change tool to Default tool)

G00 Z0.000000
G00 X46.500000 Y180.550000

G01 Z2 F100.0(Penetrate)
G03 X46.741015 Y180.553227 Z2 I0.020615 J7.461290 F75
G02 X47.500000 Y180.491450 Z2 I0.101752 J-3.443152
G02 X48.226850 Y180.200143 Z2 I-0.397174 J-2.043451
G02 X48.939622 Y179.174996 Z2 I-0.880534 J-1.372588
G02 X48.731711 Y177.811246 Z2 I-1.883105 J-0.410634
G03 X48.286651 Y176.674996 Z2 I3.696640 J-2.103233
G03 X48.460908 Y175.624083 Z2 I1.352161 J-0.315695
G02 X49.012346 Y174.674996 Z2 I-14.707991 J-9.180361
G01 X49.659722 Y173.611436 Z2
G01 X50.750000 Y173.794304 Z2
G03 X51.883073 Y174.410355 Z2 I-2.502541 J5.952831
G02 X53.000000 Y175.125035 Z2 I12.959880 J-19.024032
G02 X56.143627 Y176.907294 Z2 I37.714826 J-62.859528
G02 X59.375000 Y178.511416 Z2 I28.054508 J-52.456774
G02 X61.710333 Y179.504005 Z2 I18.541003 J-40.379157
G03 X63.000000 Y180.425000 Z2 I-1.182918 J3.019894
G00 Z0.000000

(End cutting path id: path6)


(Start cutting path id: path6)
(Change tool to Default tool)

G00 Z0.000000
G00 X46.500000 Y176.675000

G01 Z2 F100.0(Penetrate)
G01 X48.125000 Y176.675000 Z2 F75
G00 Z0.000000

(End cutting path id: path6)


(Start cutting path id: path6)
(Change tool to Default tool)

G00 Z0.000000
G00 X49.625000 Y173.425000

G01 Z2 F100.0(Penetrate)
G01 X48.868248 Y172.508622 Z2 F75
G01 X47.500193 Y171.537461 Z2
G01 X46.625000 Y171.050000 Z2
G00 Z0.000000

(End cutting path id: path6)


(Start cutting path id: path6)
(Change tool to Default tool)

G00 Z0.000000
G00 X46.500000 Y171.050000

G01 Z2 F100.0(Penetrate)
G01 X46.625000 Y171.050000 Z2 F75
G00 Z0.000000

(End cutting path id: path6)


(Footer)
M5
;G00 X0.0000 Y0.0000
M2
(Using default footer. To add your own footer create file "footer" in the output dir.)
(end)
%