%
(Header)
(Generated by gcodetools from Inkscape.)
(Using default header. To add your own header create file "header" in the output dir.)
M3
(Header end.)
G21 (All units in mm)

(Start cutting path id: path15)
(Change tool to Default tool)

G00 Z0.000000
G00 X112.875000 Y91.125000

G01 Z2 F100.0(Penetrate)
G02 X113.680091 Y90.976950 Z2 I-0.380749 J-4.333555 F75.000000
G02 X114.608890 Y90.523148 Z2 I-0.793997 J-2.802468
G02 X115.194177 Y89.937374 Z2 I-1.607494 J-2.191444
G03 X115.875100 Y89.251831 Z2 I2.608872 J1.910353
G02 X117.495567 Y88.038733 Z2 I-158.608271 J-213.559209
G03 X119.125000 Y86.860630 Z2 I29.671070 J39.322136
G03 X119.716058 Y86.474613 Z2 I7.429478 J10.730286
G03 X120.375000 Y86.194637 Z2 I1.257443 J2.044057
G03 X121.475356 Y86.088223 Z2 I0.889277 J3.453172
G02 X122.750000 Y86.124997 Z2 I1.242241 J-20.948813
G02 X123.464765 Y86.073432 Z2 I-0.007840 J-5.088288
G03 X124.106480 Y86.132897 Z2 I0.196617 J1.370469
G01 X124.533370 Y86.875569 Z2
G02 X124.763604 Y87.752188 Z2 I5.031697 J-0.852977
G02 X125.287620 Y88.613320 Z2 I2.376203 J-0.855962
G02 X126.373252 Y89.312526 Z2 I1.905992 J-1.766951
G02 X127.625000 Y89.494587 Z2 I1.135670 J-3.414040
G02 X128.252521 Y89.431756 Z2 I-0.150733 J-4.670552
G02 X128.875000 Y89.240632 Z2 I-0.416438 J-2.465560
G02 X129.426392 Y88.889143 Z2 I-0.980310 J-2.146079
G02 X129.793980 Y88.494973 Z2 I-1.541341 J-1.805883
G02 X130.175506 Y87.838101 Z2 I-2.767590 J-2.046714
G02 X130.395160 Y87.249989 Z2 I-4.938212 J-2.179449
G02 X130.460121 Y86.089092 Z2 I-2.305510 J-0.711276
G02 X130.216920 Y84.875084 Z2 I-59.267830 J11.241681
G01 X129.731960 Y84.017445 Z2
G02 X128.979941 Y83.704708 Z2 I-1.276278 J2.008447
G02 X128.000000 Y83.526127 Z2 I-2.621111 J11.605108
G02 X127.168835 Y83.508421 Z2 I-0.490848 J3.524216
G02 X126.375000 Y83.704274 Z2 I0.268584 J2.795342
G02 X125.128087 Y84.696948 Z2 I1.074626 J2.629324
G02 X124.500000 Y86.000000 Z2 I3.600892 J2.538574
G00 Z0.000000

(End cutting path id: path15)


(Start cutting path id: path15)
(Change tool to Default tool)

G00 Z0.000000
G00 X130.000000 Y84.000000

G01 Z2 F100.0(Penetrate)
G02 X130.610246 Y83.065107 Z2 I-19.289211 J-13.257537 F75.000000
G03 X131.755020 Y81.630500 Z2 I6.569031 J4.067841
G03 X132.499583 Y81.124145 Z2 I1.755476 J1.780725
G02 X133.250000 Y80.750000 Z2 I-3.660227 J-8.280867
G00 Z0.000000

(End cutting path id: path15)


(Start cutting path id: path15)
(Change tool to Default tool)

G00 Z0.000000
G00 X134.500000 Y90.500000

G01 Z2 F100.0(Penetrate)
G02 X134.324390 Y86.251890 Z2 I-51.469939 J-0.000000 F75.000000
G02 X133.759450 Y82.000000 Z2 I-43.226607 J3.579955
G02 X133.544232 Y81.336091 Z2 I-2.609361 J0.479032
G03 X133.318480 Y80.750000 Z2 I3.649654 J-1.742309
G03 X133.218724 Y80.176866 Z2 I2.375523 J-0.708717
G02 X133.177950 Y79.750000 Z2 I-5.286105 J0.289545
G03 X133.115146 Y79.225619 Z2 I15.959341 J-2.177354
G02 X133.012630 Y78.625000 Z2 I-4.577519 J0.472254
G02 X132.598584 Y77.191411 Z2 I-15.793679 J3.784913
G02 X132.123070 Y75.875480 Z2 I-33.752915 J11.452787
G01 X131.372680 Y75.071470 Z2
G02 X130.419382 Y75.314723 Z2 I-0.185816 J1.261387
G02 X129.625000 Y76.000480 Z2 I4.774358 J6.333614
G03 X128.061280 Y77.532288 Z2 I-236.544069 J-239.907886
G03 X126.375000 Y79.028840 Z2 I-17.104848 J-17.575041
G03 X125.905874 Y79.374197 Z2 I-4.045252 J-5.003694
G03 X125.375000 Y79.635030 Z2 I-1.243043 J-1.859302
G03 X123.909990 Y79.756677 Z2 I-0.979744 J-2.916715
G02 X122.250000 Y79.625030 Z2 I-1.658988 J10.387310
G03 X121.663607 Y79.616541 Z2 I-0.001440 J-20.157124
G02 X121.125000 Y79.698630 Z2 I-0.044091 J1.518712
G02 X120.254006 Y80.216300 Z2 I0.810663 J2.355534
G03 X119.375000 Y80.956350 Z2 I-9.402240 J-10.275603
G02 X116.625131 Y83.099581 Z2 I301.491098 J389.663415
G03 X113.875000 Y85.235186 Z2 I-202.397096 J-257.798815
G03 X112.395356 Y86.017129 Z2 I-3.034336 J-3.950859
G02 X111.625000 Y87.000000 Z2 I0.350965 J1.068411
G00 Z0.000000

(End cutting path id: path15)


(Start cutting path id: path15)
(Change tool to Default tool)

G00 Z0.000000
G00 X111.125000 Y82.125000

G01 Z2 F100.0(Penetrate)
G01 X111.253470 Y81.200330 Z2 F75.000000
G01 X112.000100 Y80.933930 Z2
G02 X113.021324 Y80.321468 Z2 I-0.544682 J-2.065838
G02 X113.860150 Y79.375000 Z2 I-20.180924 J-18.730675
G02 X114.240338 Y78.650111 Z2 I-1.437062 J-1.215850
G03 X114.616800 Y77.990450 Z2 I1.454970 J0.393085
G03 X115.306227 Y77.528785 Z2 I1.441520 J1.407084
G02 X116.233310 Y76.874420 Z2 I-0.921296 J-2.289174
G02 X116.747162 Y75.883132 Z2 I-1.717517 J-1.519131
G03 X117.159820 Y75.188750 Z2 I1.313319 J0.310673
G03 X117.833754 Y74.808852 Z2 I1.197050 J1.335825
G02 X118.613810 Y74.358310 Z2 I-0.581589 J-1.907503
G02 X119.687422 Y73.153392 Z2 I-6.037851 J-6.460639
G03 X120.875000 Y72.123650 Z2 I2.896165 J2.140408
G03 X121.538454 Y71.961870 Z2 I0.641825 J1.190808
G03 X122.250000 Y71.989390 Z2 I-0.251141 J15.705607
G03 X124.054523 Y72.217863 Z2 I-0.863156 J14.057855
G02 X125.750000 Y72.132140 Z2 I0.673404 J-3.490960
G02 X126.611299 Y71.631584 Z2 I-0.615381 J-2.050166
G02 X127.370080 Y70.875000 Z2 I-16.323381 J-17.129565
G03 X128.342338 Y69.945212 Z2 I11.161141 J10.697715
G03 X128.875000 Y69.500000 Z2 I9.800030 J11.183745
G03 X129.246957 Y69.808089 Z2 I-39.034640 J47.505257
G03 X129.670520 Y70.255110 Z2 I-1.695536 J2.030739
G03 X130.643634 Y71.929224 Z2 I-6.742958 J5.039365
G03 X131.234570 Y73.750000 Z2 I-9.018198 J3.933154
G03 X131.338387 Y74.386848 Z2 I-5.753663 J1.264830
G03 X131.375000 Y74.875000 Z2 I-7.620989 J0.817049
G00 Z0.000000

(End cutting path id: path15)


(Start cutting path id: path15)
(Change tool to Default tool)

G00 Z0.000000
G00 X127.000000 Y66.750000

G01 Z2 F100.0(Penetrate)
G03 X126.405187 Y65.560891 Z2 I9.647897 J-5.569369 F75.000000
G02 X125.500000 Y64.625000 Z2 I-1.678615 J0.717854
G00 Z0.000000

(End cutting path id: path15)


(Start cutting path id: path15)
(Change tool to Default tool)

G00 Z0.000000
G00 X123.625000 Y62.250000

G01 Z2 F100.0(Penetrate)
G02 X122.506124 Y60.302392 Z2 I-3.055108 J0.459926 F75.000000
G02 X121.000000 Y59.375000 Z2 I-4.431325 J5.509962
G00 Z0.000000

(End cutting path id: path15)


(Start cutting path id: path15)
(Change tool to Default tool)

G00 Z0.000000
G00 X120.375000 Y62.999920

G01 Z2 F100.0(Penetrate)
G02 X120.182774 Y62.207453 Z2 I-7.747697 J1.459784 F75.000000
G03 X120.071080 Y60.749920 Z2 I3.310011 J-0.986699
G03 X120.480315 Y59.699866 Z2 I2.398738 J0.330083
G02 X120.554690 Y58.629840 Z2 I-0.861256 J-0.597461
G02 X119.240353 Y57.083685 Z2 I-3.860209 J1.949723
G02 X117.250000 Y55.798730 Z2 I-12.422184 J17.057590
G02 X116.714768 Y55.601608 Z2 I-0.862237 J1.515971
G03 X116.224920 Y55.376370 Z2 I0.210605 J-1.103305
G03 X115.729060 Y54.870487 Z2 I1.814611 J-2.274617
G02 X115.124900 Y54.293420 Z2 I-2.149085 J1.645188
G02 X111.031770 Y51.853253 Z2 I-19.468658 J28.003684
G02 X106.625000 Y50.000310 Z2 I-15.485020 J30.660647
G02 X105.445269 Y49.606525 Z2 I-32.190812 J94.475509
G02 X104.375000 Y49.344250 Z2 I-2.266119 J6.932524
G01 X103.391590 Y49.325850 Z2
G01 X102.668980 Y50.249850 Z2
G03 X101.993220 Y51.004915 Z2 I-3.678282 J-2.612026
G03 X101.000000 Y51.805700 Z2 I-8.548824 J-9.586829
G01 X99.503472 Y52.659670 Z2
G02 X99.349558 Y53.298710 Z2 I0.876375 J0.549131
G03 X99.316936 Y53.999950 Z2 I-2.626418 J0.229196
G03 X97.896921 Y56.216531 Z2 I-3.408130 J-0.620215
G02 X95.625000 Y57.976900 Z2 I17.215934 J24.565026
G03 X94.856219 Y58.470101 Z2 I-2.176712 J-2.547195
G03 X94.375096 Y58.659960 Z2 I-1.880631 J-4.061179
G03 X94.152519 Y58.722071 Z2 I-0.783368 J-2.377368
G02 X93.679205 Y58.965900 Z2 I0.241315 J1.049740
G02 X93.331549 Y59.821819 Z2 I0.690938 J0.779209
G03 X93.375000 Y61.000000 Z2 I-15.951641 J1.178181
G02 X93.382196 Y63.488712 Z2 I430.387934 J-0.000000
G03 X93.374518 Y66.000000 Z2 I-142.045835 J0.821392
G03 X93.302223 Y66.869862 Z2 I-6.160742 J-0.074089
G02 X93.253665 Y67.500000 Z2 I4.064369 J0.630138
G02 X93.293694 Y68.058414 Z2 I3.914998 J-0.000000
G03 X93.366223 Y68.625000 Z2 I-17.886653 J2.577609
G01 X94.125000 Y69.625000 Z2
G00 Z0.000000

(End cutting path id: path15)


(Start cutting path id: path15)
(Change tool to Default tool)

G00 Z0.000000
G00 X92.750000 Y78.625000

G01 Z2 F100.0(Penetrate)
G01 X92.750000 Y77.375000 Z2 F75.000000
G01 X92.750000 Y72.625000 Z2
G00 Z0.000000

(End cutting path id: path15)


(Start cutting path id: path15)
(Change tool to Default tool)

G00 Z0.000000
G00 X91.500000 Y78.750000

G01 Z2 F100.0(Penetrate)
G01 X91.625000 Y78.750000 Z2 F75.000000
G00 Z0.000000

(End cutting path id: path15)


(Start cutting path id: path15)
(Change tool to Default tool)

G00 Z0.000000
G00 X95.625000 Y82.875000

G01 Z2 F100.0(Penetrate)
G03 X98.763463 Y82.932799 Z2 I0.000000 J85.237246 F75.000000
G02 X101.500000 Y82.999520 Z2 I4.047247 J-109.844283
G02 X102.043398 Y83.001263 Z2 I0.371420 J-31.097175
G03 X102.500000 Y83.000000 Z2 I0.456602 J82.567678
G00 Z0.000000

(End cutting path id: path15)


(Start cutting path id: path15)
(Change tool to Default tool)

G00 Z0.000000
G00 X102.750000 Y82.625000

G01 Z2 F100.0(Penetrate)
G01 X103.875000 Y82.625000 Z2 F75.000000
G02 X106.010953 Y82.524040 Z2 I-0.000000 J-22.645132
G03 X108.500000 Y82.625000 Z2 I0.872880 J9.212919
G00 Z0.000000

(End cutting path id: path15)


(Start cutting path id: path15)
(Change tool to Default tool)

G00 Z0.000000
G00 X102.750000 Y87.625010

G01 Z2 F100.0(Penetrate)
G01 X103.875000 Y87.625010 Z2 F75.000000
G01 X105.375000 Y87.625010 Z2
G01 X108.875000 Y87.750010 Z2
G00 Z0.000000

(End cutting path id: path15)


(Start cutting path id: path15)
(Change tool to Default tool)

G00 Z0.000000
G00 X102.625000 Y87.875000

G01 Z2 F100.0(Penetrate)
G02 X102.647184 Y86.445856 Z2 I-19.355596 J-1.015196 F75.000000
G03 X102.625000 Y84.375000 Z2 I97.239570 J-2.077233
G02 X102.619061 Y83.612725 Z2 I-49.356587 J0.003374
G03 X102.628000 Y82.750000 Z2 I16.672382 J-0.258663
G02 X102.633888 Y81.959058 Z2 I-13.745886 J-0.497822
G03 X102.625000 Y81.125000 Z2 I39.129859 J-0.834058
G03 X102.648377 Y79.957414 Z2 I29.169609 J0.000000
G02 X102.392750 Y79.164250 Z2 I-1.208163 J-0.048399
G01 X101.375000 Y78.771320 Z2
G02 X100.471884 Y78.737259 Z2 I-0.717479 J7.033751
G03 X99.500000 Y78.750020 Z2 I-0.971884 J-37.002878
G01 X98.125000 Y78.731120 Z2
G02 X97.498155 Y78.743743 Z2 I0.000000 J15.570157
G03 X97.250000 Y78.749620 Z2 I-0.301143 J-7.473996
G03 X96.033963 Y78.752652 Z2 I-0.925428 J-127.297181
G02 X94.000000 Y78.750010 Z2 I-2.359660 J1033.644937
G03 X93.356597 Y78.739567 Z2 I0.006559 J-20.229869
G02 X92.625000 Y78.732610 Z2 I-0.519519 J16.161520
G02 X91.845339 Y78.747080 Z2 I0.934041 J71.340006
G03 X91.625000 Y78.750010 Z2 I-0.246781 J-10.271217
G00 Z0.000000

(End cutting path id: path15)


(Start cutting path id: path15)
(Change tool to Default tool)

G00 Z0.000000
G00 X98.125000 Y78.625000

G01 Z2 F100.0(Penetrate)
G01 X98.125000 Y77.500000 Z2 F75.000000
G01 X98.125000 Y76.000000 Z2
G01 X98.125000 Y72.500000 Z2
G00 Z0.000000

(End cutting path id: path15)


(Start cutting path id: path15)
(Change tool to Default tool)

G00 Z0.000000
G00 X98.125000 Y80.125000

G01 Z2 F100.0(Penetrate)
G01 X98.000000 Y78.750000 Z2 F75.000000
G00 Z0.000000

(End cutting path id: path15)


(Start cutting path id: path15)
(Change tool to Default tool)

G00 Z0.000000
G00 X98.000000 Y85.625000

G01 Z2 F100.0(Penetrate)
G01 X98.250000 Y85.625000 Z2 F75.000000
G00 Z0.000000

(End cutting path id: path15)


(Start cutting path id: path15)
(Change tool to Default tool)

G00 Z0.000000
G00 X102.625000 Y90.500000

G01 Z2 F100.0(Penetrate)
G01 X102.624420 Y89.000000 Z2 F75.000000
G01 X102.335260 Y88.128471 Z2
G01 X101.000000 Y88.000000 Z2
G01 X96.000000 Y88.000000 Z2
G01 X94.125000 Y88.000000 Z2
G01 X92.875000 Y88.000000 Z2
G00 Z0.000000

(End cutting path id: path15)


(Start cutting path id: path15)
(Change tool to Default tool)

G00 Z0.000000
G00 X92.750000 Y90.500000

G01 Z2 F100.0(Penetrate)
G01 X92.750000 Y89.125000 Z2 F75.000000
G01 X92.768900 Y88.000000 Z2
G01 X92.750000 Y86.500000 Z2
G01 X92.625000 Y81.125000 Z2
G00 Z0.000000

(End cutting path id: path15)


(Start cutting path id: path15)
(Change tool to Default tool)

G00 Z0.000000
G00 X114.500000 Y77.875000

G01 Z2 F100.0(Penetrate)
G03 X113.977405 Y76.711023 Z2 I2.723498 J-1.922083 F75.000000
G03 X113.748650 Y75.000000 Z2 I8.721180 J-2.036780
G02 X113.606454 Y72.848922 Z2 I-36.329996 J1.321336
G03 X113.500000 Y70.625000 Z2 I23.176633 J-2.223922
G02 X113.489937 Y69.995953 Z2 I-19.665778 J0.000000
G03 X113.543000 Y69.375000 Z2 I2.662611 J-0.085212
G03 X113.954143 Y68.619154 Z2 I1.446500 J0.297082
G03 X114.624980 Y68.010030 Z2 I7.990768 J8.126376
G02 X116.827824 Y66.140808 Z2 I-149.893448 J-178.879294
G02 X118.999980 Y64.243730 Z2 I-116.590478 J-135.688310
G02 X119.780801 Y63.514464 Z2 I-14.010979 J-15.784113
G03 X120.499980 Y63.080250 Z2 I1.272817 J1.295452
G03 X121.159654 Y63.052247 Z2 I0.380952 J1.190116
G02 X121.999980 Y63.103150 Z2 I0.573542 J-2.506588
G02 X122.632532 Y62.951257 Z2 I-0.256737 J-2.462236
G02 X123.124980 Y62.705390 Z2 I-1.035347 J-2.689795
G01 X123.874980 Y62.390090 Z2
G03 X124.525595 Y62.668305 Z2 I-0.073031 J1.070637
G03 X125.043860 Y63.375050 Z2 I-1.502226 J1.644999
G01 X125.258950 Y64.367620 Z2
G01 X124.004900 Y65.057050 Z2
G02 X123.221075 Y65.879524 Z2 I0.828246 J1.574059
G02 X123.043480 Y66.874950 Z2 I1.784338 J0.831900
G02 X123.200428 Y67.406294 Z2 I1.362758 J-0.113680
G02 X123.527950 Y67.846880 Z2 I1.640843 J-0.877737
G02 X125.076957 Y68.389317 Z2 I1.340782 J-1.345872
G02 X126.310740 Y67.613280 Z2 I-0.183023 J-1.659765
G01 X127.126810 Y66.902830 Z2
G03 X127.680400 Y67.101251 Z2 I-0.067152 J1.058818
G03 X128.094500 Y67.513450 Z2 I-1.085561 J1.504670
G03 X128.645290 Y68.754527 Z2 I-2.609194 J1.900718
G03 X128.749980 Y69.374950 Z2 I-7.974555 J1.664674
G00 Z0.000000

(End cutting path id: path15)


(Start cutting path id: path15)
(Change tool to Default tool)

G00 Z0.000000
G00 X117.000000 Y75.125000

G01 Z2 F100.0(Penetrate)
G03 X116.753291 Y74.677794 Z2 I2.260479 J-1.538687 F75.000000
G03 X116.500480 Y73.500000 Z2 I2.791343 J-1.215185
G02 X116.357030 Y71.717469 Z2 I-13.160430 J0.162052
G03 X116.642460 Y70.125480 Z2 I2.499645 J-0.373417
G03 X117.140451 Y69.523723 Z2 I1.828662 J1.006392
G02 X117.750000 Y68.988810 Z2 I-8.910252 J-10.768256
G02 X118.718202 Y68.052853 Z2 I-23.913853 J-25.706459
G03 X119.750000 Y67.251060 Z2 I3.654703 J3.638317
G03 X120.576639 Y66.963313 Z2 I1.128247 J1.909965
G03 X121.500000 Y66.879920 Z2 I1.361311 J9.919418
G03 X122.218469 Y66.869806 Z2 I0.529710 J12.104512
G02 X122.875000 Y66.874920 Z2 I0.656531 J-42.136308
G00 Z0.000000

(End cutting path id: path15)


(Start cutting path id: path15)
(Change tool to Default tool)

G00 Z0.000000
G00 X116.125000 Y55.500000

G01 Z2 F100.0(Penetrate)
G03 X114.937123 Y57.139427 Z2 I-34.150824 J-23.494541 F75.000000
G03 X112.125000 Y59.217010 Z2 I-4.977422 J-3.795242
G03 X111.457115 Y59.355124 Z2 I-0.792986 J-2.150770
G03 X110.750000 Y59.375000 Z2 I-0.728494 J-13.328732
G03 X107.479376 Y59.185045 Z2 I-0.043635 J-27.500226
G02 X104.375000 Y59.438800 Z2 I-0.923617 J7.816646
G02 X103.700044 Y59.781268 Z2 I0.558488 J1.937055
G02 X103.125000 Y60.259880 Z2 I6.404152 J8.279237
G03 X102.128701 Y61.148866 Z2 I-335.928681 J-375.477258
G03 X101.125000 Y62.035630 Z2 I-123.932884 J-139.264392
G03 X99.867883 Y63.072379 Z2 I-17.671478 J-20.147136
G02 X98.929205 Y64.250040 Z2 I1.951216 J2.518181
G02 X98.723230 Y65.292914 Z2 I2.033842 J0.943477
G03 X98.750000 Y66.500000 Z2 I-27.200481 J1.207086
G03 X98.749490 Y67.531030 Z2 I-1042.709618 J0.000685
G02 X98.750000 Y68.500000 Z2 I319.821090 J0.316170
G01 X99.625000 Y69.625000 Z2
G00 Z0.000000

(End cutting path id: path15)


(Start cutting path id: path15)
(Change tool to Default tool)

G00 Z0.000000
G00 X93.375000 Y58.750000

G01 Z2 F100.0(Penetrate)
G01 X93.375000 Y57.500000 Z2 F75.000000
G01 X93.375000 Y53.250000 Z2
G01 X92.981482 Y51.730420 Z2
G02 X92.491531 Y51.500925 Z2 I-0.825986 J1.125655
G03 X92.375579 Y51.470580 Z2 I1.118807 J-4.511876
G02 X91.937512 Y51.394133 Z2 I-0.615134 J2.231576
G02 X91.625000 Y51.374980 Z2 I-0.779817 J10.164695
G00 Z0.000000

(End cutting path id: path15)


(Start cutting path id: path15)
(Change tool to Default tool)

G00 Z0.000000
G00 X93.125000 Y51.624980

G01 Z2 F100.0(Penetrate)
G01 X93.391397 Y51.229920 Z2 F75.000000
G02 X93.547709 Y49.517597 Z2 I-3.116806 J-1.147818
G03 X93.374997 Y47.499980 Z2 I11.698546 J-2.017617
G03 X96.407717 Y47.665697 Z2 I0.000000 J27.833072
G03 X99.624997 Y48.149570 Z2 I-4.421238 J40.334744
G02 X101.036400 Y48.397469 Z2 I8.687423 J-45.319583
G03 X102.249807 Y48.691440 Z2 I-1.241774 J7.776849
G03 X102.847496 Y49.017351 Z2 I-0.585654 J1.785041
G03 X103.124997 Y49.249980 Z2 I-7.016018 J8.651158
G00 Z0.000000

(End cutting path id: path15)


(Start cutting path id: path15)
(Change tool to Default tool)

G00 Z0.000000
G00 X99.375000 Y52.499980

G01 Z2 F100.0(Penetrate)
G03 X99.101701 Y51.798575 Z2 I1.811920 J-1.109952 F75.000000
G02 X98.750000 Y50.249980 Z2 I-26.110353 J5.115685
G00 Z0.000000

(End cutting path id: path15)


(Start cutting path id: path15)
(Change tool to Default tool)

G00 Z0.000000
G00 X91.624997 Y46.499980

G01 Z2 F100.0(Penetrate)
G02 X91.963787 Y46.830919 Z2 I28.830564 J-29.175648 F75.000000
G02 X93.249997 Y47.374980 Z2 I1.349209 J-1.397265
G00 Z0.000000

(End cutting path id: path15)


(Start cutting path id: path15)
(Change tool to Default tool)

G00 Z0.000000
G00 X91.500000 Y46.500000

G01 Z2 F100.0(Penetrate)
G01 X91.625000 Y46.500000 Z2 F75.000000
G00 Z0.000000

(End cutting path id: path15)


(Footer)
M5
M2
(Using default footer. To add your own footer create file "footer" in the output dir.)
(end)
%