%
(Header)
(Generated by gcodetools from Inkscape.)
(Using default header. To add your own header create file "header" in the output dir.)
M3
(Header end.)
G21 (All units in mm)

(Start cutting path id: path13)
(Change tool to Default tool)

G00 Z0.000000
G00 X46.375000 Y110.300000

G01 Z2 F100.0(Penetrate)
G01 X46.375000 Y106.425000 Z2 F75
G00 Z0.000000

(End cutting path id: path13)


(Start cutting path id: path13)
(Change tool to Default tool)

G00 Z0.000000
G00 X16.125000 Y109.550000

G01 Z2 F100.0(Penetrate)
G01 X15.731482 Y107.810708 Z2 F75
G02 X15.074946 Y107.481667 Z2 I-1.505178 J2.183767
G03 X14.250000 Y107.025113 Z2 I0.843595 J-2.497863
G02 X13.599151 Y106.495228 Z2 I-136.464639 J166.952492
G02 X12.875000 Y106.117902 Z2 I-1.287986 J1.588314
G02 X11.027869 Y105.891398 Z2 I-1.637457 J5.708506
G03 X9.125000 Y105.925000 Z2 I-1.902869 J-53.862500
G03 X6.106744 Y105.874960 Z2 I-0.000000 J-91.051430
G02 X3.125000 Y106.175000 Z2 I-0.373329 J11.255976
G00 Z0.000000

(End cutting path id: path13)


(Start cutting path id: path13)
(Change tool to Default tool)

G00 Z0.000000
G00 X16.125000 Y107.675000

G01 Z2 F100.0(Penetrate)
G02 X16.208841 Y107.091596 Z2 I-7.098535 J-1.317852 F75
G02 X16.250000 Y106.300000 Z2 I-7.896052 J-0.807427
G03 X16.289700 Y104.951201 Z2 I24.592373 J0.048867
G03 X16.396219 Y103.550000 Z2 I36.903701 J2.100750
G03 X16.606253 Y101.483248 Z2 I161.588091 J15.377354
G03 X16.839314 Y99.425000 Z2 I202.859659 J21.928046
G02 X16.871436 Y98.786608 Z2 I-4.702048 J-0.556598
G03 X16.932004 Y98.175000 Z2 I2.655049 J-0.045872
G03 X17.092718 Y97.564970 Z2 I7.170683 J1.562950
G02 X17.224924 Y97.050000 Z2 I-5.153260 J-1.597429
G02 X17.378726 Y96.270090 Z2 I-53.340602 J-10.924125
G02 X17.506270 Y95.425000 Z2 I-11.165034 J-2.117240
G02 X17.574251 Y94.623137 Z2 I-14.483230 J-1.631681
G03 X17.687308 Y93.925000 Z2 I3.414455 J0.194718
G03 X17.950492 Y93.147059 Z2 I6.387938 J1.727601
G02 X18.266204 Y92.175000 Z2 I-6.373865 J-2.607449
G03 X19.099966 Y89.321290 Z2 I32.467656 J7.937354
G02 X19.766204 Y86.550000 Z2 I-14.553023 J-4.964378
G03 X19.866255 Y85.962611 Z2 I11.515358 J1.659226
G02 X19.852144 Y85.438600 Z2 I-1.171893 J-0.230637
G01 X19.370760 Y84.950660 Z2
G03 X18.838048 Y84.639153 Z2 I1.822859 J-3.728550
G03 X18.125004 Y84.049520 Z2 I3.008262 J-4.363852
G03 X17.195647 Y83.098832 Z2 I25.367763 J-25.728174
G02 X16.125004 Y82.390470 Z2 I-2.043642 J1.925546
G02 X15.455751 Y82.233267 Z2 I-0.969742 J2.625248
G02 X14.750004 Y82.179920 Z2 I-1.182736 J10.951831
G02 X14.224447 Y82.161541 Z2 I-1.371587 J31.698125
G02 X13.768522 Y82.250420 Z2 I-0.028481 J1.067724
G01 X13.368735 Y82.925480 Z2
G01 X13.070799 Y83.599580 Z2
G01 X12.250004 Y83.798940 Z2
G01 X11.325428 Y83.582220 Z2
G01 X11.125004 Y82.550000 Z2
G02 X11.014047 Y81.468465 Z2 I-5.460994 J0.013798
G03 X11.320605 Y80.500420 Z2 I1.021387 J-0.209112
G01 X12.000100 Y80.302510 Z2
G01 X12.960266 Y80.500420 Z2
G03 X13.341773 Y81.321448 Z2 I-0.690548 J0.820029
G02 X13.375004 Y82.175000 Z2 I10.721854 J0.009997
G00 Z0.000000

(End cutting path id: path13)


(Start cutting path id: path13)
(Change tool to Default tool)

G00 Z0.000000
G00 X11.875000 Y98.050000

G01 Z2 F100.0(Penetrate)
G03 X11.318777 Y96.730024 Z2 I87.741402 J-37.750417 F75
G02 X9.875000 Y95.260550 Z2 I-2.533664 J1.045357
G02 X8.717149 Y95.008202 Z2 I-1.219919 J2.814902
G02 X7.500000 Y95.205850 Z2 I-0.069212 J3.420308
G02 X5.351172 Y97.997091 Z2 I1.090999 J3.062657
G02 X7.125000 Y101.120200 Z2 I3.168876 J0.265472
G02 X9.445074 Y101.359071 Z2 I1.485660 J-3.043230
G02 X11.373940 Y99.924990 Z2 I-0.778171 J-3.060876
G01 X12.039641 Y98.178460 Z2
G01 X13.000000 Y98.049990 Z2
G03 X13.585659 Y98.055090 Z2 I0.056076 J27.191351
G02 X14.250000 Y98.038790 Z2 I0.147098 J-7.551280
G02 X15.792803 Y97.877456 Z2 I-1.479565 J-21.606154
G03 X16.875000 Y98.049990 Z2 I0.260346 J1.847250
G00 Z0.000000

(End cutting path id: path13)


(Start cutting path id: path13)
(Change tool to Default tool)

G00 Z0.000000
G00 X1.500000 Y93.925000

G01 Z2 F100.0(Penetrate)
G03 X1.706555 Y93.923414 Z2 I0.336008 J30.317529 F75
G02 X2.625000 Y93.714550 Z2 I-0.009241 J-2.164421
G02 X4.127547 Y92.872762 Z2 I-5.455327 J-11.499353
G02 X5.611401 Y91.794980 Z2 I-10.069266 J-15.423369
G02 X6.030527 Y90.929420 Z2 I-0.705304 J-0.875782
G03 X6.200425 Y90.214740 Z2 I1.651253 J0.015011
G01 X7.250000 Y89.923070 Z2
G02 X7.977353 Y89.769869 Z2 I-0.070525 J-2.138063
G03 X8.625000 Y89.648480 Z2 I0.628028 J1.562328
G03 X9.506348 Y89.719716 Z2 I-0.069819 J6.351574
G02 X10.500000 Y89.800480 Z2 I1.079389 J-7.126959
G03 X11.282093 Y89.857462 Z2 I-0.080011 J6.493935
G03 X12.000000 Y90.047490 Z2 I-0.393395 J2.937304
G03 X13.364974 Y90.884097 Z2 I-1.821598 J4.503867
G02 X14.625000 Y91.910530 Z2 I16.768066 J-19.297493
G03 X15.492762 Y92.615807 Z2 I-11.063550 J14.498911
G02 X16.375000 Y93.257180 Z2 I4.226166 J-4.885816
G02 X17.066209 Y93.553953 Z2 I1.409903 J-2.330453
G03 X17.500000 Y93.675000 Z2 I-11.652320 J42.595707
G00 Z0.000000

(End cutting path id: path13)


(Start cutting path id: path13)
(Change tool to Default tool)

G00 Z0.000000
G00 X2.125000 Y90.050000

G01 Z2 F100.0(Penetrate)
G02 X3.234910 Y89.994513 Z2 I-0.109254 J-13.313884 F75
G03 X4.750000 Y89.925000 Z2 I1.515090 J16.476595
G01 X6.000000 Y89.925000 Z2
G00 Z0.000000

(End cutting path id: path13)


(Start cutting path id: path13)
(Change tool to Default tool)

G00 Z0.000000
G00 X8.375000 Y89.550000

G01 Z2 F100.0(Penetrate)
G02 X8.194230 Y88.909357 Z2 I-7.651620 J1.813231 F75
G02 X7.715663 Y88.103530 Z2 I-2.053403 J0.674460
G02 X6.743115 Y87.252583 Z2 I-4.835050 J4.544745
G03 X5.909819 Y86.300000 Z2 I1.610149 J-2.249286
G03 X5.622167 Y85.128356 Z2 I2.178085 J-1.155878
G02 X5.625000 Y84.175000 Z2 I-139.296844 J-0.890671
G03 X5.634167 Y83.674121 Z2 I13.359288 J-0.006017
G02 X5.549576 Y83.181750 Z2 I-1.213433 J-0.044979
G02 X5.060515 Y82.643403 Z2 I-0.959392 J0.380243
G03 X4.486208 Y82.151470 Z2 I0.739798 J-1.444880
G03 X4.190034 Y80.744033 Z2 I1.427736 J-1.035326
G03 X5.126833 Y79.642780 Z2 I1.495051 J0.322711
G03 X6.677782 Y79.942732 Z2 I0.538715 J1.374177
G03 X7.243152 Y81.300000 Z2 I-1.235300 J1.310952
G03 X6.750113 Y82.316714 Z2 I-1.367347 J-0.035171
G03 X5.750000 Y82.800000 Z2 I-1.473471 J-1.772740
G00 Z0.000000

(End cutting path id: path13)


(Start cutting path id: path13)
(Change tool to Default tool)

G00 Z0.000000
G00 X20.125000 Y85.050000

G01 Z2 F100.0(Penetrate)
G02 X20.313384 Y84.846624 Z2 I-1.182783 J-1.284528 F75
G02 X20.623264 Y84.299420 Z2 I-1.626260 J-1.282291
G02 X20.939208 Y83.449716 Z2 I-61.671559 J-23.414804
G03 X21.274017 Y82.550000 Z2 I63.219976 J23.013753
G03 X22.318896 Y80.141070 Z2 I26.758652 J10.175552
G02 X23.212481 Y77.800000 Z2 I-12.451158 J-6.093675
G02 X23.313908 Y77.226653 Z2 I-2.834497 J-0.797076
G03 X23.448496 Y76.721870 Z2 I1.419654 J0.108183
G03 X23.834761 Y76.167670 Z2 I1.871643 J0.892783
G02 X24.482542 Y75.300000 Z2 I-2.968868 J-2.892128
G03 X25.191103 Y74.094520 Z2 I28.938604 J16.198645
G02 X25.711998 Y72.925000 Z2 I-4.095181 J-2.524723
G02 X25.802484 Y72.456232 Z2 I-2.417728 J-0.709811
G03 X25.945505 Y71.973710 Z2 I1.310312 J0.125923
G03 X26.373380 Y71.516482 Z2 I1.034350 J0.539130
G02 X26.776814 Y71.161880 Z2 I-0.805283 J-1.322974
G02 X27.330233 Y70.344520 Z2 I-4.804076 J-3.848783
G03 X27.881655 Y69.425000 Z2 I18.463413 J10.447127
G03 X28.419078 Y68.603853 Z2 I29.471411 J18.701952
G02 X28.816551 Y67.800000 Z2 I-2.774447 J-1.872047
G02 X28.953649 Y67.345384 Z2 I-7.045663 J-2.372738
G03 X29.287809 Y66.821220 Z2 I0.994961 J0.265700
G02 X30.133491 Y65.828476 Z2 I-2.493813 J-2.980960
G02 X30.250000 Y65.550000 Z2 I-0.924449 J-0.550384
G00 Z0.000000

(End cutting path id: path13)


(Start cutting path id: path13)
(Change tool to Default tool)

G00 Z0.000000
G00 X23.375000 Y76.550000

G01 Z2 F100.0(Penetrate)
G02 X23.076748 Y76.334907 Z2 I-2.537106 J3.203660 F75
G03 X22.250000 Y75.740680 Z2 I6.427307 J-9.814564
G03 X21.550210 Y75.182017 Z2 I38.855454 J-49.388614
G02 X20.750000 Y74.826720 Z2 I-1.059961 J1.308495
G02 X18.024752 Y75.020817 Z2 I-0.940497 J6.023982
G03 X15.125000 Y75.538330 Z2 I-3.587365 J-11.718120
G03 X14.413321 Y75.467012 Z2 I-0.129097 J-2.298305
G03 X13.750000 Y75.142010 Z2 I0.471146 J-1.801011
G03 X12.480019 Y74.089754 Z2 I13.722208 J-17.854006
G03 X11.301988 Y72.889310 Z2 I8.454009 J-9.474410
G03 X11.011405 Y72.434605 Z2 I1.455793 J-1.250537
G03 X10.923708 Y71.925000 Z2 I0.925013 J-0.421533
G03 X11.383522 Y70.711395 Z2 I2.377079 J0.206724
G02 X11.887635 Y69.300000 Z2 I-2.074165 J-1.536562
G02 X11.564795 Y67.625977 Z2 I-3.596256 J-0.174594
G02 X10.624904 Y66.372050 Z2 I-3.359282 J1.538761
G03 X10.068686 Y65.887498 Z2 I87.757778 J-101.298713
G02 X9.500000 Y65.589740 Z2 I-0.900556 J1.028023
G02 X8.570850 Y65.488324 Z2 I-0.833378 J3.328175
G02 X7.879919 Y65.625340 Z2 I0.058848 J2.107337
G02 X7.201162 Y66.041429 Z2 I0.764195 J2.008281
G02 X6.100502 Y67.300000 Z2 I4.851875 J5.353686
G02 X5.732361 Y68.149048 Z2 I1.982672 J1.364006
G02 X5.634838 Y69.050000 Z2 I4.112897 J0.900952
G02 X6.162001 Y70.854031 Z2 I3.350415 J-0.000000
G02 X7.625000 Y71.991460 Z2 I2.332346 J-1.490346
G02 X8.191471 Y72.125536 Z2 I1.051263 J-3.177883
G02 X8.750000 Y72.173170 Z2 I0.673993 J-4.604531
G02 X9.814476 Y72.124537 Z2 I0.187800 J-7.563373
G03 X10.750000 Y72.050000 Z2 I1.484752 J12.727084
G00 Z0.000000

(End cutting path id: path13)


(Start cutting path id: path13)
(Change tool to Default tool)

G00 Z0.000000
G00 X25.875000 Y71.800000

G01 Z2 F100.0(Penetrate)
G02 X25.589642 Y71.594635 Z2 I-5.128199 J6.824767 F75
G03 X25.095293 Y71.148670 Z2 I1.448223 J-2.102319
G03 X24.387630 Y69.593757 Z2 I2.360740 J-2.012897
G03 X24.659336 Y67.800000 Z2 I3.050753 J-0.455349
G03 X25.517323 Y66.791822 Z2 I2.352762 J1.133092
G03 X26.249905 Y66.340030 Z2 I4.337824 J6.213948
G02 X26.932206 Y65.792741 Z2 I-1.160854 J-2.146181
G02 X27.125000 Y65.550000 Z2 I-2.702601 J-2.344442
G00 Z0.000000

(End cutting path id: path13)


(Start cutting path id: path13)
(Change tool to Default tool)

G00 Z0.000000
G00 X29.000000 Y66.925000

G01 Z2 F100.0(Penetrate)
G01 X27.125000 Y65.800000 Z2 F75
G00 Z0.000000

(End cutting path id: path13)


(Footer)
M5
G00 X0.0000 Y0.0000
M2
(Using default footer. To add your own footer create file "footer" in the output dir.)
(end)
%